P3
400 225
255
163 200 255
163 200 255
163 200 255
163 200 255
163 200 255
163 200 255
163 200 255
163 200 255
163 200 255
163 200 255
163 200 255
162 200 255
162 200 255
162 200 255
162 199 255
162 199 255
162 199 255
162 199 255
162 199 255
162 199 255
162 199 255
161 199 255
161 199 255
161 199 255
161 199 255
161 199 255
161 199 255
161 199 255
161 199 255
161 199 255
161 199 255
161 199 255
160 198 255
160 198 255
160 198 255
160 198 255
160 198 255
160 198 255
160 198 255
160 198 255
160 198 255
160 198 255
159 198 255
159 198 255
159 198 255
159 198 255
159 198 255
159 198 255
159 198 255
159 197 255
159 197 255
159 197 255
158 197 255
158 197 255
158 197 255
158 197 255
158 197 255
158 197 255
158 197 255
158 197 255
158 197 255
157 197 255
157 197 255
157 197 255
157 196 255
157 196 255
157 196 255
157 196 255
157 196 255
157 196 255
156 196 255
156 196 255
156 196 255
156 196 255
156 196 255
156 196 255
156 196 255
156 196 255
156 196 255
156 196 255
155 195 255
155 195 255
155 195 255
155 195 255
155 195 255
155 195 255
155 195 255
155 195 255
155 195 255
154 195 255
154 195 255
154 195 255
154 195 255
154 195 255
154 195 255
154 194 255
154 194 255
154 194 255
153 194 255
153 194 255
153 194 255
153 194 255
153 194 255
153 194 255
153 194 255
153 194 255
153 194 255
152 194 255
152 194 255
152 194 255
152 193 255
152 193 255
152 193 255
152 193 255
152 193 255
152 193 255
152 193 255
151 193 255
151 193 255
151 193 255
151 193 255
151 193 255
151 193 255
151 193 255
151 193 255
151 193 255
151 193 255
150 192 255
150 192 255
150 192 255
150 192 255
150 192 255
150 192 255
150 192 255
150 192 255
150 192 255
150 192 255
149 192 255
149 192 255
149 192 255
149 192 255
149 192 255
149 192 255
149 192 255
149 192 255
149 191 255
149 191 255
149 191 255
149 191 255
148 191 255
148 191 255
148 191 255
148 191 255
148 191 255
148 191 255
148 191 255
148 191 255
148 191 255
148 191 255
148 191 255
148 191 255
148 191 255
148 191 255
147 191 255
147 191 255
147 191 255
147 191 255
147 191 255
147 191 255
147 190 255
147 190 255
147 190 255
147 190 255
147 190 255
147 190 255
147 190 255
147 190 255
147 190 255
147 190 255
147 190 255
147 190 255
147 190 255
147 190 255
147 190 255
147 190 255
147 190 255
147 190 255
146 190 255
146 190 255
146 190 255
146 190 255
146 190 255
146 190 255
146 190 255
146 190 255
146 190 255
146 190 255
146 190 255
146 190 255
146 190 255
146 190 255
146 190 255
146 190 255
146 190 255
146 190 255
146 190 255
146 190 255
146 190 255
146 190 255
146 190 255
146 190 255
146 190 255
146 190 255
147 190 255
147 190 255
147 190 255
147 190 255
147 190 255
147 190 255
147 190 255
147 190 255
147 190 255
147 190 255
147 190 255
147 190 255
147 190 255
147 190 255
147 190 255
147 190 255
147 190 255
147 190 255
147 191 255
147 191 255
147 191 255
147 191 255
147 191 255
147 191 255
148 191 255
148 191 255
148 191 255
148 191 255
148 191 255
148 191 255
148 191 255
148 191 255
148 191 255
148 191 255
148 191 255
148 191 255
148 191 255
148 191 255
149 191 255
149 191 255
149 191 255
149 191 255
149 192 255
149 192 255
149 192 255
149 192 255
149 192 255
149 192 255
149 192 255
149 192 255
150 192 255
150 192 255
150 192 255
150 192 255
150 192 255
150 192 255
150 192 255
150 192 255
150 192 255
150 192 255
151 193 255
151 193 255
151 193 255
151 193 255
151 193 255
151 193 255
151 193 255
151 193 255
151 193 255
151 193 255
152 193 255
152 193 255
152 193 255
152 193 255
152 193 255
152 193 255
152 194 255
152 194 255
152 194 255
152 194 255
153 194 255
153 194 255
153 194 255
153 194 255
153 194 255
153 194 255
153 194 255
153 194 255
153 194 255
154 194 255
154 194 255
154 194 255
154 195 255
154 195 255
154 195 255
154 195 255
154 195 255
154 195 255
155 195 255
155 195 255
155 195 255
155 195 255
155 195 255
155 195 255
155 195 255
155 195 255
155 195 255
156 196 255
156 196 255
156 196 255
156 196 255
156 196 255
156 196 255
156 196 255
156 196 255
156 196 255
157 196 255
157 196 255
157 196 255
157 196 255
157 196 255
157 196 255
157 196 255
157 197 255
157 197 255
157 197 255
158 197 255
158 197 255
158 197 255
158 197 255
158 197 255
158 197 255
158 197 255
158 197 255
158 197 255
159 197 255
159 197 255
159 197 255
159 198 255
159 198 255
159 198 255
159 198 255
159 198 255
159 198 255
159 198 255
160 198 255
160 198 255
160 198 255
160 198 255
160 198 255
160 198 255
160 198 255
160 198 255
160 198 255
160 198 255
161 199 255
161 199 255
161 199 255
161 199 255
161 199 255
161 199 255
161 199 255
161 199 255
161 199 255
161 199 255
161 199 255
162 199 255
162 199 255
162 199 255
162 199 255
162 199 255
162 199 255
162 199 255
162 200 255
162 200 255
162 200 255
163 200 255
163 200 255
163 200 255
163 200 255
163 200 255
163 200 255
163 200 255
163 200 255
163 200 255
163 200 255
163 200 255
164 200 255
163 200 255
163 200 255
163 200 255
163 200 255
163 200 255
163 200 255
163 200 255
163 200 255
163 200 255
163 200 255
163 200 255
163 200 255
162 200 255
162 200 255
162 200 255
162 199 255
162 199 255
162 199 255
162 199 255
162 199 255
162 199 255
162 199 255
162 199 255
161 199 255
161 199 255
161 199 255
161 199 255
161 199 255
161 199 255
161 199 255
161 199 255
161 199 255
161 199 255
160 198 255
160 198 255
160 198 255
160 198 255
160 198 255
160 198 255
160 198 255
160 198 255
160 198 255
160 198 255
159 198 255
159 198 255
159 198 255
159 198 255
159 198 255
159 198 255
159 198 255
159 197 255
159 197 255
159 197 255
158 197 255
158 197 255
158 197 255
158 197 255
158 197 255
158 197 255
158 197 255
158 197 255
158 197 255
157 197 255
157 197 255
157 197 255
157 196 255
157 196 255
157 196 255
157 196 255
157 196 255
157 196 255
157 196 255
156 196 255
156 196 255
156 196 255
156 196 255
156 196 255
156 196 255
156 196 255
156 196 255
156 196 255
155 195 255
155 195 255
155 195 255
155 195 255
155 195 255
155 195 255
155 195 255
155 195 255
155 195 255
154 195 255
154 195 255
154 195 255
154 195 255
154 195 255
154 195 255
154 194 255
154 194 255
154 194 255
153 194 255
153 194 255
153 194 255
153 194 255
153 194 255
153 194 255
153 194 255
153 194 255
153 194 255
152 194 255
152 194 255
152 194 255
152 194 255
152 193 255
152 193 255
152 193 255
152 193 255
152 193 255
152 193 255
151 193 255
151 193 255
151 193 255
151 193 255
151 193 255
151 193 255
151 193 255
151 193 255
151 193 255
151 193 255
150 192 255
150 192 255
150 192 255
150 192 255
150 192 255
150 192 255
150 192 255
150 192 255
150 192 255
150 192 255
150 192 255
149 192 255
149 192 255
149 192 255
149 192 255
149 192 255
149 192 255
149 192 255
149 192 255
149 191 255
149 191 255
149 191 255
149 191 255
148 191 255
148 191 255
148 191 255
148 191 255
148 191 255
148 191 255
148 191 255
148 191 255
148 191 255
148 191 255
148 191 255
148 191 255
148 191 255
148 191 255
148 191 255
147 191 255
147 191 255
147 191 255
147 191 255
147 191 255
147 191 255
147 191 255
147 190 255
147 190 255
147 190 255
147 190 255
147 190 255
147 190 255
147 190 255
147 190 255
147 190 255
147 190 255
147 190 255
147 190 255
147 190 255
147 190 255
147 190 255
147 190 255
147 190 255
147 190 255
147 190 255
147 190 255
147 190 255
147 190 255
147 190 255
147 190 255
147 190 255
147 190 255
147 190 255
147 190 255
147 190 255
147 190 255
147 190 255
147 190 255
147 190 255
147 190 255
147 190 255
147 190 255
147 190 255
147 190 255
147 190 255
147 190 255
147 190 255
147 190 255
147 190 255
147 190 255
147 190 255
147 190 255
147 190 255
147 190 255
147 190 255
147 190 255
147 190 255
147 190 255
147 191 255
147 191 255
147 191 255
147 191 255
147 191 255
147 191 255
147 191 255
148 191 255
148 191 255
148 191 255
148 191 255
148 191 255
148 191 255
148 191 255
148 191 255
148 191 255
148 191 255
148 191 255
148 191 255
148 191 255
148 191 255
148 191 255
149 191 255
149 191 255
149 191 255
149 191 255
149 191 255
149 192 255
149 192 255
149 192 255
149 192 255
149 192 255
149 192 255
149 192 255
150 192 255
150 192 255
150 192 255
150 192 255
150 192 255
150 192 255
150 192 255
150 192 255
150 192 255
150 192 255
150 192 255
151 193 255
151 193 255
151 193 255
151 193 255
151 193 255
151 193 255
151 193 255
151 193 255
151 193 255
151 193 255
152 193 255
152 193 255
152 193 255
152 193 255
152 193 255
152 193 255
152 194 255
152 194 255
152 194 255
152 194 255
153 194 255
153 194 255
153 194 255
153 194 255
153 194 255
153 194 255
153 194 255
153 194 255
153 194 255
154 194 255
154 194 255
154 194 255
154 195 255
154 195 255
154 195 255
154 195 255
154 195 255
154 195 255
155 195 255
155 195 255
155 195 255
155 195 255
155 195 255
155 195 255
155 195 255
155 195 255
155 195 255
156 196 255
156 196 255
156 196 255
156 196 255
156 196 255
156 196 255
156 196 255
156 196 255
156 196 255
157 196 255
157 196 255
157 196 255
157 196 255
157 196 255
157 196 255
157 196 255
157 197 255
157 197 255
157 197 255
158 197 255
158 197 255
158 197 255
158 197 255
158 197 255
158 197 255
158 197 255
158 197 255
158 197 255
159 197 255
159 197 255
159 197 255
159 198 255
159 198 255
159 198 255
159 198 255
159 198 255
159 198 255
159 198 255
160 198 255
160 198 255
160 198 255
160 198 255
160 198 255
160 198 255
160 198 255
160 198 255
160 198 255
160 198 255
161 199 255
161 199 255
161 199 255
161 199 255
161 199 255
161 199 255
161 199 255
161 199 255
161 199 255
161 199 255
162 199 255
162 199 255
162 199 255
162 199 255
162 199 255
162 199 255
162 199 255
162 200 255
162 200 255
162 200 255
162 200 255
163 200 255
163 200 255
163 200 255
163 200 255
163 200 255
163 200 255
163 200 255
163 200 255
163 200 255
163 200 255
163 200 255
164 200 255
164 200 255
164 200 255
164 200 255
164 200 255
164 200 255
163 200 255
163 200 255
163 200 255
163 200 255
163 200 255
163 200 255
163 200 255
163 200 255
163 200 255
163 200 255
163 200 255
162 200 255
162 200 255
162 200 255
162 200 255
162 199 255
162 199 255
162 199 255
162 199 255
162 199 255
162 199 255
162 199 255
161 199 255
161 199 255
161 199 255
161 199 255
161 199 255
161 199 255
161 199 255
161 199 255
161 199 255
161 199 255
160 198 255
160 198 255
160 198 255
160 198 255
160 198 255
160 198 255
160 198 255
160 198 255
160 198 255
160 198 255
159 198 255
159 198 255
159 198 255
159 198 255
159 198 255
159 198 255
159 198 255
159 197 255
159 197 255
159 197 255
158 197 255
158 197 255
158 197 255
158 197 255
158 197 255
158 197 255
158 197 255
158 197 255
158 197 255
157 197 255
157 197 255
157 197 255
157 197 255
157 196 255
157 196 255
157 196 255
157 196 255
157 196 255
157 196 255
156 196 255
156 196 255
156 196 255
156 196 255
156 196 255
156 196 255
156 196 255
156 196 255
156 196 255
155 195 255
155 195 255
155 195 255
155 195 255
155 195 255
155 195 255
155 195 255
155 195 255
155 195 255
154 195 255
154 195 255
154 195 255
154 195 255
154 195 255
154 195 255
154 194 255
154 194 255
154 194 255
153 194 255
153 194 255
153 194 255
153 194 255
153 194 255
153 194 255
153 194 255
153 194 255
153 194 255
153 194 255
152 194 255
152 194 255
152 194 255
152 193 255
152 193 255
152 193 255
152 193 255
152 193 255
152 193 255
151 193 255
151 193 255
151 193 255
151 193 255
151 193 255
151 193 255
151 193 255
151 193 255
151 193 255
151 193 255
150 192 255
150 192 255
150 192 255
150 192 255
150 192 255
150 192 255
150 192 255
150 192 255
150 192 255
150 192 255
150 192 255
149 192 255
149 192 255
149 192 255
149 192 255
149 192 255
149 192 255
149 192 255
149 192 255
149 191 255
149 191 255
149 191 255
149 191 255
149 191 255
148 191 255
148 191 255
148 191 255
148 191 255
148 191 255
148 191 255
148 191 255
148 191 255
148 191 255
148 191 255
148 191 255
148 191 255
148 191 255
148 191 255
148 191 255
148 191 255
147 191 255
147 191 255
147 191 255
147 191 255
147 191 255
147 191 255
147 191 255
147 191 255
147 190 255
147 190 255
147 190 255
147 190 255
147 190 255
147 190 255
147 190 255
147 190 255
147 190 255
147 190 255
147 190 255
147 190 255
147 190 255
147 190 255
147 190 255
147 190 255
147 190 255
147 190 255
147 190 255
147 190 255
147 190 255
147 190 255
147 190 255
147 190 255
147 190 255
147 190 255
147 190 255
147 190 255
147 190 255
147 190 255
147 190 255
147 190 255
147 190 255
147 190 255
147 190 255
147 190 255
147 190 255
147 190 255
147 190 255
147 190 255
147 190 255
147 190 255
147 190 255
147 191 255
147 191 255
147 191 255
147 191 255
147 191 255
147 191 255
147 191 255
148 191 255
148 191 255
148 191 255
148 191 255
148 191 255
148 191 255
148 191 255
148 191 255
148 191 255
148 191 255
148 191 255
148 191 255
148 191 255
148 191 255
148 191 255
148 191 255
149 191 255
149 191 255
149 191 255
149 191 255
149 191 255
149 192 255
149 192 255
149 192 255
149 192 255
149 192 255
149 192 255
149 192 255
149 192 255
150 192 255
150 192 255
150 192 255
150 192 255
150 192 255
150 192 255
150 192 255
150 192 255
150 192 255
150 192 255
150 192 255
151 193 255
151 193 255
151 193 255
151 193 255
151 193 255
151 193 255
151 193 255
151 193 255
151 193 255
151 193 255
152 193 255
152 193 255
152 193 255
152 193 255
152 193 255
152 193 255
152 194 255
152 194 255
152 194 255
153 194 255
153 194 255
153 194 255
153 194 255
153 194 255
153 194 255
153 194 255
153 194 255
153 194 255
153 194 255
154 194 255
154 194 255
154 194 255
154 195 255
154 195 255
154 195 255
154 195 255
154 195 255
154 195 255
155 195 255
155 195 255
155 195 255
155 195 255
155 195 255
155 195 255
155 195 255
155 195 255
155 195 255
156 196 255
156 196 255
156 196 255
156 196 255
156 196 255
156 196 255
156 196 255
156 196 255
156 196 255
157 196 255
157 196 255
157 196 255
157 196 255
157 196 255
157 196 255
157 196 255
157 197 255
157 197 255
157 197 255
158 197 255
158 197 255
158 197 255
158 197 255
158 197 255
158 197 255
158 197 255
158 197 255
158 197 255
159 197 255
159 197 255
159 197 255
159 198 255
159 198 255
159 198 255
159 198 255
159 198 255
159 198 255
159 198 255
160 198 255
160 198 255
160 198 255
160 198 255
160 198 255
160 198 255
160 198 255
160 198 255
160 198 255
160 198 255
161 199 255
161 199 255
161 199 255
161 199 255
161 199 255
161 199 255
161 199 255
161 199 255
161 199 255
161 199 255
162 199 255
162 199 255
162 199 255
162 199 255
162 199 255
162 199 255
162 199 255
162 200 255
162 200 255
162 200 255
162 200 255
163 200 255
163 200 255
163 200 255
163 200 255
163 200 255
163 200 255
163 200 255
163 200 255
163 200 255
163 200 255
163 200 255
164 200 255
164 200 255
164 200 255
164 200 255
164 201 255
164 201 255
164 200 255
164 200 255
164 200 255
164 200 255
163 200 255
163 200 255
163 200 255
163 200 255
163 200 255
163 200 255
163 200 255
163 200 255
163 200 255
163 200 255
163 200 255
162 200 255
162 200 255
162 200 255
162 200 255
162 199 255
162 199 255
162 199 255
162 199 255
162 199 255
162 199 255
162 199 255
161 199 255
161 199 255
161 199 255
161 199 255
161 199 255
161 199 255
161 199 255
161 199 255
161 199 255
161 199 255
160 198 255
160 198 255
160 198 255
160 198 255
160 198 255
160 198 255
160 198 255
160 198 255
160 198 255
160 198 255
159 198 255
159 198 255
159 198 255
159 198 255
159 198 255
159 198 255
159 198 255
159 197 255
159 197 255
159 197 255
158 197 255
158 197 255
158 197 255
158 197 255
158 197 255
158 197 255
158 197 255
158 197 255
158 197 255
157 197 255
157 197 255
157 197 255
157 197 255
157 196 255
157 196 255
157 196 255
157 196 255
157 196 255
157 196 255
156 196 255
156 196 255
156 196 255
156 196 255
156 196 255
156 196 255
156 196 255
156 196 255
156 196 255
155 195 255
155 195 255
155 195 255
155 195 255
155 195 255
155 195 255
155 195 255
155 195 255
155 195 255
154 195 255
154 195 255
154 195 255
154 195 255
154 195 255
154 195 255
154 194 255
154 194 255
154 194 255
153 194 255
153 194 255
153 194 255
153 194 255
153 194 255
153 194 255
153 194 255
153 194 255
153 194 255
153 194 255
152 194 255
152 194 255
152 194 255
152 193 255
152 193 255
152 193 255
152 193 255
152 193 255
152 193 255
151 193 255
151 193 255
151 193 255
151 193 255
151 193 255
151 193 255
151 193 255
151 193 255
151 193 255
151 193 255
151 193 255
150 192 255
150 192 255
150 192 255
150 192 255
150 192 255
150 192 255
150 192 255
150 192 255
150 192 255
150 192 255
150 192 255
149 192 255
149 192 255
149 192 255
149 192 255
149 192 255
149 192 255
149 192 255
149 192 255
149 191 255
149 191 255
149 191 255
149 191 255
149 191 255
148 191 255
148 191 255
148 191 255
148 191 255
148 191 255
148 191 255
148 191 255
148 191 255
148 191 255
148 191 255
148 191 255
148 191 255
148 191 255
148 191 255
148 191 255
148 191 255
148 191 255
148 191 255
147 191 255
147 191 255
147 191 255
147 191 255
147 191 255
147 191 255
147 191 255
147 191 255
147 191 255
147 190 255
147 190 255
147 190 255
147 190 255
147 190 255
147 190 255
147 190 255
147 190 255
147 190 255
147 190 255
147 190 255
147 190 255
147 190 255
147 190 255
147 190 255
147 190 255
147 190 255
147 190 255
147 190 255
147 190 255
147 190 255
147 190 255
147 190 255
147 190 255
147 190 255
147 190 255
147 190 255
147 190 255
147 190 255
147 190 255
147 191 255
147 191 255
147 191 255
147 191 255
147 191 255
147 191 255
147 191 255
147 191 255
147 191 255
147 191 255
148 191 255
148 191 255
148 191 255
148 191 255
148 191 255
148 191 255
148 191 255
148 191 255
148 191 255
148 191 255
148 191 255
148 191 255
148 191 255
148 191 255
148 191 255
148 191 255
148 191 255
149 191 255
149 191 255
149 191 255
149 191 255
149 191 255
149 192 255
149 192 255
149 192 255
149 192 255
149 192 255
149 192 255
149 192 255
149 192 255
150 192 255
150 192 255
150 192 255
150 192 255
150 192 255
150 192 255
150 192 255
150 192 255
150 192 255
150 192 255
150 192 255
151 193 255
151 193 255
151 193 255
151 193 255
151 193 255
151 193 255
151 193 255
151 193 255
151 193 255
151 193 255
151 193 255
152 193 255
152 193 255
152 193 255
152 193 255
152 193 255
152 193 255
152 194 255
152 194 255
152 194 255
153 194 255
153 194 255
153 194 255
153 194 255
153 194 255
153 194 255
153 194 255
153 194 255
153 194 255
153 194 255
154 194 255
154 194 255
154 194 255
154 195 255
154 195 255
154 195 255
154 195 255
154 195 255
154 195 255
155 195 255
155 195 255
155 195 255
155 195 255
155 195 255
155 195 255
155 195 255
155 195 255
155 195 255
156 196 255
156 196 255
156 196 255
156 196 255
156 196 255
156 196 255
156 196 255
156 196 255
156 196 255
157 196 255
157 196 255
157 196 255
157 196 255
157 196 255
157 196 255
157 196 255
157 197 255
157 197 255
158 197 255
158 197 255
158 197 255
158 197 255
158 197 255
158 197 255
158 197 255
158 197 255
158 197 255
158 197 255
159 197 255
159 197 255
159 197 255
159 198 255
159 198 255
159 198 255
159 198 255
159 198 255
159 198 255
159 198 255
160 198 255
160 198 255
160 198 255
160 198 255
160 198 255
160 198 255
160 198 255
160 198 255
160 198 255
161 199 255
161 199 255
161 199 255
161 199 255
161 199 255
161 199 255
161 199 255
161 199 255
161 199 255
161 199 255
161 199 255
162 199 255
162 199 255
162 199 255
162 199 255
162 199 255
162 199 255
162 199 255
162 200 255
162 200 255
162 200 255
162 200 255
163 200 255
163 200 255
163 200 255
163 200 255
163 200 255
163 200 255
163 200 255
163 200 255
163 200 255
163 200 255
163 200 255
164 200 255
164 200 255
164 200 255
164 200 255
164 201 255
164 201 255
164 201 255
164 201 255
164 201 255
164 201 255
164 201 255
164 200 255
164 200 255
164 200 255
164 200 255
163 200 255
163 200 255
163 200 255
163 200 255
163 200 255
163 200 255
163 200 255
163 200 255
163 200 255
163 200 255
163 200 255
162 200 255
162 200 255
162 200 255
162 199 255
162 199 255
162 199 255
162 199 255
162 199 255
162 199 255
162 199 255
161 199 255
161 199 255
161 199 255
161 199 255
161 199 255
161 199 255
161 199 255
161 199 255
161 199 255
161 199 255
161 199 255
160 198 255
160 198 255
160 198 255
160 198 255
160 198 255
160 198 255
160 198 255
160 198 255
160 198 255
159 198 255
159 198 255
159 198 255
159 198 255
159 198 255
159 198 255
159 198 255
159 197 255
159 197 255
159 197 255
158 197 255
158 197 255
158 197 255
158 197 255
158 197 255
158 197 255
158 197 255
158 197 255
158 197 255
158 197 255
157 197 255
157 197 255
157 197 255
157 196 255
157 196 255
157 196 255
157 196 255
157 196 255
157 196 255
156 196 255
156 196 255
156 196 255
156 196 255
156 196 255
156 196 255
156 196 255
156 196 255
156 196 255
155 195 255
155 195 255
155 195 255
155 195 255
155 195 255
155 195 255
155 195 255
155 195 255
155 195 255
154 195 255
154 195 255
154 195 255
154 195 255
154 195 255
154 195 255
154 194 255
154 194 255
154 194 255
153 194 255
153 194 255
153 194 255
153 194 255
153 194 255
153 194 255
153 194 255
153 194 255
153 194 255
153 194 255
152 194 255
152 194 255
152 194 255
152 193 255
152 193 255
152 193 255
152 193 255
152 193 255
152 193 255
152 193 255
151 193 255
151 193 255
151 193 255
151 193 255
151 193 255
151 193 255
151 193 255
151 193 255
151 193 255
151 193 255
150 192 255
150 192 255
150 192 255
150 192 255
150 192 255
150 192 255
150 192 255
150 192 255
150 192 255
150 192 255
150 192 255
149 192 255
149 192 255
149 192 255
149 192 255
149 192 255
149 192 255
149 192 255
149 192 255
149 192 255
149 191 255
149 191 255
149 191 255
149 191 255
149 191 255
148 191 255
148 191 255
148 191 255
148 191 255
148 191 255
148 191 255
148 191 255
148 191 255
148 191 255
148 191 255
148 191 255
148 191 255
148 191 255
148 191 255
148 191 255
148 191 255
148 191 255
148 191 255
148 191 255
148 191 255
147 191 255
147 191 255
147 191 255
147 191 255
147 191 255
147 191 255
147 191 255
147 191 255
147 191 255
147 191 255
147 191 255
147 191 255
147 191 255
147 191 255
147 191 255
147 191 255
147 191 255
147 191 255
147 191 255
147 191 255
147 191 255
147 191 255
147 191 255
147 191 255
147 191 255
147 191 255
147 191 255
147 191 255
147 191 255
147 191 255
147 191 255
147 191 255
147 191 255
147 191 255
147 191 255
147 191 255
147 191 255
147 191 255
148 191 255
148 191 255
148 191 255
148 191 255
148 191 255
148 191 255
148 191 255
148 191 255
148 191 255
148 191 255
148 191 255
148 191 255
148 191 255
148 191 255
148 191 255
148 191 255
148 191 255
148 191 255
148 191 255
148 191 255
149 191 255
149 191 255
149 191 255
149 191 255
149 191 255
149 192 255
149 192 255
149 192 255
149 192 255
149 192 255
149 192 255
149 192 255
149 192 255
149 192 255
150 192 255
150 192 255
150 192 255
150 192 255
150 192 255
150 192 255
150 192 255
150 192 255
150 192 255
150 192 255
150 192 255
151 193 255
151 193 255
151 193 255
151 193 255
151 193 255
151 193 255
151 193 255
151 193 255
151 193 255
151 193 255
152 193 255
152 193 255
152 193 255
152 193 255
152 193 255
152 193 255
152 193 255
152 194 255
152 194 255
152 194 255
153 194 255
153 194 255
153 194 255
153 194 255
153 194 255
153 194 255
153 194 255
153 194 255
153 194 255
153 194 255
154 194 255
154 194 255
154 194 255
154 195 255
154 195 255
154 195 255
154 195 255
154 195 255
154 195 255
155 195 255
155 195 255
155 195 255
155 195 255
155 195 255
155 195 255
155 195 255
155 195 255
155 195 255
156 196 255
156 196 255
156 196 255
156 196 255
156 196 255
156 196 255
156 196 255
156 196 255
156 196 255
157 196 255
157 196 255
157 196 255
157 196 255
157 196 255
157 196 255
157 197 255
157 197 255
157 197 255
158 197 255
158 197 255
158 197 255
158 197 255
158 197 255
158 197 255
158 197 255
158 197 255
158 197 255
158 197 255
159 197 255
159 197 255
159 197 255
159 198 255
159 198 255
159 198 255
159 198 255
159 198 255
159 198 255
160 198 255
160 198 255
160 198 255
160 198 255
160 198 255
160 198 255
160 198 255
160 198 255
160 198 255
160 198 255
161 199 255
161 199 255
161 199 255
161 199 255
161 199 255
161 199 255
161 199 255
161 199 255
161 199 255
161 199 255
161 199 255
162 199 255
162 199 255
162 199 255
162 199 255
162 199 255
162 199 255
162 199 255
162 200 255
162 200 255
162 200 255
163 200 255
163 200 255
163 200 255
163 200 255
163 200 255
163 200 255
163 200 255
163 200 255
163 200 255
163 200 255
163 200 255
164 200 255
164 200 255
164 200 255
164 200 255
164 201 255
164 201 255
164 201 255
164 201 255
164 201 255
164 201 255
164 201 255
164 201 255
164 201 255
164 201 255
164 201 255
164 201 255
164 200 255
164 200 255
164 200 255
164 200 255
163 200 255
163 200 255
163 200 255
163 200 255
163 200 255
163 200 255
163 200 255
163 200 255
163 200 255
163 200 255
163 200 255
162 200 255
162 200 255
162 200 255
162 200 255
162 199 255
162 199 255
162 199 255
162 199 255
162 199 255
162 199 255
162 199 255
161 199 255
161 199 255
161 199 255
161 199 255
161 199 255
161 199 255
161 199 255
161 199 255
161 199 255
161 199 255
160 198 255
160 198 255
160 198 255
160 198 255
160 198 255
160 198 255
160 198 255
160 198 255
160 198 255
160 198 255
159 198 255
159 198 255
159 198 255
159 198 255
159 198 255
159 198 255
159 197 255
159 197 255
159 197 255
158 197 255
158 197 255
158 197 255
158 197 255
158 197 255
158 197 255
158 197 255
158 197 255
158 197 255
158 197 255
157 197 255
157 197 255
157 197 255
157 196 255
157 196 255
157 196 255
157 196 255
157 196 255
157 196 255
156 196 255
156 196 255
156 196 255
156 196 255
156 196 255
156 196 255
156 196 255
156 196 255
156 196 255
155 195 255
155 195 255
155 195 255
155 195 255
155 195 255
155 195 255
155 195 255
155 195 255
155 195 255
154 195 255
154 195 255
154 195 255
154 195 255
154 195 255
154 195 255
154 195 255
154 194 255
154 194 255
153 194 255
153 194 255
153 194 255
153 194 255
153 194 255
153 194 255
153 194 255
153 194 255
153 194 255
153 194 255
152 194 255
152 194 255
152 194 255
152 193 255
152 193 255
152 193 255
152 193 255
152 193 255
152 193 255
152 193 255
151 193 255
151 193 255
151 193 255
151 193 255
151 193 255
151 193 255
151 193 255
151 193 255
151 193 255
151 193 255
150 192 255
150 192 255
150 192 255
150 192 255
150 192 255
150 192 255
150 192 255
150 192 255
150 192 255
150 192 255
150 192 255
150 192 255
149 192 255
149 192 255
149 192 255
149 192 255
149 192 255
149 192 255
149 192 255
149 192 255
149 192 255
149 191 255
149 191 255
149 191 255
149 191 255
149 191 255
149 191 255
148 191 255
148 191 255
148 191 255
148 191 255
148 191 255
148 191 255
148 191 255
148 191 255
148 191 255
148 191 255
148 191 255
148 191 255
148 191 255
148 191 255
148 191 255
148 191 255
148 191 255
148 191 255
148 191 255
148 191 255
148 191 255
148 191 255
148 191 255
148 191 255
148 191 255
147 191 255
147 191 255
147 191 255
147 191 255
147 191 255
147 191 255
147 191 255
147 191 255
147 191 255
147 191 255
147 191 255
147 191 255
147 191 255
147 191 255
147 191 255
147 191 255
147 191 255
147 191 255
147 191 255
147 191 255
147 191 255
148 191 255
148 191 255
148 191 255
148 191 255
148 191 255
148 191 255
148 191 255
148 191 255
148 191 255
148 191 255
148 191 255
148 191 255
148 191 255
148 191 255
148 191 255
148 191 255
148 191 255
148 191 255
148 191 255
148 191 255
148 191 255
148 191 255
148 191 255
148 191 255
148 191 255
149 191 255
149 191 255
149 191 255
149 191 255
149 191 255
149 192 255
149 192 255
149 192 255
149 192 255
149 192 255
149 192 255
149 192 255
149 192 255
149 192 255
150 192 255
150 192 255
150 192 255
150 192 255
150 192 255
150 192 255
150 192 255
150 192 255
150 192 255
150 192 255
150 192 255
150 192 255
151 193 255
151 193 255
151 193 255
151 193 255
151 193 255
151 193 255
151 193 255
151 193 255
151 193 255
151 193 255
152 193 255
152 193 255
152 193 255
152 193 255
152 193 255
152 193 255
152 193 255
152 194 255
152 194 255
152 194 255
153 194 255
153 194 255
153 194 255
153 194 255
153 194 255
153 194 255
153 194 255
153 194 255
153 194 255
153 194 255
154 194 255
154 194 255
154 194 255
154 195 255
154 195 255
154 195 255
154 195 255
154 195 255
154 195 255
155 195 255
155 195 255
155 195 255
155 195 255
155 195 255
155 195 255
155 195 255
155 195 255
155 195 255
156 196 255
156 196 255
156 196 255
156 196 255
156 196 255
156 196 255
156 196 255
156 196 255
156 196 255
157 196 255
157 196 255
157 196 255
157 196 255
157 196 255
157 196 255
157 197 255
157 197 255
157 197 255
158 197 255
158 197 255
158 197 255
158 197 255
158 197 255
158 197 255
158 197 255
158 197 255
158 197 255
158 197 255
159 197 255
159 197 255
159 197 255
159 198 255
159 198 255
159 198 255
159 198 255
159 198 255
159 198 255
160 198 255
160 198 255
160 198 255
160 198 255
160 198 255
160 198 255
160 198 255
160 198 255
160 198 255
160 198 255
161 199 255
161 199 255
161 199 255
161 199 255
161 199 255
161 199 255
161 199 255
161 199 255
161 199 255
161 199 255
162 199 255
162 199 255
162 199 255
162 199 255
162 199 255
162 199 255
162 199 255
162 200 255
162 200 255
162 200 255
162 200 255
163 200 255
163 200 255
163 200 255
163 200 255
163 200 255
163 200 255
163 200 255
163 200 255
163 200 255
163 200 255
163 200 255
164 200 255
164 200 255
164 200 255
164 200 255
164 201 255
164 201 255
164 201 255
164 201 255
164 201 255
164 201 255
164 201 255
165 201 255
165 201 255
164 201 255
164 201 255
164 201 255
164 201 255
164 201 255
164 201 255
164 201 255
164 201 255
164 200 255
164 200 255
164 200 255
164 200 255
163 200 255
163 200 255
163 200 255
163 200 255
163 200 255
163 200 255
163 200 255
163 200 255
163 200 255
163 200 255
162 200 255
162 200 255
162 200 255
162 200 255
162 199 255
162 199 255
162 199 255
162 199 255
162 199 255
162 199 255
162 199 255
161 199 255
161 199 255
161 199 255
161 199 255
161 199 255
161 199 255
161 199 255
161 199 255
161 199 255
161 199 255
160 198 255
160 198 255
160 198 255
160 198 255
160 198 255
160 198 255
160 198 255
160 198 255
160 198 255
160 198 255
159 198 255
159 198 255
159 198 255
159 198 255
159 198 255
159 198 255
159 197 255
159 197 255
159 197 255
158 197 255
158 197 255
158 197 255
158 197 255
158 197 255
158 197 255
158 197 255
158 197 255
158 197 255
158 197 255
157 197 255
157 197 255
157 197 255
157 196 255
157 196 255
157 196 255
157 196 255
157 196 255
157 196 255
156 196 255
156 196 255
156 196 255
156 196 255
156 196 255
156 196 255
156 196 255
156 196 255
156 196 255
155 195 255
155 195 255
155 195 255
155 195 255
155 195 255
155 195 255
155 195 255
155 195 255
155 195 255
154 195 255
154 195 255
154 195 255
154 195 255
154 195 255
154 195 255
154 194 255
154 194 255
154 194 255
154 194 255
153 194 255
153 194 255
153 194 255
153 194 255
153 194 255
153 194 255
153 194 255
153 194 255
153 194 255
152 194 255
152 194 255
152 194 255
152 193 255
152 193 255
152 193 255
152 193 255
152 193 255
152 193 255
152 193 255
151 193 255
151 193 255
151 193 255
151 193 255
151 193 255
151 193 255
151 193 255
151 193 255
151 193 255
151 193 255
151 193 255
150 192 255
150 192 255
150 192 255
150 192 255
150 192 255
150 192 255
150 192 255
150 192 255
150 192 255
150 192 255
150 192 255
150 192 255
149 192 255
149 192 255
149 192 255
149 192 255
149 192 255
149 192 255
149 192 255
149 192 255
149 192 255
149 192 255
149 191 255
149 191 255
149 191 255
149 191 255
149 191 255
149 191 255
148 191 255
148 191 255
148 191 255
148 191 255
148 191 255
148 191 255
148 191 255
148 191 255
148 191 255
148 191 255
148 191 255
148 191 255
148 191 255
148 191 255
148 191 255
148 191 255
148 191 255
148 191 255
148 191 255
148 191 255
148 191 255
148 191 255
148 191 255
148 191 255
148 191 255
148 191 255
148 191 255
148 191 255
148 191 255
148 191 255
148 191 255
148 191 255
148 191 255
148 191 255
148 191 255
148 191 255
148 191 255
148 191 255
148 191 255
148 191 255
148 191 255
148 191 255
148 191 255
148 191 255
148 191 255
148 191 255
148 191 255
148 191 255
148 191 255
148 191 255
148 191 255
148 191 255
148 191 255
148 191 255
148 191 255
148 191 255
148 191 255
148 191 255
148 191 255
148 191 255
148 191 255
148 191 255
148 191 255
149 191 255
149 191 255
149 191 255
149 191 255
149 191 255
149 192 255
149 192 255
149 192 255
149 192 255
149 192 255
149 192 255
149 192 255
149 192 255
149 192 255
149 192 255
150 192 255
150 192 255
150 192 255
150 192 255
150 192 255
150 192 255
150 192 255
150 192 255
150 192 255
150 192 255
150 192 255
150 192 255
151 193 255
151 193 255
151 193 255
151 193 255
151 193 255
151 193 255
151 193 255
151 193 255
151 193 255
151 193 255
151 193 255
152 193 255
152 193 255
152 193 255
152 193 255
152 193 255
152 193 255
152 193 255
152 194 255
152 194 255
152 194 255
153 194 255
153 194 255
153 194 255
153 194 255
153 194 255
153 194 255
153 194 255
153 194 255
153 194 255
154 194 255
154 194 255
154 194 255
154 195 255
154 195 255
154 195 255
154 195 255
154 195 255
154 195 255
154 195 255
155 195 255
155 195 255
155 195 255
155 195 255
155 195 255
155 195 255
155 195 255
155 195 255
155 195 255
156 196 255
156 196 255
156 196 255
156 196 255
156 196 255
156 196 255
156 196 255
156 196 255
156 196 255
157 196 255
157 196 255
157 196 255
157 196 255
157 196 255
157 196 255
157 197 255
157 197 255
157 197 255
158 197 255
158 197 255
158 197 255
158 197 255
158 197 255
158 197 255
158 197 255
158 197 255
158 197 255
158 197 255
159 197 255
159 197 255
159 197 255
159 198 255
159 198 255
159 198 255
159 198 255
159 198 255
159 198 255
160 198 255
160 198 255
160 198 255
160 198 255
160 198 255
160 198 255
160 198 255
160 198 255
160 198 255
160 198 255
161 199 255
161 199 255
161 199 255
161 199 255
161 199 255
161 199 255
161 199 255
161 199 255
161 199 255
161 199 255
162 199 255
162 199 255
162 199 255
162 199 255
162 199 255
162 199 255
162 199 255
162 200 255
162 200 255
162 200 255
162 200 255
163 200 255
163 200 255
163 200 255
163 200 255
163 200 255
163 200 255
163 200 255
163 200 255
163 200 255
163 200 255
163 200 255
164 200 255
164 200 255
164 200 255
164 201 255
164 201 255
164 201 255
164 201 255
164 201 255
164 201 255
164 201 255
164 201 255
165 201 255
165 201 255
165 201 255
165 201 255
165 201 255
165 201 255
164 201 255
164 201 255
164 201 255
164 201 255
164 201 255
164 201 255
164 201 255
164 201 255
164 200 255
164 200 255
164 200 255
164 200 255
163 200 255
163 200 255
163 200 255
163 200 255
163 200 255
163 200 255
163 200 255
163 200 255
163 200 255
163 200 255
163 200 255
162 200 255
162 200 255
162 200 255
162 199 255
162 199 255
162 199 255
162 199 255
162 199 255
162 199 255
162 199 255
161 199 255
161 199 255
161 199 255
161 199 255
161 199 255
161 199 255
161 199 255
161 199 255
161 199 255
161 199 255
160 198 255
160 198 255
160 198 255
160 198 255
160 198 255
160 198 255
160 198 255
160 198 255
160 198 255
160 198 255
159 198 255
159 198 255
159 198 255
159 198 255
159 198 255
159 198 255
159 197 255
159 197 255
159 197 255
159 197 255
158 197 255
158 197 255
158 197 255
158 197 255
158 197 255
158 197 255
158 197 255
158 197 255
158 197 255
157 197 255
157 197 255
157 197 255
157 196 255
157 196 255
157 196 255
157 196 255
157 196 255
157 196 255
156 196 255
156 196 255
156 196 255
156 196 255
156 196 255
156 196 255
156 196 255
156 196 255
156 196 255
155 195 255
155 195 255
155 195 255
155 195 255
155 195 255
155 195 255
155 195 255
155 195 255
155 195 255
154 195 255
154 195 255
154 195 255
154 195 255
154 195 255
154 195 255
154 195 255
154 194 255
154 194 255
154 194 255
153 194 255
153 194 255
153 194 255
153 194 255
153 194 255
153 194 255
153 194 255
153 194 255
153 194 255
152 194 255
152 194 255
152 194 255
152 194 255
152 193 255
152 193 255
152 193 255
152 193 255
152 193 255
152 193 255
152 193 255
151 193 255
151 193 255
151 193 255
151 193 255
151 193 255
151 193 255
151 193 255
151 193 255
151 193 255
151 193 255
150 192 255
150 192 255
150 192 255
150 192 255
150 192 255
150 192 255
150 192 255
150 192 255
150 192 255
150 192 255
150 192 255
150 192 255
150 192 255
149 192 255
149 192 255
149 192 255
149 192 255
149 192 255
149 192 255
149 192 255
149 192 255
149 192 255
149 192 255
149 191 255
149 191 255
149 191 255
149 191 255
149 191 255
149 191 255
149 191 255
148 191 255
148 191 255
148 191 255
148 191 255
148 191 255
148 191 255
148 191 255
148 191 255
148 191 255
148 191 255
148 191 255
148 191 255
148 191 255
148 191 255
148 191 255
148 191 255
148 191 255
148 191 255
148 191 255
148 191 255
148 191 255
148 191 255
148 191 255
148 191 255
148 191 255
148 191 255
148 191 255
148 191 255
148 191 255
148 191 255
148 191 255
148 191 255
148 191 255
148 191 255
148 191 255
148 191 255
148 191 255
148 191 255
148 191 255
148 191 255
148 191 255
148 191 255
148 191 255
148 191 255
148 191 255
148 191 255
148 191 255
148 191 255
148 191 255
148 191 255
148 191 255
148 191 255
148 191 255
148 191 255
149 191 255
149 191 255
149 191 255
149 191 255
149 191 255
149 191 255
149 191 255
149 192 255
149 192 255
149 192 255
149 192 255
149 192 255
149 192 255
149 192 255
149 192 255
149 192 255
149 192 255
150 192 255
150 192 255
150 192 255
150 192 255
150 192 255
150 192 255
150 192 255
150 192 255
150 192 255
150 192 255
150 192 255
150 192 255
151 193 255
151 193 255
151 193 255
151 193 255
151 193 255
151 193 255
151 193 255
151 193 255
151 193 255
151 193 255
151 193 255
151 193 255
152 193 255
152 193 255
152 193 255
152 193 255
152 193 255
152 193 255
152 194 255
152 194 255
152 194 255
152 194 255
153 194 255
153 194 255
153 194 255
153 194 255
153 194 255
153 194 255
153 194 255
153 194 255
153 194 255
154 194 255
154 194 255
154 194 255
154 195 255
154 195 255
154 195 255
154 195 255
154 195 255
154 195 255
155 195 255
155 195 255
155 195 255
155 195 255
155 195 255
155 195 255
155 195 255
155 195 255
155 195 255
155 195 255
156 196 255
156 196 255
156 196 255
156 196 255
156 196 255
156 196 255
156 196 255
156 196 255
156 196 255
157 196 255
157 196 255
157 196 255
157 196 255
157 196 255
157 196 255
157 197 255
157 197 255
157 197 255
158 197 255
158 197 255
158 197 255
158 197 255
158 197 255
158 197 255
158 197 255
158 197 255
158 197 255
159 197 255
159 197 255
159 197 255
159 198 255
159 198 255
159 198 255
159 198 255
159 198 255
159 198 255
159 198 255
160 198 255
160 198 255
160 198 255
160 198 255
160 198 255
160 198 255
160 198 255
160 198 255
160 198 255
160 198 255
161 199 255
161 199 255
161 199 255
161 199 255
161 199 255
161 199 255
161 199 255
161 199 255
161 199 255
161 199 255
162 199 255
162 199 255
162 199 255
162 199 255
162 199 255
162 199 255
162 199 255
162 200 255
162 200 255
162 200 255
163 200 255
163 200 255
163 200 255
163 200 255
163 200 255
163 200 255
163 200 255
163 200 255
163 200 255
163 200 255
163 200 255
164 200 255
164 200 255
164 200 255
164 200 255
164 201 255
164 201 255
164 201 255
164 201 255
164 201 255
164 201 255
164 201 255
164 201 255
165 201 255
165 201 255
165 201 255
165 201 255
165 201 255
165 201 255
165 201 255
165 201 255
165 201 255
165 201 255
165 201 255
164 201 255
164 201 255
164 201 255
164 201 255
164 201 255
164 201 255
164 201 255
164 201 255
164 200 255
164 200 255
164 200 255
163 200 255
163 200 255
163 200 255
163 200 255
163 200 255
163 200 255
163 200 255
163 200 255
163 200 255
163 200 255
163 200 255
162 200 255
162 200 255
162 200 255
162 200 255
162 199 255
162 199 255
162 199 255
162 199 255
162 199 255
162 199 255
162 199 255
161 199 255
161 199 255
161 199 255
161 199 255
161 199 255
161 199 255
161 199 255
161 199 255
161 199 255
160 198 255
160 198 255
160 198 255
160 198 255
160 198 255
160 198 255
160 198 255
160 198 255
160 198 255
160 198 255
159 198 255
159 198 255
159 198 255
159 198 255
159 198 255
159 198 255
159 198 255
159 197 255
159 197 255
159 197 255
158 197 255
158 197 255
158 197 255
158 197 255
158 197 255
158 197 255
158 197 255
158 197 255
158 197 255
157 197 255
157 197 255
157 197 255
157 196 255
157 196 255
157 196 255
157 196 255
157 196 255
157 196 255
156 196 255
156 196 255
156 196 255
156 196 255
156 196 255
156 196 255
156 196 255
156 196 255
156 196 255
155 195 255
155 195 255
155 195 255
155 195 255
155 195 255
155 195 255
155 195 255
155 195 255
155 195 255
155 195 255
154 195 255
154 195 255
154 195 255
154 195 255
154 195 255
154 195 255
154 194 255
154 194 255
154 194 255
153 194 255
153 194 255
153 194 255
153 194 255
153 194 255
153 194 255
153 194 255
153 194 255
153 194 255
153 194 255
152 194 255
152 194 255
152 194 255
152 193 255
152 193 255
152 193 255
152 193 255
152 193 255
152 193 255
152 193 255
151 193 255
151 193 255
151 193 255
151 193 255
151 193 255
151 193 255
151 193 255
151 193 255
151 193 255
151 193 255
151 193 255
150 192 255
150 192 255
150 192 255
150 192 255
150 192 255
150 192 255
150 192 255
150 192 255
150 192 255
150 192 255
150 192 255
150 192 255
150 192 255
150 192 255
149 192 255
149 192 255
149 192 255
149 192 255
149 192 255
149 192 255
149 192 255
149 192 255
149 192 255
149 192 255
149 192 255
149 191 255
149 191 255
149 191 255
149 191 255
149 191 255
149 191 255
149 191 255
148 191 255
148 191 255
148 191 255
148 191 255
148 191 255
148 191 255
148 191 255
148 191 255
148 191 255
148 191 255
148 191 255
148 191 255
148 191 255
148 191 255
148 191 255
148 191 255
148 191 255
148 191 255
148 191 255
148 191 255
148 191 255
148 191 255
148 191 255
148 191 255
148 191 255
148 191 255
148 191 255
148 191 255
148 191 255
148 191 255
148 191 255
148 191 255
148 191 255
148 191 255
148 191 255
148 191 255
148 191 255
148 191 255
148 191 255
148 191 255
148 191 255
148 191 255
148 191 255
148 191 255
149 191 255
149 191 255
149 191 255
149 191 255
149 191 255
149 191 255
149 191 255
149 191 255
149 192 255
149 192 255
149 192 255
149 192 255
149 192 255
149 192 255
149 192 255
149 192 255
149 192 255
149 192 255
150 192 255
150 192 255
150 192 255
150 192 255
150 192 255
150 192 255
150 192 255
150 192 255
150 192 255
150 192 255
150 192 255
150 192 255
150 192 255
150 192 255
151 193 255
151 193 255
151 193 255
151 193 255
151 193 255
151 193 255
151 193 255
151 193 255
151 193 255
151 193 255
151 193 255
152 193 255
152 193 255
152 193 255
152 193 255
152 193 255
152 193 255
152 193 255
152 194 255
152 194 255
152 194 255
153 194 255
153 194 255
153 194 255
153 194 255
153 194 255
153 194 255
153 194 255
153 194 255
153 194 255
153 194 255
154 194 255
154 194 255
154 194 255
154 195 255
154 195 255
154 195 255
154 195 255
154 195 255
154 195 255
155 195 255
155 195 255
155 195 255
155 195 255
155 195 255
155 195 255
155 195 255
155 195 255
155 195 255
155 195 255
156 196 255
156 196 255
156 196 255
156 196 255
156 196 255
156 196 255
156 196 255
156 196 255
156 196 255
157 196 255
157 196 255
157 196 255
157 196 255
157 196 255
157 196 255
157 197 255
157 197 255
157 197 255
158 197 255
158 197 255
158 197 255
158 197 255
158 197 255
158 197 255
158 197 255
158 197 255
158 197 255
159 197 255
159 197 255
159 197 255
159 198 255
159 198 255
159 198 255
159 198 255
159 198 255
159 198 255
159 198 255
160 198 255
160 198 255
160 198 255
160 198 255
160 198 255
160 198 255
160 198 255
160 198 255
160 198 255
161 199 255
161 199 255
161 199 255
161 199 255
161 199 255
161 199 255
161 199 255
161 199 255
161 199 255
161 199 255
162 199 255
162 199 255
162 199 255
162 199 255
162 199 255
162 199 255
162 199 255
162 200 255
162 200 255
162 200 255
162 200 255
163 200 255
163 200 255
163 200 255
163 200 255
163 200 255
163 200 255
163 200 255
163 200 255
163 200 255
163 200 255
163 200 255
164 200 255
164 200 255
164 200 255
164 200 255
164 201 255
164 201 255
164 201 255
164 201 255
164 201 255
164 201 255
164 201 255
165 201 255
165 201 255
165 201 255
165 201 255
165 201 255
165 201 255
165 201 255
165 201 255
165 201 255
165 201 255
165 201 255
165 201 255
165 201 255
165 201 255
165 201 255
165 201 255
164 201 255
164 201 255
164 201 255
164 201 255
164 201 255
164 201 255
164 201 255
164 201 255
164 200 255
164 200 255
164 200 255
164 200 255
163 200 255
163 200 255
163 200 255
163 200 255
163 200 255
163 200 255
163 200 255
163 200 255
163 200 255
163 200 255
162 200 255
162 200 255
162 200 255
162 200 255
162 199 255
162 199 255
162 199 255
162 199 255
162 199 255
162 199 255
162 199 255
161 199 255
161 199 255
161 199 255
161 199 255
161 199 255
161 199 255
161 199 255
161 199 255
161 199 255
161 199 255
160 198 255
160 198 255
160 198 255
160 198 255
160 198 255
160 198 255
160 198 255
160 198 255
160 198 255
160 198 255
159 198 255
159 198 255
159 198 255
159 198 255
159 198 255
159 198 255
159 197 255
159 197 255
159 197 255
158 197 255
158 197 255
158 197 255
158 197 255
158 197 255
158 197 255
158 197 255
158 197 255
158 197 255
158 197 255
157 197 255
157 197 255
157 196 255
157 196 255
157 196 255
157 196 255
157 196 255
157 196 255
156 196 255
156 196 255
156 196 255
156 196 255
156 196 255
156 196 255
156 196 255
156 196 255
156 196 255
156 196 255
155 195 255
155 195 255
155 195 255
155 195 255
155 195 255
155 195 255
155 195 255
155 195 255
155 195 255
154 195 255
154 195 255
154 195 255
154 195 255
154 195 255
154 195 255
154 194 255
154 194 255
154 194 255
153 194 255
153 194 255
153 194 255
153 194 255
153 194 255
153 194 255
153 194 255
153 194 255
153 194 255
153 194 255
152 194 255
152 194 255
152 194 255
152 193 255
152 193 255
152 193 255
152 193 255
152 193 255
152 193 255
152 193 255
152 193 255
151 193 255
151 193 255
151 193 255
151 193 255
151 193 255
151 193 255
151 193 255
151 193 255
151 193 255
151 193 255
151 193 255
150 192 255
150 192 255
150 192 255
150 192 255
150 192 255
150 192 255
150 192 255
150 192 255
150 192 255
150 192 255
150 192 255
150 192 255
150 192 255
150 192 255
149 192 255
149 192 255
149 192 255
149 192 255
149 192 255
149 192 255
149 192 255
149 192 255
149 192 255
149 192 255
149 192 255
149 192 255
149 192 255
149 191 255
149 191 255
149 191 255
149 191 255
149 191 255
149 191 255
149 191 255
149 191 255
148 191 255
148 191 255
148 191 255
148 191 255
148 191 255
148 191 255
148 191 255
148 191 255
148 191 255
148 191 255
148 191 255
148 191 255
148 191 255
148 191 255
148 191 255
148 191 255
148 191 255
148 191 255
148 191 255
148 191 255
148 191 255
148 191 255
148 191 255
148 191 255
148 191 255
148 191 255
148 191 255
148 191 255
148 191 255
148 191 255
148 191 255
148 191 255
149 191 255
149 191 255
149 191 255
149 191 255
149 191 255
149 191 255
149 191 255
149 191 255
149 192 255
149 192 255
149 192 255
149 192 255
149 192 255
149 192 255
149 192 255
149 192 255
149 192 255
149 192 255
149 192 255
149 192 255
149 192 255
150 192 255
150 192 255
150 192 255
150 192 255
150 192 255
150 192 255
150 192 255
150 192 255
150 192 255
150 192 255
150 192 255
150 192 255
150 192 255
150 192 255
151 193 255
151 193 255
151 193 255
151 193 255
151 193 255
151 193 255
151 193 255
151 193 255
151 193 255
151 193 255
151 193 255
152 193 255
152 193 255
152 193 255
152 193 255
152 193 255
152 193 255
152 193 255
152 194 255
152 194 255
152 194 255
152 194 255
153 194 255
153 194 255
153 194 255
153 194 255
153 194 255
153 194 255
153 194 255
153 194 255
153 194 255
153 194 255
154 194 255
154 194 255
154 194 255
154 195 255
154 195 255
154 195 255
154 195 255
154 195 255
154 195 255
155 195 255
155 195 255
155 195 255
155 195 255
155 195 255
155 195 255
155 195 255
155 195 255
155 195 255
156 196 255
156 196 255
156 196 255
156 196 255
156 196 255
156 196 255
156 196 255
156 196 255
156 196 255
156 196 255
157 196 255
157 196 255
157 196 255
157 196 255
157 196 255
157 196 255
157 197 255
157 197 255
157 197 255
158 197 255
158 197 255
158 197 255
158 197 255
158 197 255
158 197 255
158 197 255
158 197 255
158 197 255
159 197 255
159 197 255
159 197 255
159 198 255
159 198 255
159 198 255
159 198 255
159 198 255
159 198 255
160 198 255
160 198 255
160 198 255
160 198 255
160 198 255
160 198 255
160 198 255
160 198 255
160 198 255
160 198 255
161 199 255
161 199 255
161 199 255
161 199 255
161 199 255
161 199 255
161 199 255
161 199 255
161 199 255
161 199 255
162 199 255
162 199 255
162 199 255
162 199 255
162 199 255
162 199 255
162 199 255
162 200 255
162 200 255
162 200 255
162 200 255
163 200 255
163 200 255
163 200 255
163 200 255
163 200 255
163 200 255
163 200 255
163 200 255
163 200 255
163 200 255
164 200 255
164 200 255
164 200 255
164 200 255
164 201 255
164 201 255
164 201 255
164 201 255
164 201 255
164 201 255
164 201 255
164 201 255
165 201 255
165 201 255
165 201 255
165 201 255
165 201 255
165 201 255
165 201 255
165 201 255
165 201 255
165 201 255
165 201 255
165 201 255
165 201 255
165 201 255
165 201 255
165 201 255
165 201 255
165 201 255
165 201 255
165 201 255
165 201 255
164 201 255
164 201 255
164 201 255
164 201 255
164 201 255
164 201 255
164 201 255
164 200 255
164 200 255
164 200 255
164 200 255
163 200 255
163 200 255
163 200 255
163 200 255
163 200 255
163 200 255
163 200 255
163 200 255
163 200 255
163 200 255
163 200 255
162 200 255
162 200 255
162 200 255
162 199 255
162 199 255
162 199 255
162 199 255
162 199 255
162 199 255
162 199 255
161 199 255
161 199 255
161 199 255
161 199 255
161 199 255
161 199 255
161 199 255
161 199 255
161 199 255
161 199 255
160 198 255
160 198 255
160 198 255
160 198 255
160 198 255
160 198 255
160 198 255
160 198 255
160 198 255
160 198 255
159 198 255
159 198 255
159 198 255
159 198 255
159 198 255
159 198 255
159 197 255
159 197 255
159 197 255
158 197 255
158 197 255
158 197 255
158 197 255
158 197 255
158 197 255
158 197 255
158 197 255
158 197 255
157 197 255
157 197 255
157 197 255
157 197 255
157 196 255
157 196 255
157 196 255
157 196 255
157 196 255
157 196 255
156 196 255
156 196 255
156 196 255
156 196 255
156 196 255
156 196 255
156 196 255
156 196 255
156 196 255
155 195 255
155 195 255
155 195 255
155 195 255
155 195 255
155 195 255
155 195 255
155 195 255
155 195 255
154 195 255
154 195 255
154 195 255
154 195 255
154 195 255
154 195 255
154 194 255
154 194 255
154 194 255
154 194 255
153 194 255
153 194 255
153 194 255
153 194 255
153 194 255
153 194 255
153 194 255
153 194 255
153 194 255
153 194 255
152 194 255
152 194 255
152 194 255
152 193 255
152 193 255
152 193 255
152 193 255
152 193 255
152 193 255
152 193 255
151 193 255
151 193 255
151 193 255
151 193 255
151 193 255
151 193 255
151 193 255
151 193 255
151 193 255
151 193 255
151 193 255
151 193 255
150 192 255
150 192 255
150 192 255
150 192 255
150 192 255
150 192 255
150 192 255
150 192 255
150 192 255
150 192 255
150 192 255
150 192 255
150 192 255
150 192 255
150 192 255
149 192 255
149 192 255
149 192 255
149 192 255
149 192 255
149 192 255
149 192 255
149 192 255
149 192 255
149 192 255
149 192 255
149 192 255
149 192 255
149 192 255
149 191 255
149 191 255
149 191 255
149 191 255
149 191 255
149 191 255
149 191 255
149 191 255
149 191 255
149 191 255
149 191 255
149 191 255
149 191 255
149 191 255
149 191 255
149 191 255
149 191 255
149 191 255
149 191 255
149 191 255
149 191 255
149 191 255
149 191 255
149 191 255
149 191 255
149 191 255
149 191 255
149 191 255
149 191 255
149 191 255
149 191 255
149 191 255
149 191 255
149 191 255
149 191 255
149 191 255
149 191 255
149 191 255
149 192 255
149 192 255
149 192 255
149 192 255
149 192 255
149 192 255
149 192 255
149 192 255
149 192 255
149 192 255
149 192 255
149 192 255
149 192 255
149 192 255
150 192 255
150 192 255
150 192 255
150 192 255
150 192 255
150 192 255
150 192 255
150 192 255
150 192 255
150 192 255
150 192 255
150 192 255
150 192 255
150 192 255
150 192 255
151 193 255
151 193 255
151 193 255
151 193 255
151 193 255
151 193 255
151 193 255
151 193 255
151 193 255
151 193 255
151 193 255
151 193 255
152 193 255
152 193 255
152 193 255
152 193 255
152 193 255
152 193 255
152 193 255
152 194 255
152 194 255
152 194 255
153 194 255
153 194 255
153 194 255
153 194 255
153 194 255
153 194 255
153 194 255
153 194 255
153 194 255
153 194 255
154 194 255
154 194 255
154 194 255
154 194 255
154 195 255
154 195 255
154 195 255
154 195 255
154 195 255
154 195 255
155 195 255
155 195 255
155 195 255
155 195 255
155 195 255
155 195 255
155 195 255
155 195 255
155 195 255
156 196 255
156 196 255
156 196 255
156 196 255
156 196 255
156 196 255
156 196 255
156 196 255
156 196 255
157 196 255
157 196 255
157 196 255
157 196 255
157 196 255
157 196 255
157 197 255
157 197 255
157 197 255
158 197 255
158 197 255
158 197 255
158 197 255
158 197 255
158 197 255
158 197 255
158 197 255
158 197 255
158 197 255
159 197 255
159 197 255
159 197 255
159 198 255
159 198 255
159 198 255
159 198 255
159 198 255
159 198 255
160 198 255
160 198 255
160 198 255
160 198 255
160 198 255
160 198 255
160 198 255
160 198 255
160 198 255
160 198 255
161 199 255
161 199 255
161 199 255
161 199 255
161 199 255
161 199 255
161 199 255
161 199 255
161 199 255
161 199 255
162 199 255
162 199 255
162 199 255
162 199 255
162 199 255
162 199 255
162 199 255
162 200 255
162 200 255
162 200 255
163 200 255
163 200 255
163 200 255
163 200 255
163 200 255
163 200 255
163 200 255
163 200 255
163 200 255
163 200 255
163 200 255
164 200 255
164 200 255
164 200 255
164 200 255
164 201 255
164 201 255
164 201 255
164 201 255
164 201 255
164 201 255
164 201 255
165 201 255
165 201 255
165 201 255
165 201 255
165 201 255
165 201 255
165 201 255
165 201 255
165 201 255
165 201 255
165 201 255
165 201 255
166 202 255
166 202 255
165 201 255
165 201 255
165 201 255
165 201 255
165 201 255
165 201 255
165 201 255
165 201 255
165 201 255
165 201 255
165 201 255
165 201 255
164 201 255
164 201 255
164 201 255
164 201 255
164 201 255
164 201 255
164 201 255
164 201 255
164 200 255
164 200 255
164 200 255
164 200 255
163 200 255
163 200 255
163 200 255
163 200 255
163 200 255
163 200 255
163 200 255
163 200 255
163 200 255
163 200 255
162 200 255
162 200 255
162 200 255
162 200 255
162 199 255
162 199 255
162 199 255
162 199 255
162 199 255
162 199 255
161 199 255
161 199 255
161 199 255
161 199 255
161 199 255
161 199 255
161 199 255
161 199 255
161 199 255
161 199 255
160 198 255
160 198 255
160 198 255
160 198 255
160 198 255
160 198 255
160 198 255
160 198 255
160 198 255
160 198 255
159 198 255
159 198 255
159 198 255
159 198 255
159 198 255
159 198 255
159 197 255
159 197 255
159 197 255
158 197 255
158 197 255
158 197 255
158 197 255
158 197 255
158 197 255
158 197 255
158 197 255
158 197 255
158 197 255
157 197 255
157 197 255
157 197 255
157 196 255
157 196 255
157 196 255
157 196 255
157 196 255
157 196 255
156 196 255
156 196 255
156 196 255
156 196 255
156 196 255
156 196 255
156 196 255
156 196 255
156 196 255
155 195 255
155 195 255
155 195 255
155 195 255
155 195 255
155 195 255
155 195 255
155 195 255
155 195 255
154 195 255
154 195 255
154 195 255
154 195 255
154 195 255
154 195 255
154 195 255
154 194 255
154 194 255
154 194 255
153 194 255
153 194 255
153 194 255
153 194 255
153 194 255
153 194 255
153 194 255
153 194 255
153 194 255
153 194 255
152 194 255
152 194 255
152 194 255
152 194 255
152 193 255
152 193 255
152 193 255
152 193 255
152 193 255
152 193 255
152 193 255
151 193 255
151 193 255
151 193 255
151 193 255
151 193 255
151 193 255
151 193 255
151 193 255
151 193 255
151 193 255
151 193 255
151 193 255
150 192 255
150 192 255
150 192 255
150 192 255
150 192 255
150 192 255
150 192 255
150 192 255
150 192 255
150 192 255
150 192 255
150 192 255
150 192 255
150 192 255
150 192 255
150 192 255
149 192 255
149 192 255
149 192 255
149 192 255
149 192 255
149 192 255
149 192 255
149 192 255
149 192 255
149 192 255
149 192 255
149 192 255
149 192 255
149 192 255
149 192 255
149 192 255
149 192 255
149 192 255
149 192 255
149 191 255
149 191 255
149 191 255
149 191 255
149 191 255
149 191 255
149 191 255
149 191 255
149 191 255
149 191 255
149 191 255
149 191 255
149 191 255
149 191 255
149 191 255
149 191 255
149 191 255
149 191 255
149 191 255
149 191 255
149 192 255
149 192 255
149 192 255
149 192 255
149 192 255
149 192 255
149 192 255
149 192 255
149 192 255
149 192 255
149 192 255
149 192 255
149 192 255
149 192 255
149 192 255
149 192 255
149 192 255
149 192 255
149 192 255
150 192 255
150 192 255
150 192 255
150 192 255
150 192 255
150 192 255
150 192 255
150 192 255
150 192 255
150 192 255
150 192 255
150 192 255
150 192 255
150 192 255
150 192 255
150 192 255
151 193 255
151 193 255
151 193 255
151 193 255
151 193 255
151 193 255
151 193 255
151 193 255
151 193 255
151 193 255
151 193 255
151 193 255
152 193 255
152 193 255
152 193 255
152 193 255
152 193 255
152 193 255
152 193 255
152 194 255
152 194 255
152 194 255
152 194 255
153 194 255
153 194 255
153 194 255
153 194 255
153 194 255
153 194 255
153 194 255
153 194 255
153 194 255
153 194 255
154 194 255
154 194 255
154 194 255
154 195 255
154 195 255
154 195 255
154 195 255
154 195 255
154 195 255
154 195 255
155 195 255
155 195 255
155 195 255
155 195 255
155 195 255
155 195 255
155 195 255
155 195 255
155 195 255
156 196 255
156 196 255
156 196 255
156 196 255
156 196 255
156 196 255
156 196 255
156 196 255
156 196 255
157 196 255
157 196 255
157 196 255
157 196 255
157 196 255
157 196 255
157 197 255
157 197 255
157 197 255
158 197 255
158 197 255
158 197 255
158 197 255
158 197 255
158 197 255
158 197 255
158 197 255
158 197 255
158 197 255
159 197 255
159 197 255
159 197 255
159 198 255
159 198 255
159 198 255
159 198 255
159 198 255
159 198 255
160 198 255
160 198 255
160 198 255
160 198 255
160 198 255
160 198 255
160 198 255
160 198 255
160 198 255
160 198 255
161 199 255
161 199 255
161 199 255
161 199 255
161 199 255
161 199 255
161 199 255
161 199 255
161 199 255
161 199 255
162 199 255
162 199 255
162 199 255
162 199 255
162 199 255
162 199 255
162 200 255
162 200 255
162 200 255
162 200 255
163 200 255
163 200 255
163 200 255
163 200 255
163 200 255
163 200 255
163 200 255
163 200 255
163 200 255
163 200 255
164 200 255
164 200 255
164 200 255
164 200 255
164 201 255
164 201 255
164 201 255
164 201 255
164 201 255
164 201 255
164 201 255
164 201 255
165 201 255
165 201 255
165 201 255
165 201 255
165 201 255
165 201 255
165 201 255
165 201 255
165 201 255
165 201 255
165 201 255
166 202 255
166 202 255
166 202 255
166 202 255
166 202 255
166 202 255
166 202 255
166 202 255
165 201 255
165 201 255
165 201 255
165 201 255
165 201 255
165 201 255
165 201 255
165 201 255
165 201 255
165 201 255
165 201 255
165 201 255
164 201 255
164 201 255
164 201 255
164 201 255
164 201 255
164 201 255
164 201 255
164 200 255
164 200 255
164 200 255
164 200 255
163 200 255
163 200 255
163 200 255
163 200 255
163 200 255
163 200 255
163 200 255
163 200 255
163 200 255
163 200 255
163 200 255
162 200 255
162 200 255
162 200 255
162 199 255
162 199 255
162 199 255
162 199 255
162 199 255
162 199 255
162 199 255
161 199 255
161 199 255
161 199 255
161 199 255
161 199 255
161 199 255
161 199 255
161 199 255
161 199 255
161 199 255
160 198 255
160 198 255
160 198 255
160 198 255
160 198 255
160 198 255
160 198 255
160 198 255
160 198 255
159 198 255
159 198 255
159 198 255
159 198 255
159 198 255
159 198 255
159 198 255
159 197 255
159 197 255
159 197 255
158 197 255
158 197 255
158 197 255
158 197 255
158 197 255
158 197 255
158 197 255
158 197 255
158 197 255
157 197 255
157 197 255
157 197 255
157 196 255
157 196 255
157 196 255
157 196 255
157 196 255
157 196 255
156 196 255
156 196 255
156 196 255
156 196 255
156 196 255
156 196 255
156 196 255
156 196 255
156 196 255
155 195 255
155 195 255
155 195 255
155 195 255
155 195 255
155 195 255
155 195 255
155 195 255
155 195 255
155 195 255
154 195 255
154 195 255
154 195 255
154 195 255
154 195 255
154 195 255
154 194 255
154 194 255
154 194 255
153 194 255
153 194 255
153 194 255
153 194 255
153 194 255
153 194 255
153 194 255
153 194 255
153 194 255
153 194 255
153 194 255
152 194 255
152 194 255
152 194 255
152 193 255
152 193 255
152 193 255
152 193 255
152 193 255
152 193 255
152 193 255
152 193 255
151 193 255
151 193 255
151 193 255
151 193 255
151 193 255
151 193 255
151 193 255
151 193 255
151 193 255
151 193 255
151 193 255
151 193 255
151 193 255
150 192 255
150 192 255
150 192 255
150 192 255
150 192 255
150 192 255
150 192 255
150 192 255
150 192 255
150 192 255
150 192 255
150 192 255
150 192 255
150 192 255
150 192 255
150 192 255
150 192 255
149 192 255
149 192 255
149 192 255
149 192 255
149 192 255
149 192 255
149 192 255
149 192 255
149 192 255
149 192 255
149 192 255
149 192 255
149 192 255
149 192 255
149 192 255
149 192 255
149 192 255
149 192 255
149 192 255
149 192 255
149 192 255
149 192 255
149 192 255
149 192 255
149 192 255
149 192 255
149 192 255
149 192 255
149 192 255
149 192 255
149 192 255
149 192 255
149 192 255
149 192 255
149 192 255
149 192 255
149 192 255
149 192 255
149 192 255
149 192 255
149 192 255
149 192 255
149 192 255
149 192 255
149 192 255
149 192 255
149 192 255
149 192 255
150 192 255
150 192 255
150 192 255
150 192 255
150 192 255
150 192 255
150 192 255
150 192 255
150 192 255
150 192 255
150 192 255
150 192 255
150 192 255
150 192 255
150 192 255
150 192 255
150 192 255
151 193 255
151 193 255
151 193 255
151 193 255
151 193 255
151 193 255
151 193 255
151 193 255
151 193 255
151 193 255
151 193 255
151 193 255
151 193 255
152 193 255
152 193 255
152 193 255
152 193 255
152 193 255
152 193 255
152 193 255
152 193 255
152 194 255
152 194 255
152 194 255
153 194 255
153 194 255
153 194 255
153 194 255
153 194 255
153 194 255
153 194 255
153 194 255
153 194 255
153 194 255
153 194 255
154 194 255
154 194 255
154 194 255
154 195 255
154 195 255
154 195 255
154 195 255
154 195 255
154 195 255
155 195 255
155 195 255
155 195 255
155 195 255
155 195 255
155 195 255
155 195 255
155 195 255
155 195 255
155 195 255
156 196 255
156 196 255
156 196 255
156 196 255
156 196 255
156 196 255
156 196 255
156 196 255
156 196 255
157 196 255
157 196 255
157 196 255
157 196 255
157 196 255
157 196 255
157 197 255
157 197 255
157 197 255
158 197 255
158 197 255
158 197 255
158 197 255
158 197 255
158 197 255
158 197 255
158 197 255
158 197 255
159 197 255
159 197 255
159 197 255
159 198 255
159 198 255
159 198 255
159 198 255
159 198 255
159 198 255
159 198 255
160 198 255
160 198 255
160 198 255
160 198 255
160 198 255
160 198 255
160 198 255
160 198 255
160 198 255
161 199 255
161 199 255
161 199 255
161 199 255
161 199 255
161 199 255
161 199 255
161 199 255
161 199 255
161 199 255
162 199 255
162 199 255
162 199 255
162 199 255
162 199 255
162 199 255
162 199 255
162 200 255
162 200 255
162 200 255
163 200 255
163 200 255
163 200 255
163 200 255
163 200 255
163 200 255
163 200 255
163 200 255
163 200 255
163 200 255
163 200 255
164 200 255
164 200 255
164 200 255
164 200 255
164 201 255
164 201 255
164 201 255
164 201 255
164 201 255
164 201 255
164 201 255
165 201 255
165 201 255
165 201 255
165 201 255
165 201 255
165 201 255
165 201 255
165 201 255
165 201 255
165 201 255
165 201 255
165 201 255
166 202 255
166 202 255
166 202 255
166 202 255
166 202 255
166 202 255
166 202 255
166 202 255
166 202 255
166 202 255
166 202 255
166 202 255
166 202 255
165 201 255
165 201 255
165 201 255
165 201 255
165 201 255
165 201 255
165 201 255
165 201 255
165 201 255
165 201 255
165 201 255
164 201 255
164 201 255
164 201 255
164 201 255
164 201 255
164 201 255
164 201 255
164 201 255
164 200 255
164 200 255
164 200 255
164 200 255
163 200 255
163 200 255
163 200 255
163 200 255
163 200 255
163 200 255
163 200 255
163 200 255
163 200 255
163 200 255
162 200 255
162 200 255
162 200 255
162 199 255
162 199 255
162 199 255
162 199 255
162 199 255
162 199 255
162 199 255
161 199 255
161 199 255
161 199 255
161 199 255
161 199 255
161 199 255
161 199 255
161 199 255
161 199 255
161 199 255
160 198 255
160 198 255
160 198 255
160 198 255
160 198 255
160 198 255
160 198 255
160 198 255
160 198 255
160 198 255
159 198 255
159 198 255
159 198 255
159 198 255
159 198 255
159 198 255
159 197 255
159 197 255
159 197 255
158 197 255
158 197 255
158 197 255
158 197 255
158 197 255
158 197 255
158 197 255
158 197 255
158 197 255
157 197 255
157 197 255
157 197 255
157 196 255
157 196 255
157 196 255
157 196 255
157 196 255
157 196 255
156 196 255
156 196 255
156 196 255
156 196 255
156 196 255
156 196 255
156 196 255
156 196 255
156 196 255
156 196 255
155 195 255
155 195 255
155 195 255
155 195 255
155 195 255
155 195 255
155 195 255
155 195 255
155 195 255
154 195 255
154 195 255
154 195 255
154 195 255
154 195 255
154 195 255
154 195 255
154 194 255
154 194 255
154 194 255
153 194 255
153 194 255
153 194 255
153 194 255
153 194 255
153 194 255
153 194 255
153 194 255
153 194 255
153 194 255
152 194 255
152 194 255
152 194 255
152 194 255
152 193 255
152 193 255
152 193 255
152 193 255
152 193 255
152 193 255
152 193 255
152 193 255
151 193 255
151 193 255
151 193 255
151 193 255
151 193 255
151 193 255
151 193 255
151 193 255
151 193 255
151 193 255
151 193 255
151 193 255
151 193 255
150 192 255
150 192 255
150 192 255
150 192 255
150 192 255
150 192 255
150 192 255
150 192 255
150 192 255
150 192 255
150 192 255
150 192 255
150 192 255
150 192 255
150 192 255
150 192 255
150 192 255
150 192 255
150 192 255
150 192 255
150 192 255
149 192 255
149 192 255
149 192 255
149 192 255
149 192 255
149 192 255
149 192 255
149 192 255
149 192 255
149 192 255
149 192 255
149 192 255
149 192 255
149 192 255
149 192 255
149 192 255
149 192 255
149 192 255
149 192 255
149 192 255
149 192 255
149 192 255
149 192 255
149 192 255
149 192 255
149 192 255
149 192 255
149 192 255
149 192 255
149 192 255
149 192 255
149 192 255
149 192 255
149 192 255
150 192 255
150 192 255
150 192 255
150 192 255
150 192 255
150 192 255
150 192 255
150 192 255
150 192 255
150 192 255
150 192 255
150 192 255
150 192 255
150 192 255
150 192 255
150 192 255
150 192 255
150 192 255
150 192 255
150 192 255
150 192 255
151 193 255
151 193 255
151 193 255
151 193 255
151 193 255
151 193 255
151 193 255
151 193 255
151 193 255
151 193 255
151 193 255
151 193 255
151 193 255
152 193 255
152 193 255
152 193 255
152 193 255
152 193 255
152 193 255
152 193 255
152 193 255
152 194 255
152 194 255
152 194 255
152 194 255
153 194 255
153 194 255
153 194 255
153 194 255
153 194 255
153 194 255
153 194 255
153 194 255
153 194 255
153 194 255
154 194 255
154 194 255
154 194 255
154 195 255
154 195 255
154 195 255
154 195 255
154 195 255
154 195 255
154 195 255
155 195 255
155 195 255
155 195 255
155 195 255
155 195 255
155 195 255
155 195 255
155 195 255
155 195 255
156 196 255
156 196 255
156 196 255
156 196 255
156 196 255
156 196 255
156 196 255
156 196 255
156 196 255
156 196 255
157 196 255
157 196 255
157 196 255
157 196 255
157 196 255
157 196 255
157 197 255
157 197 255
157 197 255
158 197 255
158 197 255
158 197 255
158 197 255
158 197 255
158 197 255
158 197 255
158 197 255
158 197 255
159 197 255
159 197 255
159 197 255
159 198 255
159 198 255
159 198 255
159 198 255
159 198 255
159 198 255
159 198 255
160 198 255
160 198 255
160 198 255
160 198 255
160 198 255
160 198 255
160 198 255
160 198 255
160 198 255
161 199 255
161 199 255
161 199 255
161 199 255
161 199 255
161 199 255
161 199 255
161 199 255
161 199 255
161 199 255
162 199 255
162 199 255
162 199 255
162 199 255
162 199 255
162 199 255
162 199 255
162 200 255
162 200 255
162 200 255
163 200 255
163 200 255
163 200 255
163 200 255
163 200 255
163 200 255
163 200 255
163 200 255
163 200 255
163 200 255
163 200 255
164 200 255
164 200 255
164 200 255
164 201 255
164 201 255
164 201 255
164 201 255
164 201 255
164 201 255
164 201 255
165 201 255
165 201 255
165 201 255
165 201 255
165 201 255
165 201 255
165 201 255
165 201 255
165 201 255
165 201 255
165 201 255
165 201 255
166 202 255
166 202 255
166 202 255
166 202 255
166 202 255
166 202 255
166 202 255
166 202 255
166 202 255
166 202 255
166 202 255
166 202 255
166 202 255
166 202 255
166 202 255
166 202 255
166 202 255
166 202 255
165 201 255
165 201 255
165 201 255
165 201 255
165 201 255
165 201 255
165 201 255
165 201 255
165 201 255
165 201 255
165 201 255
165 201 255
164 201 255
164 201 255
164 201 255
164 201 255
164 201 255
164 201 255
164 201 255
164 200 255
164 200 255
164 200 255
164 200 255
163 200 255
163 200 255
163 200 255
163 200 255
163 200 255
163 200 255
163 200 255
163 200 255
163 200 255
163 200 255
162 200 255
162 200 255
162 200 255
162 200 255
162 199 255
162 199 255
162 199 255
162 199 255
162 199 255
162 199 255
161 199 255
161 199 255
161 199 255
161 199 255
161 199 255
161 199 255
161 199 255
161 199 255
161 199 255
161 199 255
160 198 255
160 198 255
160 198 255
160 198 255
160 198 255
160 198 255
160 198 255
160 198 255
160 198 255
160 198 255
159 198 255
159 198 255
159 198 255
159 198 255
159 198 255
159 198 255
159 197 255
159 197 255
159 197 255
158 197 255
158 197 255
158 197 255
158 197 255
158 197 255
158 197 255
158 197 255
158 197 255
158 197 255
157 197 255
157 197 255
157 197 255
157 197 255
157 196 255
157 196 255
157 196 255
157 196 255
157 196 255
157 196 255
156 196 255
156 196 255
156 196 255
156 196 255
156 196 255
156 196 255
156 196 255
156 196 255
156 196 255
155 195 255
155 195 255
155 195 255
155 195 255
155 195 255
155 195 255
155 195 255
155 195 255
155 195 255
155 195 255
154 195 255
154 195 255
154 195 255
154 195 255
154 195 255
154 195 255
154 194 255
154 194 255
154 194 255
153 194 255
153 194 255
153 194 255
153 194 255
153 194 255
153 194 255
153 194 255
153 194 255
153 194 255
153 194 255
153 194 255
152 194 255
152 194 255
152 194 255
152 194 255
152 193 255
152 193 255
152 193 255
152 193 255
152 193 255
152 193 255
152 193 255
152 193 255
151 193 255
151 193 255
151 193 255
151 193 255
151 193 255
151 193 255
151 193 255
151 193 255
151 193 255
151 193 255
151 193 255
151 193 255
151 193 255
151 193 255
150 192 255
150 192 255
150 192 255
150 192 255
150 192 255
150 192 255
150 192 255
150 192 255
150 192 255
150 192 255
150 192 255
150 192 255
150 192 255
150 192 255
150 192 255
150 192 255
150 192 255
150 192 255
150 192 255
150 192 255
150 192 255
150 192 255
150 192 255
150 192 255
150 192 255
150 192 255
150 192 255
149 192 255
149 192 255
149 192 255
149 192 255
149 192 255
149 192 255
149 192 255
149 192 255
149 192 255
149 192 255
149 192 255
149 192 255
149 192 255
149 192 255
150 192 255
150 192 255
150 192 255
150 192 255
150 192 255
150 192 255
150 192 255
150 192 255
150 192 255
150 192 255
150 192 255
150 192 255
150 192 255
150 192 255
150 192 255
150 192 255
150 192 255
150 192 255
150 192 255
150 192 255
150 192 255
150 192 255
150 192 255
150 192 255
150 192 255
150 192 255
150 192 255
151 193 255
151 193 255
151 193 255
151 193 255
151 193 255
151 193 255
151 193 255
151 193 255
151 193 255
151 193 255
151 193 255
151 193 255
151 193 255
151 193 255
152 193 255
152 193 255
152 193 255
152 193 255
152 193 255
152 193 255
152 193 255
152 193 255
152 194 255
152 194 255
152 194 255
152 194 255
153 194 255
153 194 255
153 194 255
153 194 255
153 194 255
153 194 255
153 194 255
153 194 255
153 194 255
153 194 255
154 194 255
154 194 255
154 194 255
154 194 255
154 195 255
154 195 255
154 195 255
154 195 255
154 195 255
154 195 255
155 195 255
155 195 255
155 195 255
155 195 255
155 195 255
155 195 255
155 195 255
155 195 255
155 195 255
155 195 255
156 196 255
156 196 255
156 196 255
156 196 255
156 196 255
156 196 255
156 196 255
156 196 255
156 196 255
157 196 255
157 196 255
157 196 255
157 196 255
157 196 255
157 196 255
157 197 255
157 197 255
157 197 255
158 197 255
158 197 255
158 197 255
158 197 255
158 197 255
158 197 255
158 197 255
158 197 255
158 197 255
158 197 255
159 197 255
159 197 255
159 197 255
159 198 255
159 198 255
159 198 255
159 198 255
159 198 255
159 198 255
160 198 255
160 198 255
160 198 255
160 198 255
160 198 255
160 198 255
160 198 255
160 198 255
160 198 255
160 198 255
161 199 255
161 199 255
161 199 255
161 199 255
161 199 255
161 199 255
161 199 255
161 199 255
161 199 255
161 199 255
162 199 255
162 199 255
162 199 255
162 199 255
162 199 255
162 199 255
162 200 255
162 200 255
162 200 255
163 200 255
163 200 255
163 200 255
163 200 255
163 200 255
163 200 255
163 200 255
163 200 255
163 200 255
163 200 255
163 200 255
164 200 255
164 200 255
164 200 255
164 200 255
164 201 255
164 201 255
164 201 255
164 201 255
164 201 255
164 201 255
164 201 255
165 201 255
165 201 255
165 201 255
165 201 255
165 201 255
165 201 255
165 201 255
165 201 255
165 201 255
165 201 255
165 201 255
165 201 255
166 202 255
166 202 255
166 202 255
166 202 255
166 202 255
166 202 255
166 202 255
166 202 255
166 202 255
166 202 255
167 202 255
166 202 255
166 202 255
166 202 255
166 202 255
166 202 255
166 202 255
166 202 255
166 202 255
166 202 255
166 202 255
166 202 255
166 202 255
165 201 255
165 201 255
165 201 255
165 201 255
165 201 255
165 201 255
165 201 255
165 201 255
165 201 255
165 201 255
165 201 255
165 201 255
164 201 255
164 201 255
164 201 255
164 201 255
164 201 255
164 201 255
164 201 255
164 200 255
164 200 255
164 200 255
163 200 255
163 200 255
163 200 255
163 200 255
163 200 255
163 200 255
163 200 255
163 200 255
163 200 255
163 200 255
163 200 255
162 200 255
162 200 255
162 200 255
162 199 255
162 199 255
162 199 255
162 199 255
162 199 255
162 199 255
162 199 255
161 199 255
161 199 255
161 199 255
161 199 255
161 199 255
161 199 255
161 199 255
161 199 255
161 199 255
161 199 255
160 198 255
160 198 255
160 198 255
160 198 255
160 198 255
160 198 255
160 198 255
160 198 255
160 198 255
159 198 255
159 198 255
159 198 255
159 198 255
159 198 255
159 198 255
159 197 255
159 197 255
159 197 255
159 197 255
158 197 255
158 197 255
158 197 255
158 197 255
158 197 255
158 197 255
158 197 255
158 197 255
158 197 255
157 197 255
157 197 255
157 197 255
157 196 255
157 196 255
157 196 255
157 196 255
157 196 255
157 196 255
156 196 255
156 196 255
156 196 255
156 196 255
156 196 255
156 196 255
156 196 255
156 196 255
156 196 255
155 195 255
155 195 255
155 195 255
155 195 255
155 195 255
155 195 255
155 195 255
155 195 255
155 195 255
155 195 255
154 195 255
154 195 255
154 195 255
154 195 255
154 195 255
154 195 255
154 195 255
154 194 255
154 194 255
154 194 255
153 194 255
153 194 255
153 194 255
153 194 255
153 194 255
153 194 255
153 194 255
153 194 255
153 194 255
153 194 255
153 194 255
152 194 255
152 194 255
152 194 255
152 194 255
152 193 255
152 193 255
152 193 255
152 193 255
152 193 255
152 193 255
152 193 255
152 193 255
151 193 255
151 193 255
151 193 255
151 193 255
151 193 255
151 193 255
151 193 255
151 193 255
151 193 255
151 193 255
151 193 255
151 193 255
151 193 255
151 193 255
151 193 255
150 192 255
150 192 255
150 192 255
150 192 255
150 192 255
150 192 255
150 192 255
150 192 255
150 192 255
150 192 255
150 192 255
150 192 255
150 192 255
150 192 255
150 192 255
150 192 255
150 192 255
150 192 255
150 192 255
150 192 255
150 192 255
150 192 255
150 192 255
150 192 255
150 192 255
150 192 255
150 192 255
150 192 255
150 192 255
150 192 255
150 192 255
150 192 255
150 192 255
150 192 255
150 192 255
150 192 255
150 192 255
150 192 255
150 192 255
150 192 255
150 192 255
150 192 255
150 192 255
150 192 255
150 192 255
150 192 255
150 192 255
150 192 255
150 192 255
150 192 255
150 192 255
150 192 255
150 192 255
150 192 255
150 192 255
150 192 255
150 192 255
150 192 255
150 192 255
150 192 255
151 193 255
151 193 255
151 193 255
151 193 255
151 193 255
151 193 255
151 193 255
151 193 255
151 193 255
151 193 255
151 193 255
151 193 255
151 193 255
151 193 255
151 193 255
152 193 255
152 193 255
152 193 255
152 193 255
152 193 255
152 193 255
152 193 255
152 193 255
152 194 255
152 194 255
152 194 255
152 194 255
153 194 255
153 194 255
153 194 255
153 194 255
153 194 255
153 194 255
153 194 255
153 194 255
153 194 255
153 194 255
153 194 255
154 194 255
154 194 255
154 194 255
154 195 255
154 195 255
154 195 255
154 195 255
154 195 255
154 195 255
154 195 255
155 195 255
155 195 255
155 195 255
155 195 255
155 195 255
155 195 255
155 195 255
155 195 255
155 195 255
155 195 255
156 196 255
156 196 255
156 196 255
156 196 255
156 196 255
156 196 255
156 196 255
156 196 255
156 196 255
157 196 255
157 196 255
157 196 255
157 196 255
157 196 255
157 196 255
157 197 255
157 197 255
157 197 255
158 197 255
158 197 255
158 197 255
158 197 255
158 197 255
158 197 255
158 197 255
158 197 255
158 197 255
159 197 255
159 197 255
159 197 255
159 197 255
159 198 255
159 198 255
159 198 255
159 198 255
159 198 255
159 198 255
160 198 255
160 198 255
160 198 255
160 198 255
160 198 255
160 198 255
160 198 255
160 198 255
160 198 255
161 199 255
161 199 255
161 199 255
161 199 255
161 199 255
161 199 255
161 199 255
161 199 255
161 199 255
161 199 255
162 199 255
162 199 255
162 199 255
162 199 255
162 199 255
162 199 255
162 199 255
162 200 255
162 200 255
162 200 255
163 200 255
163 200 255
163 200 255
163 200 255
163 200 255
163 200 255
163 200 255
163 200 255
163 200 255
163 200 255
163 200 255
164 200 255
164 200 255
164 200 255
164 201 255
164 201 255
164 201 255
164 201 255
164 201 255
164 201 255
164 201 255
164 201 255
165 201 255
165 201 255
165 201 255
165 201 255
165 201 255
165 201 255
165 201 255
165 201 255
165 201 255
165 201 255
165 201 255
166 202 255
166 202 255
166 202 255
166 202 255
166 202 255
166 202 255
166 202 255
166 202 255
166 202 255
166 202 255
166 202 255
166 202 255
167 202 255
167 202 255
167 202 255
167 202 255
167 202 255
166 202 255
166 202 255
166 202 255
166 202 255
166 202 255
166 202 255
166 202 255
166 202 255
166 202 255
166 202 255
166 202 255
166 202 255
165 201 255
165 201 255
165 201 255
165 201 255
165 201 255
165 201 255
165 201 255
165 201 255
165 201 255
165 201 255
165 201 255
164 201 255
164 201 255
164 201 255
164 201 255
164 201 255
164 201 255
164 201 255
164 200 255
164 200 255
164 200 255
164 200 255
163 200 255
163 200 255
163 200 255
163 200 255
163 200 255
163 200 255
163 200 255
163 200 255
163 200 255
163 200 255
162 200 255
162 200 255
162 200 255
162 200 255
162 199 255
162 199 255
162 199 255
162 199 255
162 199 255
162 199 255
161 199 255
161 199 255
161 199 255
161 199 255
161 199 255
161 199 255
161 199 255
161 199 255
161 199 255
161 199 255
160 198 255
160 198 255
160 198 255
160 198 255
160 198 255
160 198 255
160 198 255
160 198 255
160 198 255
160 198 255
159 198 255
159 198 255
159 198 255
159 198 255
159 198 255
159 198 255
159 197 255
159 197 255
159 197 255
158 197 255
158 197 255
158 197 255
158 197 255
158 197 255
158 197 255
158 197 255
158 197 255
158 197 255
157 197 255
157 197 255
157 197 255
157 196 255
157 196 255
157 196 255
157 196 255
157 196 255
157 196 255
156 196 255
156 196 255
156 196 255
156 196 255
156 196 255
156 196 255
156 196 255
156 196 255
156 196 255
156 196 255
155 195 255
155 195 255
155 195 255
155 195 255
155 195 255
155 195 255
155 195 255
155 195 255
155 195 255
155 195 255
154 195 255
154 195 255
154 195 255
154 195 255
154 195 255
154 195 255
154 194 255
154 194 255
154 194 255
154 194 255
153 194 255
153 194 255
153 194 255
153 194 255
153 194 255
153 194 255
153 194 255
153 194 255
153 194 255
153 194 255
153 194 255
152 194 255
152 194 255
152 194 255
152 194 255
152 193 255
152 193 255
152 193 255
152 193 255
152 193 255
152 193 255
152 193 255
152 193 255
152 193 255
151 193 255
151 193 255
151 193 255
151 193 255
151 193 255
151 193 255
151 193 255
151 193 255
151 193 255
151 193 255
151 193 255
151 193 255
151 193 255
151 193 255
151 193 255
151 193 255
151 193 255
150 192 255
150 192 255
150 192 255
150 192 255
150 192 255
150 192 255
150 192 255
150 192 255
150 192 255
150 192 255
150 192 255
150 192 255
150 192 255
150 192 255
150 192 255
150 192 255
150 192 255
150 192 255
150 192 255
150 192 255
150 192 255
150 192 255
150 192 255
150 192 255
150 192 255
150 192 255
150 192 255
150 192 255
150 192 255
150 192 255
150 192 255
150 192 255
150 192 255
150 192 255
150 192 255
150 192 255
150 192 255
150 192 255
150 192 255
150 192 255
150 192 255
150 192 255
150 192 255
150 192 255
150 192 255
150 192 255
150 192 255
150 192 255
151 193 255
151 193 255
151 193 255
151 193 255
151 193 255
151 193 255
151 193 255
151 193 255
151 193 255
151 193 255
151 193 255
151 193 255
151 193 255
151 193 255
151 193 255
151 193 255
151 193 255
152 193 255
152 193 255
152 193 255
152 193 255
152 193 255
152 193 255
152 193 255
152 193 255
152 193 255
152 194 255
152 194 255
152 194 255
152 194 255
153 194 255
153 194 255
153 194 255
153 194 255
153 194 255
153 194 255
153 194 255
153 194 255
153 194 255
153 194 255
153 194 255
154 194 255
154 194 255
154 194 255
154 194 255
154 195 255
154 195 255
154 195 255
154 195 255
154 195 255
154 195 255
155 195 255
155 195 255
155 195 255
155 195 255
155 195 255
155 195 255
155 195 255
155 195 255
155 195 255
155 195 255
156 196 255
156 196 255
156 196 255
156 196 255
156 196 255
156 196 255
156 196 255
156 196 255
156 196 255
156 196 255
157 196 255
157 196 255
157 196 255
157 196 255
157 196 255
157 196 255
157 197 255
157 197 255
157 197 255
158 197 255
158 197 255
158 197 255
158 197 255
158 197 255
158 197 255
158 197 255
158 197 255
158 197 255
159 197 255
159 197 255
159 197 255
159 198 255
159 198 255
159 198 255
159 198 255
159 198 255
159 198 255
160 198 255
160 198 255
160 198 255
160 198 255
160 198 255
160 198 255
160 198 255
160 198 255
160 198 255
160 198 255
161 199 255
161 199 255
161 199 255
161 199 255
161 199 255
161 199 255
161 199 255
161 199 255
161 199 255
161 199 255
162 199 255
162 199 255
162 199 255
162 199 255
162 199 255
162 199 255
162 200 255
162 200 255
162 200 255
162 200 255
163 200 255
163 200 255
163 200 255
163 200 255
163 200 255
163 200 255
163 200 255
163 200 255
163 200 255
163 200 255
164 200 255
164 200 255
164 200 255
164 200 255
164 201 255
164 201 255
164 201 255
164 201 255
164 201 255
164 201 255
164 201 255
165 201 255
165 201 255
165 201 255
165 201 255
165 201 255
165 201 255
165 201 255
165 201 255
165 201 255
165 201 255
165 201 255
166 202 255
166 202 255
166 202 255
166 202 255
166 202 255
166 202 255
166 202 255
166 202 255
166 202 255
166 202 255
166 202 255
166 202 255
167 202 255
167 202 255
167 202 255
167 202 255
167 202 255
167 202 255
167 202 255
167 202 255
167 202 255
167 202 255
166 202 255
166 202 255
166 202 255
166 202 255
166 202 255
166 202 255
166 202 255
166 202 255
166 202 255
166 202 255
166 202 255
166 202 255
165 201 255
165 201 255
165 201 255
165 201 255
165 201 255
165 201 255
165 201 255
165 201 255
165 201 255
165 201 255
165 201 255
165 201 255
164 201 255
164 201 255
164 201 255
164 201 255
164 201 255
164 201 255
164 201 255
164 200 255
164 200 255
164 200 255
163 200 255
163 200 255
163 200 255
163 200 255
163 200 255
163 200 255
163 200 255
163 200 255
163 200 255
163 200 255
163 200 255
162 200 255
162 200 255
162 200 255
162 199 255
162 199 255
162 199 255
162 199 255
162 199 255
162 199 255
162 199 255
161 199 255
161 199 255
161 199 255
161 199 255
161 199 255
161 199 255
161 199 255
161 199 255
161 199 255
160 198 255
160 198 255
160 198 255
160 198 255
160 198 255
160 198 255
160 198 255
160 198 255
160 198 255
160 198 255
159 198 255
159 198 255
159 198 255
159 198 255
159 198 255
159 198 255
159 197 255
159 197 255
159 197 255
158 197 255
158 197 255
158 197 255
158 197 255
158 197 255
158 197 255
158 197 255
158 197 255
158 197 255
158 197 255
157 197 255
157 197 255
157 197 255
157 196 255
157 196 255
157 196 255
157 196 255
157 196 255
157 196 255
156 196 255
156 196 255
156 196 255
156 196 255
156 196 255
156 196 255
156 196 255
156 196 255
156 196 255
155 195 255
155 195 255
155 195 255
155 195 255
155 195 255
155 195 255
155 195 255
155 195 255
155 195 255
155 195 255
154 195 255
154 195 255
154 195 255
154 195 255
154 195 255
154 195 255
154 195 255
154 194 255
154 194 255
154 194 255
153 194 255
153 194 255
153 194 255
153 194 255
153 194 255
153 194 255
153 194 255
153 194 255
153 194 255
153 194 255
153 194 255
153 194 255
152 194 255
152 194 255
152 194 255
152 194 255
152 193 255
152 193 255
152 193 255
152 193 255
152 193 255
152 193 255
152 193 255
152 193 255
152 193 255
151 193 255
151 193 255
151 193 255
151 193 255
151 193 255
151 193 255
151 193 255
151 193 255
151 193 255
151 193 255
151 193 255
151 193 255
151 193 255
151 193 255
151 193 255
151 193 255
151 193 255
151 193 255
151 193 255
151 193 255
151 193 255
150 192 255
150 192 255
150 192 255
150 192 255
150 192 255
150 192 255
150 192 255
150 192 255
150 192 255
150 192 255
150 192 255
150 192 255
150 192 255
150 192 255
150 192 255
150 192 255
150 192 255
150 192 255
150 192 255
150 192 255
150 192 255
150 192 255
150 192 255
150 192 255
150 192 255
150 192 255
150 192 255
150 192 255
150 192 255
150 192 255
150 192 255
150 192 255
150 192 255
150 192 255
150 192 255
151 193 255
151 193 255
151 193 255
151 193 255
151 193 255
151 193 255
151 193 255
151 193 255
151 193 255
151 193 255
151 193 255
151 193 255
151 193 255
151 193 255
151 193 255
151 193 255
151 193 255
151 193 255
151 193 255
151 193 255
152 193 255
152 193 255
152 193 255
152 193 255
152 193 255
152 193 255
152 193 255
152 193 255
152 193 255
152 194 255
152 194 255
152 194 255
152 194 255
153 194 255
153 194 255
153 194 255
153 194 255
153 194 255
153 194 255
153 194 255
153 194 255
153 194 255
153 194 255
153 194 255
153 194 255
154 194 255
154 194 255
154 194 255
154 195 255
154 195 255
154 195 255
154 195 255
154 195 255
154 195 255
154 195 255
155 195 255
155 195 255
155 195 255
155 195 255
155 195 255
155 195 255
155 195 255
155 195 255
155 195 255
155 195 255
156 196 255
156 196 255
156 196 255
156 196 255
156 196 255
156 196 255
156 196 255
156 196 255
156 196 255
157 196 255
157 196 255
157 196 255
157 196 255
157 196 255
157 196 255
157 197 255
157 197 255
157 197 255
157 197 255
158 197 255
158 197 255
158 197 255
158 197 255
158 197 255
158 197 255
158 197 255
158 197 255
158 197 255
159 197 255
159 197 255
159 197 255
159 198 255
159 198 255
159 198 255
159 198 255
159 198 255
159 198 255
160 198 255
160 198 255
160 198 255
160 198 255
160 198 255
160 198 255
160 198 255
160 198 255
160 198 255
160 198 255
161 199 255
161 199 255
161 199 255
161 199 255
161 199 255
161 199 255
161 199 255
161 199 255
161 199 255
162 199 255
162 199 255
162 199 255
162 199 255
162 199 255
162 199 255
162 199 255
162 200 255
162 200 255
162 200 255
163 200 255
163 200 255
163 200 255
163 200 255
163 200 255
163 200 255
163 200 255
163 200 255
163 200 255
163 200 255
163 200 255
164 200 255
164 200 255
164 200 255
164 201 255
164 201 255
164 201 255
164 201 255
164 201 255
164 201 255
164 201 255
165 201 255
165 201 255
165 201 255
165 201 255
165 201 255
165 201 255
165 201 255
165 201 255
165 201 255
165 201 255
165 201 255
165 201 255
166 202 255
166 202 255
166 202 255
166 202 255
166 202 255
166 202 255
166 202 255
166 202 255
166 202 255
166 202 255
166 202 255
166 202 255
167 202 255
167 202 255
167 202 255
167 202 255
167 202 255
167 202 255
167 203 255
167 202 255
167 202 255
167 202 255
167 202 255
167 202 255
167 202 255
167 202 255
167 202 255
166 202 255
166 202 255
166 202 255
166 202 255
166 202 255
166 202 255
166 202 255
166 202 255
166 202 255
166 202 255
166 202 255
166 202 255
165 201 255
165 201 255
165 201 255
165 201 255
165 201 255
165 201 255
165 201 255
165 201 255
165 201 255
165 201 255
165 201 255
164 201 255
164 201 255
164 201 255
164 201 255
164 201 255
164 201 255
164 201 255
164 200 255
164 200 255
164 200 255
164 200 255
163 200 255
163 200 255
163 200 255
163 200 255
163 200 255
163 200 255
163 200 255
163 200 255
163 200 255
163 200 255
162 200 255
162 200 255
162 200 255
162 199 255
162 199 255
162 199 255
162 199 255
162 199 255
162 199 255
162 199 255
161 199 255
161 199 255
161 199 255
161 199 255
161 199 255
161 199 255
161 199 255
161 199 255
161 199 255
161 199 255
160 198 255
160 198 255
160 198 255
160 198 255
160 198 255
160 198 255
160 198 255
160 198 255
160 198 255
159 198 255
159 198 255
159 198 255
159 198 255
159 198 255
159 198 255
159 198 255
159 197 255
159 197 255
159 197 255
158 197 255
158 197 255
158 197 255
158 197 255
158 197 255
158 197 255
158 197 255
158 197 255
158 197 255
157 197 255
157 197 255
157 197 255
157 196 255
157 196 255
157 196 255
157 196 255
157 196 255
157 196 255
156 196 255
156 196 255
156 196 255
156 196 255
156 196 255
156 196 255
156 196 255
156 196 255
156 196 255
156 196 255
155 195 255
155 195 255
155 195 255
155 195 255
155 195 255
155 195 255
155 195 255
155 195 255
155 195 255
155 195 255
154 195 255
154 195 255
154 195 255
154 195 255
154 195 255
154 195 255
154 195 255
154 194 255
154 194 255
154 194 255
153 194 255
153 194 255
153 194 255
153 194 255
153 194 255
153 194 255
153 194 255
153 194 255
153 194 255
153 194 255
153 194 255
153 194 255
152 194 255
152 194 255
152 194 255
152 194 255
152 193 255
152 193 255
152 193 255
152 193 255
152 193 255
152 193 255
152 193 255
152 193 255
152 193 255
152 193 255
151 193 255
151 193 255
151 193 255
151 193 255
151 193 255
151 193 255
151 193 255
151 193 255
151 193 255
151 193 255
151 193 255
151 193 255
151 193 255
151 193 255
151 193 255
151 193 255
151 193 255
151 193 255
151 193 255
151 193 255
151 193 255
151 193 255
151 193 255
151 193 255
151 193 255
151 193 255
151 193 255
150 192 255
150 192 255
150 192 255
150 192 255
150 192 255
150 192 255
150 192 255
150 192 255
150 192 255
150 192 255
150 192 255
150 192 255
150 192 255
151 192 255
151 193 255
151 193 255
151 193 255
151 193 255
151 193 255
151 193 255
151 193 255
151 193 255
151 193 255
151 193 255
151 193 255
151 193 255
151 193 255
151 193 255
151 193 255
151 193 255
151 193 255
151 193 255
151 193 255
151 193 255
151 193 255
151 193 255
151 193 255
151 193 255
151 193 255
151 193 255
151 193 255
152 193 255
152 193 255
152 193 255
152 193 255
152 193 255
152 193 255
152 193 255
152 193 255
152 193 255
152 193 255
152 194 255
152 194 255
152 194 255
152 194 255
153 194 255
153 194 255
153 194 255
153 194 255
153 194 255
153 194 255
153 194 255
153 194 255
153 194 255
153 194 255
153 194 255
153 194 255
154 194 255
154 194 255
154 194 255
154 194 255
154 195 255
154 195 255
154 195 255
154 195 255
154 195 255
154 195 255
155 195 255
155 195 255
155 195 255
155 195 255
155 195 255
155 195 255
155 195 255
155 195 255
155 195 255
155 195 255
156 196 255
156 196 255
156 196 255
156 196 255
156 196 255
156 196 255
156 196 255
156 196 255
156 196 255
156 196 255
157 196 255
157 196 255
157 196 255
157 196 255
157 196 255
157 196 255
157 197 255
157 197 255
157 197 255
158 197 255
158 197 255
158 197 255
158 197 255
158 197 255
158 197 255
158 197 255
158 197 255
158 197 255
159 197 255
159 197 255
159 197 255
159 197 255
159 198 255
159 198 255
159 198 255
159 198 255
159 198 255
159 198 255
160 198 255
160 198 255
160 198 255
160 198 255
160 198 255
160 198 255
160 198 255
160 198 255
160 198 255
161 199 255
161 199 255
161 199 255
161 199 255
161 199 255
161 199 255
161 199 255
161 199 255
161 199 255
161 199 255
162 199 255
162 199 255
162 199 255
162 199 255
162 199 255
162 199 255
162 200 255
162 200 255
162 200 255
162 200 255
163 200 255
163 200 255
163 200 255
163 200 255
163 200 255
163 200 255
163 200 255
163 200 255
163 200 255
163 200 255
164 200 255
164 200 255
164 200 255
164 201 255
164 201 255
164 201 255
164 201 255
164 201 255
164 201 255
164 201 255
164 201 255
165 201 255
165 201 255
165 201 255
165 201 255
165 201 255
165 201 255
165 201 255
165 201 255
165 201 255
165 201 255
165 201 255
166 202 255
166 202 255
166 202 255
166 202 255
166 202 255
166 202 255
166 202 255
166 202 255
166 202 255
166 202 255
166 202 255
166 202 255
167 202 255
167 202 255
167 202 255
167 202 255
167 202 255
167 202 255
167 202 255
167 202 255
167 203 255
167 203 255
167 203 255
167 203 255
167 203 255
167 202 255
167 202 255
167 202 255
167 202 255
167 202 255
167 202 255
167 202 255
167 202 255
166 202 255
166 202 255
166 202 255
166 202 255
166 202 255
166 202 255
166 202 255
166 202 255
166 202 255
166 202 255
166 202 255
166 202 255
165 201 255
165 201 255
165 201 255
165 201 255
165 201 255
165 201 255
165 201 255
165 201 255
165 201 255
165 201 255
165 201 255
164 201 255
164 201 255
164 201 255
164 201 255
164 201 255
164 201 255
164 201 255
164 200 255
164 200 255
164 200 255
163 200 255
163 200 255
163 200 255
163 200 255
163 200 255
163 200 255
163 200 255
163 200 255
163 200 255
163 200 255
163 200 255
162 200 255
162 200 255
162 200 255
162 199 255
162 199 255
162 199 255
162 199 255
162 199 255
162 199 255
162 199 255
161 199 255
161 199 255
161 199 255
161 199 255
161 199 255
161 199 255
161 199 255
161 199 255
161 199 255
160 198 255
160 198 255
160 198 255
160 198 255
160 198 255
160 198 255
160 198 255
160 198 255
160 198 255
160 198 255
159 198 255
159 198 255
159 198 255
159 198 255
159 198 255
159 198 255
159 197 255
159 197 255
159 197 255
158 197 255
158 197 255
158 197 255
158 197 255
158 197 255
158 197 255
158 197 255
158 197 255
158 197 255
157 197 255
157 197 255
157 197 255
157 196 255
157 196 255
157 196 255
157 196 255
157 196 255
157 196 255
157 196 255
156 196 255
156 196 255
156 196 255
156 196 255
156 196 255
156 196 255
156 196 255
156 196 255
156 196 255
155 195 255
155 195 255
155 195 255
155 195 255
155 195 255
155 195 255
155 195 255
155 195 255
155 195 255
155 195 255
154 195 255
154 195 255
154 195 255
154 195 255
154 195 255
154 195 255
154 195 255
154 194 255
154 194 255
154 194 255
154 194 255
153 194 255
153 194 255
153 194 255
153 194 255
153 194 255
153 194 255
153 194 255
153 194 255
153 194 255
153 194 255
153 194 255
153 194 255
152 194 255
152 194 255
152 194 255
152 194 255
152 194 255
152 193 255
152 193 255
152 193 255
152 193 255
152 193 255
152 193 255
152 193 255
152 193 255
152 193 255
152 193 255
152 193 255
151 193 255
151 193 255
151 193 255
151 193 255
151 193 255
151 193 255
151 193 255
151 193 255
151 193 255
151 193 255
151 193 255
151 193 255
151 193 255
151 193 255
151 193 255
151 193 255
151 193 255
151 193 255
151 193 255
151 193 255
151 193 255
151 193 255
151 193 255
151 193 255
151 193 255
151 193 255
151 193 255
151 193 255
151 193 255
151 193 255
151 193 255
151 193 255
151 193 255
151 193 255
151 193 255
151 193 255
151 193 255
151 193 255
151 193 255
151 193 255
151 193 255
151 193 255
151 193 255
151 193 255
151 193 255
151 193 255
151 193 255
151 193 255
151 193 255
151 193 255
151 193 255
151 193 255
151 193 255
151 193 255
151 193 255
151 193 255
151 193 255
151 193 255
152 193 255
152 193 255
152 193 255
152 193 255
152 193 255
152 193 255
152 193 255
152 193 255
152 193 255
152 193 255
152 193 255
152 194 255
152 194 255
152 194 255
152 194 255
153 194 255
153 194 255
153 194 255
153 194 255
153 194 255
153 194 255
153 194 255
153 194 255
153 194 255
153 194 255
153 194 255
153 194 255
153 194 255
154 194 255
154 194 255
154 194 255
154 195 255
154 195 255
154 195 255
154 195 255
154 195 255
154 195 255
154 195 255
154 195 255
155 195 255
155 195 255
155 195 255
155 195 255
155 195 255
155 195 255
155 195 255
155 195 255
155 195 255
155 195 255
156 196 255
156 196 255
156 196 255
156 196 255
156 196 255
156 196 255
156 196 255
156 196 255
156 196 255
157 196 255
157 196 255
157 196 255
157 196 255
157 196 255
157 196 255
157 196 255
157 197 255
157 197 255
157 197 255
158 197 255
158 197 255
158 197 255
158 197 255
158 197 255
158 197 255
158 197 255
158 197 255
158 197 255
159 197 255
159 197 255
159 197 255
159 198 255
159 198 255
159 198 255
159 198 255
159 198 255
159 198 255
160 198 255
160 198 255
160 198 255
160 198 255
160 198 255
160 198 255
160 198 255
160 198 255
160 198 255
160 198 255
161 199 255
161 199 255
161 199 255
161 199 255
161 199 255
161 199 255
161 199 255
161 199 255
161 199 255
161 199 255
162 199 255
162 199 255
162 199 255
162 199 255
162 199 255
162 199 255
162 200 255
162 200 255
162 200 255
163 200 255
163 200 255
163 200 255
163 200 255
163 200 255
163 200 255
163 200 255
163 200 255
163 200 255
163 200 255
163 200 255
164 200 255
164 200 255
164 200 255
164 201 255
164 201 255
164 201 255
164 201 255
164 201 255
164 201 255
164 201 255
165 201 255
165 201 255
165 201 255
165 201 255
165 201 255
165 201 255
165 201 255
165 201 255
165 201 255
165 201 255
165 201 255
166 202 255
166 202 255
166 202 255
166 202 255
166 202 255
166 202 255
166 202 255
166 202 255
166 202 255
166 202 255
166 202 255
166 202 255
167 202 255
167 202 255
167 202 255
167 202 255
167 202 255
167 202 255
167 202 255
167 202 255
167 203 255
167 203 255
167 203 255
167 203 255
168 203 255
168 203 255
167 203 255
167 203 255
167 203 255
167 203 255
167 203 255
167 202 255
167 202 255
167 202 255
167 202 255
167 202 255
167 202 255
167 202 255
167 202 255
166 202 255
166 202 255
166 202 255
166 202 255
166 202 255
166 202 255
166 202 255
166 202 255
166 202 255
166 202 255
166 202 255
165 201 255
165 201 255
165 201 255
165 201 255
165 201 255
165 201 255
165 201 255
165 201 255
165 201 255
165 201 255
165 201 255
164 201 255
164 201 255
164 201 255
164 201 255
164 201 255
164 201 255
164 201 255
164 200 255
164 200 255
164 200 255
164 200 255
163 200 255
163 200 255
163 200 255
163 200 255
163 200 255
163 200 255
163 200 255
163 200 255
163 200 255
163 200 255
162 200 255
162 200 255
162 200 255
162 200 255
162 199 255
162 199 255
162 199 255
162 199 255
162 199 255
162 199 255
161 199 255
161 199 255
161 199 255
161 199 255
161 199 255
161 199 255
161 199 255
161 199 255
161 199 255
161 199 255
160 198 255
160 198 255
160 198 255
160 198 255
160 198 255
160 198 255
160 198 255
160 198 255
160 198 255
159 198 255
159 198 255
159 198 255
159 198 255
159 198 255
159 198 255
159 197 255
159 197 255
159 197 255
158 197 255
158 197 255
158 197 255
158 197 255
158 197 255
158 197 255
158 197 255
158 197 255
158 197 255
158 197 255
157 197 255
157 197 255
157 197 255
157 196 255
157 196 255
157 196 255
157 196 255
157 196 255
157 196 255
156 196 255
156 196 255
156 196 255
156 196 255
156 196 255
156 196 255
156 196 255
156 196 255
156 196 255
156 196 255
155 195 255
155 195 255
155 195 255
155 195 255
155 195 255
155 195 255
155 195 255
155 195 255
155 195 255
155 195 255
154 195 255
154 195 255
154 195 255
154 195 255
154 195 255
154 195 255
154 195 255
154 195 255
154 194 255
154 194 255
154 194 255
153 194 255
153 194 255
153 194 255
153 194 255
153 194 255
153 194 255
153 194 255
153 194 255
153 194 255
153 194 255
153 194 255
153 194 255
153 194 255
152 194 255
152 194 255
152 194 255
152 194 255
152 194 255
152 193 255
152 193 255
152 193 255
152 193 255
152 193 255
152 193 255
152 193 255
152 193 255
152 193 255
152 193 255
152 193 255
152 193 255
151 193 255
151 193 255
151 193 255
151 193 255
151 193 255
151 193 255
151 193 255
151 193 255
151 193 255
151 193 255
151 193 255
151 193 255
151 193 255
151 193 255
151 193 255
151 193 255
151 193 255
151 193 255
151 193 255
151 193 255
151 193 255
151 193 255
151 193 255
151 193 255
151 193 255
151 193 255
151 193 255
151 193 255
151 193 255
151 193 255
151 193 255
151 193 255
151 193 255
151 193 255
151 193 255
151 193 255
151 193 255
151 193 255
151 193 255
151 193 255
151 193 255
151 193 255
151 193 255
151 193 255
151 193 255
151 193 255
151 193 255
151 193 255
152 193 255
152 193 255
152 193 255
152 193 255
152 193 255
152 193 255
152 193 255
152 193 255
152 193 255
152 193 255
152 193 255
152 193 255
152 194 255
152 194 255
152 194 255
152 194 255
152 194 255
153 194 255
153 194 255
153 194 255
153 194 255
153 194 255
153 194 255
153 194 255
153 194 255
153 194 255
153 194 255
153 194 255
153 194 255
153 194 255
154 194 255
154 194 255
154 194 255
154 194 255
154 195 255
154 195 255
154 195 255
154 195 255
154 195 255
154 195 255
154 195 255
155 195 255
155 195 255
155 195 255
155 195 255
155 195 255
155 195 255
155 195 255
155 195 255
155 195 255
155 195 255
156 196 255
156 196 255
156 196 255
156 196 255
156 196 255
156 196 255
156 196 255
156 196 255
156 196 255
156 196 255
157 196 255
157 196 255
157 196 255
157 196 255
157 196 255
157 196 255
157 197 255
157 197 255
157 197 255
158 197 255
158 197 255
158 197 255
158 197 255
158 197 255
158 197 255
158 197 255
158 197 255
158 197 255
158 197 255
159 197 255
159 197 255
159 197 255
159 198 255
159 198 255
159 198 255
159 198 255
159 198 255
159 198 255
160 198 255
160 198 255
160 198 255
160 198 255
160 198 255
160 198 255
160 198 255
160 198 255
160 198 255
161 199 255
161 199 255
161 199 255
161 199 255
161 199 255
161 199 255
161 199 255
161 199 255
161 199 255
161 199 255
162 199 255
162 199 255
162 199 255
162 199 255
162 199 255
162 199 255
162 200 255
162 200 255
162 200 255
162 200 255
163 200 255
163 200 255
163 200 255
163 200 255
163 200 255
163 200 255
163 200 255
163 200 255
163 200 255
163 200 255
164 200 255
164 200 255
164 200 255
164 201 255
164 201 255
164 201 255
164 201 255
164 201 255
164 201 255
164 201 255
164 201 255
165 201 255
165 201 255
165 201 255
165 201 255
165 201 255
165 201 255
165 201 255
165 201 255
165 201 255
165 201 255
165 201 255
166 202 255
166 202 255
166 202 255
166 202 255
166 202 255
166 202 255
166 202 255
166 202 255
166 202 255
166 202 255
166 202 255
167 202 255
167 202 255
167 202 255
167 202 255
167 202 255
167 202 255
167 202 255
167 202 255
167 203 255
167 203 255
167 203 255
167 203 255
167 203 255
168 203 255
168 203 255
168 203 255
168 203 255
168 203 255
168 203 255
168 203 255
167 203 255
167 203 255
167 203 255
167 203 255
167 202 255
167 202 255
167 202 255
167 202 255
167 202 255
167 202 255
167 202 255
167 202 255
166 202 255
166 202 255
166 202 255
166 202 255
166 202 255
166 202 255
166 202 255
166 202 255
166 202 255
166 202 255
166 202 255
166 202 255
165 201 255
165 201 255
165 201 255
165 201 255
165 201 255
165 201 255
165 201 255
165 201 255
165 201 255
165 201 255
165 201 255
164 201 255
164 201 255
164 201 255
164 201 255
164 201 255
164 201 255
164 201 255
164 200 255
164 200 255
164 200 255
164 200 255
163 200 255
163 200 255
163 200 255
163 200 255
163 200 255
163 200 255
163 200 255
163 200 255
163 200 255
163 200 255
162 200 255
162 200 255
162 200 255
162 199 255
162 199 255
162 199 255
162 199 255
162 199 255
162 199 255
162 199 255
161 199 255
161 199 255
161 199 255
161 199 255
161 199 255
161 199 255
161 199 255
161 199 255
161 199 255
160 198 255
160 198 255
160 198 255
160 198 255
160 198 255
160 198 255
160 198 255
160 198 255
160 198 255
160 198 255
159 198 255
159 198 255
159 198 255
159 198 255
159 198 255
159 198 255
159 197 255
159 197 255
159 197 255
158 197 255
158 197 255
158 197 255
158 197 255
158 197 255
158 197 255
158 197 255
158 197 255
158 197 255
157 197 255
157 197 255
157 197 255
157 196 255
157 196 255
157 196 255
157 196 255
157 196 255
157 196 255
157 196 255
156 196 255
156 196 255
156 196 255
156 196 255
156 196 255
156 196 255
156 196 255
156 196 255
156 196 255
156 196 255
155 195 255
155 195 255
155 195 255
155 195 255
155 195 255
155 195 255
155 195 255
155 195 255
155 195 255
155 195 255
154 195 255
154 195 255
154 195 255
154 195 255
154 195 255
154 195 255
154 195 255
154 195 255
154 194 255
154 194 255
154 194 255
153 194 255
153 194 255
153 194 255
153 194 255
153 194 255
153 194 255
153 194 255
153 194 255
153 194 255
153 194 255
153 194 255
153 194 255
153 194 255
153 194 255
152 194 255
152 194 255
152 194 255
152 194 255
152 194 255
152 193 255
152 193 255
152 193 255
152 193 255
152 193 255
152 193 255
152 193 255
152 193 255
152 193 255
152 193 255
152 193 255
152 193 255
152 193 255
152 193 255
152 193 255
152 193 255
151 193 255
151 193 255
151 193 255
151 193 255
151 193 255
151 193 255
151 193 255
151 193 255
151 193 255
151 193 255
151 193 255
151 193 255
151 193 255
151 193 255
151 193 255
151 193 255
151 193 255
151 193 255
151 193 255
151 193 255
151 193 255
151 193 255
151 193 255
151 193 255
151 193 255
151 193 255
151 193 255
151 193 255
151 193 255
151 193 255
151 193 255
151 193 255
152 193 255
152 193 255
152 193 255
152 193 255
152 193 255
152 193 255
152 193 255
152 193 255
152 193 255
152 193 255
152 193 255
152 193 255
152 193 255
152 193 255
152 193 255
152 193 255
152 194 255
152 194 255
152 194 255
152 194 255
152 194 255
153 194 255
153 194 255
153 194 255
153 194 255
153 194 255
153 194 255
153 194 255
153 194 255
153 194 255
153 194 255
153 194 255
153 194 255
153 194 255
153 194 255
154 194 255
154 194 255
154 194 255
154 195 255
154 195 255
154 195 255
154 195 255
154 195 255
154 195 255
154 195 255
154 195 255
155 195 255
155 195 255
155 195 255
155 195 255
155 195 255
155 195 255
155 195 255
155 195 255
155 195 255
155 195 255
156 196 255
156 196 255
156 196 255
156 196 255
156 196 255
156 196 255
156 196 255
156 196 255
156 196 255
156 196 255
157 196 255
157 196 255
157 196 255
157 196 255
157 196 255
157 196 255
157 197 255
157 197 255
157 197 255
157 197 255
158 197 255
158 197 255
158 197 255
158 197 255
158 197 255
158 197 255
158 197 255
158 197 255
158 197 255
159 197 255
159 197 255
159 197 255
159 198 255
159 198 255
159 198 255
159 198 255
159 198 255
159 198 255
160 198 255
160 198 255
160 198 255
160 198 255
160 198 255
160 198 255
160 198 255
160 198 255
160 198 255
160 198 255
161 199 255
161 199 255
161 199 255
161 199 255
161 199 255
161 199 255
161 199 255
161 199 255
161 199 255
162 199 255
162 199 255
162 199 255
162 199 255
162 199 255
162 199 255
162 199 255
162 200 255
162 200 255
162 200 255
163 200 255
163 200 255
163 200 255
163 200 255
163 200 255
163 200 255
163 200 255
163 200 255
163 200 255
163 200 255
164 200 255
164 200 255
164 200 255
164 200 255
164 201 255
164 201 255
164 201 255
164 201 255
164 201 255
164 201 255
164 201 255
165 201 255
165 201 255
165 201 255
165 201 255
165 201 255
165 201 255
165 201 255
165 201 255
165 201 255
165 201 255
165 201 255
166 202 255
166 202 255
166 202 255
166 202 255
166 202 255
166 202 255
166 202 255
166 202 255
166 202 255
166 202 255
166 202 255
166 202 255
167 202 255
167 202 255
167 202 255
167 202 255
167 202 255
167 202 255
167 202 255
167 203 255
167 203 255
167 203 255
167 203 255
167 203 255
168 203 255
168 203 255
168 203 255
168 203 255
168 203 255
168 203 255
168 203 255
168 203 255
168 203 255
168 203 255
168 203 255
168 203 255
168 203 255
167 203 255
167 203 255
167 203 255
167 203 255
167 202 255
167 202 255
167 202 255
167 202 255
167 202 255
167 202 255
167 202 255
167 202 255
166 202 255
166 202 255
166 202 255
166 202 255
166 202 255
166 202 255
166 202 255
166 202 255
166 202 255
166 202 255
166 202 255
166 202 255
165 201 255
165 201 255
165 201 255
165 201 255
165 201 255
165 201 255
165 201 255
165 201 255
165 201 255
165 201 255
165 201 255
164 201 255
164 201 255
164 201 255
164 201 255
164 201 255
164 201 255
164 201 255
164 200 255
164 200 255
164 200 255
163 200 255
163 200 255
163 200 255
163 200 255
163 200 255
163 200 255
163 200 255
163 200 255
163 200 255
163 200 255
162 200 255
162 200 255
162 200 255
162 200 255
162 199 255
162 199 255
162 199 255
162 199 255
162 199 255
162 199 255
161 199 255
161 199 255
161 199 255
161 199 255
161 199 255
161 199 255
161 199 255
161 199 255
161 199 255
161 199 255
160 198 255
160 198 255
160 198 255
160 198 255
160 198 255
160 198 255
160 198 255
160 198 255
160 198 255
159 198 255
159 198 255
159 198 255
159 198 255
159 198 255
159 198 255
159 197 255
159 197 255
159 197 255
158 197 255
158 197 255
158 197 255
158 197 255
158 197 255
158 197 255
158 197 255
158 197 255
158 197 255
158 197 255
157 197 255
157 197 255
157 197 255
157 196 255
157 196 255
157 196 255
157 196 255
157 196 255
157 196 255
157 196 255
156 196 255
156 196 255
156 196 255
156 196 255
156 196 255
156 196 255
156 196 255
156 196 255
156 196 255
155 195 255
155 195 255
155 195 255
155 195 255
155 195 255
155 195 255
155 195 255
155 195 255
155 195 255
155 195 255
155 195 255
154 195 255
154 195 255
154 195 255
154 195 255
154 195 255
154 195 255
154 195 255
154 195 255
154 194 255
154 194 255
154 194 255
154 194 255
153 194 255
153 194 255
153 194 255
153 194 255
153 194 255
153 194 255
153 194 255
153 194 255
153 194 255
153 194 255
153 194 255
153 194 255
153 194 255
153 194 255
152 194 255
152 194 255
152 194 255
152 194 255
152 194 255
152 194 255
152 194 255
152 193 255
152 193 255
152 193 255
152 193 255
152 193 255
152 193 255
152 193 255
152 193 255
152 193 255
152 193 255
152 193 255
152 193 255
152 193 255
152 193 255
152 193 255
152 193 255
152 193 255
152 193 255
152 193 255
152 193 255
152 193 255
152 193 255
152 193 255
152 193 255
152 193 255
152 193 255
152 193 255
152 193 255
152 193 255
152 193 255
152 193 255
152 193 255
152 193 255
152 193 255
152 193 255
152 193 255
152 193 255
152 193 255
152 193 255
152 193 255
152 193 255
152 193 255
152 193 255
152 193 255
152 193 255
152 193 255
152 193 255
152 193 255
152 193 255
152 193 255
152 193 255
152 193 255
152 194 255
152 194 255
152 194 255
152 194 255
152 194 255
152 194 255
153 194 255
153 194 255
153 194 255
153 194 255
153 194 255
153 194 255
153 194 255
153 194 255
153 194 255
153 194 255
153 194 255
153 194 255
153 194 255
153 194 255
153 194 255
154 194 255
154 194 255
154 194 255
154 194 255
154 195 255
154 195 255
154 195 255
154 195 255
154 195 255
154 195 255
154 195 255
154 195 255
155 195 255
155 195 255
155 195 255
155 195 255
155 195 255
155 195 255
155 195 255
155 195 255
155 195 255
155 195 255
155 195 255
156 196 255
156 196 255
156 196 255
156 196 255
156 196 255
156 196 255
156 196 255
156 196 255
156 196 255
156 196 255
157 196 255
157 196 255
157 196 255
157 196 255
157 196 255
157 196 255
157 197 255
157 197 255
157 197 255
158 197 255
158 197 255
158 197 255
158 197 255
158 197 255
158 197 255
158 197 255
158 197 255
158 197 255
158 197 255
159 197 255
159 197 255
159 197 255
159 198 255
159 198 255
159 198 255
159 198 255
159 198 255
159 198 255
160 198 255
160 198 255
160 198 255
160 198 255
160 198 255
160 198 255
160 198 255
160 198 255
160 198 255
161 199 255
161 199 255
161 199 255
161 199 255
161 199 255
161 199 255
161 199 255
161 199 255
161 199 255
161 199 255
162 199 255
162 199 255
162 199 255
162 199 255
162 199 255
162 199 255
162 199 255
162 200 255
162 200 255
162 200 255
163 200 255
163 200 255
163 200 255
163 200 255
163 200 255
163 200 255
163 200 255
163 200 255
163 200 255
163 200 255
164 200 255
164 200 255
164 200 255
164 201 255
164 201 255
164 201 255
164 201 255
164 201 255
164 201 255
164 201 255
165 201 255
165 201 255
165 201 255
165 201 255
165 201 255
165 201 255
165 201 255
165 201 255
165 201 255
165 201 255
165 201 255
166 202 255
166 202 255
166 202 255
166 202 255
166 202 255
166 202 255
166 202 255
166 202 255
166 202 255
166 202 255
166 202 255
166 202 255
167 202 255
167 202 255
167 202 255
167 202 255
167 202 255
167 202 255
167 202 255
167 202 255
167 203 255
167 203 255
167 203 255
167 203 255
168 203 255
168 203 255
168 203 255
168 203 255
168 203 255
168 203 255
168 203 255
168 203 255
168 203 255
168 203 255
168 203 255
168 203 255
168 203 255
168 203 255
168 203 255
168 203 255
168 203 255
168 203 255
168 203 255
167 203 255
167 203 255
167 203 255
167 203 255
167 202 255
167 202 255
167 202 255
167 202 255
167 202 255
167 202 255
167 202 255
167 202 255
166 202 255
166 202 255
166 202 255
166 202 255
166 202 255
166 202 255
166 202 255
166 202 255
166 202 255
166 202 255
166 202 255
165 201 255
165 201 255
165 201 255
165 201 255
165 201 255
165 201 255
165 201 255
165 201 255
165 201 255
165 201 255
165 201 255
164 201 255
164 201 255
164 201 255
164 201 255
164 201 255
164 201 255
164 201 255
164 200 255
164 200 255
164 200 255
164 200 255
163 200 255
163 200 255
163 200 255
163 200 255
163 200 255
163 200 255
163 200 255
163 200 255
163 200 255
163 200 255
162 200 255
162 200 255
162 200 255
162 199 255
162 199 255
162 199 255
162 199 255
162 199 255
162 199 255
162 199 255
161 199 255
161 199 255
161 199 255
161 199 255
161 199 255
161 199 255
161 199 255
161 199 255
161 199 255
160 198 255
160 198 255
160 198 255
160 198 255
160 198 255
160 198 255
160 198 255
160 198 255
160 198 255
160 198 255
159 198 255
159 198 255
159 198 255
159 198 255
159 198 255
159 198 255
159 197 255
159 197 255
159 197 255
158 197 255
158 197 255
158 197 255
158 197 255
158 197 255
158 197 255
158 197 255
158 197 255
158 197 255
157 197 255
157 197 255
157 197 255
157 197 255
157 196 255
157 196 255
157 196 255
157 196 255
157 196 255
157 196 255
156 196 255
156 196 255
156 196 255
156 196 255
156 196 255
156 196 255
156 196 255
156 196 255
156 196 255
156 196 255
155 195 255
155 195 255
155 195 255
155 195 255
155 195 255
155 195 255
155 195 255
155 195 255
155 195 255
155 195 255
155 195 255
154 195 255
154 195 255
154 195 255
154 195 255
154 195 255
154 195 255
154 195 255
154 195 255
154 194 255
154 194 255
154 194 255
154 194 255
154 194 255
153 194 255
153 194 255
153 194 255
153 194 255
153 194 255
153 194 255
153 194 255
153 194 255
153 194 255
153 194 255
153 194 255
153 194 255
153 194 255
153 194 255
153 194 255
152 194 255
152 194 255
152 194 255
152 194 255
152 194 255
152 194 255
152 194 255
152 194 255
152 193 255
152 193 255
152 193 255
152 193 255
152 193 255
152 193 255
152 193 255
152 193 255
152 193 255
152 193 255
152 193 255
152 193 255
152 193 255
152 193 255
152 193 255
152 193 255
152 193 255
152 193 255
152 193 255
152 193 255
152 193 255
152 193 255
152 193 255
152 193 255
152 193 255
152 193 255
152 193 255
152 193 255
152 193 255
152 193 255
152 193 255
152 193 255
152 193 255
152 193 255
152 193 255
152 193 255
152 193 255
152 193 255
152 193 255
152 193 255
152 194 255
152 194 255
152 194 255
152 194 255
152 194 255
152 194 255
152 194 255
153 194 255
153 194 255
153 194 255
153 194 255
153 194 255
153 194 255
153 194 255
153 194 255
153 194 255
153 194 255
153 194 255
153 194 255
153 194 255
153 194 255
153 194 255
153 194 255
154 194 255
154 194 255
154 194 255
154 194 255
154 194 255
154 195 255
154 195 255
154 195 255
154 195 255
154 195 255
154 195 255
154 195 255
154 195 255
155 195 255
155 195 255
155 195 255
155 195 255
155 195 255
155 195 255
155 195 255
155 195 255
155 195 255
155 195 255
155 195 255
156 196 255
156 196 255
156 196 255
156 196 255
156 196 255
156 196 255
156 196 255
156 196 255
156 196 255
156 196 255
157 196 255
157 196 255
157 196 255
157 196 255
157 196 255
157 196 255
157 197 255
157 197 255
157 197 255
157 197 255
158 197 255
158 197 255
158 197 255
158 197 255
158 197 255
158 197 255
158 197 255
158 197 255
158 197 255
159 197 255
159 197 255
159 197 255
159 198 255
159 198 255
159 198 255
159 198 255
159 198 255
159 198 255
160 198 255
160 198 255
160 198 255
160 198 255
160 198 255
160 198 255
160 198 255
160 198 255
160 198 255
160 198 255
161 199 255
161 199 255
161 199 255
161 199 255
161 199 255
161 199 255
161 199 255
161 199 255
161 199 255
162 199 255
162 199 255
162 199 255
162 199 255
162 199 255
162 199 255
162 199 255
162 200 255
162 200 255
162 200 255
163 200 255
163 200 255
163 200 255
163 200 255
163 200 255
163 200 255
163 200 255
163 200 255
163 200 255
163 200 255
164 200 255
164 200 255
164 200 255
164 200 255
164 201 255
164 201 255
164 201 255
164 201 255
164 201 255
164 201 255
164 201 255
165 201 255
165 201 255
165 201 255
165 201 255
165 201 255
165 201 255
165 201 255
165 201 255
165 201 255
165 201 255
165 201 255
166 202 255
166 202 255
166 202 255
166 202 255
166 202 255
166 202 255
166 202 255
166 202 255
166 202 255
166 202 255
166 202 255
167 202 255
167 202 255
167 202 255
167 202 255
167 202 255
167 202 255
167 202 255
167 202 255
167 203 255
167 203 255
167 203 255
167 203 255
168 203 255
168 203 255
168 203 255
168 203 255
168 203 255
168 203 255
168 203 255
168 203 255
168 203 255
168 203 255
168 203 255
169 203 255
168 203 255
168 203 255
168 203 255
168 203 255
168 203 255
168 203 255
168 203 255
168 203 255
168 203 255
168 203 255
168 203 255
168 203 255
168 203 255
167 203 255
167 203 255
167 203 255
167 203 255
167 202 255
167 202 255
167 202 255
167 202 255
167 202 255
167 202 255
167 202 255
167 202 255
166 202 255
166 202 255
166 202 255
166 202 255
166 202 255
166 202 255
166 202 255
166 202 255
166 202 255
166 202 255
166 202 255
165 201 255
165 201 255
165 201 255
165 201 255
165 201 255
165 201 255
165 201 255
165 201 255
165 201 255
165 201 255
165 201 255
164 201 255
164 201 255
164 201 255
164 201 255
164 201 255
164 201 255
164 201 255
164 200 255
164 200 255
164 200 255
163 200 255
163 200 255
163 200 255
163 200 255
163 200 255
163 200 255
163 200 255
163 200 255
163 200 255
163 200 255
162 200 255
162 200 255
162 200 255
162 200 255
162 199 255
162 199 255
162 199 255
162 199 255
162 199 255
162 199 255
161 199 255
161 199 255
161 199 255
161 199 255
161 199 255
161 199 255
161 199 255
161 199 255
161 199 255
161 199 255
160 198 255
160 198 255
160 198 255
160 198 255
160 198 255
160 198 255
160 198 255
160 198 255
160 198 255
159 198 255
159 198 255
159 198 255
159 198 255
159 198 255
159 198 255
159 198 255
159 197 255
159 197 255
159 197 255
158 197 255
158 197 255
158 197 255
158 197 255
158 197 255
158 197 255
158 197 255
158 197 255
158 197 255
157 197 255
157 197 255
157 197 255
157 196 255
157 196 255
157 196 255
157 196 255
157 196 255
157 196 255
157 196 255
156 196 255
156 196 255
156 196 255
156 196 255
156 196 255
156 196 255
156 196 255
156 196 255
156 196 255
156 196 255
155 195 255
155 195 255
155 195 255
155 195 255
155 195 255
155 195 255
155 195 255
155 195 255
155 195 255
155 195 255
155 195 255
155 195 255
154 195 255
154 195 255
154 195 255
154 195 255
154 195 255
154 195 255
154 195 255
154 195 255
154 194 255
154 194 255
154 194 255
154 194 255
153 194 255
153 194 255
153 194 255
153 194 255
153 194 255
153 194 255
153 194 255
153 194 255
153 194 255
153 194 255
153 194 255
153 194 255
153 194 255
153 194 255
153 194 255
153 194 255
153 194 255
153 194 255
153 194 255
152 194 255
152 194 255
152 194 255
152 194 255
152 194 255
152 194 255
152 194 255
152 194 255
152 194 255
152 194 255
152 194 255
152 194 255
152 193 255
152 193 255
152 193 255
152 193 255
152 193 255
152 193 255
152 193 255
152 193 255
152 193 255
152 193 255
152 193 255
152 193 255
152 193 255
152 193 255
152 193 255
152 193 255
152 193 255
152 193 255
152 193 255
152 194 255
152 194 255
152 194 255
152 194 255
152 194 255
152 194 255
152 194 255
152 194 255
152 194 255
152 194 255
152 194 255
153 194 255
153 194 255
153 194 255
153 194 255
153 194 255
153 194 255
153 194 255
153 194 255
153 194 255
153 194 255
153 194 255
153 194 255
153 194 255
153 194 255
153 194 255
153 194 255
153 194 255
153 194 255
153 194 255
154 194 255
154 194 255
154 194 255
154 194 255
154 195 255
154 195 255
154 195 255
154 195 255
154 195 255
154 195 255
154 195 255
154 195 255
154 195 255
155 195 255
155 195 255
155 195 255
155 195 255
155 195 255
155 195 255
155 195 255
155 195 255
155 195 255
155 195 255
155 195 255
156 196 255
156 196 255
156 196 255
156 196 255
156 196 255
156 196 255
156 196 255
156 196 255
156 196 255
156 196 255
157 196 255
157 196 255
157 196 255
157 196 255
157 196 255
157 196 255
157 196 255
157 197 255
157 197 255
157 197 255
158 197 255
158 197 255
158 197 255
158 197 255
158 197 255
158 197 255
158 197 255
158 197 255
158 197 255
159 197 255
159 197 255
159 197 255
159 197 255
159 198 255
159 198 255
159 198 255
159 198 255
159 198 255
159 198 255
160 198 255
160 198 255
160 198 255
160 198 255
160 198 255
160 198 255
160 198 255
160 198 255
160 198 255
161 199 255
161 199 255
161 199 255
161 199 255
161 199 255
161 199 255
161 199 255
161 199 255
161 199 255
161 199 255
162 199 255
162 199 255
162 199 255
162 199 255
162 199 255
162 199 255
162 200 255
162 200 255
162 200 255
162 200 255
163 200 255
163 200 255
163 200 255
163 200 255
163 200 255
163 200 255
163 200 255
163 200 255
163 200 255
163 200 255
164 200 255
164 200 255
164 200 255
164 201 255
164 201 255
164 201 255
164 201 255
164 201 255
164 201 255
164 201 255
165 201 255
165 201 255
165 201 255
165 201 255
165 201 255
165 201 255
165 201 255
165 201 255
165 201 255
165 201 255
165 201 255
166 202 255
166 202 255
166 202 255
166 202 255
166 202 255
166 202 255
166 202 255
166 202 255
166 202 255
166 202 255
166 202 255
167 202 255
167 202 255
167 202 255
167 202 255
167 202 255
167 202 255
167 202 255
167 202 255
167 203 255
167 203 255
167 203 255
167 203 255
168 203 255
168 203 255
168 203 255
168 203 255
168 203 255
168 203 255
168 203 255
168 203 255
168 203 255
168 203 255
168 203 255
168 203 255
168 203 255
169 203 255
169 203 255
169 203 255
169 203 255
169 203 255
168 203 255
168 203 255
168 203 255
168 203 255
168 203 255
168 203 255
168 203 255
168 203 255
168 203 255
168 203 255
168 203 255
168 203 255
168 203 255
167 203 255
167 203 255
167 203 255
167 203 255
167 202 255
167 202 255
167 202 255
167 202 255
167 202 255
167 202 255
167 202 255
167 202 255
166 202 255
166 202 255
166 202 255
166 202 255
166 202 255
166 202 255
166 202 255
166 202 255
166 202 255
166 202 255
166 202 255
165 201 255
165 201 255
165 201 255
165 201 255
165 201 255
165 201 255
165 201 255
165 201 255
165 201 255
165 201 255
165 201 255
164 201 255
164 201 255
164 201 255
164 201 255
164 201 255
164 201 255
164 201 255
164 200 255
164 200 255
164 200 255
163 200 255
163 200 255
163 200 255
163 200 255
163 200 255
163 200 255
163 200 255
163 200 255
163 200 255
163 200 255
162 200 255
162 200 255
162 200 255
162 199 255
162 199 255
162 199 255
162 199 255
162 199 255
162 199 255
162 199 255
161 199 255
161 199 255
161 199 255
161 199 255
161 199 255
161 199 255
161 199 255
161 199 255
161 199 255
160 198 255
160 198 255
160 198 255
160 198 255
160 198 255
160 198 255
160 198 255
160 198 255
160 198 255
160 198 255
159 198 255
159 198 255
159 198 255
159 198 255
159 198 255
159 198 255
159 197 255
159 197 255
159 197 255
158 197 255
158 197 255
158 197 255
158 197 255
158 197 255
158 197 255
158 197 255
158 197 255
158 197 255
158 197 255
157 197 255
157 197 255
157 197 255
157 196 255
157 196 255
157 196 255
157 196 255
157 196 255
157 196 255
157 196 255
156 196 255
156 196 255
156 196 255
156 196 255
156 196 255
156 196 255
156 196 255
156 196 255
156 196 255
156 196 255
155 195 255
155 195 255
155 195 255
155 195 255
155 195 255
155 195 255
155 195 255
155 195 255
155 195 255
155 195 255
155 195 255
155 195 255
154 195 255
154 195 255
154 195 255
154 195 255
154 195 255
154 195 255
154 195 255
154 195 255
154 195 255
154 194 255
154 194 255
154 194 255
154 194 255
154 194 255
153 194 255
153 194 255
153 194 255
153 194 255
153 194 255
153 194 255
153 194 255
153 194 255
153 194 255
153 194 255
153 194 255
153 194 255
153 194 255
153 194 255
153 194 255
153 194 255
153 194 255
153 194 255
153 194 255
153 194 255
153 194 255
153 194 255
152 194 255
152 194 255
152 194 255
152 194 255
152 194 255
152 194 255
152 194 255
152 194 255
152 194 255
152 194 255
152 194 255
152 194 255
152 194 255
152 194 255
152 194 255
152 194 255
152 194 255
152 194 255
152 194 255
152 194 255
152 194 255
152 194 255
152 194 255
152 194 255
152 194 255
152 194 255
153 194 255
153 194 255
153 194 255
153 194 255
153 194 255
153 194 255
153 194 255
153 194 255
153 194 255
153 194 255
153 194 255
153 194 255
153 194 255
153 194 255
153 194 255
153 194 255
153 194 255
153 194 255
153 194 255
153 194 255
153 194 255
153 194 255
154 194 255
154 194 255
154 194 255
154 194 255
154 194 255
154 194 255
154 195 255
154 195 255
154 195 255
154 195 255
154 195 255
154 195 255
154 195 255
154 195 255
155 195 255
155 195 255
155 195 255
155 195 255
155 195 255
155 195 255
155 195 255
155 195 255
155 195 255
155 195 255
155 195 255
155 195 255
156 196 255
156 196 255
156 196 255
156 196 255
156 196 255
156 196 255
156 196 255
156 196 255
156 196 255
156 196 255
157 196 255
157 196 255
157 196 255
157 196 255
157 196 255
157 196 255
157 196 255
157 197 255
157 197 255
157 197 255
158 197 255
158 197 255
158 197 255
158 197 255
158 197 255
158 197 255
158 197 255
158 197 255
158 197 255
158 197 255
159 197 255
159 197 255
159 197 255
159 198 255
159 198 255
159 198 255
159 198 255
159 198 255
159 198 255
160 198 255
160 198 255
160 198 255
160 198 255
160 198 255
160 198 255
160 198 255
160 198 255
160 198 255
160 198 255
161 199 255
161 199 255
161 199 255
161 199 255
161 199 255
161 199 255
161 199 255
161 199 255
161 199 255
162 199 255
162 199 255
162 199 255
162 199 255
162 199 255
162 199 255
162 199 255
162 200 255
162 200 255
162 200 255
163 200 255
163 200 255
163 200 255
163 200 255
163 200 255
163 200 255
163 200 255
163 200 255
163 200 255
163 200 255
164 200 255
164 200 255
164 200 255
164 201 255
164 201 255
164 201 255
164 201 255
164 201 255
164 201 255
164 201 255
165 201 255
165 201 255
165 201 255
165 201 255
165 201 255
165 201 255
165 201 255
165 201 255
165 201 255
165 201 255
165 201 255
166 202 255
166 202 255
166 202 255
166 202 255
166 202 255
166 202 255
166 202 255
166 202 255
166 202 255
166 202 255
166 202 255
167 202 255
167 202 255
167 202 255
167 202 255
167 202 255
167 202 255
167 202 255
167 202 255
167 203 255
167 203 255
167 203 255
167 203 255
168 203 255
168 203 255
168 203 255
168 203 255
168 203 255
168 203 255
168 203 255
168 203 255
168 203 255
168 203 255
168 203 255
168 203 255
168 203 255
169 203 255
169 203 255
169 203 255
169 203 255
169 204 255
169 204 255
169 204 255
169 203 255
169 203 255
169 203 255
169 203 255
168 203 255
168 203 255
168 203 255
168 203 255
168 203 255
168 203 255
168 203 255
168 203 255
168 203 255
168 203 255
168 203 255
168 203 255
168 203 255
167 203 255
167 203 255
167 203 255
167 203 255
167 202 255
167 202 255
167 202 255
167 202 255
167 202 255
167 202 255
167 202 255
166 202 255
166 202 255
166 202 255
166 202 255
166 202 255
166 202 255
166 202 255
166 202 255
166 202 255
166 202 255
166 202 255
166 202 255
165 201 255
165 201 255
165 201 255
165 201 255
165 201 255
165 201 255
165 201 255
165 201 255
165 201 255
165 201 255
164 201 255
164 201 255
164 201 255
164 201 255
164 201 255
164 201 255
164 201 255
164 200 255
164 200 255
164 200 255
164 200 255
163 200 255
163 200 255
163 200 255
163 200 255
163 200 255
163 200 255
163 200 255
163 200 255
163 200 255
163 200 255
162 200 255
162 200 255
162 200 255
162 199 255
162 199 255
162 199 255
162 199 255
162 199 255
162 199 255
161 199 255
161 199 255
161 199 255
161 199 255
161 199 255
161 199 255
161 199 255
161 199 255
161 199 255
161 199 255
160 198 255
160 198 255
160 198 255
160 198 255
160 198 255
160 198 255
160 198 255
160 198 255
160 198 255
160 198 255
159 198 255
159 198 255
159 198 255
159 198 255
159 198 255
159 198 255
159 197 255
159 197 255
159 197 255
158 197 255
158 197 255
158 197 255
158 197 255
158 197 255
158 197 255
158 197 255
158 197 255
158 197 255
157 197 255
157 197 255
157 197 255
157 197 255
157 196 255
157 196 255
157 196 255
157 196 255
157 196 255
157 196 255
157 196 255
156 196 255
156 196 255
156 196 255
156 196 255
156 196 255
156 196 255
156 196 255
156 196 255
156 196 255
156 196 255
155 195 255
155 195 255
155 195 255
155 195 255
155 195 255
155 195 255
155 195 255
155 195 255
155 195 255
155 195 255
155 195 255
155 195 255
155 195 255
154 195 255
154 195 255
154 195 255
154 195 255
154 195 255
154 195 255
154 195 255
154 195 255
154 195 255
154 194 255
154 194 255
154 194 255
154 194 255
154 194 255
154 194 255
153 194 255
153 194 255
153 194 255
153 194 255
153 194 255
153 194 255
153 194 255
153 194 255
153 194 255
153 194 255
153 194 255
153 194 255
153 194 255
153 194 255
153 194 255
153 194 255
153 194 255
153 194 255
153 194 255
153 194 255
153 194 255
153 194 255
153 194 255
153 194 255
153 194 255
153 194 255
153 194 255
153 194 255
153 194 255
153 194 255
153 194 255
153 194 255
153 194 255
153 194 255
153 194 255
153 194 255
153 194 255
153 194 255
153 194 255
153 194 255
153 194 255
153 194 255
153 194 255
153 194 255
153 194 255
153 194 255
153 194 255
153 194 255
153 194 255
153 194 255
153 194 255
153 194 255
153 194 255
153 194 255
153 194 255
153 194 255
153 194 255
153 194 255
153 194 255
153 194 255
154 194 255
154 194 255
154 194 255
154 194 255
154 194 255
154 194 255
154 195 255
154 195 255
154 195 255
154 195 255
154 195 255
154 195 255
154 195 255
154 195 255
154 195 255
154 195 255
155 195 255
155 195 255
155 195 255
155 195 255
155 195 255
155 195 255
155 195 255
155 195 255
155 195 255
155 195 255
155 195 255
155 195 255
156 196 255
156 196 255
156 196 255
156 196 255
156 196 255
156 196 255
156 196 255
156 196 255
156 196 255
156 196 255
157 196 255
157 196 255
157 196 255
157 196 255
157 196 255
157 196 255
157 196 255
157 197 255
157 197 255
157 197 255
158 197 255
158 197 255
158 197 255
158 197 255
158 197 255
158 197 255
158 197 255
158 197 255
158 197 255
158 197 255
159 197 255
159 197 255
159 197 255
159 198 255
159 198 255
159 198 255
159 198 255
159 198 255
159 198 255
159 198 255
160 198 255
160 198 255
160 198 255
160 198 255
160 198 255
160 198 255
160 198 255
160 198 255
160 198 255
161 199 255
161 199 255
161 199 255
161 199 255
161 199 255
161 199 255
161 199 255
161 199 255
161 199 255
161 199 255
162 199 255
162 199 255
162 199 255
162 199 255
162 199 255
162 199 255
162 200 255
162 200 255
162 200 255
163 200 255
163 200 255
163 200 255
163 200 255
163 200 255
163 200 255
163 200 255
163 200 255
163 200 255
163 200 255
164 200 255
164 200 255
164 200 255
164 200 255
164 201 255
164 201 255
164 201 255
164 201 255
164 201 255
164 201 255
164 201 255
165 201 255
165 201 255
165 201 255
165 201 255
165 201 255
165 201 255
165 201 255
165 201 255
165 201 255
165 201 255
166 202 255
166 202 255
166 202 255
166 202 255
166 202 255
166 202 255
166 202 255
166 202 255
166 202 255
166 202 255
166 202 255
166 202 255
167 202 255
167 202 255
167 202 255
167 202 255
167 202 255
167 202 255
167 202 255
167 203 255
167 203 255
167 203 255
167 203 255
168 203 255
168 203 255
168 203 255
168 203 255
168 203 255
168 203 255
168 203 255
168 203 255
168 203 255
168 203 255
168 203 255
168 203 255
168 203 255
169 203 255
169 203 255
169 203 255
169 203 255
169 204 255
169 204 255
169 204 255
169 204 255
169 204 255
169 204 255
169 204 255
169 204 255
169 204 255
169 203 255
169 203 255
169 203 255
169 203 255
168 203 255
168 203 255
168 203 255
168 203 255
168 203 255
168 203 255
168 203 255
168 203 255
168 203 255
168 203 255
168 203 255
168 203 255
168 203 255
167 203 255
167 203 255
167 203 255
167 202 255
167 202 255
167 202 255
167 202 255
167 202 255
167 202 255
167 202 255
167 202 255
166 202 255
166 202 255
166 202 255
166 202 255
166 202 255
166 202 255
166 202 255
166 202 255
166 202 255
166 202 255
166 202 255
165 201 255
165 201 255
165 201 255
165 201 255
165 201 255
165 201 255
165 201 255
165 201 255
165 201 255
165 201 255
165 201 255
164 201 255
164 201 255
164 201 255
164 201 255
164 201 255
164 201 255
164 201 255
164 200 255
164 200 255
164 200 255
163 200 255
163 200 255
163 200 255
163 200 255
163 200 255
163 200 255
163 200 255
163 200 255
163 200 255
163 200 255
162 200 255
162 200 255
162 200 255
162 199 255
162 199 255
162 199 255
162 199 255
162 199 255
162 199 255
162 199 255
161 199 255
161 199 255
161 199 255
161 199 255
161 199 255
161 199 255
161 199 255
161 199 255
161 199 255
160 198 255
160 198 255
160 198 255
160 198 255
160 198 255
160 198 255
160 198 255
160 198 255
160 198 255
160 198 255
159 198 255
159 198 255
159 198 255
159 198 255
159 198 255
159 198 255
159 197 255
159 197 255
159 197 255
159 197 255
158 197 255
158 197 255
158 197 255
158 197 255
158 197 255
158 197 255
158 197 255
158 197 255
158 197 255
158 197 255
157 197 255
157 197 255
157 197 255
157 196 255
157 196 255
157 196 255
157 196 255
157 196 255
157 196 255
156 196 255
156 196 255
156 196 255
156 196 255
156 196 255
156 196 255
156 196 255
156 196 255
156 196 255
156 196 255
156 196 255
156 196 255
155 195 255
155 195 255
155 195 255
155 195 255
155 195 255
155 195 255
155 195 255
155 195 255
155 195 255
155 195 255
155 195 255
155 195 255
154 195 255
154 195 255
154 195 255
154 195 255
154 195 255
154 195 255
154 195 255
154 195 255
154 195 255
154 195 255
154 195 255
154 194 255
154 194 255
154 194 255
154 194 255
154 194 255
154 194 255
153 194 255
153 194 255
153 194 255
153 194 255
153 194 255
153 194 255
153 194 255
153 194 255
153 194 255
153 194 255
153 194 255
153 194 255
153 194 255
153 194 255
153 194 255
153 194 255
153 194 255
153 194 255
153 194 255
153 194 255
153 194 255
153 194 255
153 194 255
153 194 255
153 194 255
153 194 255
153 194 255
153 194 255
153 194 255
153 194 255
153 194 255
153 194 255
153 194 255
153 194 255
153 194 255
153 194 255
153 194 255
153 194 255
153 194 255
153 194 255
153 194 255
153 194 255
153 194 255
153 194 255
153 194 255
153 194 255
153 194 255
153 194 255
153 194 255
153 194 255
154 194 255
154 194 255
154 194 255
154 194 255
154 194 255
154 194 255
154 195 255
154 195 255
154 195 255
154 195 255
154 195 255
154 195 255
154 195 255
154 195 255
154 195 255
154 195 255
155 195 255
155 195 255
155 195 255
155 195 255
155 195 255
155 195 255
155 195 255
155 195 255
155 195 255
155 195 255
155 195 255
155 195 255
155 195 255
156 196 255
156 196 255
156 196 255
156 196 255
156 196 255
156 196 255
156 196 255
156 196 255
156 196 255
156 196 255
156 196 255
156 196 255
157 196 255
157 196 255
157 196 255
157 196 255
157 196 255
157 196 255
157 197 255
157 197 255
157 197 255
157 197 255
158 197 255
158 197 255
158 197 255
158 197 255
158 197 255
158 197 255
158 197 255
158 197 255
158 197 255
159 197 255
159 197 255
159 197 255
159 197 255
159 198 255
159 198 255
159 198 255
159 198 255
159 198 255
159 198 255
160 198 255
160 198 255
160 198 255
160 198 255
160 198 255
160 198 255
160 198 255
160 198 255
160 198 255
160 198 255
161 199 255
161 199 255
161 199 255
161 199 255
161 199 255
161 199 255
161 199 255
161 199 255
161 199 255
162 199 255
162 199 255
162 199 255
162 199 255
162 199 255
162 199 255
162 199 255
162 200 255
162 200 255
162 200 255
163 200 255
163 200 255
163 200 255
163 200 255
163 200 255
163 200 255
163 200 255
163 200 255
163 200 255
163 200 255
164 200 255
164 200 255
164 200 255
164 201 255
164 201 255
164 201 255
164 201 255
164 201 255
164 201 255
164 201 255
165 201 255
165 201 255
165 201 255
165 201 255
165 201 255
165 201 255
165 201 255
165 201 255
165 201 255
165 201 255
165 201 255
166 202 255
166 202 255
166 202 255
166 202 255
166 202 255
166 202 255
166 202 255
166 202 255
166 202 255
166 202 255
166 202 255
167 202 255
167 202 255
167 202 255
167 202 255
167 202 255
167 202 255
167 202 255
167 202 255
167 203 255
167 203 255
167 203 255
168 203 255
168 203 255
168 203 255
168 203 255
168 203 255
168 203 255
168 203 255
168 203 255
168 203 255
168 203 255
168 203 255
168 203 255
168 203 255
169 203 255
169 203 255
169 203 255
169 203 255
169 204 255
169 204 255
169 204 255
169 204 255
169 204 255
169 204 255
169 204 255
169 204 255
169 204 255
169 204 255
169 204 255
169 204 255
169 204 255
169 204 255
169 204 255
169 203 255
169 203 255
169 203 255
169 203 255
168 203 255
168 203 255
168 203 255
168 203 255
168 203 255
168 203 255
168 203 255
168 203 255
168 203 255
168 203 255
168 203 255
168 203 255
167 203 255
167 203 255
167 203 255
167 203 255
167 202 255
167 202 255
167 202 255
167 202 255
167 202 255
167 202 255
167 202 255
167 202 255
166 202 255
166 202 255
166 202 255
166 202 255
166 202 255
166 202 255
166 202 255
166 202 255
166 202 255
166 202 255
166 202 255
165 201 255
165 201 255
165 201 255
165 201 255
165 201 255
165 201 255
165 201 255
165 201 255
165 201 255
165 201 255
165 201 255
164 201 255
164 201 255
164 201 255
164 201 255
164 201 255
164 201 255
164 201 255
164 200 255
164 200 255
164 200 255
163 200 255
163 200 255
163 200 255
163 200 255
163 200 255
163 200 255
163 200 255
163 200 255
163 200 255
163 200 255
162 200 255
162 200 255
162 200 255
162 199 255
162 199 255
162 199 255
162 199 255
162 199 255
162 199 255
162 199 255
161 199 255
161 199 255
161 199 255
161 199 255
161 199 255
161 199 255
161 199 255
161 199 255
161 199 255
160 198 255
160 198 255
160 198 255
160 198 255
160 198 255
160 198 255
160 198 255
160 198 255
160 198 255
160 198 255
159 198 255
159 198 255
159 198 255
159 198 255
159 198 255
159 198 255
159 197 255
159 197 255
159 197 255
158 197 255
158 197 255
158 197 255
158 197 255
158 197 255
158 197 255
158 197 255
158 197 255
158 197 255
158 197 255
157 197 255
157 197 255
157 197 255
157 197 255
157 196 255
157 196 255
157 196 255
157 196 255
157 196 255
157 196 255
157 196 255
156 196 255
156 196 255
156 196 255
156 196 255
156 196 255
156 196 255
156 196 255
156 196 255
156 196 255
156 196 255
156 196 255
155 195 255
155 195 255
155 195 255
155 195 255
155 195 255
155 195 255
155 195 255
155 195 255
155 195 255
155 195 255
155 195 255
155 195 255
155 195 255
155 195 255
154 195 255
154 195 255
154 195 255
154 195 255
154 195 255
154 195 255
154 195 255
154 195 255
154 195 255
154 195 255
154 195 255
154 194 255
154 194 255
154 194 255
154 194 255
154 194 255
154 194 255
154 194 255
154 194 255
154 194 255
153 194 255
153 194 255
153 194 255
153 194 255
153 194 255
153 194 255
153 194 255
153 194 255
153 194 255
153 194 255
153 194 255
153 194 255
153 194 255
153 194 255
153 194 255
153 194 255
153 194 255
153 194 255
153 194 255
153 194 255
153 194 255
153 194 255
153 194 255
153 194 255
153 194 255
153 194 255
153 194 255
153 194 255
153 194 255
153 194 255
153 194 255
153 194 255
153 194 255
153 194 255
154 194 255
154 194 255
154 194 255
154 194 255
154 194 255
154 194 255
154 194 255
154 194 255
154 194 255
154 195 255
154 195 255
154 195 255
154 195 255
154 195 255
154 195 255
154 195 255
154 195 255
154 195 255
154 195 255
154 195 255
155 195 255
155 195 255
155 195 255
155 195 255
155 195 255
155 195 255
155 195 255
155 195 255
155 195 255
155 195 255
155 195 255
155 195 255
155 195 255
155 195 255
156 196 255
156 196 255
156 196 255
156 196 255
156 196 255
156 196 255
156 196 255
156 196 255
156 196 255
156 196 255
156 196 255
157 196 255
157 196 255
157 196 255
157 196 255
157 196 255
157 196 255
157 196 255
157 197 255
157 197 255
157 197 255
157 197 255
158 197 255
158 197 255
158 197 255
158 197 255
158 197 255
158 197 255
158 197 255
158 197 255
158 197 255
158 197 255
159 197 255
159 197 255
159 197 255
159 198 255
159 198 255
159 198 255
159 198 255
159 198 255
159 198 255
160 198 255
160 198 255
160 198 255
160 198 255
160 198 255
160 198 255
160 198 255
160 198 255
160 198 255
160 198 255
161 199 255
161 199 255
161 199 255
161 199 255
161 199 255
161 199 255
161 199 255
161 199 255
161 199 255
162 199 255
162 199 255
162 199 255
162 199 255
162 199 255
162 199 255
162 199 255
162 200 255
162 200 255
162 200 255
163 200 255
163 200 255
163 200 255
163 200 255
163 200 255
163 200 255
163 200 255
163 200 255
163 200 255
163 200 255
164 200 255
164 200 255
164 200 255
164 201 255
164 201 255
164 201 255
164 201 255
164 201 255
164 201 255
164 201 255
165 201 255
165 201 255
165 201 255
165 201 255
165 201 255
165 201 255
165 201 255
165 201 255
165 201 255
165 201 255
165 201 255
166 202 255
166 202 255
166 202 255
166 202 255
166 202 255
166 202 255
166 202 255
166 202 255
166 202 255
166 202 255
166 202 255
167 202 255
167 202 255
167 202 255
167 202 255
167 202 255
167 202 255
167 202 255
167 202 255
167 203 255
167 203 255
167 203 255
168 203 255
168 203 255
168 203 255
168 203 255
168 203 255
168 203 255
168 203 255
168 203 255
168 203 255
168 203 255
168 203 255
168 203 255
168 203 255
169 203 255
169 203 255
169 203 255
169 203 255
169 204 255
169 204 255
169 204 255
169 204 255
169 204 255
169 204 255
169 204 255
169 204 255
169 204 255
170 204 255
170 204 255
170 204 255
169 204 255
169 204 255
169 204 255
169 204 255
169 204 255
169 204 255
169 204 255
169 204 255
169 204 255
169 203 255
169 203 255
169 203 255
169 203 255
168 203 255
168 203 255
168 203 255
168 203 255
168 203 255
168 203 255
168 203 255
168 203 255
168 203 255
168 203 255
168 203 255
168 203 255
167 203 255
167 203 255
167 203 255
167 203 255
167 202 255
167 202 255
167 202 255
167 202 255
167 202 255
167 202 255
167 202 255
167 202 255
166 202 255
166 202 255
166 202 255
166 202 255
166 202 255
166 202 255
166 202 255
166 202 255
166 202 255
166 202 255
166 202 255
165 201 255
165 201 255
165 201 255
165 201 255
165 201 255
165 201 255
165 201 255
165 201 255
165 201 255
165 201 255
164 201 255
164 201 255
164 201 255
164 201 255
164 201 255
164 201 255
164 201 255
164 200 255
164 200 255
164 200 255
164 200 255
163 200 255
163 200 255
163 200 255
163 200 255
163 200 255
163 200 255
163 200 255
163 200 255
163 200 255
163 200 255
162 200 255
162 200 255
162 200 255
162 199 255
162 199 255
162 199 255
162 199 255
162 199 255
162 199 255
161 199 255
161 199 255
161 199 255
161 199 255
161 199 255
161 199 255
161 199 255
161 199 255
161 199 255
161 199 255
160 198 255
160 198 255
160 198 255
160 198 255
160 198 255
160 198 255
160 198 255
160 198 255
160 198 255
159 198 255
159 198 255
159 198 255
159 198 255
159 198 255
159 198 255
159 198 255
159 197 255
159 197 255
159 197 255
158 197 255
158 197 255
158 197 255
158 197 255
158 197 255
158 197 255
158 197 255
158 197 255
158 197 255
158 197 255
157 197 255
157 197 255
157 197 255
157 197 255
157 196 255
157 196 255
157 196 255
157 196 255
157 196 255
157 196 255
157 196 255
156 196 255
156 196 255
156 196 255
156 196 255
156 196 255
156 196 255
156 196 255
156 196 255
156 196 255
156 196 255
156 196 255
156 196 255
155 195 255
155 195 255
155 195 255
155 195 255
155 195 255
155 195 255
155 195 255
155 195 255
155 195 255
155 195 255
155 195 255
155 195 255
155 195 255
155 195 255
154 195 255
154 195 255
154 195 255
154 195 255
154 195 255
154 195 255
154 195 255
154 195 255
154 195 255
154 195 255
154 195 255
154 195 255
154 195 255
154 195 255
154 195 255
154 194 255
154 194 255
154 194 255
154 194 255
154 194 255
154 194 255
154 194 255
154 194 255
154 194 255
154 194 255
154 194 255
154 194 255
154 194 255
154 194 255
154 194 255
154 194 255
153 194 255
154 194 255
153 194 255
154 194 255
153 194 255
154 194 255
154 194 255
154 194 255
154 194 255
154 194 255
154 194 255
154 194 255
154 194 255
154 194 255
154 194 255
154 194 255
154 194 255
154 194 255
154 194 255
154 194 255
154 194 255
154 195 255
154 195 255
154 195 255
154 195 255
154 195 255
154 195 255
154 195 255
154 195 255
154 195 255
154 195 255
154 195 255
154 195 255
154 195 255
154 195 255
155 195 255
155 195 255
155 195 255
155 195 255
155 195 255
155 195 255
155 195 255
155 195 255
155 195 255
155 195 255
155 195 255
155 195 255
155 195 255
155 195 255
156 196 255
156 196 255
156 196 255
156 196 255
156 196 255
156 196 255
156 196 255
156 196 255
156 196 255
156 196 255
156 196 255
156 196 255
157 196 255
157 196 255
157 196 255
157 196 255
157 196 255
157 196 255
157 196 255
157 197 255
157 197 255
157 197 255
157 197 255
158 197 255
158 197 255
158 197 255
158 197 255
158 197 255
158 197 255
158 197 255
158 197 255
158 197 255
158 197 255
159 197 255
159 197 255
159 197 255
159 198 255
159 198 255
159 198 255
159 198 255
159 198 255
159 198 255
160 198 255
160 198 255
160 198 255
160 198 255
160 198 255
160 198 255
160 198 255
160 198 255
160 198 255
160 198 255
161 199 255
161 199 255
161 199 255
161 199 255
161 199 255
161 199 255
161 199 255
161 199 255
161 199 255
161 199 255
162 199 255
162 199 255
162 199 255
162 199 255
162 199 255
162 199 255
162 200 255
162 200 255
162 200 255
163 200 255
163 200 255
163 200 255
163 200 255
163 200 255
163 200 255
163 200 255
163 200 255
163 200 255
163 200 255
164 200 255
164 200 255
164 200 255
164 200 255
164 201 255
164 201 255
164 201 255
164 201 255
164 201 255
164 201 255
165 201 255
165 201 255
165 201 255
165 201 255
165 201 255
165 201 255
165 201 255
165 201 255
165 201 255
165 201 255
165 201 255
166 202 255
166 202 255
166 202 255
166 202 255
166 202 255
166 202 255
166 202 255
166 202 255
166 202 255
166 202 255
166 202 255
167 202 255
167 202 255
167 202 255
167 202 255
167 202 255
167 202 255
167 202 255
167 202 255
167 203 255
167 203 255
167 203 255
167 203 255
168 203 255
168 203 255
168 203 255
168 203 255
168 203 255
168 203 255
168 203 255
168 203 255
168 203 255
168 203 255
168 203 255
168 203 255
169 203 255
169 203 255
169 203 255
169 203 255
169 204 255
169 204 255
169 204 255
169 204 255
169 204 255
169 204 255
169 204 255
169 204 255
169 204 255
170 204 255
170 204 255
170 204 255
170 204 255
170 204 255
170 204 255
170 204 255
170 204 255
170 204 255
169 204 255
169 204 255
169 204 255
169 204 255
169 204 255
169 204 255
169 204 255
169 204 255
169 204 255
169 203 255
169 203 255
169 203 255
169 203 255
168 203 255
168 203 255
168 203 255
168 203 255
168 203 255
168 203 255
168 203 255
168 203 255
168 203 255
168 203 255
168 203 255
168 203 255
167 203 255
167 203 255
167 203 255
167 203 255
167 202 255
167 202 255
167 202 255
167 202 255
167 202 255
167 202 255
167 202 255
167 202 255
166 202 255
166 202 255
166 202 255
166 202 255
166 202 255
166 202 255
166 202 255
166 202 255
166 202 255
166 202 255
166 202 255
165 201 255
165 201 255
165 201 255
165 201 255
165 201 255
165 201 255
165 201 255
165 201 255
165 201 255
165 201 255
164 201 255
164 201 255
164 201 255
164 201 255
164 201 255
164 201 255
164 201 255
164 200 255
164 200 255
164 200 255
163 200 255
163 200 255
163 200 255
163 200 255
163 200 255
163 200 255
163 200 255
163 200 255
163 200 255
163 200 255
162 200 255
162 200 255
162 200 255
162 200 255
162 199 255
162 199 255
162 199 255
162 199 255
162 199 255
162 199 255
161 199 255
161 199 255
161 199 255
161 199 255
161 199 255
161 199 255
161 199 255
161 199 255
161 199 255
161 199 255
160 198 255
160 198 255
160 198 255
160 198 255
160 198 255
160 198 255
160 198 255
160 198 255
160 198 255
159 198 255
159 198 255
159 198 255
159 198 255
159 198 255
159 198 255
159 198 255
159 197 255
159 197 255
159 197 255
158 197 255
158 197 255
158 197 255
158 197 255
158 197 255
158 197 255
158 197 255
158 197 255
158 197 255
158 197 255
157 197 255
157 197 255
157 197 255
157 197 255
157 196 255
157 196 255
157 196 255
157 196 255
157 196 255
157 196 255
157 196 255
157 196 255
156 196 255
156 196 255
156 196 255
156 196 255
156 196 255
156 196 255
156 196 255
156 196 255
156 196 255
156 196 255
156 196 255
156 196 255
155 195 255
155 195 255
155 195 255
155 195 255
155 195 255
155 195 255
155 195 255
155 195 255
155 195 255
155 195 255
155 195 255
155 195 255
155 195 255
155 195 255
155 195 255
155 195 255
154 195 255
154 195 255
154 195 255
154 195 255
154 195 255
154 195 255
154 195 255
154 195 255
154 195 255
154 195 255
154 195 255
154 195 255
154 195 255
154 195 255
154 195 255
154 195 255
154 195 255
154 195 255
154 195 255
154 195 255
154 194 255
154 194 255
154 194 255
154 194 255
154 194 255
154 194 255
154 194 255
154 194 255
154 194 255
154 194 255
154 194 255
154 194 255
154 194 255
154 194 255
154 195 255
154 195 255
154 195 255
154 195 255
154 195 255
154 195 255
154 195 255
154 195 255
154 195 255
154 195 255
154 195 255
154 195 255
154 195 255
154 195 255
154 195 255
154 195 255
154 195 255
154 195 255
154 195 255
154 195 255
155 195 255
155 195 255
155 195 255
155 195 255
155 195 255
155 195 255
155 195 255
155 195 255
155 195 255
155 195 255
155 195 255
155 195 255
155 195 255
155 195 255
155 195 255
155 195 255
156 196 255
156 196 255
156 196 255
156 196 255
156 196 255
156 196 255
156 196 255
156 196 255
156 196 255
156 196 255
156 196 255
156 196 255
156 196 255
157 196 255
157 196 255
157 196 255
157 196 255
157 196 255
157 196 255
157 196 255
157 197 255
157 197 255
157 197 255
157 197 255
158 197 255
158 197 255
158 197 255
158 197 255
158 197 255
158 197 255
158 197 255
158 197 255
158 197 255
158 197 255
159 197 255
159 197 255
159 197 255
159 198 255
159 198 255
159 198 255
159 198 255
159 198 255
159 198 255
159 198 255
160 198 255
160 198 255
160 198 255
160 198 255
160 198 255
160 198 255
160 198 255
160 198 255
160 198 255
161 199 255
161 199 255
161 199 255
161 199 255
161 199 255
161 199 255
161 199 255
161 199 255
161 199 255
161 199 255
162 199 255
162 199 255
162 199 255
162 199 255
162 199 255
162 199 255
162 200 255
162 200 255
162 200 255
162 200 255
163 200 255
163 200 255
163 200 255
163 200 255
163 200 255
163 200 255
163 200 255
163 200 255
163 200 255
164 200 255
164 200 255
164 200 255
164 200 255
164 201 255
164 201 255
164 201 255
164 201 255
164 201 255
164 201 255
164 201 255
165 201 255
165 201 255
165 201 255
165 201 255
165 201 255
165 201 255
165 201 255
165 201 255
165 201 255
165 201 255
166 202 255
166 202 255
166 202 255
166 202 255
166 202 255
166 202 255
166 202 255
166 202 255
166 202 255
166 202 255
166 202 255
167 202 255
167 202 255
167 202 255
167 202 255
167 202 255
167 202 255
167 202 255
167 202 255
167 203 255
167 203 255
167 203 255
167 203 255
168 203 255
168 203 255
168 203 255
168 203 255
168 203 255
168 203 255
168 203 255
168 203 255
168 203 255
168 203 255
168 203 255
168 203 255
169 203 255
169 203 255
169 203 255
169 203 255
169 204 255
169 204 255
169 204 255
169 204 255
169 204 255
169 204 255
169 204 255
169 204 255
169 204 255
170 204 255
170 204 255
170 204 255
170 204 255
170 204 255
170 204 255
170 204 255
170 204 255
170 204 255
170 204 255
170 204 255
170 204 255
170 204 255
170 204 255
170 204 255
169 204 255
169 204 255
169 204 255
169 204 255
169 204 255
169 204 255
169 204 255
169 204 255
169 204 255
169 203 255
169 203 255
169 203 255
169 203 255
168 203 255
168 203 255
168 203 255
168 203 255
168 203 255
168 203 255
168 203 255
168 203 255
168 203 255
168 203 255
168 203 255
168 203 255
167 203 255
167 203 255
167 203 255
167 203 255
167 202 255
167 202 255
167 202 255
167 202 255
167 202 255
167 202 255
167 202 255
167 202 255
166 202 255
166 202 255
166 202 255
166 202 255
166 202 255
166 202 255
166 202 255
166 202 255
166 202 255
166 202 255
166 202 255
165 201 255
165 201 255
165 201 255
165 201 255
165 201 255
165 201 255
165 201 255
165 201 255
165 201 255
165 201 255
164 201 255
164 201 255
164 201 255
164 201 255
164 201 255
164 201 255
164 201 255
164 200 255
164 200 255
164 200 255
163 200 255
163 200 255
163 200 255
163 200 255
163 200 255
163 200 255
163 200 255
163 200 255
163 200 255
163 200 255
162 200 255
162 200 255
162 200 255
162 199 255
162 199 255
162 199 255
162 199 255
162 199 255
162 199 255
162 199 255
161 199 255
161 199 255
161 199 255
161 199 255
161 199 255
161 199 255
161 199 255
161 199 255
161 199 255
161 199 255
160 198 255
160 198 255
160 198 255
160 198 255
160 198 255
160 198 255
160 198 255
160 198 255
160 198 255
159 198 255
159 198 255
159 198 255
159 198 255
159 198 255
159 198 255
159 198 255
159 197 255
159 197 255
159 197 255
158 197 255
158 197 255
158 197 255
158 197 255
158 197 255
158 197 255
158 197 255
158 197 255
158 197 255
158 197 255
158 197 255
157 197 255
157 197 255
157 197 255
157 196 255
157 196 255
157 196 255
157 196 255
157 196 255
157 196 255
157 196 255
157 196 255
156 196 255
156 196 255
156 196 255
156 196 255
156 196 255
156 196 255
156 196 255
156 196 255
156 196 255
156 196 255
156 196 255
156 196 255
156 196 255
155 195 255
155 195 255
155 195 255
155 195 255
155 195 255
155 195 255
155 195 255
155 195 255
155 195 255
155 195 255
155 195 255
155 195 255
155 195 255
155 195 255
155 195 255
155 195 255
155 195 255
155 195 255
154 195 255
154 195 255
154 195 255
154 195 255
154 195 255
154 195 255
154 195 255
154 195 255
154 195 255
154 195 255
154 195 255
154 195 255
154 195 255
154 195 255
154 195 255
154 195 255
154 195 255
154 195 255
154 195 255
154 195 255
154 195 255
154 195 255
154 195 255
154 195 255
154 195 255
154 195 255
154 195 255
154 195 255
154 195 255
154 195 255
154 195 255
154 195 255
154 195 255
154 195 255
154 195 255
154 195 255
154 195 255
154 195 255
154 195 255
154 195 255
154 195 255
155 195 255
155 195 255
155 195 255
155 195 255
155 195 255
155 195 255
155 195 255
155 195 255
155 195 255
155 195 255
155 195 255
155 195 255
155 195 255
155 195 255
155 195 255
155 195 255
155 195 255
155 195 255
155 195 255
156 196 255
156 196 255
156 196 255
156 196 255
156 196 255
156 196 255
156 196 255
156 196 255
156 196 255
156 196 255
156 196 255
156 196 255
156 196 255
157 196 255
157 196 255
157 196 255
157 196 255
157 196 255
157 196 255
157 196 255
157 196 255
157 197 255
157 197 255
157 197 255
157 197 255
158 197 255
158 197 255
158 197 255
158 197 255
158 197 255
158 197 255
158 197 255
158 197 255
158 197 255
158 197 255
159 197 255
159 197 255
159 197 255
159 198 255
159 198 255
159 198 255
159 198 255
159 198 255
159 198 255
159 198 255
160 198 255
160 198 255
160 198 255
160 198 255
160 198 255
160 198 255
160 198 255
160 198 255
160 198 255
161 199 255
161 199 255
161 199 255
161 199 255
161 199 255
161 199 255
161 199 255
161 199 255
161 199 255
161 199 255
162 199 255
162 199 255
162 199 255
162 199 255
162 199 255
162 199 255
162 199 255
162 200 255
162 200 255
162 200 255
163 200 255
163 200 255
163 200 255
163 200 255
163 200 255
163 200 255
163 200 255
163 200 255
163 200 255
163 200 255
164 200 255
164 200 255
164 200 255
164 201 255
164 201 255
164 201 255
164 201 255
164 201 255
164 201 255
164 201 255
165 201 255
165 201 255
165 201 255
165 201 255
165 201 255
165 201 255
165 201 255
165 201 255
165 201 255
165 201 255
166 202 255
166 202 255
166 202 255
166 202 255
166 202 255
166 202 255
166 202 255
166 202 255
166 202 255
166 202 255
166 202 255
167 202 255
167 202 255
167 202 255
167 202 255
167 202 255
167 202 255
167 202 255
167 202 255
167 203 255
167 203 255
167 203 255
167 203 255
168 203 255
168 203 255
168 203 255
168 203 255
168 203 255
168 203 255
168 203 255
168 203 255
168 203 255
168 203 255
168 203 255
168 203 255
169 203 255
169 203 255
169 203 255
169 203 255
169 204 255
169 204 255
169 204 255
169 204 255
169 204 255
169 204 255
169 204 255
169 204 255
169 204 255
170 204 255
170 204 255
170 204 255
170 204 255
170 204 255
170 204 255
170 204 255
170 204 255
170 204 255
170 204 255
170 204 255
170 204 255
170 204 255
170 204 255
170 204 255
170 204 255
170 204 255
170 204 255
170 204 255
170 204 255
170 204 255
170 204 255
169 204 255
169 204 255
169 204 255
169 204 255
169 204 255
169 204 255
169 204 255
169 204 255
169 203 255
169 203 255
169 203 255
169 203 255
168 203 255
168 203 255
168 203 255
168 203 255
168 203 255
168 203 255
168 203 255
168 203 255
168 203 255
168 203 255
168 203 255
168 203 255
167 203 255
167 203 255
167 203 255
167 203 255
167 202 255
167 202 255
167 202 255
167 202 255
167 202 255
167 202 255
167 202 255
167 202 255
166 202 255
166 202 255
166 202 255
166 202 255
166 202 255
166 202 255
166 202 255
166 202 255
166 202 255
166 202 255
165 201 255
165 201 255
165 201 255
165 201 255
165 201 255
165 201 255
165 201 255
165 201 255
165 201 255
165 201 255
165 201 255
164 201 255
164 201 255
164 201 255
164 201 255
164 201 255
164 201 255
164 201 255
164 200 255
164 200 255
164 200 255
163 200 255
163 200 255
163 200 255
163 200 255
163 200 255
163 200 255
163 200 255
163 200 255
163 200 255
163 200 255
162 200 255
162 200 255
162 200 255
162 199 255
162 199 255
162 199 255
162 199 255
162 199 255
162 199 255
162 199 255
161 199 255
161 199 255
161 199 255
161 199 255
161 199 255
161 199 255
161 199 255
161 199 255
161 199 255
160 198 255
160 198 255
160 198 255
160 198 255
160 198 255
160 198 255
160 198 255
160 198 255
160 198 255
160 198 255
159 198 255
159 198 255
159 198 255
159 198 255
159 198 255
159 198 255
159 198 255
159 197 255
159 197 255
159 197 255
158 197 255
158 197 255
158 197 255
158 197 255
158 197 255
158 197 255
158 197 255
158 197 255
158 197 255
158 197 255
158 197 255
157 197 255
157 197 255
157 197 255
157 197 255
157 196 255
157 196 255
157 196 255
157 196 255
157 196 255
157 196 255
157 196 255
157 196 255
156 196 255
156 196 255
156 196 255
156 196 255
156 196 255
156 196 255
156 196 255
156 196 255
156 196 255
156 196 255
156 196 255
156 196 255
156 196 255
156 196 255
155 195 255
155 195 255
155 195 255
155 195 255
155 195 255
155 195 255
155 195 255
155 195 255
155 195 255
155 195 255
155 195 255
155 195 255
155 195 255
155 195 255
155 195 255
155 195 255
155 195 255
155 195 255
155 195 255
155 195 255
155 195 255
155 195 255
155 195 255
155 195 255
154 195 255
154 195 255
154 195 255
154 195 255
154 195 255
154 195 255
154 195 255
154 195 255
154 195 255
154 195 255
154 195 255
154 195 255
154 195 255
154 195 255
154 195 255
154 195 255
154 195 255
154 195 255
154 195 255
155 195 255
155 195 255
155 195 255
155 195 255
155 195 255
155 195 255
155 195 255
155 195 255
155 195 255
155 195 255
155 195 255
155 195 255
155 195 255
155 195 255
155 195 255
155 195 255
155 195 255
155 195 255
155 195 255
155 195 255
155 195 255
155 195 255
155 195 255
155 195 255
155 195 255
156 196 255
156 196 255
156 196 255
156 196 255
156 196 255
156 196 255
156 196 255
156 196 255
156 196 255
156 196 255
156 196 255
156 196 255
156 196 255
156 196 255
157 196 255
157 196 255
157 196 255
157 196 255
157 196 255
157 196 255
157 196 255
157 196 255
157 196 255
157 197 255
157 197 255
157 197 255
158 197 255
158 197 255
158 197 255
158 197 255
158 197 255
158 197 255
158 197 255
158 197 255
158 197 255
158 197 255
158 197 255
159 197 255
159 197 255
159 197 255
159 198 255
159 198 255
159 198 255
159 198 255
159 198 255
159 198 255
159 198 255
160 198 255
160 198 255
160 198 255
160 198 255
160 198 255
160 198 255
160 198 255
160 198 255
160 198 255
160 198 255
161 199 255
161 199 255
161 199 255
161 199 255
161 199 255
161 199 255
161 199 255
161 199 255
161 199 255
162 199 255
162 199 255
162 199 255
162 199 255
162 199 255
162 199 255
162 199 255
162 200 255
162 200 255
162 200 255
163 200 255
163 200 255
163 200 255
163 200 255
163 200 255
163 200 255
163 200 255
163 200 255
163 200 255
163 200 255
164 200 255
164 200 255
164 200 255
164 201 255
164 201 255
164 201 255
164 201 255
164 201 255
164 201 255
164 201 255
165 201 255
165 201 255
165 201 255
165 201 255
165 201 255
165 201 255
165 201 255
165 201 255
165 201 255
165 201 255
166 202 255
166 202 255
166 202 255
166 202 255
166 202 255
166 202 255
166 202 255
166 202 255
166 202 255
166 202 255
166 202 255
167 202 255
167 202 255
167 202 255
167 202 255
167 202 255
167 202 255
167 202 255
167 202 255
167 203 255
167 203 255
167 203 255
167 203 255
168 203 255
168 203 255
168 203 255
168 203 255
168 203 255
168 203 255
168 203 255
168 203 255
168 203 255
168 203 255
168 203 255
168 203 255
169 203 255
169 203 255
169 203 255
169 203 255
169 204 255
169 204 255
169 204 255
169 204 255
169 204 255
169 204 255
169 204 255
169 204 255
170 204 255
170 204 255
170 204 255
170 204 255
170 204 255
170 204 255
170 204 255
170 204 255
170 204 255
170 204 255
170 204 255
170 204 255
170 204 255
171 205 255
171 205 255
170 204 255
170 204 255
170 204 255
170 204 255
170 204 255
170 204 255
170 204 255
170 204 255
170 204 255
170 204 255
170 204 255
170 204 255
170 204 255
170 204 255
169 204 255
169 204 255
169 204 255
169 204 255
169 204 255
169 204 255
169 204 255
169 204 255
169 203 255
169 203 255
169 203 255
169 203 255
168 203 255
168 203 255
168 203 255
168 203 255
168 203 255
168 203 255
168 203 255
168 203 255
168 203 255
168 203 255
168 203 255
168 203 255
168 203 255
167 203 255
167 203 255
167 203 255
167 202 255
167 202 255
167 202 255
167 202 255
167 202 255
167 202 255
167 202 255
167 202 255
166 202 255
166 202 255
166 202 255
166 202 255
166 202 255
166 202 255
166 202 255
166 202 255
166 202 255
166 202 255
165 201 255
165 201 255
165 201 255
165 201 255
165 201 255
165 201 255
165 201 255
165 201 255
165 201 255
165 201 255
165 201 255
164 201 255
164 201 255
164 201 255
164 201 255
164 201 255
164 201 255
164 201 255
164 200 255
164 200 255
164 200 255
163 200 255
163 200 255
163 200 255
163 200 255
163 200 255
163 200 255
163 200 255
163 200 255
163 200 255
163 200 255
162 200 255
162 200 255
162 200 255
162 199 255
162 199 255
162 199 255
162 199 255
162 199 255
162 199 255
161 199 255
161 199 255
161 199 255
161 199 255
161 199 255
161 199 255
161 199 255
161 199 255
161 199 255
161 199 255
160 198 255
160 198 255
160 198 255
160 198 255
160 198 255
160 198 255
160 198 255
160 198 255
160 198 255
160 198 255
159 198 255
159 198 255
159 198 255
159 198 255
159 198 255
159 198 255
159 198 255
159 197 255
159 197 255
159 197 255
158 197 255
158 197 255
158 197 255
158 197 255
158 197 255
158 197 255
158 197 255
158 197 255
158 197 255
158 197 255
158 197 255
157 197 255
157 197 255
157 197 255
157 197 255
157 196 255
157 196 255
157 196 255
157 196 255
157 196 255
157 196 255
157 196 255
157 196 255
156 196 255
156 196 255
156 196 255
156 196 255
156 196 255
156 196 255
156 196 255
156 196 255
156 196 255
156 196 255
156 196 255
156 196 255
156 196 255
156 196 255
156 196 255
156 196 255
155 195 255
155 195 255
155 195 255
155 195 255
155 195 255
155 195 255
155 195 255
155 195 255
155 195 255
155 195 255
155 195 255
155 195 255
155 195 255
155 195 255
155 195 255
155 195 255
155 195 255
155 195 255
155 195 255
155 195 255
155 195 255
155 195 255
155 195 255
155 195 255
155 195 255
155 195 255
155 195 255
155 195 255
155 195 255
155 195 255
155 195 255
155 195 255
155 195 255
155 195 255
155 195 255
155 195 255
155 195 255
155 195 255
155 195 255
155 195 255
155 195 255
155 195 255
155 195 255
155 195 255
155 195 255
155 195 255
155 195 255
155 195 255
155 195 255
155 195 255
155 195 255
155 195 255
155 195 255
155 195 255
155 195 255
155 195 255
155 195 255
155 195 255
156 196 255
156 196 255
156 196 255
156 196 255
156 196 255
156 196 255
156 196 255
156 196 255
156 196 255
156 196 255
156 196 255
156 196 255
156 196 255
156 196 255
156 196 255
157 196 255
157 196 255
157 196 255
157 196 255
157 196 255
157 196 255
157 196 255
157 196 255
157 196 255
157 197 255
157 197 255
157 197 255
157 197 255
158 197 255
158 197 255
158 197 255
158 197 255
158 197 255
158 197 255
158 197 255
158 197 255
158 197 255
158 197 255
158 197 255
159 197 255
159 197 255
159 197 255
159 198 255
159 198 255
159 198 255
159 198 255
159 198 255
159 198 255
159 198 255
160 198 255
160 198 255
160 198 255
160 198 255
160 198 255
160 198 255
160 198 255
160 198 255
160 198 255
160 198 255
161 199 255
161 199 255
161 199 255
161 199 255
161 199 255
161 199 255
161 199 255
161 199 255
161 199 255
161 199 255
162 199 255
162 199 255
162 199 255
162 199 255
162 199 255
162 199 255
162 200 255
162 200 255
162 200 255
163 200 255
163 200 255
163 200 255
163 200 255
163 200 255
163 200 255
163 200 255
163 200 255
163 200 255
163 200 255
164 200 255
164 200 255
164 200 255
164 201 255
164 201 255
164 201 255
164 201 255
164 201 255
164 201 255
164 201 255
165 201 255
165 201 255
165 201 255
165 201 255
165 201 255
165 201 255
165 201 255
165 201 255
165 201 255
165 201 255
165 201 255
166 202 255
166 202 255
166 202 255
166 202 255
166 202 255
166 202 255
166 202 255
166 202 255
166 202 255
166 202 255
167 202 255
167 202 255
167 202 255
167 202 255
167 202 255
167 202 255
167 202 255
167 202 255
167 203 255
167 203 255
167 203 255
167 203 255
168 203 255
168 203 255
168 203 255
168 203 255
168 203 255
168 203 255
168 203 255
168 203 255
168 203 255
168 203 255
168 203 255
168 203 255
169 203 255
169 203 255
169 203 255
169 203 255
169 204 255
169 204 255
169 204 255
169 204 255
169 204 255
169 204 255
169 204 255
169 204 255
170 204 255
170 204 255
170 204 255
170 204 255
170 204 255
170 204 255
170 204 255
170 204 255
170 204 255
170 204 255
170 204 255
170 204 255
170 204 255
170 204 255
171 205 255
171 205 255
171 205 255
171 205 255
171 205 255
171 205 255
171 205 255
171 204 255
170 204 255
170 204 255
170 204 255
170 204 255
170 204 255
170 204 255
170 204 255
170 204 255
170 204 255
170 204 255
170 204 255
170 204 255
170 204 255
169 204 255
169 204 255
169 204 255
169 204 255
169 204 255
169 204 255
169 204 255
169 204 255
169 203 255
169 203 255
169 203 255
169 203 255
169 203 255
168 203 255
168 203 255
168 203 255
168 203 255
168 203 255
168 203 255
168 203 255
168 203 255
168 203 255
168 203 255
168 203 255
167 203 255
167 203 255
167 203 255
167 203 255
167 202 255
167 202 255
167 202 255
167 202 255
167 202 255
167 202 255
167 202 255
167 202 255
166 202 255
166 202 255
166 202 255
166 202 255
166 202 255
166 202 255
166 202 255
166 202 255
166 202 255
166 202 255
165 201 255
165 201 255
165 201 255
165 201 255
165 201 255
165 201 255
165 201 255
165 201 255
165 201 255
165 201 255
165 201 255
164 201 255
164 201 255
164 201 255
164 201 255
164 201 255
164 201 255
164 201 255
164 200 255
164 200 255
164 200 255
163 200 255
163 200 255
163 200 255
163 200 255
163 200 255
163 200 255
163 200 255
163 200 255
163 200 255
163 200 255
162 200 255
162 200 255
162 200 255
162 199 255
162 199 255
162 199 255
162 199 255
162 199 255
162 199 255
162 199 255
161 199 255
161 199 255
161 199 255
161 199 255
161 199 255
161 199 255
161 199 255
161 199 255
161 199 255
160 198 255
160 198 255
160 198 255
160 198 255
160 198 255
160 198 255
160 198 255
160 198 255
160 198 255
160 198 255
159 198 255
159 198 255
159 198 255
159 198 255
159 198 255
159 198 255
159 198 255
159 197 255
159 197 255
159 197 255
159 197 255
158 197 255
158 197 255
158 197 255
158 197 255
158 197 255
158 197 255
158 197 255
158 197 255
158 197 255
158 197 255
158 197 255
157 197 255
157 197 255
157 197 255
157 197 255
157 196 255
157 196 255
157 196 255
157 196 255
157 196 255
157 196 255
157 196 255
157 196 255
157 196 255
156 196 255
156 196 255
156 196 255
156 196 255
156 196 255
156 196 255
156 196 255
156 196 255
156 196 255
156 196 255
156 196 255
156 196 255
156 196 255
156 196 255
156 196 255
156 196 255
156 196 255
156 196 255
155 195 255
155 195 255
155 195 255
155 195 255
155 195 255
155 195 255
155 195 255
155 195 255
155 195 255
155 195 255
155 195 255
155 195 255
155 195 255
155 195 255
155 195 255
155 195 255
155 195 255
155 195 255
155 195 255
155 195 255
155 195 255
155 195 255
155 195 255
155 195 255
155 195 255
155 195 255
155 195 255
155 195 255
155 195 255
155 195 255
155 195 255
155 195 255
155 195 255
155 195 255
155 195 255
155 195 255
155 195 255
155 195 255
155 195 255
155 195 255
155 195 255
155 195 255
155 195 255
155 195 255
156 196 255
156 196 255
156 196 255
156 196 255
156 196 255
156 196 255
156 196 255
156 196 255
156 196 255
156 196 255
156 196 255
156 196 255
156 196 255
156 196 255
156 196 255
156 196 255
156 196 255
156 196 255
157 196 255
157 196 255
157 196 255
157 196 255
157 196 255
157 196 255
157 196 255
157 196 255
157 196 255
157 197 255
157 197 255
157 197 255
157 197 255
158 197 255
158 197 255
158 197 255
158 197 255
158 197 255
158 197 255
158 197 255
158 197 255
158 197 255
158 197 255
158 197 255
159 197 255
159 197 255
159 197 255
159 197 255
159 198 255
159 198 255
159 198 255
159 198 255
159 198 255
159 198 255
159 198 255
160 198 255
160 198 255
160 198 255
160 198 255
160 198 255
160 198 255
160 198 255
160 198 255
160 198 255
160 198 255
161 199 255
161 199 255
161 199 255
161 199 255
161 199 255
161 199 255
161 199 255
161 199 255
161 199 255
161 199 255
162 199 255
162 199 255
162 199 255
162 199 255
162 199 255
162 199 255
162 200 255
162 200 255
162 200 255
163 200 255
163 200 255
163 200 255
163 200 255
163 200 255
163 200 255
163 200 255
163 200 255
163 200 255
163 200 255
164 200 255
164 200 255
164 200 255
164 201 255
164 201 255
164 201 255
164 201 255
164 201 255
164 201 255
164 201 255
165 201 255
165 201 255
165 201 255
165 201 255
165 201 255
165 201 255
165 201 255
165 201 255
165 201 255
165 201 255
165 201 255
166 202 255
166 202 255
166 202 255
166 202 255
166 202 255
166 202 255
166 202 255
166 202 255
166 202 255
166 202 255
167 202 255
167 202 255
167 202 255
167 202 255
167 202 255
167 202 255
167 202 255
167 202 255
167 203 255
167 203 255
167 203 255
167 203 255
168 203 255
168 203 255
168 203 255
168 203 255
168 203 255
168 203 255
168 203 255
168 203 255
168 203 255
168 203 255
168 203 255
169 203 255
169 203 255
169 203 255
169 203 255
169 203 255
169 204 255
169 204 255
169 204 255
169 204 255
169 204 255
169 204 255
169 204 255
169 204 255
170 204 255
170 204 255
170 204 255
170 204 255
170 204 255
170 204 255
170 204 255
170 204 255
170 204 255
170 204 255
170 204 255
170 204 255
170 204 255
171 205 255
171 205 255
171 205 255
171 205 255
171 205 255
171 205 255
171 205 255
171 205 255
171 205 255
171 205 255
171 205 255
171 205 255
171 205 255
171 205 255
171 205 255
170 204 255
170 204 255
170 204 255
170 204 255
170 204 255
170 204 255
170 204 255
170 204 255
170 204 255
170 204 255
170 204 255
170 204 255
170 204 255
169 204 255
169 204 255
169 204 255
169 204 255
169 204 255
169 204 255
169 204 255
169 204 255
169 204 255
169 203 255
169 203 255
169 203 255
169 203 255
168 203 255
168 203 255
168 203 255
168 203 255
168 203 255
168 203 255
168 203 255
168 203 255
168 203 255
168 203 255
168 203 255
167 203 255
167 203 255
167 203 255
167 203 255
167 202 255
167 202 255
167 202 255
167 202 255
167 202 255
167 202 255
167 202 255
166 202 255
166 202 255
166 202 255
166 202 255
166 202 255
166 202 255
166 202 255
166 202 255
166 202 255
166 202 255
166 202 255
165 201 255
165 201 255
165 201 255
165 201 255
165 201 255
165 201 255
165 201 255
165 201 255
165 201 255
165 201 255
165 201 255
164 201 255
164 201 255
164 201 255
164 201 255
164 201 255
164 201 255
164 200 255
164 200 255
164 200 255
164 200 255
163 200 255
163 200 255
163 200 255
163 200 255
163 200 255
163 200 255
163 200 255
163 200 255
163 200 255
163 200 255
162 200 255
162 200 255
162 200 255
162 199 255
162 199 255
162 199 255
162 199 255
162 199 255
162 199 255
161 199 255
161 199 255
161 199 255
161 199 255
161 199 255
161 199 255
161 199 255
161 199 255
161 199 255
161 199 255
160 198 255
160 198 255
160 198 255
160 198 255
160 198 255
160 198 255
160 198 255
160 198 255
160 198 255
160 198 255
159 198 255
159 198 255
159 198 255
159 198 255
159 198 255
159 198 255
159 198 255
159 197 255
159 197 255
159 197 255
159 197 255
158 197 255
158 197 255
158 197 255
158 197 255
158 197 255
158 197 255
158 197 255
158 197 255
158 197 255
158 197 255
158 197 255
158 197 255
157 197 255
157 197 255
157 197 255
157 197 255
157 196 255
157 196 255
157 196 255
157 196 255
157 196 255
157 196 255
157 196 255
157 196 255
157 196 255
157 196 255
156 196 255
156 196 255
156 196 255
156 196 255
156 196 255
156 196 255
156 196 255
156 196 255
156 196 255
156 196 255
156 196 255
156 196 255
156 196 255
156 196 255
156 196 255
156 196 255
156 196 255
156 196 255
156 196 255
156 196 255
156 196 255
156 196 255
156 196 255
155 195 255
155 195 255
155 195 255
155 195 255
155 195 255
155 195 255
155 195 255
155 195 255
155 195 255
155 195 255
155 195 255
155 195 255
155 195 255
155 195 255
155 195 255
155 195 255
155 195 255
155 195 255
155 195 255
155 195 255
155 195 255
155 195 255
155 195 255
155 195 255
156 196 255
156 196 255
156 196 255
156 196 255
156 196 255
156 196 255
156 196 255
156 196 255
156 196 255
156 196 255
156 196 255
156 196 255
156 196 255
156 196 255
156 196 255
156 196 255
156 196 255
156 196 255
156 196 255
156 196 255
156 196 255
156 196 255
156 196 255
157 196 255
157 196 255
157 196 255
157 196 255
157 196 255
157 196 255
157 196 255
157 196 255
157 196 255
157 196 255
157 197 255
157 197 255
157 197 255
157 197 255
158 197 255
158 197 255
158 197 255
158 197 255
158 197 255
158 197 255
158 197 255
158 197 255
158 197 255
158 197 255
158 197 255
158 197 255
159 197 255
159 197 255
159 197 255
159 197 255
159 198 255
159 198 255
159 198 255
159 198 255
159 198 255
159 198 255
160 198 255
160 198 255
160 198 255
160 198 255
160 198 255
160 198 255
160 198 255
160 198 255
160 198 255
160 198 255
160 198 255
161 199 255
161 199 255
161 199 255
161 199 255
161 199 255
161 199 255
161 199 255
161 199 255
161 199 255
161 199 255
162 199 255
162 199 255
162 199 255
162 199 255
162 199 255
162 199 255
162 200 255
162 200 255
162 200 255
163 200 255
163 200 255
163 200 255
163 200 255
163 200 255
163 200 255
163 200 255
163 200 255
163 200 255
163 200 255
164 200 255
164 200 255
164 200 255
164 200 255
164 201 255
164 201 255
164 201 255
164 201 255
164 201 255
164 201 255
165 201 255
165 201 255
165 201 255
165 201 255
165 201 255
165 201 255
165 201 255
165 201 255
165 201 255
165 201 255
165 201 255
166 202 255
166 202 255
166 202 255
166 202 255
166 202 255
166 202 255
166 202 255
166 202 255
166 202 255
166 202 255
167 202 255
167 202 255
167 202 255
167 202 255
167 202 255
167 202 255
167 202 255
167 202 255
167 203 255
167 203 255
167 203 255
167 203 255
168 203 255
168 203 255
168 203 255
168 203 255
168 203 255
168 203 255
168 203 255
168 203 255
168 203 255
168 203 255
168 203 255
169 203 255
169 203 255
169 203 255
169 203 255
169 203 255
169 204 255
169 204 255
169 204 255
169 204 255
169 204 255
169 204 255
169 204 255
169 204 255
170 204 255
170 204 255
170 204 255
170 204 255
170 204 255
170 204 255
170 204 255
170 204 255
170 204 255
170 204 255
170 204 255
170 204 255
170 204 255
171 205 255
171 205 255
171 205 255
171 205 255
171 205 255
171 205 255
171 205 255
171 205 255
171 205 255
171 205 255
171 205 255
171 205 255
171 205 255
171 205 255
171 205 255
171 205 255
171 205 255
171 205 255
171 205 255
171 205 255
171 205 255
170 204 255
170 204 255
170 204 255
170 204 255
170 204 255
170 204 255
170 204 255
170 204 255
170 204 255
170 204 255
170 204 255
170 204 255
170 204 255
169 204 255
169 204 255
169 204 255
169 204 255
169 204 255
169 204 255
169 204 255
169 204 255
169 204 255
169 203 255
169 203 255
169 203 255
169 203 255
168 203 255
168 203 255
168 203 255
168 203 255
168 203 255
168 203 255
168 203 255
168 203 255
168 203 255
168 203 255
168 203 255
168 203 255
167 203 255
167 203 255
167 203 255
167 202 255
167 202 255
167 202 255
167 202 255
167 202 255
167 202 255
167 202 255
167 202 255
166 202 255
166 202 255
166 202 255
166 202 255
166 202 255
166 202 255
166 202 255
166 202 255
166 202 255
166 202 255
165 201 255
165 201 255
165 201 255
165 201 255
165 201 255
165 201 255
165 201 255
165 201 255
165 201 255
165 201 255
165 201 255
164 201 255
164 201 255
164 201 255
164 201 255
164 201 255
164 201 255
164 200 255
164 200 255
164 200 255
164 200 255
163 200 255
163 200 255
163 200 255
163 200 255
163 200 255
163 200 255
163 200 255
163 200 255
163 200 255
162 200 255
162 200 255
162 200 255
162 200 255
162 199 255
162 199 255
162 199 255
162 199 255
162 199 255
162 199 255
161 199 255
161 199 255
161 199 255
161 199 255
161 199 255
161 199 255
161 199 255
161 199 255
161 199 255
161 199 255
160 198 255
160 198 255
160 198 255
160 198 255
160 198 255
160 198 255
160 198 255
160 198 255
160 198 255
160 198 255
160 198 255
159 198 255
159 198 255
159 198 255
159 198 255
159 198 255
159 198 255
159 198 255
159 197 255
159 197 255
159 197 255
159 197 255
158 197 255
158 197 255
158 197 255
158 197 255
158 197 255
158 197 255
158 197 255
158 197 255
158 197 255
158 197 255
158 197 255
158 197 255
157 197 255
157 197 255
157 197 255
157 197 255
157 197 255
157 196 255
157 196 255
157 196 255
157 196 255
157 196 255
157 196 255
157 196 255
157 196 255
157 196 255
157 196 255
156 196 255
156 196 255
156 196 255
156 196 255
156 196 255
156 196 255
156 196 255
156 196 255
156 196 255
156 196 255
156 196 255
156 196 255
156 196 255
156 196 255
156 196 255
156 196 255
156 196 255
156 196 255
156 196 255
156 196 255
156 196 255
156 196 255
156 196 255
156 196 255
156 196 255
156 196 255
156 196 255
156 196 255
156 196 255
156 196 255
156 196 255
156 196 255
156 196 255
156 196 255
156 196 255
156 196 255
156 196 255
156 196 255
156 196 255
156 196 255
156 196 255
156 196 255
156 196 255
156 196 255
156 196 255
156 196 255
156 196 255
156 196 255
156 196 255
156 196 255
156 196 255
156 196 255
156 196 255
156 196 255
156 196 255
156 196 255
156 196 255
156 196 255
156 196 255
156 196 255
157 196 255
157 196 255
157 196 255
157 196 255
157 196 255
157 196 255
157 196 255
157 196 255
157 196 255
157 196 255
157 196 255
157 197 255
157 197 255
157 197 255
157 197 255
158 197 255
158 197 255
158 197 255
158 197 255
158 197 255
158 197 255
158 197 255
158 197 255
158 197 255
158 197 255
158 197 255
158 197 255
159 197 255
159 197 255
159 197 255
159 197 255
159 198 255
159 198 255
159 198 255
159 198 255
159 198 255
159 198 255
159 198 255
159 198 255
160 198 255
160 198 255
160 198 255
160 198 255
160 198 255
160 198 255
160 198 255
160 198 255
160 198 255
160 198 255
161 199 255
161 199 255
161 199 255
161 199 255
161 199 255
161 199 255
161 199 255
161 199 255
161 199 255
161 199 255
162 199 255
162 199 255
162 199 255
162 199 255
162 199 255
162 199 255
162 200 255
162 200 255
162 200 255
162 200 255
163 200 255
163 200 255
163 200 255
163 200 255
163 200 255
163 200 255
163 200 255
163 200 255
163 200 255
164 200 255
164 200 255
164 200 255
164 200 255
164 201 255
164 201 255
164 201 255
164 201 255
164 201 255
164 201 255
165 201 255
165 201 255
165 201 255
165 201 255
165 201 255
165 201 255
165 201 255
165 201 255
165 201 255
165 201 255
165 201 255
166 202 255
166 202 255
166 202 255
166 202 255
166 202 255
166 202 255
166 202 255
166 202 255
166 202 255
166 202 255
167 202 255
167 202 255
167 202 255
167 202 255
167 202 255
167 202 255
167 202 255
167 202 255
167 203 255
167 203 255
167 203 255
167 203 255
168 203 255
168 203 255
168 203 255
168 203 255
168 203 255
168 203 255
168 203 255
168 203 255
168 203 255
168 203 255
168 203 255
169 203 255
169 203 255
169 203 255
169 203 255
169 204 255
169 204 255
169 204 255
169 204 255
169 204 255
169 204 255
169 204 255
169 204 255
170 204 255
170 204 255
170 204 255
170 204 255
170 204 255
170 204 255
170 204 255
170 204 255
170 204 255
170 204 255
170 204 255
170 204 255
170 204 255
170 204 255
171 205 255
171 205 255
171 205 255
171 205 255
171 205 255
171 205 255
171 205 255
171 205 255
171 205 255
171 205 255
171 205 255
171 205 255
172 205 255
172 205 255
171 205 255
171 205 255
171 205 255
171 205 255
171 205 255
171 205 255
171 205 255
171 205 255
171 205 255
171 205 255
171 205 255
171 205 255
171 205 255
171 205 255
170 204 255
170 204 255
170 204 255
170 204 255
170 204 255
170 204 255
170 204 255
170 204 255
170 204 255
170 204 255
170 204 255
170 204 255
170 204 255
169 204 255
169 204 255
169 204 255
169 204 255
169 204 255
169 204 255
169 204 255
169 204 255
169 203 255
169 203 255
169 203 255
169 203 255
168 203 255
168 203 255
168 203 255
168 203 255
168 203 255
168 203 255
168 203 255
168 203 255
168 203 255
168 203 255
168 203 255
168 203 255
167 203 255
167 203 255
167 203 255
167 202 255
167 202 255
167 202 255
167 202 255
167 202 255
167 202 255
167 202 255
167 202 255
166 202 255
166 202 255
166 202 255
166 202 255
166 202 255
166 202 255
166 202 255
166 202 255
166 202 255
166 202 255
165 201 255
165 201 255
165 201 255
165 201 255
165 201 255
165 201 255
165 201 255
165 201 255
165 201 255
165 201 255
165 201 255
164 201 255
164 201 255
164 201 255
164 201 255
164 201 255
164 201 255
164 200 255
164 200 255
164 200 255
164 200 255
163 200 255
163 200 255
163 200 255
163 200 255
163 200 255
163 200 255
163 200 255
163 200 255
163 200 255
163 200 255
162 200 255
162 200 255
162 200 255
162 199 255
162 199 255
162 199 255
162 199 255
162 199 255
162 199 255
162 199 255
161 199 255
161 199 255
161 199 255
161 199 255
161 199 255
161 199 255
161 199 255
161 199 255
161 199 255
160 198 255
160 198 255
160 198 255
160 198 255
160 198 255
160 198 255
160 198 255
160 198 255
160 198 255
160 198 255
160 198 255
159 198 255
159 198 255
159 198 255
159 198 255
159 198 255
159 198 255
159 198 255
159 198 255
159 197 255
159 197 255
159 197 255
158 197 255
158 197 255
158 197 255
158 197 255
158 197 255
158 197 255
158 197 255
158 197 255
158 197 255
158 197 255
158 197 255
158 197 255
158 197 255
158 197 255
157 197 255
157 197 255
157 197 255
157 197 255
157 197 255
157 196 255
157 196 255
157 196 255
157 196 255
157 196 255
157 196 255
157 196 255
157 196 255
157 196 255
157 196 255
157 196 255
157 196 255
156 196 255
156 196 255
156 196 255
156 196 255
156 196 255
156 196 255
156 196 255
156 196 255
156 196 255
156 196 255
156 196 255
156 196 255
156 196 255
156 196 255
156 196 255
156 196 255
156 196 255
156 196 255
156 196 255
156 196 255
156 196 255
156 196 255
156 196 255
156 196 255
156 196 255
156 196 255
156 196 255
156 196 255
156 196 255
156 196 255
156 196 255
156 196 255
156 196 255
156 196 255
156 196 255
156 196 255
156 196 255
156 196 255
156 196 255
156 196 255
156 196 255
156 196 255
156 196 255
156 196 255
156 196 255
156 196 255
157 196 255
157 196 255
157 196 255
157 196 255
157 196 255
157 196 255
157 196 255
157 196 255
157 196 255
157 196 255
157 196 255
157 196 255
157 196 255
157 197 255
157 197 255
157 197 255
157 197 255
158 197 255
158 197 255
158 197 255
158 197 255
158 197 255
158 197 255
158 197 255
158 197 255
158 197 255
158 197 255
158 197 255
158 197 255
158 197 255
158 197 255
159 197 255
159 197 255
159 197 255
159 198 255
159 198 255
159 198 255
159 198 255
159 198 255
159 198 255
159 198 255
159 198 255
160 198 255
160 198 255
160 198 255
160 198 255
160 198 255
160 198 255
160 198 255
160 198 255
160 198 255
160 198 255
161 198 255
161 199 255
161 199 255
161 199 255
161 199 255
161 199 255
161 199 255
161 199 255
161 199 255
161 199 255
162 199 255
162 199 255
162 199 255
162 199 255
162 199 255
162 199 255
162 199 255
162 200 255
162 200 255
162 200 255
163 200 255
163 200 255
163 200 255
163 200 255
163 200 255
163 200 255
163 200 255
163 200 255
163 200 255
163 200 255
164 200 255
164 200 255
164 200 255
164 200 255
164 201 255
164 201 255
164 201 255
164 201 255
164 201 255
164 201 255
165 201 255
165 201 255
165 201 255
165 201 255
165 201 255
165 201 255
165 201 255
165 201 255
165 201 255
165 201 255
165 201 255
166 202 255
166 202 255
166 202 255
166 202 255
166 202 255
166 202 255
166 202 255
166 202 255
166 202 255
166 202 255
166 202 255
167 202 255
167 202 255
167 202 255
167 202 255
167 202 255
167 202 255
167 202 255
167 203 255
167 203 255
167 203 255
168 203 255
168 203 255
168 203 255
168 203 255
168 203 255
168 203 255
168 203 255
168 203 255
168 203 255
168 203 255
168 203 255
168 203 255
169 203 255
169 203 255
169 203 255
169 203 255
169 204 255
169 204 255
169 204 255
169 204 255
169 204 255
169 204 255
169 204 255
169 204 255
170 204 255
170 204 255
170 204 255
170 204 255
170 204 255
170 204 255
170 204 255
170 204 255
170 204 255
170 204 255
170 204 255
170 204 255
170 204 255
171 205 255
171 205 255
171 205 255
171 205 255
171 205 255
171 205 255
171 205 255
171 205 255
171 205 255
171 205 255
171 205 255
171 205 255
171 205 255
171 205 255
172 205 255
172 205 255
172 205 255
172 205 255
172 205 255
172 205 255
172 205 255
171 205 255
171 205 255
171 205 255
171 205 255
171 205 255
171 205 255
171 205 255
171 205 255
171 205 255
171 205 255
171 205 255
171 205 255
171 205 255
171 205 255
170 204 255
170 204 255
170 204 255
170 204 255
170 204 255
170 204 255
170 204 255
170 204 255
170 204 255
170 204 255
170 204 255
170 204 255
170 204 255
169 204 255
169 204 255
169 204 255
169 204 255
169 204 255
169 204 255
169 204 255
169 204 255
169 203 255
169 203 255
169 203 255
169 203 255
168 203 255
168 203 255
168 203 255
168 203 255
168 203 255
168 203 255
168 203 255
168 203 255
168 203 255
168 203 255
168 203 255
168 203 255
167 203 255
167 203 255
167 203 255
167 203 255
167 202 255
167 202 255
167 202 255
167 202 255
167 202 255
167 202 255
167 202 255
166 202 255
166 202 255
166 202 255
166 202 255
166 202 255
166 202 255
166 202 255
166 202 255
166 202 255
166 202 255
165 201 255
165 201 255
165 201 255
165 201 255
165 201 255
165 201 255
165 201 255
165 201 255
165 201 255
165 201 255
165 201 255
164 201 255
164 201 255
164 201 255
164 201 255
164 201 255
164 201 255
164 200 255
164 200 255
164 200 255
164 200 255
163 200 255
163 200 255
163 200 255
163 200 255
163 200 255
163 200 255
163 200 255
163 200 255
163 200 255
163 200 255
162 200 255
162 200 255
162 200 255
162 199 255
162 199 255
162 199 255
162 199 255
162 199 255
162 199 255
162 199 255
161 199 255
161 199 255
161 199 255
161 199 255
161 199 255
161 199 255
161 199 255
161 199 255
161 199 255
161 199 255
160 198 255
160 198 255
160 198 255
160 198 255
160 198 255
160 198 255
160 198 255
160 198 255
160 198 255
160 198 255
160 198 255
159 198 255
159 198 255
159 198 255
159 198 255
159 198 255
159 198 255
159 198 255
159 197 255
159 197 255
159 197 255
159 197 255
158 197 255
158 197 255
158 197 255
158 197 255
158 197 255
158 197 255
158 197 255
158 197 255
158 197 255
158 197 255
158 197 255
158 197 255
158 197 255
158 197 255
157 197 255
157 197 255
157 197 255
157 197 255
157 197 255
157 197 255
157 196 255
157 196 255
157 196 255
157 196 255
157 196 255
157 196 255
157 196 255
157 196 255
157 196 255
157 196 255
157 196 255
157 196 255
157 196 255
157 196 255
157 196 255
157 196 255
157 196 255
156 196 255
156 196 255
156 196 255
156 196 255
156 196 255
156 196 255
156 196 255
156 196 255
156 196 255
156 196 255
156 196 255
156 196 255
156 196 255
156 196 255
156 196 255
156 196 255
156 196 255
156 196 255
156 196 255
156 196 255
156 196 255
156 196 255
156 196 255
156 196 255
156 196 255
156 196 255
156 196 255
157 196 255
157 196 255
157 196 255
157 196 255
157 196 255
157 196 255
157 196 255
157 196 255
157 196 255
157 196 255
157 196 255
157 196 255
157 196 255
157 196 255
157 196 255
157 196 255
157 197 255
157 197 255
157 197 255
157 197 255
157 197 255
157 197 255
158 197 255
158 197 255
158 197 255
158 197 255
158 197 255
158 197 255
158 197 255
158 197 255
158 197 255
158 197 255
158 197 255
158 197 255
158 197 255
158 197 255
159 197 255
159 197 255
159 197 255
159 197 255
159 198 255
159 198 255
159 198 255
159 198 255
159 198 255
159 198 255
159 198 255
159 198 255
160 198 255
160 198 255
160 198 255
160 198 255
160 198 255
160 198 255
160 198 255
160 198 255
160 198 255
160 198 255
161 199 255
161 199 255
161 199 255
161 199 255
161 199 255
161 199 255
161 199 255
161 199 255
161 199 255
161 199 255
161 199 255
162 199 255
162 199 255
162 199 255
162 199 255
162 199 255
162 199 255
162 200 255
162 200 255
162 200 255
163 200 255
163 200 255
163 200 255
163 200 255
163 200 255
163 200 255
163 200 255
163 200 255
163 200 255
163 200 255
164 200 255
164 200 255
164 200 255
164 200 255
164 201 255
164 201 255
164 201 255
164 201 255
164 201 255
164 201 255
165 201 255
165 201 255
165 201 255
165 201 255
165 201 255
165 201 255
165 201 255
165 201 255
165 201 255
165 201 255
165 201 255
166 202 255
166 202 255
166 202 255
166 202 255
166 202 255
166 202 255
166 202 255
166 202 255
166 202 255
166 202 255
167 202 255
167 202 255
167 202 255
167 202 255
167 202 255
167 202 255
167 202 255
167 203 255
167 203 255
167 203 255
167 203 255
168 203 255
168 203 255
168 203 255
168 203 255
168 203 255
168 203 255
168 203 255
168 203 255
168 203 255
168 203 255
168 203 255
168 203 255
169 203 255
169 203 255
169 203 255
169 203 255
169 204 255
169 204 255
169 204 255
169 204 255
169 204 255
169 204 255
169 204 255
169 204 255
170 204 255
170 204 255
170 204 255
170 204 255
170 204 255
170 204 255
170 204 255
170 204 255
170 204 255
170 204 255
170 204 255
170 204 255
170 204 255
171 205 255
171 205 255
171 205 255
171 205 255
171 205 255
171 205 255
171 205 255
171 205 255
171 205 255
171 205 255
171 205 255
171 205 255
171 205 255
171 205 255
172 205 255
172 205 255
172 205 255
172 205 255
172 205 255
172 205 255
172 205 255
172 205 255
172 205 255
172 205 255
172 205 255
172 205 255
172 205 255
172 205 255
171 205 255
171 205 255
171 205 255
171 205 255
171 205 255
171 205 255
171 205 255
171 205 255
171 205 255
171 205 255
171 205 255
171 205 255
171 205 255
170 204 255
170 204 255
170 204 255
170 204 255
170 204 255
170 204 255
170 204 255
170 204 255
170 204 255
170 204 255
170 204 255
170 204 255
170 204 255
169 204 255
169 204 255
169 204 255
169 204 255
169 204 255
169 204 255
169 204 255
169 204 255
169 204 255
169 203 255
169 203 255
169 203 255
168 203 255
168 203 255
168 203 255
168 203 255
168 203 255
168 203 255
168 203 255
168 203 255
168 203 255
168 203 255
168 203 255
168 203 255
167 203 255
167 203 255
167 203 255
167 203 255
167 202 255
167 202 255
167 202 255
167 202 255
167 202 255
167 202 255
167 202 255
166 202 255
166 202 255
166 202 255
166 202 255
166 202 255
166 202 255
166 202 255
166 202 255
166 202 255
166 202 255
165 201 255
165 201 255
165 201 255
165 201 255
165 201 255
165 201 255
165 201 255
165 201 255
165 201 255
165 201 255
165 201 255
164 201 255
164 201 255
164 201 255
164 201 255
164 201 255
164 201 255
164 201 255
164 200 255
164 200 255
164 200 255
163 200 255
163 200 255
163 200 255
163 200 255
163 200 255
163 200 255
163 200 255
163 200 255
163 200 255
163 200 255
162 200 255
162 200 255
162 200 255
162 199 255
162 199 255
162 199 255
162 199 255
162 199 255
162 199 255
162 199 255
161 199 255
161 199 255
161 199 255
161 199 255
161 199 255
161 199 255
161 199 255
161 199 255
161 199 255
161 199 255
160 198 255
160 198 255
160 198 255
160 198 255
160 198 255
160 198 255
160 198 255
160 198 255
160 198 255
160 198 255
160 198 255
159 198 255
159 198 255
159 198 255
159 198 255
159 198 255
159 198 255
159 198 255
159 198 255
159 197 255
159 197 255
159 197 255
159 197 255
159 197 255
158 197 255
158 197 255
158 197 255
158 197 255
158 197 255
158 197 255
158 197 255
158 197 255
158 197 255
158 197 255
158 197 255
158 197 255
158 197 255
158 197 255
158 197 255
157 197 255
157 197 255
157 197 255
157 197 255
157 197 255
157 197 255
157 197 255
157 196 255
157 196 255
157 196 255
157 196 255
157 196 255
157 196 255
157 196 255
157 196 255
157 196 255
157 196 255
157 196 255
157 196 255
157 196 255
157 196 255
157 196 255
157 196 255
157 196 255
157 196 255
157 196 255
157 196 255
157 196 255
157 196 255
157 196 255
157 196 255
157 196 255
157 196 255
157 196 255
157 196 255
157 196 255
157 196 255
157 196 255
157 196 255
157 196 255
157 196 255
157 196 255
157 196 255
157 196 255
157 196 255
157 196 255
157 196 255
157 196 255
157 196 255
157 196 255
157 196 255
157 196 255
157 196 255
157 197 255
157 197 255
157 197 255
157 197 255
157 197 255
157 197 255
157 197 255
158 197 255
158 197 255
158 197 255
158 197 255
158 197 255
158 197 255
158 197 255
158 197 255
158 197 255
158 197 255
158 197 255
158 197 255
158 197 255
158 197 255
158 197 255
159 197 255
159 197 255
159 197 255
159 197 255
159 197 255
159 198 255
159 198 255
159 198 255
159 198 255
159 198 255
159 198 255
159 198 255
159 198 255
160 198 255
160 198 255
160 198 255
160 198 255
160 198 255
160 198 255
160 198 255
160 198 255
160 198 255
160 198 255
160 198 255
161 199 255
161 199 255
161 199 255
161 199 255
161 199 255
161 199 255
161 199 255
161 199 255
161 199 255
161 199 255
162 199 255
162 199 255
162 199 255
162 199 255
162 199 255
162 199 255
162 199 255
162 200 255
162 200 255
162 200 255
163 200 255
163 200 255
163 200 255
163 200 255
163 200 255
163 200 255
163 200 255
163 200 255
163 200 255
163 200 255
164 200 255
164 200 255
164 200 255
164 200 255
164 201 255
164 201 255
164 201 255
164 201 255
164 201 255
164 201 255
165 201 255
165 201 255
165 201 255
165 201 255
165 201 255
165 201 255
165 201 255
165 201 255
165 201 255
165 201 255
165 201 255
166 202 255
166 202 255
166 202 255
166 202 255
166 202 255
166 202 255
166 202 255
166 202 255
166 202 255
166 202 255
167 202 255
167 202 255
167 202 255
167 202 255
167 202 255
167 202 255
167 202 255
167 202 255
167 203 255
167 203 255
167 203 255
168 203 255
168 203 255
168 203 255
168 203 255
168 203 255
168 203 255
168 203 255
168 203 255
168 203 255
168 203 255
168 203 255
169 203 255
169 203 255
169 203 255
169 203 255
169 204 255
169 204 255
169 204 255
169 204 255
169 204 255
169 204 255
169 204 255
169 204 255
169 204 255
170 204 255
170 204 255
170 204 255
170 204 255
170 204 255
170 204 255
170 204 255
170 204 255
170 204 255
170 204 255
170 204 255
170 204 255
170 204 255
171 205 255
171 205 255
171 205 255
171 205 255
171 205 255
171 205 255
171 205 255
171 205 255
171 205 255
171 205 255
171 205 255
171 205 255
171 205 255
172 205 255
172 205 255
172 205 255
172 205 255
172 205 255
172 205 255
172 205 255
172 205 255
172 205 255
172 206 255
172 206 255
172 206 255
172 205 255
172 205 255
172 205 255
172 205 255
172 205 255
172 205 255
172 205 255
172 205 255
172 205 255
171 205 255
171 205 255
171 205 255
171 205 255
171 205 255
171 205 255
171 205 255
171 205 255
171 205 255
171 205 255
171 205 255
171 205 255
171 205 255
171 205 255
170 204 255
170 204 255
170 204 255
170 204 255
170 204 255
170 204 255
170 204 255
170 204 255
170 204 255
170 204 255
170 204 255
170 204 255
169 204 255
169 204 255
169 204 255
169 204 255
169 204 255
169 204 255
169 204 255
169 204 255
169 204 255
169 203 255
169 203 255
169 203 255
169 203 255
168 203 255
168 203 255
168 203 255
168 203 255
168 203 255
168 203 255
168 203 255
168 203 255
168 203 255
168 203 255
168 203 255
167 203 255
167 203 255
167 203 255
167 203 255
167 202 255
167 202 255
167 202 255
167 202 255
167 202 255
167 202 255
167 202 255
166 202 255
166 202 255
166 202 255
166 202 255
166 202 255
166 202 255
166 202 255
166 202 255
166 202 255
166 202 255
166 202 255
165 201 255
165 201 255
165 201 255
165 201 255
165 201 255
165 201 255
165 201 255
165 201 255
165 201 255
165 201 255
164 201 255
164 201 255
164 201 255
164 201 255
164 201 255
164 201 255
164 201 255
164 200 255
164 200 255
164 200 255
163 200 255
163 200 255
163 200 255
163 200 255
163 200 255
163 200 255
163 200 255
163 200 255
163 200 255
163 200 255
162 200 255
162 200 255
162 200 255
162 199 255
162 199 255
162 199 255
162 199 255
162 199 255
162 199 255
162 199 255
161 199 255
161 199 255
161 199 255
161 199 255
161 199 255
161 199 255
161 199 255
161 199 255
161 199 255
161 199 255
161 199 255
160 198 255
160 198 255
160 198 255
160 198 255
160 198 255
160 198 255
160 198 255
160 198 255
160 198 255
160 198 255
160 198 255
159 198 255
159 198 255
159 198 255
159 198 255
159 198 255
159 198 255
159 198 255
159 198 255
159 197 255
159 197 255
159 197 255
159 197 255
159 197 255
158 197 255
158 197 255
158 197 255
158 197 255
158 197 255
158 197 255
158 197 255
158 197 255
158 197 255
158 197 255
158 197 255
158 197 255
158 197 255
158 197 255
158 197 255
158 197 255
158 197 255
158 197 255
157 197 255
157 197 255
157 197 255
157 197 255
157 197 255
157 197 255
157 197 255
157 197 255
157 197 255
157 197 255
157 196 255
157 196 255
157 196 255
157 196 255
157 196 255
157 196 255
157 196 255
157 196 255
157 196 255
157 196 255
157 196 255
157 196 255
157 196 255
157 196 255
157 196 255
157 196 255
157 196 255
157 196 255
157 196 255
157 196 255
157 196 255
157 196 255
157 196 255
157 196 255
157 196 255
157 196 255
157 197 255
157 197 255
157 197 255
157 197 255
157 197 255
157 197 255
157 197 255
157 197 255
157 197 255
157 197 255
158 197 255
158 197 255
158 197 255
158 197 255
158 197 255
158 197 255
158 197 255
158 197 255
158 197 255
158 197 255
158 197 255
158 197 255
158 197 255
158 197 255
158 197 255
158 197 255
158 197 255
158 197 255
159 197 255
159 197 255
159 197 255
159 197 255
159 198 255
159 198 255
159 198 255
159 198 255
159 198 255
159 198 255
159 198 255
159 198 255
159 198 255
160 198 255
160 198 255
160 198 255
160 198 255
160 198 255
160 198 255
160 198 255
160 198 255
160 198 255
160 198 255
160 198 255
161 199 255
161 199 255
161 199 255
161 199 255
161 199 255
161 199 255
161 199 255
161 199 255
161 199 255
161 199 255
161 199 255
162 199 255
162 199 255
162 199 255
162 199 255
162 199 255
162 199 255
162 199 255
162 200 255
162 200 255
162 200 255
163 200 255
163 200 255
163 200 255
163 200 255
163 200 255
163 200 255
163 200 255
163 200 255
163 200 255
163 200 255
164 200 255
164 200 255
164 200 255
164 200 255
164 201 255
164 201 255
164 201 255
164 201 255
164 201 255
164 201 255
165 201 255
165 201 255
165 201 255
165 201 255
165 201 255
165 201 255
165 201 255
165 201 255
165 201 255
165 201 255
166 202 255
166 202 255
166 202 255
166 202 255
166 202 255
166 202 255
166 202 255
166 202 255
166 202 255
166 202 255
166 202 255
167 202 255
167 202 255
167 202 255
167 202 255
167 202 255
167 202 255
167 202 255
167 203 255
167 203 255
167 203 255
167 203 255
168 203 255
168 203 255
168 203 255
168 203 255
168 203 255
168 203 255
168 203 255
168 203 255
168 203 255
168 203 255
168 203 255
169 203 255
169 203 255
169 203 255
169 203 255
169 204 255
169 204 255
169 204 255
169 204 255
169 204 255
169 204 255
169 204 255
169 204 255
170 204 255
170 204 255
170 204 255
170 204 255
170 204 255
170 204 255
170 204 255
170 204 255
170 204 255
170 204 255
170 204 255
170 204 255
170 204 255
171 205 255
171 205 255
171 205 255
171 205 255
171 205 255
171 205 255
171 205 255
171 205 255
171 205 255
171 205 255
171 205 255
171 205 255
171 205 255
171 205 255
172 205 255
172 205 255
172 205 255
172 205 255
172 205 255
172 205 255
172 205 255
172 205 255
172 205 255
172 206 255
172 206 255
172 206 255
173 206 255
172 206 255
172 206 255
172 206 255
172 206 255
172 206 255
172 205 255
172 205 255
172 205 255
172 205 255
172 205 255
172 205 255
172 205 255
172 205 255
172 205 255
172 205 255
171 205 255
171 205 255
171 205 255
171 205 255
171 205 255
171 205 255
171 205 255
171 205 255
171 205 255
171 205 255
171 205 255
171 205 255
171 205 255
170 204 255
170 204 255
170 204 255
170 204 255
170 204 255
170 204 255
170 204 255
170 204 255
170 204 255
170 204 255
170 204 255
170 204 255
170 204 255
169 204 255
169 204 255
169 204 255
169 204 255
169 204 255
169 204 255
169 204 255
169 204 255
169 203 255
169 203 255
169 203 255
169 203 255
168 203 255
168 203 255
168 203 255
168 203 255
168 203 255
168 203 255
168 203 255
168 203 255
168 203 255
168 203 255
168 203 255
167 203 255
167 203 255
167 203 255
167 203 255
167 202 255
167 202 255
167 202 255
167 202 255
167 202 255
167 202 255
167 202 255
166 202 255
166 202 255
166 202 255
166 202 255
166 202 255
166 202 255
166 202 255
166 202 255
166 202 255
166 202 255
165 201 255
165 201 255
165 201 255
165 201 255
165 201 255
165 201 255
165 201 255
165 201 255
165 201 255
165 201 255
165 201 255
164 201 255
164 201 255
164 201 255
164 201 255
164 201 255
164 201 255
164 201 255
164 200 255
164 200 255
164 200 255
163 200 255
163 200 255
163 200 255
163 200 255
163 200 255
163 200 255
163 200 255
163 200 255
163 200 255
163 200 255
162 200 255
162 200 255
162 200 255
162 200 255
162 199 255
162 199 255
162 199 255
162 199 255
162 199 255
162 199 255
161 199 255
161 199 255
161 199 255
161 199 255
161 199 255
161 199 255
161 199 255
161 199 255
161 199 255
161 199 255
161 199 255
161 199 255
160 198 255
160 198 255
160 198 255
160 198 255
160 198 255
160 198 255
160 198 255
160 198 255
160 198 255
160 198 255
160 198 255
159 198 255
159 198 255
159 198 255
159 198 255
159 198 255
159 198 255
159 198 255
159 198 255
159 198 255
159 198 255
159 197 255
159 197 255
159 197 255
159 197 255
159 197 255
158 197 255
158 197 255
158 197 255
158 197 255
158 197 255
158 197 255
158 197 255
158 197 255
158 197 255
158 197 255
158 197 255
158 197 255
158 197 255
158 197 255
158 197 255
158 197 255
158 197 255
158 197 255
158 197 255
158 197 255
158 197 255
158 197 255
157 197 255
157 197 255
157 197 255
157 197 255
157 197 255
157 197 255
157 197 255
157 197 255
157 197 255
157 197 255
157 197 255
157 197 255
157 197 255
157 197 255
157 197 255
157 197 255
157 197 255
157 197 255
157 197 255
157 197 255
157 197 255
157 197 255
157 197 255
157 197 255
157 197 255
157 197 255
158 197 255
158 197 255
158 197 255
158 197 255
158 197 255
158 197 255
158 197 255
158 197 255
158 197 255
158 197 255
158 197 255
158 197 255
158 197 255
158 197 255
158 197 255
158 197 255
158 197 255
158 197 255
158 197 255
158 197 255
158 197 255
158 197 255
158 197 255
159 197 255
159 197 255
159 197 255
159 197 255
159 197 255
159 198 255
159 198 255
159 198 255
159 198 255
159 198 255
159 198 255
159 198 255
159 198 255
160 198 255
160 198 255
160 198 255
160 198 255
160 198 255
160 198 255
160 198 255
160 198 255
160 198 255
160 198 255
160 198 255
160 198 255
160 198 255
161 199 255
161 199 255
161 199 255
161 199 255
161 199 255
161 199 255
161 199 255
161 199 255
161 199 255
161 199 255
162 199 255
162 199 255
162 199 255
162 199 255
162 199 255
162 199 255
162 199 255
162 200 255
162 200 255
162 200 255
162 200 255
163 200 255
163 200 255
163 200 255
163 200 255
163 200 255
163 200 255
163 200 255
163 200 255
163 200 255
163 200 255
164 200 255
164 200 255
164 200 255
164 201 255
164 201 255
164 201 255
164 201 255
164 201 255
164 201 255
164 201 255
165 201 255
165 201 255
165 201 255
165 201 255
165 201 255
165 201 255
165 201 255
165 201 255
165 201 255
165 201 255
166 202 255
166 202 255
166 202 255
166 202 255
166 202 255
166 202 255
166 202 255
166 202 255
166 202 255
166 202 255
166 202 255
167 202 255
167 202 255
167 202 255
167 202 255
167 202 255
167 202 255
167 202 255
167 203 255
167 203 255
167 203 255
167 203 255
168 203 255
168 203 255
168 203 255
168 203 255
168 203 255
168 203 255
168 203 255
168 203 255
168 203 255
168 203 255
168 203 255
169 203 255
169 203 255
169 203 255
169 203 255
169 204 255
169 204 255
169 204 255
169 204 255
169 204 255
169 204 255
169 204 255
169 204 255
170 204 255
170 204 255
170 204 255
170 204 255
170 204 255
170 204 255
170 204 255
170 204 255
170 204 255
170 204 255
170 204 255
170 204 255
170 204 255
171 205 255
171 205 255
171 205 255
171 205 255
171 205 255
171 205 255
171 205 255
171 205 255
171 205 255
171 205 255
171 205 255
171 205 255
171 205 255
172 205 255
172 205 255
172 205 255
172 205 255
172 205 255
172 205 255
172 205 255
172 205 255
172 205 255
172 205 255
172 206 255
172 206 255
172 206 255
172 206 255
172 206 255
173 206 255
173 206 255
173 206 255
173 206 255
173 206 255
173 206 255
172 206 255
172 206 255
172 206 255
172 206 255
172 206 255
172 205 255
172 205 255
172 205 255
172 205 255
172 205 255
172 205 255
172 205 255
172 205 255
172 205 255
172 205 255
171 205 255
171 205 255
171 205 255
171 205 255
171 205 255
171 205 255
171 205 255
171 205 255
171 205 255
171 205 255
171 205 255
171 205 255
171 205 255
170 204 255
170 204 255
170 204 255
170 204 255
170 204 255
170 204 255
170 204 255
170 204 255
170 204 255
170 204 255
170 204 255
170 204 255
169 204 255
169 204 255
169 204 255
169 204 255
169 204 255
169 204 255
169 204 255
169 204 255
169 203 255
169 203 255
169 203 255
169 203 255
168 203 255
168 203 255
168 203 255
168 203 255
168 203 255
168 203 255
168 203 255
168 203 255
168 203 255
168 203 255
168 203 255
168 203 255
167 203 255
167 203 255
167 203 255
167 202 255
167 202 255
167 202 255
167 202 255
167 202 255
167 202 255
167 202 255
166 202 255
166 202 255
166 202 255
166 202 255
166 202 255
166 202 255
166 202 255
166 202 255
166 202 255
166 202 255
166 202 255
165 201 255
165 201 255
165 201 255
165 201 255
165 201 255
165 201 255
165 201 255
165 201 255
165 201 255
165 201 255
164 201 255
164 201 255
164 201 255
164 201 255
164 201 255
164 201 255
164 201 255
164 200 255
164 200 255
164 200 255
163 200 255
163 200 255
163 200 255
163 200 255
163 200 255
163 200 255
163 200 255
163 200 255
163 200 255
163 200 255
162 200 255
162 200 255
162 200 255
162 200 255
162 199 255
162 199 255
162 199 255
162 199 255
162 199 255
162 199 255
162 199 255
161 199 255
161 199 255
161 199 255
161 199 255
161 199 255
161 199 255
161 199 255
161 199 255
161 199 255
161 199 255
161 199 255
160 198 255
160 198 255
160 198 255
160 198 255
160 198 255
160 198 255
160 198 255
160 198 255
160 198 255
160 198 255
160 198 255
160 198 255
160 198 255
159 198 255
159 198 255
159 198 255
159 198 255
159 198 255
159 198 255
159 198 255
159 198 255
159 198 255
159 197 255
159 197 255
159 197 255
159 197 255
159 197 255
159 197 255
158 197 255
158 197 255
158 197 255
158 197 255
158 197 255
158 197 255
158 197 255
158 197 255
158 197 255
158 197 255
158 197 255
158 197 255
158 197 255
158 197 255
158 197 255
158 197 255
158 197 255
158 197 255
158 197 255
158 197 255
158 197 255
158 197 255
158 197 255
158 197 255
158 197 255
158 197 255
158 197 255
158 197 255
158 197 255
158 197 255
158 197 255
158 197 255
158 197 255
158 197 255
158 197 255
158 197 255
158 197 255
158 197 255
158 197 255
158 197 255
158 197 255
158 197 255
158 197 255
158 197 255
158 197 255
158 197 255
158 197 255
158 197 255
158 197 255
158 197 255
158 197 255
158 197 255
158 197 255
158 197 255
158 197 255
158 197 255
158 197 255
158 197 255
158 197 255
158 197 255
159 197 255
159 197 255
159 197 255
159 197 255
159 197 255
159 198 255
159 198 255
159 198 255
159 198 255
159 198 255
159 198 255
159 198 255
159 198 255
159 198 255
159 198 255
160 198 255
160 198 255
160 198 255
160 198 255
160 198 255
160 198 255
160 198 255
160 198 255
160 198 255
160 198 255
160 198 255
160 198 255
161 199 255
161 199 255
161 199 255
161 199 255
161 199 255
161 199 255
161 199 255
161 199 255
161 199 255
161 199 255
161 199 255
161 199 255
162 199 255
162 199 255
162 199 255
162 199 255
162 199 255
162 199 255
162 199 255
162 200 255
162 200 255
162 200 255
163 200 255
163 200 255
163 200 255
163 200 255
163 200 255
163 200 255
163 200 255
163 200 255
163 200 255
163 200 255
163 200 255
164 200 255
164 200 255
164 200 255
164 201 255
164 201 255
164 201 255
164 201 255
164 201 255
164 201 255
164 201 255
165 201 255
165 201 255
165 201 255
165 201 255
165 201 255
165 201 255
165 201 255
165 201 255
165 201 255
165 201 255
166 202 255
166 202 255
166 202 255
166 202 255
166 202 255
166 202 255
166 202 255
166 202 255
166 202 255
166 202 255
166 202 255
167 202 255
167 202 255
167 202 255
167 202 255
167 202 255
167 202 255
167 202 255
167 203 255
167 203 255
167 203 255
168 203 255
168 203 255
168 203 255
168 203 255
168 203 255
168 203 255
168 203 255
168 203 255
168 203 255
168 203 255
168 203 255
168 203 255
169 203 255
169 203 255
169 203 255
169 204 255
169 204 255
169 204 255
169 204 255
169 204 255
169 204 255
169 204 255
169 204 255
169 204 255
170 204 255
170 204 255
170 204 255
170 204 255
170 204 255
170 204 255
170 204 255
170 204 255
170 204 255
170 204 255
170 204 255
170 204 255
171 205 255
171 205 255
171 205 255
171 205 255
171 205 255
171 205 255
171 205 255
171 205 255
171 205 255
171 205 255
171 205 255
171 205 255
171 205 255
171 205 255
172 205 255
172 205 255
172 205 255
172 205 255
172 205 255
172 205 255
172 205 255
172 205 255
172 205 255
172 206 255
172 206 255
172 206 255
172 206 255
172 206 255
173 206 255
173 206 255
173 206 255
173 206 255
173 206 255
173 206 255
173 206 255
173 206 255
173 206 255
173 206 255
173 206 255
173 206 255
173 206 255
173 206 255
172 206 255
172 206 255
172 206 255
172 206 255
172 206 255
172 205 255
172 205 255
172 205 255
172 205 255
172 205 255
172 205 255
172 205 255
172 205 255
172 205 255
171 205 255
171 205 255
171 205 255
171 205 255
171 205 255
171 205 255
171 205 255
171 205 255
171 205 255
171 205 255
171 205 255
171 205 255
171 205 255
170 204 255
170 204 255
170 204 255
170 204 255
170 204 255
170 204 255
170 204 255
170 204 255
170 204 255
170 204 255
170 204 255
170 204 255
170 204 255
169 204 255
169 204 255
169 204 255
169 204 255
169 204 255
169 204 255
169 204 255
169 204 255
169 203 255
169 203 255
169 203 255
168 203 255
168 203 255
168 203 255
168 203 255
168 203 255
168 203 255
168 203 255
168 203 255
168 203 255
168 203 255
168 203 255
168 203 255
167 203 255
167 203 255
167 203 255
167 202 255
167 202 255
167 202 255
167 202 255
167 202 255
167 202 255
167 202 255
167 202 255
166 202 255
166 202 255
166 202 255
166 202 255
166 202 255
166 202 255
166 202 255
166 202 255
166 202 255
166 202 255
165 201 255
165 201 255
165 201 255
165 201 255
165 201 255
165 201 255
165 201 255
165 201 255
165 201 255
165 201 255
164 201 255
164 201 255
164 201 255
164 201 255
164 201 255
164 201 255
164 201 255
164 200 255
164 200 255
164 200 255
164 200 255
163 200 255
163 200 255
163 200 255
163 200 255
163 200 255
163 200 255
163 200 255
163 200 255
163 200 255
163 200 255
162 200 255
162 200 255
162 200 255
162 200 255
162 199 255
162 199 255
162 199 255
162 199 255
162 199 255
162 199 255
162 199 255
161 199 255
161 199 255
161 199 255
161 199 255
161 199 255
161 199 255
161 199 255
161 199 255
161 199 255
161 199 255
161 199 255
160 198 255
160 198 255
160 198 255
160 198 255
160 198 255
160 198 255
160 198 255
160 198 255
160 198 255
160 198 255
160 198 255
160 198 255
160 198 255
160 198 255
159 198 255
159 198 255
159 198 255
159 198 255
159 198 255
159 198 255
159 198 255
159 198 255
159 198 255
159 198 255
159 198 255
159 197 255
159 197 255
159 197 255
159 197 255
159 197 255
159 197 255
159 197 255
158 197 255
158 197 255
158 197 255
158 197 255
158 197 255
158 197 255
158 197 255
158 197 255
158 197 255
158 197 255
158 197 255
158 197 255
158 197 255
158 197 255
158 197 255
158 197 255
158 197 255
158 197 255
158 197 255
158 197 255
158 197 255
158 197 255
158 197 255
158 197 255
158 197 255
158 197 255
158 197 255
158 197 255
158 197 255
158 197 255
158 197 255
158 197 255
158 197 255
158 197 255
158 197 255
158 197 255
158 197 255
158 197 255
158 197 255
158 197 255
158 197 255
158 197 255
158 197 255
158 197 255
159 197 255
159 197 255
159 197 255
159 197 255
159 197 255
159 197 255
159 197 255
159 198 255
159 198 255
159 198 255
159 198 255
159 198 255
159 198 255
159 198 255
159 198 255
159 198 255
159 198 255
159 198 255
160 198 255
160 198 255
160 198 255
160 198 255
160 198 255
160 198 255
160 198 255
160 198 255
160 198 255
160 198 255
160 198 255
160 198 255
160 198 255
160 198 255
161 199 255
161 199 255
161 199 255
161 199 255
161 199 255
161 199 255
161 199 255
161 199 255
161 199 255
161 199 255
161 199 255
162 199 255
162 199 255
162 199 255
162 199 255
162 199 255
162 199 255
162 199 255
162 200 255
162 200 255
162 200 255
162 200 255
163 200 255
163 200 255
163 200 255
163 200 255
163 200 255
163 200 255
163 200 255
163 200 255
163 200 255
163 200 255
164 200 255
164 200 255
164 200 255
164 200 255
164 201 255
164 201 255
164 201 255
164 201 255
164 201 255
164 201 255
164 201 255
165 201 255
165 201 255
165 201 255
165 201 255
165 201 255
165 201 255
165 201 255
165 201 255
165 201 255
165 201 255
166 202 255
166 202 255
166 202 255
166 202 255
166 202 255
166 202 255
166 202 255
166 202 255
166 202 255
166 202 255
167 202 255
167 202 255
167 202 255
167 202 255
167 202 255
167 202 255
167 202 255
167 202 255
167 203 255
167 203 255
167 203 255
168 203 255
168 203 255
168 203 255
168 203 255
168 203 255
168 203 255
168 203 255
168 203 255
168 203 255
168 203 255
168 203 255
169 203 255
169 203 255
169 203 255
169 203 255
169 204 255
169 204 255
169 204 255
169 204 255
169 204 255
169 204 255
169 204 255
169 204 255
170 204 255
170 204 255
170 204 255
170 204 255
170 204 255
170 204 255
170 204 255
170 204 255
170 204 255
170 204 255
170 204 255
170 204 255
170 204 255
171 205 255
171 205 255
171 205 255
171 205 255
171 205 255
171 205 255
171 205 255
171 205 255
171 205 255
171 205 255
171 205 255
171 205 255
171 205 255
172 205 255
172 205 255
172 205 255
172 205 255
172 205 255
172 205 255
172 205 255
172 205 255
172 205 255
172 205 255
172 206 255
172 206 255
172 206 255
172 206 255
173 206 255
173 206 255
173 206 255
173 206 255
173 206 255
173 206 255
173 206 255
173 206 255
173 206 255
173 206 255
173 206 255
173 206 255
173 206 255
173 206 255
173 206 255
173 206 255
173 206 255
173 206 255
173 206 255
173 206 255
173 206 255
172 206 255
172 206 255
172 206 255
172 206 255
172 206 255
172 205 255
172 205 255
172 205 255
172 205 255
172 205 255
172 205 255
172 205 255
172 205 255
172 205 255
172 205 255
171 205 255
171 205 255
171 205 255
171 205 255
171 205 255
171 205 255
171 205 255
171 205 255
171 205 255
171 205 255
171 205 255
171 205 255
171 205 255
170 204 255
170 204 255
170 204 255
170 204 255
170 204 255
170 204 255
170 204 255
170 204 255
170 204 255
170 204 255
170 204 255
170 204 255
169 204 255
169 204 255
169 204 255
169 204 255
169 204 255
169 204 255
169 204 255
169 204 255
169 203 255
169 203 255
169 203 255
169 203 255
168 203 255
168 203 255
168 203 255
168 203 255
168 203 255
168 203 255
168 203 255
168 203 255
168 203 255
168 203 255
168 203 255
167 203 255
167 203 255
167 203 255
167 203 255
167 202 255
167 202 255
167 202 255
167 202 255
167 202 255
167 202 255
167 202 255
166 202 255
166 202 255
166 202 255
166 202 255
166 202 255
166 202 255
166 202 255
166 202 255
166 202 255
166 202 255
165 201 255
165 201 255
165 201 255
165 201 255
165 201 255
165 201 255
165 201 255
165 201 255
165 201 255
165 201 255
165 201 255
164 201 255
164 201 255
164 201 255
164 201 255
164 201 255
164 201 255
164 201 255
164 200 255
164 200 255
164 200 255
163 200 255
163 200 255
163 200 255
163 200 255
163 200 255
163 200 255
163 200 255
163 200 255
163 200 255
163 200 255
163 200 255
162 200 255
162 200 255
162 200 255
162 199 255
162 199 255
162 199 255
162 199 255
162 199 255
162 199 255
162 199 255
162 199 255
161 199 255
161 199 255
161 199 255
161 199 255
161 199 255
161 199 255
161 199 255
161 199 255
161 199 255
161 199 255
161 199 255
161 199 255
160 198 255
160 198 255
160 198 255
160 198 255
160 198 255
160 198 255
160 198 255
160 198 255
160 198 255
160 198 255
160 198 255
160 198 255
160 198 255
160 198 255
159 198 255
159 198 255
159 198 255
159 198 255
159 198 255
159 198 255
159 198 255
159 198 255
159 198 255
159 198 255
159 198 255
159 198 255
159 198 255
159 197 255
159 197 255
159 197 255
159 197 255
159 197 255
159 197 255
159 197 255
159 197 255
159 197 255
159 197 255
159 197 255
159 197 255
158 197 255
158 197 255
158 197 255
158 197 255
158 197 255
158 197 255
158 197 255
158 197 255
158 197 255
158 197 255
158 197 255
158 197 255
158 197 255
158 197 255
158 197 255
158 197 255
158 197 255
158 197 255
158 197 255
158 197 255
159 197 255
159 197 255
159 197 255
159 197 255
159 197 255
159 197 255
159 197 255
159 197 255
159 197 255
159 197 255
159 197 255
159 197 255
159 198 255
159 198 255
159 198 255
159 198 255
159 198 255
159 198 255
159 198 255
159 198 255
159 198 255
159 198 255
159 198 255
159 198 255
159 198 255
160 198 255
160 198 255
160 198 255
160 198 255
160 198 255
160 198 255
160 198 255
160 198 255
160 198 255
160 198 255
160 198 255
160 198 255
160 198 255
160 198 255
161 199 255
161 199 255
161 199 255
161 199 255
161 199 255
161 199 255
161 199 255
161 199 255
161 199 255
161 199 255
161 199 255
161 199 255
161 199 255
162 199 255
162 199 255
162 199 255
162 199 255
162 199 255
162 199 255
162 199 255
162 200 255
162 200 255
162 200 255
163 200 255
163 200 255
163 200 255
163 200 255
163 200 255
163 200 255
163 200 255
163 200 255
163 200 255
163 200 255
163 200 255
164 200 255
164 200 255
164 200 255
164 200 255
164 201 255
164 201 255
164 201 255
164 201 255
164 201 255
164 201 255
165 201 255
165 201 255
165 201 255
165 201 255
165 201 255
165 201 255
165 201 255
165 201 255
165 201 255
165 201 255
165 201 255
166 202 255
166 202 255
166 202 255
166 202 255
166 202 255
166 202 255
166 202 255
166 202 255
166 202 255
166 202 255
167 202 255
167 202 255
167 202 255
167 202 255
167 202 255
167 202 255
167 202 255
167 203 255
167 203 255
167 203 255
167 203 255
168 203 255
168 203 255
168 203 255
168 203 255
168 203 255
168 203 255
168 203 255
168 203 255
168 203 255
168 203 255
168 203 255
169 203 255
169 203 255
169 203 255
169 203 255
169 204 255
169 204 255
169 204 255
169 204 255
169 204 255
169 204 255
169 204 255
169 204 255
170 204 255
170 204 255
170 204 255
170 204 255
170 204 255
170 204 255
170 204 255
170 204 255
170 204 255
170 204 255
170 204 255
170 204 255
171 205 255
171 205 255
171 205 255
171 205 255
171 205 255
171 205 255
171 205 255
171 205 255
171 205 255
171 205 255
171 205 255
171 205 255
171 205 255
172 205 255
172 205 255
172 205 255
172 205 255
172 205 255
172 205 255
172 205 255
172 205 255
172 205 255
172 205 255
172 206 255
172 206 255
172 206 255
172 206 255
172 206 255
173 206 255
173 206 255
173 206 255
173 206 255
173 206 255
173 206 255
173 206 255
173 206 255
173 206 255
173 206 255
173 206 255
173 206 255
174 206 255
173 206 255
173 206 255
173 206 255
173 206 255
173 206 255
173 206 255
173 206 255
173 206 255
173 206 255
173 206 255
173 206 255
173 206 255
173 206 255
173 206 255
173 206 255
172 206 255
172 206 255
172 206 255
172 206 255
172 206 255
172 205 255
172 205 255
172 205 255
172 205 255
172 205 255
172 205 255
172 205 255
172 205 255
172 205 255
171 205 255
171 205 255
171 205 255
171 205 255
171 205 255
171 205 255
171 205 255
171 205 255
171 205 255
171 205 255
171 205 255
171 205 255
171 205 255
171 205 255
170 204 255
170 204 255
170 204 255
170 204 255
170 204 255
170 204 255
170 204 255
170 204 255
170 204 255
170 204 255
170 204 255
170 204 255
169 204 255
169 204 255
169 204 255
169 204 255
169 204 255
169 204 255
169 204 255
169 203 255
169 203 255
169 203 255
169 203 255
168 203 255
168 203 255
168 203 255
168 203 255
168 203 255
168 203 255
168 203 255
168 203 255
168 203 255
168 203 255
168 203 255
168 203 255
167 203 255
167 203 255
167 203 255
167 202 255
167 202 255
167 202 255
167 202 255
167 202 255
167 202 255
167 202 255
166 202 255
166 202 255
166 202 255
166 202 255
166 202 255
166 202 255
166 202 255
166 202 255
166 202 255
166 202 255
166 202 255
165 201 255
165 201 255
165 201 255
165 201 255
165 201 255
165 201 255
165 201 255
165 201 255
165 201 255
165 201 255
164 201 255
164 201 255
164 201 255
164 201 255
164 201 255
164 201 255
164 201 255
164 200 255
164 200 255
164 200 255
163 200 255
163 200 255
163 200 255
163 200 255
163 200 255
163 200 255
163 200 255
163 200 255
163 200 255
163 200 255
163 200 255
162 200 255
162 200 255
162 200 255
162 200 255
162 199 255
162 199 255
162 199 255
162 199 255
162 199 255
162 199 255
162 199 255
162 199 255
161 199 255
161 199 255
161 199 255
161 199 255
161 199 255
161 199 255
161 199 255
161 199 255
161 199 255
161 199 255
161 199 255
161 199 255
161 199 255
160 198 255
160 198 255
160 198 255
160 198 255
160 198 255
160 198 255
160 198 255
160 198 255
160 198 255
160 198 255
160 198 255
160 198 255
160 198 255
160 198 255
160 198 255
160 198 255
159 198 255
159 198 255
159 198 255
159 198 255
159 198 255
159 198 255
159 198 255
159 198 255
159 198 255
159 198 255
159 198 255
159 198 255
159 198 255
159 198 255
159 198 255
159 198 255
159 198 255
159 198 255
159 198 255
159 198 255
159 197 255
159 197 255
159 197 255
159 197 255
159 197 255
159 197 255
159 197 255
159 197 255
159 197 255
159 197 255
159 197 255
159 197 255
159 197 255
159 197 255
159 197 255
159 197 255
159 197 255
159 197 255
159 198 255
159 198 255
159 198 255
159 198 255
159 198 255
159 198 255
159 198 255
159 198 255
159 198 255
159 198 255
159 198 255
159 198 255
159 198 255
159 198 255
159 198 255
159 198 255
159 198 255
159 198 255
159 198 255
160 198 255
160 198 255
160 198 255
160 198 255
160 198 255
160 198 255
160 198 255
160 198 255
160 198 255
160 198 255
160 198 255
160 198 255
160 198 255
160 198 255
160 198 255
161 199 255
161 199 255
161 199 255
161 199 255
161 199 255
161 199 255
161 199 255
161 199 255
161 199 255
161 199 255
161 199 255
161 199 255
161 199 255
162 199 255
162 199 255
162 199 255
162 199 255
162 199 255
162 199 255
162 199 255
162 199 255
162 200 255
162 200 255
162 200 255
162 200 255
163 200 255
163 200 255
163 200 255
163 200 255
163 200 255
163 200 255
163 200 255
163 200 255
163 200 255
163 200 255
164 200 255
164 200 255
164 200 255
164 200 255
164 201 255
164 201 255
164 201 255
164 201 255
164 201 255
164 201 255
164 201 255
165 201 255
165 201 255
165 201 255
165 201 255
165 201 255
165 201 255
165 201 255
165 201 255
165 201 255
165 201 255
166 202 255
166 202 255
166 202 255
166 202 255
166 202 255
166 202 255
166 202 255
166 202 255
166 202 255
166 202 255
166 202 255
167 202 255
167 202 255
167 202 255
167 202 255
167 202 255
167 202 255
167 202 255
167 203 255
167 203 255
167 203 255
167 203 255
168 203 255
168 203 255
168 203 255
168 203 255
168 203 255
168 203 255
168 203 255
168 203 255
168 203 255
168 203 255
168 203 255
169 203 255
169 203 255
169 203 255
169 203 255
169 204 255
169 204 255
169 204 255
169 204 255
169 204 255
169 204 255
169 204 255
170 204 255
170 204 255
170 204 255
170 204 255
170 204 255
170 204 255
170 204 255
170 204 255
170 204 255
170 204 255
170 204 255
170 204 255
170 204 255
171 205 255
171 205 255
171 205 255
171 205 255
171 205 255
171 205 255
171 205 255
171 205 255
171 205 255
171 205 255
171 205 255
171 205 255
171 205 255
172 205 255
172 205 255
172 205 255
172 205 255
172 205 255
172 205 255
172 205 255
172 205 255
172 205 255
172 206 255
172 206 255
172 206 255
172 206 255
172 206 255
173 206 255
173 206 255
173 206 255
173 206 255
173 206 255
173 206 255
173 206 255
173 206 255
173 206 255
173 206 255
173 206 255
173 206 255
173 206 255
173 206 255
173 206 255
174 206 255
174 206 255
174 206 255
174 206 255
174 206 255
174 206 255
173 206 255
173 206 255
173 206 255
173 206 255
173 206 255
173 206 255
173 206 255
173 206 255
173 206 255
173 206 255
173 206 255
173 206 255
173 206 255
173 206 255
173 206 255
172 206 255
172 206 255
172 206 255
172 206 255
172 206 255
172 205 255
172 205 255
172 205 255
172 205 255
172 205 255
172 205 255
172 205 255
172 205 255
172 205 255
171 205 255
171 205 255
171 205 255
171 205 255
171 205 255
171 205 255
171 205 255
171 205 255
171 205 255
171 205 255
171 205 255
171 205 255
171 205 255
170 204 255
170 204 255
170 204 255
170 204 255
170 204 255
170 204 255
170 204 255
170 204 255
170 204 255
170 204 255
170 204 255
170 204 255
169 204 255
169 204 255
169 204 255
169 204 255
169 204 255
169 204 255
169 204 255
169 204 255
169 203 255
169 203 255
169 203 255
169 203 255
168 203 255
168 203 255
168 203 255
168 203 255
168 203 255
168 203 255
168 203 255
168 203 255
168 203 255
168 203 255
168 203 255
167 203 255
167 203 255
167 203 255
167 203 255
167 202 255
167 202 255
167 202 255
167 202 255
167 202 255
167 202 255
167 202 255
166 202 255
166 202 255
166 202 255
166 202 255
166 202 255
166 202 255
166 202 255
166 202 255
166 202 255
166 202 255
165 201 255
165 201 255
165 201 255
165 201 255
165 201 255
165 201 255
165 201 255
165 201 255
165 201 255
165 201 255
164 201 255
164 201 255
164 201 255
164 201 255
164 201 255
164 201 255
164 201 255
164 201 255
164 200 255
164 200 255
164 200 255
163 200 255
163 200 255
163 200 255
163 200 255
163 200 255
163 200 255
163 200 255
163 200 255
163 200 255
163 200 255
163 200 255
162 200 255
162 200 255
162 200 255
162 200 255
162 199 255
162 199 255
162 199 255
162 199 255
162 199 255
162 199 255
162 199 255
162 199 255
161 199 255
161 199 255
161 199 255
161 199 255
161 199 255
161 199 255
161 199 255
161 199 255
161 199 255
161 199 255
161 199 255
161 199 255
161 199 255
161 199 255
160 198 255
160 198 255
160 198 255
160 198 255
160 198 255
160 198 255
160 198 255
160 198 255
160 198 255
160 198 255
160 198 255
160 198 255
160 198 255
160 198 255
160 198 255
160 198 255
160 198 255
160 198 255
159 198 255
159 198 255
159 198 255
159 198 255
159 198 255
159 198 255
159 198 255
159 198 255
159 198 255
159 198 255
159 198 255
159 198 255
159 198 255
159 198 255
159 198 255
159 198 255
159 198 255
159 198 255
159 198 255
159 198 255
159 198 255
159 198 255
159 198 255
159 198 255
159 198 255
159 198 255
159 198 255
159 198 255
159 198 255
159 198 255
159 198 255
159 198 255
159 198 255
159 198 255
159 198 255
159 198 255
159 198 255
159 198 255
159 198 255
159 198 255
159 198 255
160 198 255
160 198 255
160 198 255
160 198 255
160 198 255
160 198 255
160 198 255
160 198 255
160 198 255
160 198 255
160 198 255
160 198 255
160 198 255
160 198 255
160 198 255
160 198 255
160 198 255
160 198 255
160 198 255
160 198 255
161 199 255
161 199 255
161 199 255
161 199 255
161 199 255
161 199 255
161 199 255
161 199 255
161 199 255
161 199 255
161 199 255
161 199 255
161 199 255
162 199 255
162 199 255
162 199 255
162 199 255
162 199 255
162 199 255
162 199 255
162 199 255
162 200 255
162 200 255
162 200 255
162 200 255
163 200 255
163 200 255
163 200 255
163 200 255
163 200 255
163 200 255
163 200 255
163 200 255
163 200 255
163 200 255
163 200 255
164 200 255
164 200 255
164 200 255
164 201 255
164 201 255
164 201 255
164 201 255
164 201 255
164 201 255
164 201 255
165 201 255
165 201 255
165 201 255
165 201 255
165 201 255
165 201 255
165 201 255
165 201 255
165 201 255
165 201 255
165 201 255
166 202 255
166 202 255
166 202 255
166 202 255
166 202 255
166 202 255
166 202 255
166 202 255
166 202 255
166 202 255
167 202 255
167 202 255
167 202 255
167 202 255
167 202 255
167 202 255
167 202 255
167 202 255
167 203 255
167 203 255
167 203 255
168 203 255
168 203 255
168 203 255
168 203 255
168 203 255
168 203 255
168 203 255
168 203 255
168 203 255
168 203 255
168 203 255
169 203 255
169 203 255
169 203 255
169 203 255
169 204 255
169 204 255
169 204 255
169 204 255
169 204 255
169 204 255
169 204 255
169 204 255
170 204 255
170 204 255
170 204 255
170 204 255
170 204 255
170 204 255
170 204 255
170 204 255
170 204 255
170 204 255
170 204 255
170 204 255
171 205 255
171 205 255
171 205 255
171 205 255
171 205 255
171 205 255
171 205 255
171 205 255
171 205 255
171 205 255
171 205 255
171 205 255
171 205 255
172 205 255
172 205 255
172 205 255
172 205 255
172 205 255
172 205 255
172 205 255
172 205 255
172 205 255
172 206 255
172 206 255
172 206 255
172 206 255
172 206 255
173 206 255
173 206 255
173 206 255
173 206 255
173 206 255
173 206 255
173 206 255
173 206 255
173 206 255
173 206 255
173 206 255
173 206 255
173 206 255
173 206 255
173 206 255
174 206 255
174 206 255
174 206 255
174 206 255
174 206 255
174 207 255
174 207 255
174 207 255
174 207 255
174 206 255
174 206 255
174 206 255
174 206 255
174 206 255
173 206 255
173 206 255
173 206 255
173 206 255
173 206 255
173 206 255
173 206 255
173 206 255
173 206 255
173 206 255
173 206 255
173 206 255
173 206 255
173 206 255
173 206 255
172 206 255
172 206 255
172 206 255
172 206 255
172 205 255
172 205 255
172 205 255
172 205 255
172 205 255
172 205 255
172 205 255
172 205 255
172 205 255
172 205 255
164 196 245
164 196 245
155 186 232
144 173 217
146 176 221
138 166 208
141 171 214
140 169 214
127 154 195
129 156 198
132 160 202
124 151 191
136 165 208
133 162 205
137 166 209
131 159 201
135 163 205
136 164 207
150 181 227
144 174 219
149 180 226
145 175 220
150 180 226
168 202 253
170 204 255
169 204 255
169 204 255
169 204 255
169 204 255
169 204 255
169 204 255
169 204 255
169 203 255
169 203 255
169 203 255
169 203 255
168 203 255
168 203 255
168 203 255
168 203 255
168 203 255
168 203 255
168 203 255
168 203 255
168 203 255
168 203 255
168 203 255
167 203 255
167 203 255
167 203 255
167 203 255
167 202 255
167 202 255
167 202 255
167 202 255
167 202 255
167 202 255
167 202 255
166 202 255
166 202 255
166 202 255
166 202 255
166 202 255
166 202 255
166 202 255
166 202 255
166 202 255
166 202 255
165 201 255
165 201 255
165 201 255
165 201 255
165 201 255
165 201 255
165 201 255
165 201 255
165 201 255
165 201 255
165 201 255
164 201 255
164 201 255
164 201 255
164 201 255
164 201 255
164 201 255
164 201 255
164 200 255
164 200 255
164 200 255
164 200 255
163 200 255
163 200 255
163 200 255
163 200 255
163 200 255
163 200 255
163 200 255
163 200 255
163 200 255
163 200 255
163 200 255
162 200 255
162 200 255
162 200 255
162 200 255
162 199 255
162 199 255
162 199 255
162 199 255
162 199 255
162 199 255
162 199 255
162 199 255
162 199 255
161 199 255
161 199 255
161 199 255
161 199 255
161 199 255
161 199 255
161 199 255
161 199 255
161 199 255
161 199 255
161 199 255
161 199 255
161 199 255
161 199 255
160 198 255
160 198 255
160 198 255
160 198 255
160 198 255
160 198 255
160 198 255
160 198 255
160 198 255
160 198 255
160 198 255
160 198 255
160 198 255
160 198 255
160 198 255
160 198 255
160 198 255
160 198 255
160 198 255
160 198 255
160 198 255
160 198 255
160 198 255
160 198 255
160 198 255
160 198 255
160 198 255
160 198 255
160 198 255
160 198 255
159 198 255
159 198 255
159 198 255
159 198 255
159 198 255
159 198 255
159 198 255
159 198 255
160 198 255
160 198 255
160 198 255
160 198 255
160 198 255
160 198 255
160 198 255
160 198 255
160 198 255
160 198 255
160 198 255
160 198 255
160 198 255
160 198 255
160 198 255
160 198 255
160 198 255
160 198 255
160 198 255
160 198 255
160 198 255
160 198 255
160 198 255
160 198 255
160 198 255
160 198 255
160 198 255
160 198 255
160 198 255
161 199 255
161 199 255
161 199 255
161 199 255
161 199 255
161 199 255
161 199 255
161 199 255
161 199 255
161 199 255
161 199 255
161 199 255
161 199 255
161 199 255
161 199 255
161 199 255
162 199 255
162 199 255
162 199 255
162 199 255
162 199 255
162 199 255
162 199 255
162 199 255
162 200 255
162 200 255
162 200 255
162 200 255
163 200 255
163 200 255
163 200 255
163 200 255
163 200 255
163 200 255
163 200 255
163 200 255
163 200 255
163 200 255
163 200 255
164 200 255
164 200 255
164 200 255
164 200 255
164 201 255
164 201 255
164 201 255
164 201 255
164 201 255
164 201 255
164 201 255
165 201 255
165 201 255
165 201 255
165 201 255
165 201 255
165 201 255
165 201 255
165 201 255
165 201 255
165 201 255
166 202 255
166 202 255
166 202 255
166 202 255
166 202 255
166 202 255
166 202 255
166 202 255
166 202 255
166 202 255
166 202 255
167 202 255
167 202 255
167 202 255
167 202 255
167 202 255
167 202 255
167 202 255
167 203 255
167 203 255
167 203 255
167 203 255
168 203 255
168 203 255
168 203 255
168 203 255
168 203 255
168 203 255
168 203 255
168 203 255
168 203 255
168 203 255
168 203 255
169 203 255
169 203 255
169 203 255
169 203 255
169 204 255
169 204 255
169 204 255
169 204 255
169 204 255
169 204 255
169 204 255
169 204 255
170 204 255
147 175 215
157 186 224
147 173 207
135 153 163
142 167 196
130 149 165
124 142 153
136 157 177
129 145 153
126 148 173
122 140 153
127 143 152
118 135 149
127 147 165
123 140 153
130 151 174
138 162 192
138 159 181
142 167 198
149 176 212
156 182 216
163 194 239
171 203 251
172 205 255
172 205 255
172 205 255
172 205 255
172 205 255
172 205 255
172 205 255
172 205 255
172 205 255
172 205 255
172 206 255
172 206 255
172 206 255
172 206 255
173 206 255
173 206 255
173 206 255
173 206 255
173 206 255
173 206 255
173 206 255
173 206 255
173 206 255
173 206 255
173 206 255
173 206 255
173 206 255
173 206 255
173 206 255
174 206 255
174 206 255
174 206 255
174 206 255
174 206 255
174 207 255
174 207 255
174 207 255
174 207 255
174 207 255
174 207 255
174 207 255
174 207 255
174 207 255
174 207 255
174 207 255
174 207 255
174 206 255
174 206 255
174 206 255
174 206 255
174 206 255
173 206 255
173 206 255
173 206 255
173 206 255
173 206 255
173 206 255
173 206 255
173 206 255
173 206 255
173 206 255
173 206 255
173 206 255
173 206 255
173 206 255
173 206 255
172 206 255
168 201 250
155 185 231
135 163 203
130 157 197
125 151 190
105 128 163
108 132 168
92 114 146
98 122 158
71 89 116
92 115 149
82 103 135
80 100 131
92 116 151
80 101 133
92 115 151
86 108 141
90 114 149
96 121 159
90 115 151
89 113 149
89 113 149
91 115 151
91 116 153
92 117 155
96 122 161
95 121 159
79 101 133
75 95 126
98 125 165
90 115 151
83 106 139
82 104 137
94 118 153
108 134 174
102 127 163
107 132 168
132 161 205
129 157 199
133 160 202
146 177 222
167 202 253
169 204 255
169 204 255
169 204 255
169 203 255
169 203 255
169 203 255
169 203 255
168 203 255
168 203 255
168 203 255
168 203 255
168 203 255
168 203 255
168 203 255
168 203 255
168 203 255
168 203 255
168 203 255
167 203 255
167 203 255
167 203 255
167 202 255
167 202 255
167 202 255
167 202 255
167 202 255
167 202 255
167 202 255
167 202 255
166 202 255
166 202 255
166 202 255
166 202 255
166 202 255
166 202 255
166 202 255
166 202 255
166 202 255
166 202 255
165 201 255
165 201 255
165 201 255
165 201 255
165 201 255
165 201 255
165 201 255
165 201 255
165 201 255
165 201 255
165 201 255
164 201 255
164 201 255
164 201 255
164 201 255
164 201 255
164 201 255
164 201 255
164 200 255
164 200 255
164 200 255
164 200 255
163 200 255
163 200 255
163 200 255
163 200 255
163 200 255
163 200 255
163 200 255
163 200 255
163 200 255
163 200 255
163 200 255
162 200 255
162 200 255
162 200 255
162 200 255
162 200 255
162 199 255
162 199 255
162 199 255
162 199 255
162 199 255
162 199 255
162 199 255
162 199 255
162 199 255
161 199 255
161 199 255
161 199 255
161 199 255
161 199 255
161 199 255
161 199 255
161 199 255
161 199 255
161 199 255
161 199 255
161 199 255
161 199 255
161 199 255
161 199 255
161 199 255
160 198 255
160 198 255
160 198 255
160 198 255
160 198 255
160 198 255
160 198 255
160 198 255
160 198 255
160 198 255
160 198 255
160 198 255
160 198 255
160 198 255
160 198 255
160 198 255
160 198 255
160 198 255
160 198 255
160 198 255
160 198 255
160 198 255
160 198 255
160 198 255
160 198 255
160 198 255
160 198 255
160 198 255
160 198 255
160 198 255
160 198 255
160 198 255
160 198 255
160 198 255
160 198 255
160 198 255
160 198 255
160 198 255
160 198 255
160 198 255
160 198 255
160 198 255
160 198 255
160 198 255
160 198 255
160 198 255
160 198 255
160 198 255
160 198 255
160 198 255
160 198 255
160 198 255
160 198 255
160 198 255
161 199 255
161 199 255
161 199 255
161 199 255
161 199 255
161 199 255
161 199 255
161 199 255
161 199 255
161 199 255
161 199 255
161 199 255
161 199 255
161 199 255
161 199 255
161 199 255
161 199 255
162 199 255
162 199 255
162 199 255
162 199 255
162 199 255
162 199 255
162 199 255
162 199 255
162 200 255
162 200 255
162 200 255
162 200 255
163 200 255
163 200 255
163 200 255
163 200 255
163 200 255
163 200 255
163 200 255
163 200 255
163 200 255
163 200 255
163 200 255
163 200 255
164 200 255
164 200 255
164 200 255
164 200 255
164 201 255
164 201 255
164 201 255
164 201 255
164 201 255
164 201 255
164 201 255
165 201 255
165 201 255
165 201 255
165 201 255
165 201 255
165 201 255
165 201 255
165 201 255
165 201 255
165 201 255
165 201 255
166 202 255
166 202 255
166 202 255
166 202 255
166 202 255
166 202 255
166 202 255
166 202 255
166 202 255
166 202 255
166 202 255
167 202 255
167 202 255
167 202 255
167 202 255
167 202 255
167 202 255
167 202 255
167 203 255
167 203 255
167 203 255
168 203 255
168 203 255
168 203 255
168 203 255
168 203 255
168 203 255
168 203 255
168 203 255
168 203 255
168 203 255
168 203 255
168 203 255
169 203 255
169 203 255
169 203 255
169 204 255
169 204 255
169 204 255
164 197 246
156 184 220
136 158 182
129 148 161
106 118 117
96 104 91
92 98 80
86 88 65
73 74 46
59 58 27
61 59 26
65 63 28
67 65 29
71 67 29
57 55 24
66 63 28
75 72 31
74 71 31
73 70 31
68 66 29
68 66 29
68 65 28
65 63 28
64 63 27
60 58 26
64 61 27
67 64 28
63 61 27
62 60 26
72 69 30
63 60 26
60 57 25
81 76 34
79 77 43
71 72 50
105 111 92
106 114 104
105 115 110
128 143 147
133 154 178
154 182 220
159 187 226
172 206 255
173 206 255
173 206 255
173 206 255
173 206 255
173 206 255
173 206 255
173 206 255
173 206 255
173 206 255
173 206 255
173 206 255
173 206 255
173 206 255
173 206 255
173 206 255
174 206 255
174 206 255
174 206 255
174 206 255
174 206 255
174 207 255
174 207 255
174 207 255
174 207 255
174 207 255
174 207 255
174 207 255
174 207 255
175 207 255
174 207 255
174 207 255
174 207 255
174 207 255
174 207 255
174 207 255
174 207 255
174 207 255
174 207 255
174 207 255
174 207 255
174 206 255
174 206 255
174 206 255
174 206 255
174 206 255
173 206 255
173 206 255
173 206 255
173 206 255
173 206 255
173 206 255
164 195 243
144 172 214
127 153 191
123 148 186
88 108 138
89 109 139
81 101 131
95 118 153
89 111 145
101 127 165
94 117 153
83 106 139
96 121 159
96 121 159
96 122 161
99 126 165
100 127 167
101 128 167
99 125 165
100 127 167
99 126 167
98 126 167
103 131 174
103 132 176
111 142 188
101 129 172
99 127 169
101 130 174
105 135 180
106 136 182
99 128 172
99 128 172
104 134 178
92 119 159
97 125 167
105 135 180
104 133 178
95 122 163
102 132 176
99 127 169
98 126 167
94 122 163
91 117 155
82 106 141
94 120 159
92 117 155
83 105 139
85 107 141
81 102 134
100 124 160
114 140 179
122 149 189
137 165 208
154 186 233
169 203 255
169 203 255
169 203 255
169 203 255
168 203 255
168 203 255
168 203 255
168 203 255
168 203 255
168 203 255
168 203 255
168 203 255
168 203 255
168 203 255
168 203 255
168 203 255
167 203 255
167 203 255
167 203 255
167 202 255
167 202 255
167 202 255
167 202 255
167 202 255
167 202 255
167 202 255
166 202 255
166 202 255
166 202 255
166 202 255
166 202 255
166 202 255
166 202 255
166 202 255
166 202 255
166 202 255
166 202 255
165 201 255
165 201 255
165 201 255
165 201 255
165 201 255
165 201 255
165 201 255
165 201 255
165 201 255
165 201 255
165 201 255
164 201 255
164 201 255
164 201 255
164 201 255
164 201 255
164 201 255
164 201 255
164 200 255
164 200 255
164 200 255
164 200 255
163 200 255
163 200 255
163 200 255
163 200 255
163 200 255
163 200 255
163 200 255
163 200 255
163 200 255
163 200 255
163 200 255
163 200 255
162 200 255
162 200 255
162 200 255
162 200 255
162 199 255
162 199 255
162 199 255
162 199 255
162 199 255
162 199 255
162 199 255
162 199 255
162 199 255
162 199 255
161 199 255
161 199 255
161 199 255
161 199 255
161 199 255
161 199 255
161 199 255
161 199 255
161 199 255
161 199 255
161 199 255
161 199 255
161 199 255
161 199 255
161 199 255
161 199 255
161 199 255
161 199 255
161 199 255
161 199 255
161 199 255
160 198 255
160 198 255
160 198 255
160 198 255
160 198 255
160 198 255
160 198 255
160 198 255
160 198 255
160 198 255
160 198 255
160 198 255
160 198 255
160 198 255
160 198 255
160 198 255
160 198 255
160 198 255
160 198 255
160 198 255
160 198 255
160 198 255
160 198 255
160 198 255
160 198 255
160 198 255
160 198 255
160 198 255
160 198 255
160 198 255
160 198 255
160 198 255
160 198 255
160 198 255
161 199 255
161 199 255
161 199 255
161 199 255
161 199 255
161 199 255
161 199 255
161 199 255
161 199 255
161 199 255
161 199 255
161 199 255
161 199 255
161 199 255
161 199 255
161 199 255
161 199 255
161 199 255
161 199 255
161 199 255
161 199 255
162 199 255
162 199 255
162 199 255
162 199 255
162 199 255
162 199 255
162 199 255
162 199 255
162 199 255
162 199 255
162 200 255
162 200 255
162 200 255
162 200 255
163 200 255
163 200 255
163 200 255
163 200 255
163 200 255
163 200 255
163 200 255
163 200 255
163 200 255
163 200 255
163 200 255
163 200 255
164 200 255
164 200 255
164 200 255
164 200 255
164 201 255
164 201 255
164 201 255
164 201 255
164 201 255
164 201 255
164 201 255
165 201 255
165 201 255
165 201 255
165 201 255
165 201 255
165 201 255
165 201 255
165 201 255
165 201 255
165 201 255
165 201 255
166 202 255
166 202 255
166 202 255
166 202 255
166 202 255
166 202 255
166 202 255
166 202 255
166 202 255
166 202 255
166 202 255
167 202 255
167 202 255
167 202 255
167 202 255
167 202 255
167 202 255
167 202 255
167 203 255
167 203 255
167 203 255
167 203 255
168 203 255
168 203 255
168 203 255
168 203 255
168 203 255
168 203 255
168 203 255
168 203 255
168 203 255
168 203 255
168 203 255
169 203 255
169 203 255
169 203 255
169 203 255
161 192 236
127 148 169
125 144 160
106 120 122
85 91 76
68 70 46
64 62 27
73 70 31
70 69 31
80 77 34
68 66 29
70 68 30
73 71 32
69 67 30
71 68 30
69 68 30
77 75 33
59 58 26
81 79 35
71 70 31
80 78 34
77 75 33
72 70 30
73 71 32
64 62 27
60 58 26
62 60 27
57 55 24
69 67 30
65 63 27
80 77 34
70 67 29
74 71 30
61 58 25
74 71 30
67 65 29
62 59 26
72 70 31
77 74 33
70 67 29
74 70 30
69 66 29
71 67 29
77 74 32
73 68 29
71 67 29
76 73 30
65 62 26
69 69 40
94 99 86
97 103 88
127 146 162
135 156 175
160 190 232
173 206 255
173 206 255
173 206 255
173 206 255
173 206 255
173 206 255
174 206 255
174 206 255
174 206 255
174 206 255
174 206 255
174 207 255
174 207 255
174 207 255
174 207 255
174 207 255
174 207 255
174 207 255
174 207 255
174 207 255
174 207 255
174 207 255
175 207 255
175 207 255
175 207 255
175 207 255
175 207 255
175 207 255
174 207 255
174 207 255
174 207 255
174 207 255
174 207 255
174 207 255
174 207 255
174 207 255
174 207 255
174 207 255
174 207 255
174 206 255
174 206 255
166 198 245
141 168 210
134 160 201
109 132 166
90 110 140
85 105 135
99 122 157
86 107 139
95 118 153
98 123 161
88 111 145
101 128 167
101 128 167
93 118 155
97 123 161
102 129 169
107 136 180
109 139 184
99 127 167
115 147 194
104 134 178
99 126 167
104 133 178
114 146 194
112 144 192
103 133 178
105 135 180
109 141 188
109 141 188
110 142 190
105 136 182
101 132 178
110 143 192
101 131 176
107 139 186
113 147 198
111 144 192
109 141 190
110 144 194
114 147 198
110 144 194
107 140 188
111 143 192
100 130 176
101 132 178
101 132 178
100 130 176
106 137 184
102 133 180
103 135 182
98 127 172
102 132 178
92 119 159
99 128 172
95 123 165
88 113 151
87 112 149
85 109 145
92 117 155
95 119 156
112 138 177
114 140 179
140 171 217
158 191 240
169 203 255
169 203 255
169 203 255
168 203 255
168 203 255
168 203 255
168 203 255
168 203 255
168 203 255
168 203 255
168 203 255
168 203 255
168 203 255
168 203 255
167 203 255
167 203 255
167 203 255
167 203 255
167 202 255
167 202 255
167 202 255
167 202 255
167 202 255
167 202 255
167 202 255
166 202 255
166 202 255
166 202 255
166 202 255
166 202 255
166 202 255
166 202 255
166 202 255
166 202 255
166 202 255
166 202 255
165 201 255
165 201 255
165 201 255
165 201 255
165 201 255
165 201 255
165 201 255
165 201 255
165 201 255
165 201 255
165 201 255
164 201 255
164 201 255
164 201 255
164 201 255
164 201 255
164 201 255
164 201 255
164 200 255
164 200 255
164 200 255
164 200 255
163 200 255
163 200 255
163 200 255
163 200 255
163 200 255
163 200 255
163 200 255
163 200 255
163 200 255
163 200 255
163 200 255
163 200 255
163 200 255
162 200 255
162 200 255
162 200 255
162 200 255
162 199 255
162 199 255
162 199 255
162 199 255
162 199 255
162 199 255
162 199 255
162 199 255
162 199 255
162 199 255
162 199 255
162 199 255
161 199 255
161 199 255
161 199 255
161 199 255
161 199 255
161 199 255
161 199 255
161 199 255
161 199 255
161 199 255
161 199 255
161 199 255
161 199 255
161 199 255
161 199 255
161 199 255
161 199 255
161 199 255
161 199 255
161 199 255
161 199 255
161 199 255
161 199 255
161 199 255
161 199 255
161 199 255
161 199 255
161 199 255
161 199 255
161 199 255
161 199 255
161 199 255
161 199 255
161 199 255
161 199 255
161 199 255
161 199 255
161 199 255
161 199 255
161 199 255
161 199 255
161 199 255
161 199 255
161 199 255
161 199 255
161 199 255
161 199 255
161 199 255
161 199 255
161 199 255
161 199 255
161 199 255
161 199 255
161 199 255
161 199 255
161 199 255
161 199 255
161 199 255
161 199 255
161 199 255
161 199 255
161 199 255
161 199 255
162 199 255
162 199 255
162 199 255
162 199 255
162 199 255
162 199 255
162 199 255
162 199 255
162 199 255
162 199 255
162 199 255
162 200 255
162 200 255
162 200 255
162 200 255
163 200 255
163 200 255
163 200 255
163 200 255
163 200 255
163 200 255
163 200 255
163 200 255
163 200 255
163 200 255
163 200 255
163 200 255
163 200 255
164 200 255
164 200 255
164 200 255
164 200 255
164 201 255
164 201 255
164 201 255
164 201 255
164 201 255
164 201 255
164 201 255
165 201 255
165 201 255
165 201 255
165 201 255
165 201 255
165 201 255
165 201 255
165 201 255
165 201 255
165 201 255
165 201 255
165 201 255
166 202 255
166 202 255
166 202 255
166 202 255
166 202 255
166 202 255
166 202 255
166 202 255
166 202 255
166 202 255
167 202 255
167 202 255
167 202 255
167 202 255
167 202 255
167 202 255
167 202 255
167 203 255
167 203 255
167 203 255
167 203 255
168 203 255
168 203 255
168 203 255
168 203 255
168 203 255
168 203 255
168 203 255
168 203 255
168 203 255
168 203 255
168 203 255
169 203 255
169 203 255
169 203 255
163 196 244
144 170 199
113 129 140
104 117 121
81 82 53
57 56 25
68 66 29
67 65 29
58 57 25
63 62 28
64 62 27
67 66 29
66 65 29
71 70 31
70 69 31
68 66 29
70 69 31
69 66 29
75 74 33
75 73 33
72 70 31
76 74 33
71 69 31
67 66 30
81 78 34
81 79 35
74 72 32
67 65 29
70 68 30
66 63 27
68 66 30
77 73 32
80 75 33
77 74 32
76 74 33
73 70 31
79 76 32
73 70 31
76 74 33
67 65 28
77 74 32
78 76 32
65 63 28
65 63 27
77 75 33
68 67 29
75 72 31
73 70 30
72 69 29
73 70 31
54 51 23
70 67 28
59 58 25
59 57 25
76 73 31
71 68 29
77 73 31
72 69 29
72 69 29
76 78 57
99 106 93
117 131 138
135 157 181
166 196 238
174 206 255
174 206 255
174 207 255
174 207 255
174 207 255
174 207 255
174 207 255
174 207 255
174 207 255
174 207 255
174 207 255
174 207 255
174 207 255
175 207 255
175 207 255
175 207 255
175 207 255
175 207 255
175 207 255
175 207 255
175 207 255
175 207 255
175 207 255
175 207 255
175 207 255
175 207 255
175 207 255
174 207 255
174 207 255
174 207 255
174 207 255
174 207 255
156 185 230
135 161 201
118 143 180
90 110 139
83 102 131
89 110 141
97 120 155
91 113 147
104 130 169
93 117 153
98 122 159
100 125 163
108 136 178
108 137 180
106 134 176
107 135 178
106 136 180
109 140 186
113 145 192
111 142 188
108 139 184
110 141 188
108 138 184
115 147 196
114 147 196
113 144 192
117 151 202
114 148 198
115 148 198
115 149 200
113 147 198
115 149 200
114 149 200
116 150 202
115 150 202
116 151 204
116 151 204
116 151 204
115 151 204
114 149 202
113 149 202
114 149 202
115 151 204
114 149 202
114 150 204
114 149 202
113 148 202
113 149 202
113 149 202
112 147 200
112 148 202
112 148 200
108 143 194
112 147 200
107 140 190
109 143 194
103 136 184
108 141 190
104 136 184
105 137 186
108 141 190
108 141 190
98 128 172
89 115 153
105 135 180
100 129 172
91 117 155
88 113 149
90 113 147
116 142 182
126 154 196
151 183 230
169 203 255
169 203 255
169 203 255
168 203 255
168 203 255
168 203 255
168 203 255
168 203 255
168 203 255
168 203 255
168 203 255
168 203 255
168 203 255
167 203 255
167 203 255
167 203 255
167 203 255
167 202 255
167 202 255
167 202 255
167 202 255
167 202 255
167 202 255
167 202 255
166 202 255
166 202 255
166 202 255
166 202 255
166 202 255
166 202 255
166 202 255
166 202 255
166 202 255
166 202 255
166 202 255
166 202 255
165 201 255
165 201 255
165 201 255
165 201 255
165 201 255
165 201 255
165 201 255
165 201 255
165 201 255
165 201 255
165 201 255
164 201 255
164 201 255
164 201 255
164 201 255
164 201 255
164 201 255
164 201 255
164 201 255
164 200 255
164 200 255
164 200 255
164 200 255
163 200 255
163 200 255
163 200 255
163 200 255
163 200 255
163 200 255
163 200 255
163 200 255
163 200 255
163 200 255
163 200 255
163 200 255
163 200 255
162 200 255
162 200 255
162 200 255
162 200 255
162 200 255
162 199 255
162 199 255
162 199 255
162 199 255
162 199 255
162 199 255
162 199 255
162 199 255
162 199 255
162 199 255
162 199 255
162 199 255
162 199 255
161 199 255
161 199 255
161 199 255
161 199 255
161 199 255
161 199 255
161 199 255
161 199 255
161 199 255
161 199 255
161 199 255
161 199 255
161 199 255
161 199 255
161 199 255
161 199 255
161 199 255
161 199 255
161 199 255
161 199 255
161 199 255
161 199 255
161 199 255
161 199 255
161 199 255
161 199 255
161 199 255
161 199 255
161 199 255
161 199 255
161 199 255
161 199 255
161 199 255
161 199 255
161 199 255
161 199 255
161 199 255
161 199 255
161 199 255
161 199 255
161 199 255
161 199 255
161 199 255
161 199 255
161 199 255
161 199 255
161 199 255
161 199 255
162 199 255
162 199 255
162 199 255
162 199 255
162 199 255
162 199 255
162 199 255
162 199 255
162 199 255
162 199 255
162 199 255
162 199 255
162 200 255
162 200 255
162 200 255
162 200 255
162 200 255
162 200 255
163 200 255
163 200 255
163 200 255
163 200 255
163 200 255
163 200 255
163 200 255
163 200 255
163 200 255
163 200 255
163 200 255
163 200 255
163 200 255
164 200 255
164 200 255
164 200 255
164 200 255
164 200 255
164 201 255
164 201 255
164 201 255
164 201 255
164 201 255
164 201 255
164 201 255
165 201 255
165 201 255
165 201 255
165 201 255
165 201 255
165 201 255
165 201 255
165 201 255
165 201 255
165 201 255
165 201 255
165 201 255
166 202 255
166 202 255
166 202 255
166 202 255
166 202 255
166 202 255
166 202 255
166 202 255
166 202 255
166 202 255
167 202 255
167 202 255
167 202 255
167 202 255
167 202 255
167 202 255
167 202 255
167 202 255
167 203 255
167 203 255
167 203 255
168 203 255
168 203 255
168 203 255
168 203 255
168 203 255
168 203 255
168 203 255
168 203 255
168 203 255
168 203 255
168 203 255
169 203 255
169 203 255
169 203 255
149 177 214
133 153 171
102 113 111
75 77 52
66 64 28
71 69 31
65 63 28
73 71 32
71 70 32
71 70 31
66 64 29
62 61 27
63 60 27
62 60 27
68 67 30
72 71 32
72 70 31
80 79 35
67 65 29
83 81 36
74 72 32
78 77 34
75 73 33
76 74 33
69 67 30
72 70 31
80 78 35
60 59 26
75 73 32
77 75 33
62 61 27
71 69 31
75 72 32
75 72 32
72 69 31
82 80 36
76 73 32
78 75 33
81 78 34
77 75 33
79 77 34
86 82 36
68 65 28
84 80 35
78 75 33
73 71 31
83 81 36
73 70 30
73 70 31
73 70 30
71 68 29
68 66 29
68 65 28
67 64 27
78 75 33
74 71 31
68 66 28
82 79 35
74 71 29
67 64 28
63 61 27
71 67 29
72 68 28
69 65 27
69 65 27
69 66 28
65 62 27
65 62 25
68 69 44
117 128 120
123 142 159
164 193 232
174 207 255
174 207 255
174 207 255
174 207 255
174 207 255
175 207 255
175 207 255
175 207 255
175 207 255
175 207 255
175 207 255
175 207 255
175 207 255
175 207 255
175 207 255
175 207 255
175 207 255
175 207 255
175 207 255
175 207 255
175 207 255
175 207 255
175 207 255
175 207 255
169 201 248
143 170 211
117 141 177
106 130 165
89 109 139
90 111 143
95 118 151
99 122 157
102 128 165
102 128 167
103 129 167
103 129 167
109 137 180
110 139 182
108 137 180
110 139 184
112 142 188
109 138 182
107 136 180
117 149 198
115 146 194
113 145 192
117 150 200
117 150 200
119 152 202
117 149 198
116 150 200
119 153 204
117 151 202
118 152 204
117 152 204
117 152 204
116 151 204
116 152 204
115 151 204
116 151 204
115 151 204
115 150 204
115 151 204
115 151 204
115 151 204
114 150 204
114 150 204
114 150 204
114 150 204
114 150 204
114 150 204
113 150 204
113 150 204
113 150 204
113 150 204
113 150 204
114 150 204
113 150 204
113 149 204
112 149 204
113 150 204
112 149 204
111 148 202
114 150 204
114 150 204
113 149 204
112 148 202
112 148 202
110 146 200
109 144 196
107 141 192
104 136 184
107 140 190
108 141 190
99 129 174
103 134 180
95 124 167
91 117 157
95 122 163
90 114 151
82 104 136
99 123 159
142 172 218
162 196 246
169 203 255
169 203 255
168 203 255
168 203 255
168 203 255
168 203 255
168 203 255
168 203 255
168 203 255
168 203 255
168 203 255
168 203 255
168 203 255
167 203 255
167 203 255
167 203 255
167 203 255
167 202 255
167 202 255
167 202 255
167 202 255
167 202 255
167 202 255
167 202 255
166 202 255
166 202 255
166 202 255
166 202 255
166 202 255
166 202 255
166 202 255
166 202 255
166 202 255
166 202 255
166 202 255
166 202 255
165 201 255
165 201 255
165 201 255
165 201 255
165 201 255
165 201 255
165 201 255
165 201 255
165 201 255
165 201 255
165 201 255
164 201 255
164 201 255
164 201 255
164 201 255
164 201 255
164 201 255
164 201 255
164 201 255
164 200 255
164 200 255
164 200 255
164 200 255
163 200 255
163 200 255
163 200 255
163 200 255
163 200 255
163 200 255
163 200 255
163 200 255
163 200 255
163 200 255
163 200 255
163 200 255
163 200 255
163 200 255
163 200 255
162 200 255
162 200 255
162 200 255
162 200 255
162 200 255
162 200 255
162 200 255
162 199 255
162 199 255
162 199 255
162 199 255
162 199 255
162 199 255
162 199 255
162 199 255
162 199 255
162 199 255
162 199 255
162 199 255
162 199 255
162 199 255
162 199 255
162 199 255
162 199 255
162 199 255
161 199 255
161 199 255
161 199 255
161 199 255
161 199 255
161 199 255
161 199 255
161 199 255
161 199 255
161 199 255
161 199 255
161 199 255
161 199 255
161 199 255
161 199 255
161 199 255
161 199 255
161 199 255
161 199 255
161 199 255
161 199 255
161 199 255
162 199 255
162 199 255
162 199 255
162 199 255
162 199 255
162 199 255
162 199 255
162 199 255
162 199 255
162 199 255
162 199 255
162 199 255
162 199 255
162 199 255
162 199 255
162 199 255
162 199 255
162 199 255
162 199 255
162 200 255
162 200 255
162 200 255
162 200 255
162 200 255
162 200 255
163 200 255
163 200 255
163 200 255
163 200 255
163 200 255
163 200 255
163 200 255
163 200 255
163 200 255
163 200 255
163 200 255
163 200 255
163 200 255
163 200 255
163 200 255
164 200 255
164 200 255
164 200 255
164 200 255
164 201 255
164 201 255
164 201 255
164 201 255
164 201 255
164 201 255
164 201 255
164 201 255
165 201 255
165 201 255
165 201 255
165 201 255
165 201 255
165 201 255
165 201 255
165 201 255
165 201 255
165 201 255
165 201 255
166 202 255
166 202 255
166 202 255
166 202 255
166 202 255
166 202 255
166 202 255
166 202 255
166 202 255
166 202 255
166 202 255
166 202 255
167 202 255
167 202 255
167 202 255
167 202 255
167 202 255
167 202 255
167 202 255
167 203 255
167 203 255
167 203 255
167 203 255
168 203 255
168 203 255
168 203 255
168 203 255
168 203 255
168 203 255
168 203 255
168 203 255
168 203 255
168 203 255
168 203 255
169 203 255
169 203 255
155 187 231
142 165 189
100 110 100
77 79 53
63 62 28
67 66 30
59 58 26
78 76 34
78 75 33
66 63 28
69 68 30
75 73 33
73 71 32
78 77 34
76 74 33
82 81 36
63 62 28
85 83 37
68 67 30
70 69 31
79 78 35
69 69 31
78 77 34
81 79 35
80 78 35
64 63 28
88 86 38
81 79 35
81 79 35
78 76 34
81 79 35
75 73 33
84 81 36
69 67 30
72 70 31
81 78 34
76 74 32
75 74 33
71 69 31
85 82 36
85 82 36
81 78 34
71 68 30
87 84 36
85 81 36
75 72 32
84 81 36
75 71 31
71 69 30
76 72 31
79 76 33
75 72 31
79 76 33
79 76 33
76 72 31
82 79 35
80 77 33
85 82 35
72 69 31
75 73 32
92 88 38
82 79 33
76 72 30
73 70 30
76 73 31
67 65 27
77 73 31
84 80 34
72 69 29
61 59 25
60 58 24
76 72 29
55 53 22
67 64 27
65 62 25
63 59 24
79 79 48
102 112 113
143 161 174
163 193 236
175 207 255
175 207 255
175 207 255
175 207 255
175 207 255
175 207 255
175 207 255
175 207 255
175 207 255
175 207 255
176 208 255
175 207 255
175 207 255
175 207 255
175 207 255
175 207 255
175 207 255
165 195 241
142 169 209
103 125 158
91 112 143
96 118 151
89 110 141
102 125 161
110 135 174
93 116 149
108 134 174
108 135 176
97 122 159
117 146 190
103 130 169
112 142 188
116 147 194
110 139 182
117 148 194
114 145 192
116 148 196
119 152 202
119 152 202
118 152 202
117 150 200
119 153 204
120 154 204
118 153 204
118 152 204
117 152 204
117 152 204
117 152 204
117 152 204
116 151 204
115 151 204
116 151 204
115 150 204
115 150 204
115 151 204
115 151 204
114 150 204
114 150 204
113 149 204
113 150 204
114 150 204
112 149 204
113 149 204
113 149 204
112 149 204
113 149 204
113 149 204
112 149 204
111 149 204
111 149 204
111 148 204
111 148 204
111 148 204
112 149 204
111 148 204
111 148 204
111 148 204
110 148 204
111 148 204
111 148 204
110 148 204
112 149 204
112 149 204
112 149 204
112 149 204
112 149 204
112 149 204
109 144 198
110 146 200
110 146 200
107 141 192
109 144 196
111 146 198
103 136 184
106 139 188
105 137 186
90 117 157
85 110 147
81 104 139
80 102 135
97 121 157
127 154 196
156 188 237
169 203 255
169 203 255
169 203 255
168 203 255
168 203 255
168 203 255
168 203 255
168 203 255
168 203 255
168 203 255
168 203 255
168 203 255
168 203 255
168 203 255
167 203 255
167 203 255
167 203 255
167 203 255
167 202 255
167 202 255
167 202 255
167 202 255
167 202 255
167 202 255
167 202 255
166 202 255
166 202 255
166 202 255
166 202 255
166 202 255
166 202 255
166 202 255
166 202 255
166 202 255
166 202 255
166 202 255
166 202 255
165 201 255
165 201 255
165 201 255
165 201 255
165 201 255
165 201 255
165 201 255
165 201 255
165 201 255
165 201 255
165 201 255
165 201 255
164 201 255
164 201 255
164 201 255
164 201 255
164 201 255
164 201 255
164 201 255
164 201 255
164 200 255
164 200 255
164 200 255
164 200 255
164 200 255
163 200 255
163 200 255
163 200 255
163 200 255
163 200 255
163 200 255
163 200 255
163 200 255
163 200 255
163 200 255
163 200 255
163 200 255
163 200 255
163 200 255
163 200 255
163 200 255
162 200 255
162 200 255
162 200 255
162 200 255
162 200 255
162 200 255
162 200 255
162 200 255
162 199 255
162 199 255
162 199 255
162 199 255
162 199 255
162 199 255
162 199 255
162 199 255
162 199 255
162 199 255
162 199 255
162 199 255
162 199 255
162 199 255
162 199 255
162 199 255
162 199 255
162 199 255
162 199 255
162 199 255
162 199 255
162 199 255
162 199 255
162 199 255
162 199 255
162 199 255
162 199 255
162 199 255
162 199 255
162 199 255
162 199 255
162 199 255
162 199 255
162 199 255
162 199 255
162 199 255
162 199 255
162 199 255
162 199 255
162 199 255
162 199 255
162 199 255
162 200 255
162 200 255
162 200 255
162 200 255
162 200 255
162 200 255
162 200 255
162 200 255
163 200 255
163 200 255
163 200 255
163 200 255
163 200 255
163 200 255
163 200 255
163 200 255
163 200 255
163 200 255
163 200 255
163 200 255
163 200 255
163 200 255
163 200 255
163 200 255
164 200 255
164 200 255
164 200 255
164 200 255
164 200 255
164 201 255
164 201 255
164 201 255
164 201 255
164 201 255
164 201 255
164 201 255
164 201 255
164 201 255
165 201 255
165 201 255
165 201 255
165 201 255
165 201 255
165 201 255
165 201 255
165 201 255
165 201 255
165 201 255
165 201 255
166 202 255
166 202 255
166 202 255
166 202 255
166 202 255
166 202 255
166 202 255
166 202 255
166 202 255
166 202 255
166 202 255
166 202 255
167 202 255
167 202 255
167 202 255
167 202 255
167 202 255
167 202 255
167 202 255
167 203 255
167 203 255
167 203 255
167 203 255
168 203 255
168 203 255
168 203 255
168 203 255
168 203 255
168 203 255
168 203 255
168 203 255
168 203 255
168 203 255
168 203 255
169 203 255
169 203 255
168 203 253
160 190 230
119 134 135
82 86 66
70 68 30
73 71 31
63 61 27
58 57 26
70 70 31
67 66 29
74 73 33
77 76 34
72 71 32
86 85 38
80 78 35
78 77 34
76 74 33
75 73 33
70 70 31
71 70 31
78 76 34
77 76 34
72 71 32
76 75 33
77 74 33
72 72 32
78 77 34
80 78 35
78 76 34
86 84 37
83 81 36
74 71 31
83 82 36
75 74 33
77 75 33
79 76 34
80 78 35
91 89 39
74 72 31
88 85 38
92 90 40
82 80 36
86 83 37
78 75 33
86 83 37
80 77 34
82 79 34
77 74 33
74 72 32
69 67 29
82 80 35
74 72 31
80 78 34
78 74 31
76 74 32
87 83 36
67 65 29
89 86 37
81 78 34
79 75 31
80 77 33
86 83 35
84 81 34
74 71 30
84 81 35
77 73 32
80 77 33
77 74 31
77 73 29
78 75 32
87 84 36
69 65 28
77 74 31
74 71 28
78 74 31
79 74 30
68 63 26
69 66 27
71 68 29
83 78 33
72 68 27
66 63 26
60 57 25
64 62 33
83 88 74
119 135 143
155 180 211
175 207 255
175 207 255
175 207 255
175 207 255
175 207 255
175 207 255
176 208 255
176 208 255
176 208 255
176 208 255
175 207 255
156 185 228
122 146 182
90 109 137
84 104 133
85 104 133
89 110 141
105 130 167
102 125 161
102 128 165
98 122 157
101 127 165
106 133 174
109 137 178
110 139 182
109 137 180
113 142 186
116 147 192
118 150 198
120 152 200
121 153 202
120 153 202
120 153 202
119 153 204
120 154 204
119 153 204
119 153 204
119 153 204
117 152 204
118 152 204
118 152 204
117 152 204
117 152 204
116 151 204
115 151 204
116 151 204
116 151 204
117 152 204
114 150 204
114 150 204
114 150 204
115 151 204
114 150 204
113 149 204
113 150 204
113 149 204
111 149 204
112 149 204
113 149 204
112 149 204
112 149 204
112 149 204
111 148 204
111 149 204
110 148 204
111 148 204
110 148 204
111 148 204
110 148 204
109 147 204
109 147 204
109 147 204
110 148 204
110 148 204
109 147 204
110 148 204
110 148 204
110 148 204
109 147 204
109 147 204
110 148 204
110 148 204
110 148 204
111 149 204
110 148 204
111 148 204
111 149 204
112 149 204
111 148 204
112 148 202
112 148 202
111 147 200
111 146 198
108 141 192
105 137 186
99 129 174
94 122 165
99 128 172
89 114 153
85 109 145
93 117 153
112 137 175
140 169 212
168 203 255
169 203 255
169 203 255
169 203 255
168 203 255
168 203 255
168 203 255
168 203 255
168 203 255
168 203 255
168 203 255
168 203 255
168 203 255
168 203 255
168 203 255
167 203 255
167 203 255
167 203 255
167 203 255
167 202 255
167 202 255
167 202 255
167 202 255
167 202 255
167 202 255
167 202 255
166 202 255
166 202 255
166 202 255
166 202 255
166 202 255
166 202 255
166 202 255
166 202 255
166 202 255
166 202 255
166 202 255
166 202 255
165 201 255
165 201 255
165 201 255
165 201 255
165 201 255
165 201 255
165 201 255
165 201 255
165 201 255
165 201 255
165 201 255
165 201 255
164 201 255
164 201 255
164 201 255
164 201 255
164 201 255
164 201 255
164 201 255
164 201 255
164 201 255
164 200 255
164 200 255
164 200 255
164 200 255
164 200 255
164 200 255
163 200 255
163 200 255
163 200 255
163 200 255
163 200 255
163 200 255
163 200 255
163 200 255
163 200 255
163 200 255
163 200 255
163 200 255
163 200 255
163 200 255
163 200 255
163 200 255
163 200 255
163 200 255
163 200 255
162 200 255
162 200 255
162 200 255
162 200 255
162 200 255
162 200 255
162 200 255
162 200 255
162 200 255
162 200 255
162 200 255
162 200 255
162 200 255
162 200 255
162 200 255
162 200 255
162 200 255
162 200 255
162 199 255
162 200 255
162 200 255
162 200 255
162 200 255
162 200 255
162 200 255
162 200 255
162 200 255
162 200 255
162 200 255
162 200 255
162 200 255
162 200 255
162 200 255
162 200 255
162 200 255
162 200 255
162 200 255
162 200 255
162 200 255
163 200 255
163 200 255
163 200 255
163 200 255
163 200 255
163 200 255
163 200 255
163 200 255
163 200 255
163 200 255
163 200 255
163 200 255
163 200 255
163 200 255
163 200 255
163 200 255
163 200 255
163 200 255
163 200 255
163 200 255
164 200 255
164 200 255
164 200 255
164 200 255
164 200 255
164 201 255
164 201 255
164 201 255
164 201 255
164 201 255
164 201 255
164 201 255
164 201 255
164 201 255
164 201 255
165 201 255
165 201 255
165 201 255
165 201 255
165 201 255
165 201 255
165 201 255
165 201 255
165 201 255
165 201 255
165 201 255
165 201 255
166 202 255
166 202 255
166 202 255
166 202 255
166 202 255
166 202 255
166 202 255
166 202 255
166 202 255
166 202 255
166 202 255
166 202 255
167 202 255
167 202 255
167 202 255
167 202 255
167 202 255
167 202 255
167 202 255
167 203 255
167 203 255
167 203 255
167 203 255
168 203 255
168 203 255
168 203 255
168 203 255
168 203 255
168 203 255
168 203 255
168 203 255
168 203 255
168 203 255
168 203 255
169 203 255
169 203 255
169 203 255
169 203 255
147 173 204
110 126 134
84 88 67
67 65 29
64 62 28
62 62 28
73 71 32
64 63 28
80 78 35
75 73 33
66 65 29
69 67 30
75 73 33
72 70 31
77 75 33
84 83 37
72 70 31
76 75 34
79 78 35
66 65 29
66 66 30
71 71 32
81 79 35
87 86 38
72 70 31
72 69 31
86 85 38
80 78 35
77 75 33
69 68 31
77 75 33
79 79 36
72 70 31
80 78 34
84 81 36
72 70 31
89 87 38
91 88 39
79 79 35
88 86 37
92 90 40
79 77 34
87 84 37
75 74 33
93 91 41
78 76 34
83 81 36
84 82 36
88 85 38
86 83 36
93 91 40
86 83 37
86 83 36
74 72 32
81 78 34
83 81 36
83 80 35
80 77 34
82 79 34
88 85 37
86 83 36
81 78 34
87 85 36
74 71 30
72 70 31
87 85 36
89 85 37
79 75 32
77 74 32
85 81 34
75 71 31
72 69 30
81 77 32
78 74 31
76 73 32
68 65 27
75 73 31
72 69 29
67 64 28
76 72 30
75 72 29
70 65 28
68 64 25
78 74 31
66 62 25
66 62 26
70 65 27
72 67 27
60 57 22
88 89 60
111 122 119
145 168 196
176 208 255
176 208 255
176 208 255
176 208 255
176 208 255
153 182 224
124 147 183
91 110 139
83 101 129
88 108 139
90 111 143
87 107 137
105 130 167
96 120 155
102 126 163
110 137 178
112 140 182
110 138 180
109 135 176
112 141 184
119 149 194
117 148 194
122 155 204
118 150 198
120 153 202
120 154 204
122 155 204
121 154 204
120 154 204
120 154 204
119 153 204
120 154 204
118 153 204
118 152 204
117 152 204
116 151 204
118 152 204
117 152 204
117 152 204
116 151 204
116 151 204
116 151 204
115 151 204
114 150 204
115 151 204
114 150 204
113 150 204
112 149 204
113 149 204
111 148 204
112 149 204
112 149 204
112 149 204
112 149 204
112 149 204
112 149 204
111 148 204
110 148 204
110 148 204
110 148 204
110 148 204
110 147 204
109 147 204
109 147 204
110 147 204
108 147 204
108 147 204
109 147 204
108 147 204
108 147 204
108 147 204
108 147 204
107 146 204
108 147 204
109 147 204
108 147 204
108 147 204
109 147 204
108 147 204
108 147 204
109 147 204
109 147 204
109 147 204
109 147 204
110 148 204
109 147 204
111 148 204
111 148 204
110 148 204
111 149 204
113 149 204
112 149 204
110 146 200
113 149 202
107 141 192
101 131 178
98 128 174
97 126 169
87 113 151
89 113 149
81 103 134
127 156 199
142 172 218
169 204 255
169 203 255
169 203 255
169 203 255
169 203 255
168 203 255
168 203 255
168 203 255
168 203 255
168 203 255
168 203 255
168 203 255
168 203 255
168 203 255
168 203 255
168 203 255
167 203 255
167 203 255
167 203 255
167 203 255
167 202 255
167 202 255
167 202 255
167 202 255
167 202 255
167 202 255
167 202 255
167 202 255
166 202 255
166 202 255
166 202 255
166 202 255
166 202 255
166 202 255
166 202 255
166 202 255
166 202 255
166 202 255
166 202 255
165 201 255
165 201 255
165 201 255
165 201 255
165 201 255
165 201 255
165 201 255
165 201 255
165 201 255
165 201 255
165 201 255
165 201 255
165 201 255
165 201 255
164 201 255
164 201 255
164 201 255
164 201 255
164 201 255
164 201 255
164 201 255
164 201 255
164 201 255
164 200 255
164 200 255
164 200 255
164 200 255
164 200 255
164 200 255
163 200 255
163 200 255
163 200 255
163 200 255
163 200 255
163 200 255
163 200 255
163 200 255
163 200 255
163 200 255
163 200 255
163 200 255
163 200 255
163 200 255
163 200 255
163 200 255
163 200 255
163 200 255
163 200 255
163 200 255
163 200 255
163 200 255
163 200 255
163 200 255
163 200 255
163 200 255
163 200 255
163 200 255
163 200 255
163 200 255
163 200 255
163 200 255
163 200 255
163 200 255
163 200 255
163 200 255
163 200 255
163 200 255
163 200 255
163 200 255
163 200 255
163 200 255
163 200 255
163 200 255
163 200 255
163 200 255
163 200 255
163 200 255
163 200 255
163 200 255
163 200 255
163 200 255
163 200 255
163 200 255
163 200 255
163 200 255
163 200 255
163 200 255
163 200 255
163 200 255
163 200 255
163 200 255
163 200 255
163 200 255
163 200 255
163 200 255
164 200 255
164 200 255
164 200 255
164 200 255
164 200 255
164 200 255
164 201 255
164 201 255
164 201 255
164 201 255
164 201 255
164 201 255
164 201 255
164 201 255
164 201 255
164 201 255
165 201 255
165 201 255
165 201 255
165 201 255
165 201 255
165 201 255
165 201 255
165 201 255
165 201 255
165 201 255
165 201 255
165 201 255
165 201 255
166 202 255
166 202 255
166 202 255
166 202 255
166 202 255
166 202 255
166 202 255
166 202 255
166 202 255
166 202 255
166 202 255
167 202 255
167 202 255
167 202 255
167 202 255
167 202 255
167 202 255
167 202 255
167 202 255
167 203 255
167 203 255
167 203 255
167 203 255
168 203 255
168 203 255
168 203 255
168 203 255
168 203 255
168 203 255
168 203 255
168 203 255
168 203 255
168 203 255
168 203 255
169 203 255
169 203 255
169 203 255
169 203 255
169 204 255
154 183 222
114 129 136
78 80 55
65 63 28
66 64 29
68 67 30
59 57 25
74 72 32
73 71 32
75 73 32
70 69 31
81 81 36
73 71 32
69 68 31
89 87 39
77 76 34
72 71 32
83 82 37
75 74 33
81 80 36
69 68 31
78 77 34
83 82 37
86 84 38
85 84 38
73 72 32
80 79 35
76 74 33
79 77 34
77 76 34
79 78 35
74 73 33
77 74 33
83 81 36
80 79 35
76 75 33
77 75 33
83 81 36
81 78 35
69 67 30
87 84 37
89 86 38
80 78 35
84 82 36
88 86 37
86 83 37
83 81 36
82 80 35
82 79 34
73 71 32
88 86 38
87 84 37
86 84 37
98 94 41
83 80 35
77 75 33
84 80 34
81 78 34
86 82 36
80 77 34
89 86 37
74 71 31
81 77 34
86 82 35
76 73 32
83 80 34
90 87 38
81 78 34
74 72 31
86 83 36
83 78 33
82 79 34
82 80 35
85 81 35
78 75 32
72 68 29
75 71 30
75 71 30
80 76 32
89 85 36
81 77 33
80 76 31
73 69 29
68 65 26
68 64 27
71 68 28
66 64 27
67 63 27
74 71 28
76 72 30
71 67 28
70 67 28
72 70 29
75 70 28
62 59 22
71 72 49
125 139 143
162 189 224
176 208 255
87 104 131
82 100 126
88 107 137
100 123 157
94 116 149
97 120 155
108 134 174
102 127 163
116 145 188
109 136 176
119 148 192
115 144 188
112 140 182
121 151 196
119 150 196
118 149 196
121 153 200
121 153 202
122 155 204
120 154 204
121 154 204
122 155 204
120 154 204
118 152 204
119 153 204
118 153 204
119 153 204
117 152 204
118 152 204
117 152 204
116 152 204
117 152 204
116 151 204
117 152 204
115 151 204
114 150 204
115 151 204
113 150 204
114 150 204
114 150 204
113 150 204
114 150 204
112 149 204
112 149 204
112 149 204
112 149 204
111 148 204
111 148 204
111 148 204
111 149 204
111 148 204
110 148 204
110 148 204
110 148 204
109 147 204
109 147 204
109 147 204
109 147 204
109 147 204
108 147 204
108 147 204
108 147 204
108 147 204
108 146 204
108 147 204
108 146 204
107 146 204
107 146 204
108 146 204
108 146 204
107 146 204
107 146 204
108 146 204
107 146 204
107 146 204
107 146 204
107 146 204
107 146 204
108 146 204
108 146 204
108 146 204
108 146 204
108 146 204
109 147 204
109 147 204
108 147 204
111 148 204
110 148 204
111 148 204
112 149 204
110 147 202
112 148 202
110 146 200
105 138 188
107 139 188
102 133 180
94 121 163
92 119 159
98 125 166
109 135 175
137 166 210
165 199 249
169 204 255
169 204 255
169 203 255
169 203 255
169 203 255
169 203 255
168 203 255
168 203 255
168 203 255
168 203 255
168 203 255
168 203 255
168 203 255
168 203 255
168 203 255
168 203 255
168 203 255
167 203 255
167 203 255
167 203 255
167 203 255
167 202 255
167 202 255
167 202 255
167 202 255
167 202 255
167 202 255
167 202 255
167 202 255
166 202 255
166 202 255
166 202 255
166 202 255
166 202 255
166 202 255
166 202 255
166 202 255
166 202 255
166 202 255
166 202 255
166 202 255
165 201 255
165 201 255
165 201 255
165 201 255
165 201 255
165 201 255
165 201 255
165 201 255
165 201 255
165 201 255
165 201 255
165 201 255
165 201 255
165 201 255
164 201 255
164 201 255
164 201 255
164 201 255
164 201 255
164 201 255
164 201 255
164 201 255
164 201 255
164 201 255
164 201 255
164 200 255
164 200 255
164 200 255
164 200 255
164 200 255
164 200 255
164 200 255
164 200 255
163 200 255
163 200 255
163 200 255
163 200 255
163 200 255
163 200 255
163 200 255
163 200 255
163 200 255
163 200 255
163 200 255
163 200 255
163 200 255
163 200 255
163 200 255
163 200 255
163 200 255
163 200 255
163 200 255
163 200 255
163 200 255
163 200 255
163 200 255
163 200 255
163 200 255
163 200 255
163 200 255
163 200 255
163 200 255
163 200 255
163 200 255
163 200 255
163 200 255
163 200 255
163 200 255
163 200 255
163 200 255
163 200 255
163 200 255
163 200 255
163 200 255
163 200 255
163 200 255
163 200 255
163 200 255
163 200 255
163 200 255
163 200 255
163 200 255
164 200 255
164 200 255
164 200 255
164 200 255
164 200 255
164 200 255
164 201 255
164 201 255
164 201 255
164 201 255
164 201 255
164 201 255
164 201 255
164 201 255
164 201 255
164 201 255
164 201 255
164 201 255
165 201 255
165 201 255
165 201 255
165 201 255
165 201 255
165 201 255
165 201 255
165 201 255
165 201 255
165 201 255
165 201 255
165 201 255
165 201 255
165 201 255
166 202 255
166 202 255
166 202 255
166 202 255
166 202 255
166 202 255
166 202 255
166 202 255
166 202 255
166 202 255
166 202 255
166 202 255
167 202 255
167 202 255
167 202 255
167 202 255
167 202 255
167 202 255
167 202 255
167 202 255
167 203 255
167 203 255
167 203 255
167 203 255
168 203 255
168 203 255
168 203 255
168 203 255
168 203 255
168 203 255
168 203 255
168 203 255
168 203 255
168 203 255
168 203 255
169 203 255
169 203 255
169 203 255
169 203 255
169 204 255
169 204 255
164 195 239
122 142 159
82 87 70
56 54 24
57 56 25
62 61 27
70 68 30
74 73 33
75 74 33
67 66 30
83 81 36
71 71 32
79 78 35
74 72 32
81 80 36
83 81 36
80 79 35
74 73 33
80 79 36
87 86 38
82 81 36
87 85 38
81 79 35
78 77 34
85 83 37
85 83 37
82 82 37
81 81 36
86 85 38
77 76 34
90 88 39
74 73 33
83 82 37
86 85 38
81 79 35
89 87 39
82 81 36
85 83 37
87 86 38
85 83 37
92 90 40
86 85 38
82 81 36
86 84 36
85 83 37
84 82 36
89 86 37
88 85 38
85 84 37
88 85 37
88 86 38
78 76 33
82 80 35
75 73 32
81 79 34
86 83 37
85 82 35
85 82 36
84 81 36
81 78 33
81 78 34
81 77 34
85 83 37
89 86 37
82 79 34
86 82 35
90 86 37
88 84 35
78 74 32
78 74 32
76 72 30
83 80 34
80 74 31
86 83 35
77 74 31
82 79 34
81 78 32
84 80 34
80 76 31
68 65 27
73 70 30
89 85 36
78 74 30
69 66 28
75 71 30
72 69 29
69 66 26
78 74 32
79 75 31
71 68 27
83 78 32
69 65 26
71 67 28
79 74 30
63 59 24
75 71 28
71 67 27
73 68 26
71 66 27
61 57 24
77 72 28
83 88 72
87 107 137
100 123 157
103 127 163
108 132 169
111 137 176
108 134 174
111 138 178
107 133 172
119 148 192
116 144 186
118 148 192
123 155 202
123 155 202
123 155 202
124 156 204
123 155 204
122 155 204
122 155 204
121 154 204
120 154 204
120 154 204
120 154 204
120 154 204
120 154 204
118 153 204
119 153 204
119 153 204
117 152 204
116 152 204
117 152 204
117 152 204
116 151 204
115 151 204
116 151 204
115 151 204
115 150 204
115 150 204
113 150 204
114 150 204
113 149 204
114 150 204
113 149 204
112 149 204
113 149 204
112 149 204
112 149 204
111 148 204
111 148 204
110 148 204
110 148 204
110 148 204
110 148 204
109 147 204
109 147 204
109 147 204
109 147 204
109 147 204
108 147 204
108 146 204
108 146 204
108 147 204
107 146 204
107 146 204
107 146 204
107 146 204
108 146 204
107 146 204
107 146 204
107 146 204
107 146 204
106 146 204
107 146 204
106 146 204
106 145 204
106 145 204
106 145 204
106 145 204
106 145 204
106 145 204
106 146 204
107 146 204
107 146 204
107 146 204
107 146 204
108 147 204
108 146 204
108 147 204
108 147 204
109 147 204
110 148 204
109 147 204
111 148 204
111 148 204
111 147 202
111 146 200
113 149 202
107 142 194
106 139 188
96 125 169
95 123 165
96 123 163
80 101 133
124 152 194
149 179 226
169 204 255
169 204 255
169 204 255
169 204 255
169 203 255
169 203 255
169 203 255
169 203 255
168 203 255
168 203 255
168 203 255
168 203 255
168 203 255
168 203 255
168 203 255
168 203 255
168 203 255
168 203 255
168 203 255
168 203 255
167 203 255
167 203 255
167 203 255
167 203 255
167 202 255
167 202 255
167 202 255
167 202 255
167 202 255
167 202 255
167 202 255
167 202 255
166 202 255
166 202 255
166 202 255
166 202 255
166 202 255
166 202 255
166 202 255
166 202 255
166 202 255
166 202 255
166 202 255
166 202 255
166 202 255
165 201 255
165 201 255
165 201 255
165 201 255
165 201 255
165 201 255
165 201 255
165 201 255
165 201 255
165 201 255
165 201 255
165 201 255
165 201 255
165 201 255
165 201 255
164 201 255
164 201 255
164 201 255
164 201 255
164 201 255
164 201 255
164 201 255
164 201 255
164 201 255
164 201 255
164 201 255
164 201 255
164 201 255
164 200 255
164 200 255
164 200 255
164 200 255
164 200 255
164 200 255
164 200 255
164 200 255
164 200 255
164 200 255
164 200 255
163 200 255
163 200 255
163 200 255
163 200 255
163 200 255
163 200 255
163 200 255
163 200 255
163 200 255
163 200 255
163 200 255
163 200 255
163 200 255
163 200 255
163 200 255
163 200 255
163 200 255
163 200 255
163 200 255
163 200 255
163 200 255
163 200 255
164 200 255
164 200 255
164 200 255
164 200 255
164 200 255
164 200 255
164 200 255
164 200 255
164 200 255
164 200 255
164 200 255
164 200 255
164 200 255
164 201 255
164 201 255
164 201 255
164 201 255
164 201 255
164 201 255
164 201 255
164 201 255
164 201 255
164 201 255
164 201 255
164 201 255
164 201 255
165 201 255
165 201 255
165 201 255
165 201 255
165 201 255
165 201 255
165 201 255
165 201 255
165 201 255
165 201 255
165 201 255
165 201 255
165 201 255
165 201 255
165 201 255
166 202 255
166 202 255
166 202 255
166 202 255
166 202 255
166 202 255
166 202 255
166 202 255
166 202 255
166 202 255
166 202 255
166 202 255
166 202 255
167 202 255
167 202 255
167 202 255
167 202 255
167 202 255
167 202 255
167 202 255
167 202 255
167 202 255
167 203 255
167 203 255
167 203 255
167 203 255
168 203 255
168 203 255
168 203 255
168 203 255
168 203 255
168 203 255
168 203 255
168 203 255
168 203 255
168 203 255
168 203 255
169 203 255
169 203 255
169 203 255
169 203 255
169 204 255
169 204 255
169 204 255
169 204 255
148 175 210
101 111 104
75 74 36
62 60 27
70 68 30
79 77 34
77 76 34
82 79 35
80 79 35
75 74 33
68 67 30
81 79 35
75 75 34
74 73 33
72 70 31
80 79 35
81 80 36
86 85 38
84 84 38
75 74 33
82 80 36
87 85 38
76 75 34
77 76 34
70 69 31
79 77 34
85 84 38
76 75 34
86 85 38
96 95 43
79 78 35
91 88 39
84 82 37
84 82 36
81 80 36
83 81 36
89 86 38
80 79 35
77 76 34
93 90 40
82 80 35
82 80 36
93 90 39
92 90 40
77 75 33
84 81 36
88 86 38
83 80 35
84 82 37
95 91 40
78 75 33
94 92 40
95 92 41
80 77 34
84 80 35
93 90 40
78 75 33
90 86 37
92 88 38
87 85 37
91 87 37
81 78 34
87 84 37
76 74 32
82 79 35
84 81 34
80 77 34
93 89 39
90 87 37
77 75 32
75 73 32
85 81 34
83 80 35
82 79 34
75 73 32
84 80 34
75 72 32
84 80 34
93 88 37
85 81 33
75 71 29
90 84 35
88 84 36
85 81 35
71 68 28
81 77 32
86 81 34
73 70 29
81 76 32
70 67 26
84 80 33
80 77 32
78 73 31
80 75 30
66 62 26
81 77 32
73 70 29
74 71 30
62 58 23
67 63 27
84 79 32
71 67 26
72 69 29
56 53 20
105 129 165
108 133 169
113 139 178
115 141 182
115 143 184
116 145 188
115 144 188
118 148 192
122 153 198
119 149 194
124 156 204
125 157 204
124 156 204
123 155 204
123 155 204
122 155 204
122 155 204
120 154 204
121 154 204
120 154 204
120 153 204
119 153 204
120 153 204
118 153 204
118 153 204
118 152 204
118 152 204
117 152 204
116 151 204
117 152 204
115 151 204
116 151 204
116 151 204
116 151 204
115 151 204
113 150 204
113 150 204
114 150 204
112 149 204
113 149 204
112 149 204
113 149 204
111 149 204
112 149 204
111 148 204
111 148 204
111 148 204
110 148 204
110 148 204
110 148 204
109 147 204
109 147 204
109 147 204
109 147 204
108 146 204
109 147 204
108 146 204
107 146 204
108 147 204
107 146 204
107 146 204
108 146 204
107 146 204
107 146 204
106 145 204
107 146 204
106 146 204
106 145 204
106 145 204
106 145 204
105 145 204
106 145 204
105 145 204
106 145 204
105 145 204
106 145 204
105 145 204
106 145 204
105 145 204
106 145 204
106 145 204
106 145 204
107 146 204
106 146 204
106 146 204
107 146 204
107 146 204
107 146 204
107 146 204
108 146 204
108 147 204
108 147 204
109 147 204
110 148 204
110 148 204
111 148 204
112 149 204
111 148 202
108 142 194
111 146 198
101 132 178
104 135 182
90 117 157
83 106 141
115 142 183
142 172 218
169 204 255
169 204 255
169 204 255
169 204 255
169 204 255
169 204 255
169 203 255
169 203 255
169 203 255
169 203 255
168 203 255
168 203 255
168 203 255
168 203 255
168 203 255
168 203 255
168 203 255
168 203 255
168 203 255
168 203 255
168 203 255
168 203 255
167 203 255
167 203 255
167 203 255
167 203 255
167 202 255
167 202 255
167 202 255
167 202 255
167 202 255
167 202 255
167 202 255
167 202 255
167 202 255
166 202 255
166 202 255
166 202 255
166 202 255
166 202 255
166 202 255
166 202 255
166 202 255
166 202 255
166 202 255
166 202 255
166 202 255
166 202 255
165 201 255
165 201 255
165 201 255
165 201 255
165 201 255
165 201 255
165 201 255
165 201 255
165 201 255
165 201 255
165 201 255
165 201 255
165 201 255
165 201 255
165 201 255
165 201 255
165 201 255
164 201 255
164 201 255
164 201 255
164 201 255
164 201 255
164 201 255
164 201 255
164 201 255
164 201 255
164 201 255
164 201 255
164 201 255
164 201 255
164 201 255
164 201 255
164 201 255
164 201 255
164 201 255
164 201 255
164 201 255
164 201 255
164 201 255
164 200 255
164 201 255
164 200 255
164 200 255
164 200 255
164 200 255
164 200 255
164 200 255
164 200 255
164 200 255
164 200 255
164 200 255
164 200 255
164 201 255
164 201 255
164 201 255
164 201 255
164 201 255
164 201 255
164 201 255
164 201 255
164 201 255
164 201 255
164 201 255
164 201 255
164 201 255
164 201 255
164 201 255
164 201 255
164 201 255
164 201 255
164 201 255
164 201 255
164 201 255
164 201 255
165 201 255
165 201 255
165 201 255
165 201 255
165 201 255
165 201 255
165 201 255
165 201 255
165 201 255
165 201 255
165 201 255
165 201 255
165 201 255
165 201 255
165 201 255
165 201 255
165 201 255
165 201 255
166 202 255
166 202 255
166 202 255
166 202 255
166 202 255
166 202 255
166 202 255
166 202 255
166 202 255
166 202 255
166 202 255
166 202 255
166 202 255
166 202 255
167 202 255
167 202 255
167 202 255
167 202 255
167 202 255
167 202 255
167 202 255
167 202 255
167 203 255
167 203 255
167 203 255
167 203 255
168 203 255
168 203 255
168 203 255
168 203 255
168 203 255
168 203 255
168 203 255
168 203 255
168 203 255
168 203 255
168 203 255
168 203 255
169 203 255
169 203 255
169 203 255
169 203 255
169 204 255
169 204 255
169 204 255
169 204 255
169 204 255
167 200 249
139 162 184
82 89 77
60 59 26
63 61 27
72 70 31
73 72 32
75 73 32
76 74 33
74 73 33
78 77 35
80 78 35
80 79 35
78 77 35
84 82 37
77 76 35
72 71 32
76 75 34
76 75 34
86 85 38
86 85 38
82 80 36
87 86 38
85 83 37
80 79 35
78 77 34
77 76 34
74 72 32
87 85 38
89 87 39
89 87 39
82 80 36
78 76 34
87 85 37
80 78 35
85 83 37
87 85 38
92 90 40
87 85 38
82 81 36
84 82 36
86 84 37
78 76 34
87 84 37
86 84 37
86 84 37
84 82 37
86 83 36
83 81 36
80 77 34
92 90 40
92 91 40
89 86 38
85 83 36
86 83 36
87 83 36
84 82 35
95 92 40
78 75 33
94 91 39
84 81 35
97 94 41
90 86 37
81 79 35
84 81 35
90 87 37
92 90 39
92 87 36
94 90 38
88 85 37
91 88 37
83 80 34
92 88 38
91 87 38
87 85 37
85 82 35
90 87 37
88 84 36
78 75 32
81 78 33
79 76 33
94 90 39
86 81 34
90 87 37
87 82 35
79 74 30
91 87 37
80 76 32
76 71 30
82 77 32
74 69 26
84 79 33
86 82 33
86 81 34
86 80 32
83 78 32
73 69 28
76 72 29
76 72 28
77 72 26
84 78 33
84 79 32
63 60 24
88 82 35
71 66 26
74 70 29
83 77 29
111 137 176
116 143 184
116 143 184
113 141 182
120 150 194
121 149 192
121 152 198
119 149 194
124 155 202
125 157 204
124 156 204
124 156 204
124 156 204
123 156 204
122 155 204
122 155 204
122 155 204
121 154 204
121 154 204
121 154 204
120 154 204
119 153 204
119 153 204
118 153 204
119 153 204
117 152 204
118 153 204
117 152 204
116 151 204
116 151 204
115 151 204
116 151 204
115 151 204
114 150 204
115 151 204
113 150 204
113 149 204
113 150 204
113 150 204
113 150 204
112 149 204
113 150 204
112 149 204
112 149 204
111 148 204
111 148 204
111 148 204
110 148 204
109 147 204
109 147 204
109 147 204
108 147 204
109 147 204
109 147 204
108 146 204
109 147 204
107 146 204
108 146 204
108 146 204
107 146 204
107 146 204
107 146 204
106 145 204
107 146 204
106 145 204
106 145 204
107 146 204
106 145 204
106 145 204
105 145 204
105 145 204
105 145 204
105 145 204
105 145 204
105 145 204
105 145 204
105 145 204
105 144 204
105 145 204
105 145 204
105 145 204
105 145 204
105 145 204
105 145 204
105 145 204
106 145 204
106 145 204
106 145 204
107 146 204
106 145 204
107 146 204
107 146 204
108 146 204
109 147 204
108 146 204
109 147 204
110 148 204
110 148 204
111 149 204
111 148 202
113 149 204
110 144 196
107 140 190
104 136 184
102 131 176
97 124 165
90 112 145
140 170 215
167 201 252
169 204 255
169 204 255
169 204 255
169 204 255
169 204 255
169 204 255
169 204 255
169 203 255
169 203 255
169 203 255
169 203 255
169 203 255
168 203 255
168 203 255
168 203 255
168 203 255
168 203 255
168 203 255
168 203 255
168 203 255
168 203 255
168 203 255
168 203 255
168 203 255
167 203 255
167 203 255
167 203 255
167 203 255
167 202 255
167 202 255
167 202 255
167 202 255
167 202 255
167 202 255
167 202 255
167 202 255
167 202 255
166 202 255
166 202 255
166 202 255
166 202 255
166 202 255
166 202 255
166 202 255
166 202 255
166 202 255
166 202 255
166 202 255
166 202 255
166 202 255
166 202 255
166 202 255
165 201 255
165 201 255
165 201 255
165 201 255
165 201 255
165 201 255
165 201 255
165 201 255
165 201 255
165 201 255
165 201 255
165 201 255
165 201 255
165 201 255
165 201 255
165 201 255
165 201 255
165 201 255
165 201 255
165 201 255
165 201 255
164 201 255
164 201 255
164 201 255
164 201 255
164 201 255
164 201 255
164 201 255
164 201 255
164 201 255
164 201 255
164 201 255
164 201 255
164 201 255
164 201 255
164 201 255
164 201 255
164 201 255
164 201 255
164 201 255
164 201 255
164 201 255
164 201 255
164 201 255
164 201 255
164 201 255
164 201 255
164 201 255
164 201 255
164 201 255
164 201 255
164 201 255
164 201 255
164 201 255
164 201 255
164 201 255
164 201 255
165 201 255
165 201 255
165 201 255
165 201 255
165 201 255
165 201 255
165 201 255
165 201 255
165 201 255
165 201 255
165 201 255
165 201 255
165 201 255
165 201 255
165 201 255
165 201 255
165 201 255
165 201 255
165 201 255
165 201 255
165 201 255
165 201 255
166 202 255
166 202 255
166 202 255
166 202 255
166 202 255
166 202 255
166 202 255
166 202 255
166 202 255
166 202 255
166 202 255
166 202 255
166 202 255
166 202 255
167 202 255
167 202 255
167 202 255
167 202 255
167 202 255
167 202 255
167 202 255
167 202 255
167 202 255
167 203 255
167 203 255
167 203 255
167 203 255
168 203 255
168 203 255
168 203 255
168 203 255
168 203 255
168 203 255
168 203 255
168 203 255
168 203 255
168 203 255
168 203 255
168 203 255
169 203 255
169 203 255
169 203 255
169 203 255
169 204 255
169 204 255
169 204 255
169 204 255
169 204 255
169 204 255
169 204 255
169 204 255
161 193 239
127 147 167
85 86 59
75 73 32
67 64 28
64 62 28
78 76 34
72 71 32
75 74 33
67 67 30
79 76 34
87 85 38
85 84 37
73 71 32
75 75 34
79 78 35
81 80 36
78 77 34
90 88 39
85 83 37
83 81 36
80 79 35
83 82 37
87 86 38
86 85 38
92 90 40
83 82 37
86 84 37
85 84 38
83 81 36
86 84 37
81 79 35
87 86 39
92 90 40
94 91 40
82 80 36
86 84 37
82 81 36
85 83 37
84 82 36
83 81 36
83 81 36
85 82 36
87 84 37
88 83 36
82 81 36
96 92 40
77 75 33
89 86 37
88 85 38
92 90 40
94 90 39
87 85 37
89 86 38
90 88 39
92 88 38
89 85 37
94 91 39
94 90 38
85 82 36
97 93 41
89 87 38
85 81 34
93 90 39
96 92 39
82 79 34
88 84 36
91 88 37
88 86 37
98 94 41
84 81 34
92 88 37
79 77 33
76 73 32
87 84 35
78 76 32
94 89 37
93 88 38
77 74 32
79 77 34
91 87 37
89 85 36
85 83 34
88 84 34
77 73 30
77 73 31
87 84 36
83 80 35
77 74 31
88 83 35
83 79 33
79 76 33
83 78 32
70 67 28
87 83 35
76 71 30
78 74 30
84 80 34
78 74 31
73 70 27
86 81 33
78 74 31
70 67 27
90 85 36
78 73 28
75 70 27
73 69 28
76 72 29
84 79 31
115 142 182
120 149 192
122 151 194
120 149 192
128 158 204
127 158 204
125 157 204
125 157 204
124 156 204
125 157 204
123 155 204
124 156 204
123 155 204
123 155 204
121 154 204
120 154 204
122 155 204
120 154 204
120 154 204
119 153 204
120 153 204
118 153 204
119 153 204
118 152 204
118 152 204
118 152 204
117 152 204
117 152 204
116 151 204
115 151 204
115 151 204
115 151 204
116 151 204
115 151 204
114 150 204
114 150 204
113 150 204
114 150 204
112 149 204
112 149 204
112 149 204
112 149 204
112 149 204
111 148 204
111 148 204
111 148 204
110 148 204
110 148 204
110 148 204
110 147 204
109 147 204
109 147 204
108 146 204
108 147 204
109 147 204
108 147 204
107 146 204
107 146 204
108 146 204
108 146 204
107 146 204
107 146 204
107 146 204
106 145 204
106 145 204
106 145 204
105 145 204
105 145 204
106 145 204
105 145 204
105 145 204
105 145 204
105 145 204
105 145 204
105 145 204
104 144 204
105 144 204
105 145 204
105 144 204
105 144 204
104 144 204
105 144 204
104 144 204
105 145 204
104 144 204
105 145 204
105 145 204
105 145 204
105 145 204
105 145 204
106 145 204
106 145 204
106 145 204
107 146 204
107 146 204
107 146 204
109 147 204
108 147 204
110 148 204
109 147 204
111 149 204
111 149 204
110 145 198
111 146 198
105 137 186
98 128 174
102 132 178
93 118 157
79 99 129
137 167 212
155 187 234
170 204 255
170 204 255
170 204 255
169 204 255
169 204 255
169 204 255
169 204 255
169 204 255
169 204 255
169 204 255
169 203 255
169 203 255
169 203 255
169 203 255
168 203 255
168 203 255
168 203 255
168 203 255
168 203 255
168 203 255
168 203 255
168 203 255
168 203 255
168 203 255
168 203 255
168 203 255
167 203 255
167 203 255
167 203 255
167 203 255
167 203 255
167 202 255
167 202 255
167 202 255
167 202 255
167 202 255
167 202 255
167 202 255
167 202 255
167 202 255
166 202 255
166 202 255
166 202 255
166 202 255
166 202 255
166 202 255
166 202 255
166 202 255
166 202 255
166 202 255
166 202 255
166 202 255
166 202 255
166 202 255
166 202 255
166 202 255
166 202 255
165 201 255
165 201 255
165 201 255
165 201 255
165 201 255
165 201 255
165 201 255
165 201 255
165 201 255
165 201 255
165 201 255
165 201 255
165 201 255
165 201 255
165 201 255
165 201 255
165 201 255
165 201 255
165 201 255
165 201 255
165 201 255
165 201 255
165 201 255
165 201 255
165 201 255
165 201 255
165 201 255
165 201 255
165 201 255
162 198 253
156 191 248
154 190 247
157 193 248
157 193 249
165 201 255
165 201 255
165 201 255
165 201 255
165 201 255
165 201 255
165 201 255
165 201 255
165 201 255
165 201 255
165 201 255
165 201 255
165 201 255
165 201 255
165 201 255
165 201 255
165 201 255
165 201 255
165 201 255
165 201 255
165 201 255
165 201 255
165 201 255
165 201 255
165 201 255
165 201 255
165 201 255
165 201 255
165 201 255
165 201 255
166 202 255
166 202 255
166 202 255
166 202 255
166 202 255
166 202 255
166 202 255
166 202 255
166 202 255
166 202 255
166 202 255
166 202 255
166 202 255
166 202 255
166 202 255
166 202 255
167 202 255
167 202 255
167 202 255
167 202 255
167 202 255
167 202 255
167 202 255
167 202 255
167 202 255
167 202 255
167 203 255
167 203 255
167 203 255
167 203 255
168 203 255
168 203 255
168 203 255
168 203 255
168 203 255
168 203 255
168 203 255
168 203 255
168 203 255
168 203 255
168 203 255
168 203 255
169 203 255
169 203 255
169 203 255
169 203 255
169 203 255
169 204 255
169 204 255
169 204 255
169 204 255
169 204 255
169 204 255
169 204 255
169 204 255
170 204 255
170 204 255
160 191 237
126 144 156
63 63 34
65 63 28
65 63 28
75 74 34
73 72 32
79 76 34
75 74 33
79 77 35
80 78 35
71 71 32
76 75 34
79 78 35
68 67 30
82 81 36
78 77 35
81 79 35
82 81 36
79 78 35
83 82 37
81 80 36
88 87 39
88 86 39
93 91 41
89 87 39
93 91 41
79 77 35
93 92 41
83 81 36
91 89 40
87 85 38
88 86 38
88 86 38
88 86 38
94 91 40
80 78 35
90 88 39
90 87 39
84 82 37
78 77 34
87 85 38
89 87 39
97 94 42
94 92 41
83 81 36
99 97 43
91 88 38
88 86 38
93 90 40
89 87 38
89 86 37
98 95 42
82 80 35
85 82 36
96 93 41
93 91 40
89 87 38
97 94 41
88 85 37
92 89 40
93 90 39
92 90 39
84 81 35
83 80 34
89 85 36
89 86 38
96 93 41
88 84 37
89 85 37
97 93 41
79 76 33
87 85 37
98 94 39
95 93 41
92 86 36
94 90 38
79 75 31
79 76 31
83 80 35
92 89 37
80 77 33
85 81 35
88 85 36
77 74 32
91 87 37
91 86 36
79 75 30
86 80 34
82 79 33
84 80 33
96 92 39
76 72 30
80 76 32
86 82 34
84 80 33
86 81 33
79 73 30
84 80 32
87 83 33
84 80 32
76 72 30
67 64 26
75 71 29
86 81 33
76 72 29
74 69 28
75 70 26
73 69 27
84 78 30
66 63 27
122 151 194
126 156 200
127 156 200
125 156 202
126 158 204
126 158 204
126 157 204
124 156 204
122 155 204
124 156 204
124 156 204
125 157 204
122 155 204
121 154 204
123 156 204
121 154 204
120 154 204
120 154 204
121 154 204
121 154 204
119 153 204
118 153 204
118 153 204
117 152 204
118 152 204
117 152 204
116 152 204
117 152 204
117 152 204
116 151 204
116 151 204
114 150 204
115 151 204
114 150 204
115 151 204
114 150 204
113 149 204
113 150 204
113 150 204
113 149 204
112 149 204
112 149 204
112 149 204
112 149 204
111 148 204
110 148 204
110 148 204
110 147 204
109 147 204
109 147 204
109 147 204
109 147 204
109 147 204
108 147 204
108 146 204
108 147 204
107 146 204
107 146 204
107 146 204
107 146 204
106 145 204
107 146 204
106 145 204
106 145 204
106 145 204
106 145 204
105 145 204
106 145 204
105 145 204
105 145 204
105 145 204
105 145 204
105 145 204
104 144 204
105 144 204
105 144 204
104 144 204
104 144 204
104 144 204
104 144 204
104 144 204
104 144 204
104 144 204
104 144 204
104 144 204
104 144 204
104 144 204
104 144 204
105 145 204
105 145 204
105 145 204
105 145 204
106 145 204
106 145 204
106 145 204
106 145 204
107 146 204
107 146 204
108 146 204
108 147 204
109 147 204
110 148 204
111 148 204
113 149 204
112 149 204
112 147 200
105 138 188
101 131 176
95 123 163
97 124 163
86 107 140
119 145 183
164 197 247
170 204 255
170 204 255
170 204 255
170 204 255
170 204 255
169 204 255
169 204 255
169 204 255
169 204 255
169 204 255
169 204 255
169 204 255
169 204 255
169 203 255
169 203 255
169 203 255
169 203 255
168 203 255
168 203 255
168 203 255
168 203 255
168 203 255
168 203 255
168 203 255
168 203 255
168 203 255
168 203 255
168 203 255
168 203 255
168 203 255
167 203 255
167 203 255
167 203 255
167 203 255
167 203 255
167 202 255
167 202 255
167 202 255
167 202 255
167 202 255
167 202 255
167 202 255
167 202 255
167 202 255
167 202 255
166 202 255
166 202 255
166 202 255
166 202 255
166 202 255
166 202 255
166 202 255
166 202 255
166 202 255
166 202 255
166 202 255
166 202 255
166 202 255
166 202 255
166 202 255
166 202 255
166 202 255
166 202 255
166 202 255
165 201 255
165 201 255
165 201 255
165 201 255
165 201 255
165 201 255
165 201 255
165 201 255
165 201 255
165 201 255
165 201 255
165 201 255
165 201 255
147 182 240
103 134 201
95 125 195
79 108 180
37 63 143
34 59 140
22 46 128
15 38 121
15 38 125
15 38 122
15 38 124
15 38 124
17 41 124
31 56 136
36 61 145
55 82 158
66 94 170
85 115 186
112 144 209
147 182 239
162 198 253
165 201 255
165 201 255
165 201 255
165 201 255
165 201 255
165 201 255
165 201 255
165 201 255
165 201 255
165 201 255
165 201 255
166 202 255
166 202 255
166 202 255
166 202 255
166 202 255
166 202 255
166 202 255
166 202 255
166 202 255
166 202 255
166 202 255
166 202 255
166 202 255
166 202 255
166 202 255
166 202 255
166 202 255
166 202 255
166 202 255
166 202 255
167 202 255
167 202 255
167 202 255
167 202 255
167 202 255
167 202 255
167 202 255
167 202 255
167 202 255
167 202 255
167 203 255
167 203 255
167 203 255
167 203 255
167 203 255
168 203 255
168 203 255
168 203 255
168 203 255
168 203 255
168 203 255
168 203 255
168 203 255
168 203 255
168 203 255
168 203 255
168 203 255
168 203 255
169 203 255
169 203 255
169 203 255
169 203 255
169 204 255
169 204 255
169 204 255
169 204 255
169 204 255
169 204 255
169 204 255
169 204 255
170 204 255
170 204 255
170 204 255
170 204 255
170 204 255
169 202 249
132 150 162
84 85 52
64 62 27
73 71 32
72 70 31
72 70 31
81 80 36
79 78 35
76 75 34
78 77 34
73 71 32
77 76 34
83 82 37
77 76 34
82 81 37
94 92 41
80 80 36
88 87 39
79 78 35
92 90 40
90 88 39
77 76 34
87 85 38
93 91 40
85 83 37
78 77 34
79 78 35
82 80 36
83 81 36
90 89 40
88 87 39
99 97 44
88 86 38
86 85 38
99 97 43
93 90 39
93 90 40
95 92 41
89 88 39
95 91 40
93 90 40
89 87 39
78 76 34
98 95 42
89 87 38
89 88 40
96 94 42
87 84 37
93 90 40
87 86 38
97 94 41
90 87 38
87 85 38
95 92 40
91 88 38
91 89 39
86 83 36
86 83 37
92 89 38
93 89 39
95 92 39
90 87 37
90 86 36
87 84 36
90 88 38
94 92 40
91 87 38
97 93 40
98 94 40
86 81 35
91 87 38
84 81 35
94 91 39
90 87 36
95 90 38
87 83 36
95 91 39
90 85 36
94 91 39
81 77 32
87 82 35
80 77 33
87 82 33
82 79 34
84 80 32
85 81 35
82 77 31
89 84 35
80 76 32
88 84 35
93 90 40
85 81 34
86 82 34
84 80 33
81 78 33
83 79 33
86 82 33
85 81 33
78 75 30
73 69 28
85 80 34
78 73 29
82 77 32
80 76 32
88 83 34
82 78 33
75 71 29
89 84 33
75 71 30
85 80 32
73 70 29
78 73 30
124 154 198
127 157 202
125 157 204
128 158 204
126 157 204
126 157 204
124 156 204
125 157 204
124 156 204
124 156 204
123 155 204
122 155 204
122 155 204
122 155 204
120 153 204
121 154 204
121 155 204
120 153 204
119 153 204
119 153 204
120 154 204
119 153 204
118 153 204
118 152 204
117 152 204
115 151 204
116 151 204
116 151 204
116 151 204
116 151 204
115 151 204
115 151 204
115 151 204
115 151 204
113 150 204
114 150 204
113 150 204
112 149 204
113 150 204
112 149 204
112 149 204
111 149 204
111 148 204
111 148 204
111 148 204
111 148 204
110 148 204
110 148 204
111 148 204
109 147 204
109 147 204
109 147 204
108 147 204
108 147 204
108 147 204
108 146 204
108 147 204
108 146 204
107 146 204
107 146 204
107 146 204
106 146 204
106 146 204
106 145 204
106 145 204
105 145 204
105 145 204
106 145 204
105 145 204
105 145 204
105 145 204
105 145 204
105 144 204
105 144 204
105 144 204
104 144 204
104 144 204
104 144 204
104 144 204
104 144 204
104 144 204
104 144 204
104 144 204
104 144 204
104 144 204
104 144 204
104 144 204
104 144 204
104 144 204
104 144 204
104 144 204
105 144 204
105 145 204
105 145 204
106 145 204
106 145 204
106 145 204
106 145 204
107 146 204
107 146 204
108 146 204
109 147 204
110 147 204
110 148 204
111 148 204
111 148 204
113 150 204
113 149 202
110 143 194
105 136 184
98 127 169
101 128 169
94 118 153
135 164 207
170 204 255
170 204 255
170 204 255
170 204 255
170 204 255
170 204 255
170 204 255
170 204 255
169 204 255
169 204 255
169 204 255
169 204 255
169 204 255
169 204 255
169 204 255
169 204 255
169 204 255
169 203 255
169 203 255
169 203 255
169 203 255
168 203 255
168 203 255
168 203 255
168 203 255
168 203 255
168 203 255
168 203 255
168 203 255
168 203 255
168 203 255
168 203 255
168 203 255
168 203 255
168 203 255
167 203 255
167 203 255
167 203 255
167 203 255
167 203 255
167 202 255
167 202 255
167 202 255
167 202 255
167 202 255
167 202 255
167 202 255
167 202 255
167 202 255
167 202 255
167 202 255
166 202 255
166 202 255
166 202 255
166 202 255
166 202 255
166 202 255
166 202 255
166 202 255
166 202 255
166 202 255
166 202 255
166 202 255
166 202 255
166 202 255
166 202 255
166 202 255
166 202 255
166 202 255
166 202 255
166 202 255
163 198 253
125 158 219
84 113 184
49 75 152
19 43 127
15 38 121
15 38 121
15 38 121
15 38 120
15 39 123
15 38 121
15 38 124
15 39 121
15 38 124
15 38 119
15 39 124
15 38 120
15 38 120
15 38 121
15 38 124
15 38 119
15 38 121
15 38 119
15 38 118
15 38 120
16 39 123
52 79 151
81 110 180
129 162 221
161 197 252
166 202 255
166 202 255
166 202 255
166 202 255
166 202 255
166 202 255
166 202 255
166 202 255
166 202 255
166 202 255
166 202 255
166 202 255
166 202 255
166 202 255
166 202 255
166 202 255
166 202 255
166 202 255
166 202 255
166 202 255
167 202 255
167 202 255
167 202 255
167 202 255
167 202 255
167 202 255
167 202 255
167 202 255
167 202 255
167 202 255
167 202 255
167 203 255
167 203 255
167 203 255
167 203 255
167 203 255
168 203 255
168 203 255
168 203 255
168 203 255
168 203 255
168 203 255
168 203 255
168 203 255
168 203 255
168 203 255
168 203 255
168 203 255
168 203 255
168 203 255
169 203 255
169 203 255
169 203 255
169 203 255
169 204 255
169 204 255
169 204 255
169 204 255
169 204 255
169 204 255
169 204 255
169 204 255
169 204 255
170 204 255
170 204 255
170 204 255
170 204 255
170 204 255
170 204 255
170 204 255
170 203 253
136 157 178
78 79 53
53 52 23
74 73 32
73 71 31
67 65 29
75 73 33
81 80 36
73 72 32
80 77 35
80 79 35
83 81 36
89 88 39
77 76 35
80 79 36
76 75 34
89 88 40
84 83 37
86 84 37
89 88 40
86 84 38
85 84 38
83 82 37
94 92 41
94 92 41
85 84 38
86 85 38
88 87 39
81 80 36
93 91 40
88 86 38
94 93 42
86 84 37
98 95 43
86 85 38
94 92 41
93 90 40
96 94 42
91 89 40
88 85 38
97 94 42
101 99 44
99 96 43
94 91 40
93 91 40
88 85 37
92 90 40
87 84 37
85 83 37
86 83 37
93 89 39
99 96 42
91 90 39
85 83 37
93 89 38
98 93 41
83 81 36
95 92 39
98 94 40
98 95 42
100 96 42
92 87 37
104 99 43
94 90 40
100 96 41
89 86 37
101 95 40
94 89 39
93 89 39
89 86 37
94 89 38
94 90 38
90 85 34
94 90 38
94 91 39
100 95 40
95 92 39
85 81 34
90 86 37
95 91 37
94 90 38
87 83 35
99 95 39
86 82 35
87 82 34
73 71 29
81 77 32
85 82 34
85 82 35
86 83 35
83 80 34
84 79 31
89 85 35
81 78 33
83 79 32
83 80 33
88 84 35
77 74 32
83 78 31
81 76 30
84 80 33
87 81 34
88 83 35
92 88 36
74 70 28
88 84 35
82 78 29
86 81 32
75 71 29
85 80 32
80 76 31
78 74 30
90 85 34
67 63 25
127 158 204
128 158 204
126 157 204
125 157 204
124 156 204
125 156 204
124 156 204
126 157 204
123 156 204
124 156 204
122 155 204
124 156 204
122 155 204
121 154 204
122 155 204
120 154 204
120 154 204
120 154 204
119 153 204
120 154 204
118 153 204
118 153 204
117 152 204
117 152 204
117 152 204
117 152 204
117 152 204
116 152 204
116 152 204
116 151 204
115 151 204
114 150 204
115 151 204
114 150 204
114 150 204
114 150 204
113 150 204
114 150 204
112 149 204
112 149 204
111 148 204
112 149 204
112 149 204
111 148 204
111 148 204
111 148 204
110 148 204
111 148 204
109 147 204
110 148 204
110 148 204
109 147 204
109 147 204
109 147 204
108 147 204
108 147 204
107 146 204
108 146 204
107 146 204
107 146 204
107 146 204
107 146 204
106 145 204
107 146 204
106 145 204
106 145 204
106 145 204
106 145 204
105 145 204
105 145 204
105 145 204
105 144 204
104 144 204
104 144 204
104 144 204
104 144 204
104 144 204
104 144 204
104 144 204
104 144 204
104 144 204
104 144 204
104 144 204
104 144 204
104 144 204
103 144 204
104 144 204
104 144 204
104 144 204
104 144 204
104 144 204
104 144 204
104 144 204
105 144 204
105 145 204
105 145 204
105 145 204
105 145 204
106 145 204
106 145 204
107 146 204
108 146 204
108 146 204
108 147 204
109 147 204
110 148 204
111 148 204
112 149 204
113 149 204
115 151 204
112 147 198
100 129 174
103 133 178
94 120 159
97 121 157
143 172 216
170 204 255
170 204 255
170 204 255
170 204 255
170 204 255
170 204 255
170 204 255
170 204 255
170 204 255
170 204 255
170 204 255
170 204 255
169 204 255
169 204 255
169 204 255
169 204 255
169 204 255
169 204 255
169 204 255
169 204 255
169 203 255
169 203 255
169 203 255
169 203 255
168 203 255
168 203 255
168 203 255
168 203 255
168 203 255
168 203 255
168 203 255
168 203 255
168 203 255
168 203 255
168 203 255
168 203 255
168 203 255
168 203 255
168 203 255
167 203 255
167 203 255
167 203 255
167 203 255
167 203 255
167 203 255
167 202 255
167 202 255
167 202 255
167 202 255
167 202 255
167 202 255
167 202 255
167 202 255
167 202 255
167 202 255
167 202 255
167 202 255
167 202 255
166 202 255
166 202 255
166 202 255
166 202 255
166 202 255
166 202 255
166 202 255
166 202 255
163 199 253
116 148 212
66 93 164
31 56 138
15 38 125
15 38 121
15 38 123
15 39 119
15 38 121
15 38 121
15 38 120
15 38 115
15 38 125
15 38 121
15 38 120
15 38 124
15 38 116
15 38 122
15 38 112
15 38 120
15 38 119
15 38 120
15 39 121
15 39 121
15 38 121
14 37 112
15 38 116
15 38 123
15 38 119
14 37 120
14 38 122
14 38 120
21 45 130
57 84 159
101 131 198
157 192 247
166 202 255
166 202 255
166 202 255
166 202 255
166 202 255
166 202 255
166 202 255
166 202 255
167 202 255
167 202 255
167 202 255
167 202 255
167 202 255
167 202 255
167 202 255
167 202 255
167 202 255
167 202 255
167 202 255
167 202 255
167 202 255
167 203 255
167 203 255
167 203 255
167 203 255
167 203 255
167 203 255
168 203 255
168 203 255
168 203 255
168 203 255
168 203 255
168 203 255
168 203 255
168 203 255
168 203 255
168 203 255
168 203 255
168 203 255
168 203 255
168 203 255
169 203 255
169 203 255
169 203 255
169 203 255
169 203 255
169 204 255
169 204 255
169 204 255
169 204 255
169 204 255
169 204 255
169 204 255
169 204 255
169 204 255
170 204 255
170 204 255
170 204 255
170 204 255
170 204 255
170 204 255
170 204 255
170 204 255
170 204 255
170 204 255
170 204 255
139 163 187
83 87 68
60 58 26
74 72 32
78 76 34
73 71 31
70 68 30
65 64 28
75 75 34
80 79 36
76 74 33
77 76 34
82 80 36
79 77 34
80 78 35
80 79 35
77 75 33
79 77 35
84 83 37
85 84 38
86 85 38
84 83 38
83 82 37
92 90 40
82 81 37
89 87 39
90 88 39
90 88 40
85 83 37
86 84 38
86 84 37
81 81 36
92 90 40
87 86 38
87 85 38
94 92 41
95 92 41
92 89 39
95 93 41
88 86 38
91 88 39
92 90 40
94 90 40
89 86 38
91 89 39
95 93 41
98 95 42
83 80 35
91 88 38
93 90 40
84 82 36
89 86 38
93 90 40
92 89 38
89 86 38
84 83 37
94 91 40
91 87 37
89 86 37
99 96 42
87 84 36
97 94 41
99 96 42
82 80 35
94 90 39
85 82 36
99 96 39
93 90 39
99 94 40
87 85 37
94 91 40
86 84 36
101 97 42
96 92 39
84 81 35
92 89 38
96 92 39
91 87 37
95 89 36
93 89 39
84 81 35
94 90 39
96 92 39
76 75 33
99 94 40
85 81 33
88 84 36
96 90 36
90 85 35
94 90 37
88 84 36
89 84 34
91 87 37
91 88 37
90 85 35
86 82 34
90 85 36
85 81 32
96 91 36
88 84 34
78 75 31
86 82 33
97 90 36
84 80 33
86 81 33
86 80 31
86 81 33
74 71 28
86 82 33
87 82 31
82 78 32
79 74 30
81 76 28
91 86 36
89 83 33
76 72 29
127 158 204
127 158 204
127 158 204
125 156 204
126 157 204
125 156 204
125 156 204
125 156 204
123 156 204
125 156 204
123 156 204
122 155 204
123 155 204
123 155 204
121 154 204
121 154 204
120 154 204
119 153 204
120 154 204
119 153 204
119 153 204
119 153 204
118 152 204
118 152 204
117 152 204
118 152 204
117 152 204
116 151 204
115 151 204
115 151 204
116 151 204
116 151 204
115 151 204
115 151 204
114 150 204
114 150 204
113 150 204
113 149 204
113 149 204
112 149 204
113 150 204
111 148 204
112 149 204
111 148 204
111 148 204
111 148 204
110 148 204
110 148 204
110 148 204
110 148 204
109 147 204
109 147 204
109 147 204
109 147 204
108 147 204
108 146 204
108 146 204
108 146 204
108 146 204
107 146 204
107 146 204
107 146 204
106 145 204
106 145 204
106 145 204
106 145 204
106 145 204
105 145 204
105 145 204
105 145 204
105 144 204
105 145 204
105 144 204
105 145 204
104 144 204
104 144 204
104 144 204
104 144 204
104 144 204
104 144 204
104 144 204
104 144 204
104 144 204
103 144 204
103 144 204
103 144 204
103 144 204
103 144 204
104 144 204
104 144 204
104 144 204
104 144 204
104 144 204
104 144 204
104 144 204
104 144 204
105 144 204
105 145 204
106 145 204
106 145 204
106 145 204
106 146 204
107 146 204
108 146 204
108 147 204
108 147 204
110 148 204
111 148 204
111 148 204
112 149 204
114 150 204
116 151 204
113 146 196
108 139 186
98 126 167
89 112 147
111 135 173
162 195 245
171 205 255
171 205 255
170 204 255
170 204 255
170 204 255
170 204 255
170 204 255
170 204 255
170 204 255
170 204 255
170 204 255
170 204 255
170 204 255
170 204 255
170 204 255
169 204 255
169 204 255
169 204 255
169 204 255
169 204 255
169 204 255
169 204 255
169 204 255
169 204 255
169 203 255
169 203 255
169 203 255
169 203 255
168 203 255
168 203 255
168 203 255
168 203 255
168 203 255
168 203 255
168 203 255
168 203 255
168 203 255
168 203 255
168 203 255
168 203 255
168 203 255
168 203 255
168 203 255
168 203 255
168 203 255
167 203 255
167 203 255
167 203 255
167 203 255
167 203 255
167 203 255
167 202 255
167 202 255
167 202 255
167 202 255
167 202 255
167 202 255
167 202 255
167 202 255
167 202 255
167 202 255
167 202 255
129 161 222
70 98 172
21 44 126
15 38 120
15 38 123
14 37 116
15 38 118
15 38 118
15 38 112
15 38 117
14 37 107
15 38 121
15 38 116
15 38 120
15 38 116
15 38 121
15 38 116
15 38 119
15 38 117
15 39 124
15 38 116
15 38 119
15 38 112
15 38 117
14 37 112
15 37 108
15 38 121
15 37 113
15 38 121
14 37 115
15 38 116
15 38 115
15 38 119
15 38 115
15 38 120
15 38 115
15 38 117
22 46 126
57 84 161
133 166 225
167 202 255
167 202 255
167 202 255
167 202 255
167 202 255
167 202 255
167 202 255
167 202 255
167 202 255
167 202 255
167 202 255
167 203 255
167 203 255
167 203 255
167 203 255
167 203 255
167 203 255
167 203 255
168 203 255
168 203 255
168 203 255
168 203 255
168 203 255
168 203 255
168 203 255
168 203 255
168 203 255
168 203 255
168 203 255
168 203 255
168 203 255
168 203 255
168 203 255
169 203 255
169 203 255
169 203 255
169 203 255
169 203 255
169 203 255
169 204 255
169 204 255
169 204 255
169 204 255
169 204 255
169 204 255
169 204 255
169 204 255
170 204 255
170 204 255
170 204 255
170 204 255
170 204 255
170 204 255
170 204 255
170 204 255
170 204 255
170 204 255
170 204 255
170 204 255
170 204 255
171 205 255
171 205 255
145 173 214
98 105 89
77 75 33
61 60 27
79 77 34
68 66 30
73 71 32
70 68 30
74 73 33
87 84 38
80 79 36
81 80 36
80 77 34
73 72 33
76 76 35
94 92 41
77 76 34
75 74 33
87 85 38
81 78 35
81 79 35
94 92 41
92 90 40
82 81 37
96 94 42
96 95 43
87 86 39
93 91 40
84 82 36
93 91 41
91 89 40
98 95 42
92 90 40
93 91 40
90 88 39
96 93 42
95 93 41
87 85 38
95 92 41
83 81 36
100 96 42
94 91 40
90 88 39
102 99 44
93 89 39
101 98 43
103 99 44
97 93 40
94 92 41
98 94 41
94 91 40
91 88 38
92 89 39
99 95 41
96 93 41
96 93 39
95 92 41
86 83 37
91 88 39
87 84 36
92 88 38
93 90 38
97 94 41
98 95 41
95 91 39
97 92 39
98 95 41
100 96 41
90 87 37
97 92 38
88 85 37
91 89 39
93 89 38
98 93 39
99 94 40
97 92 40
89 85 37
88 84 36
87 84 37
93 89 37
103 98 43
95 90 39
97 92 39
96 91 38
96 92 40
95 90 37
90 87 36
81 76 30
99 94 39
97 93 39
90 86 36
93 89 37
98 93 39
93 88 36
87 83 35
90 85 34
94 88 36
102 96 39
90 85 36
84 80 32
79 75 30
90 85 34
94 90 35
88 84 35
82 78 30
86 81 33
89 84 32
74 70 28
81 77 30
89 84 34
79 75 30
72 69 28
86 80 31
91 86 34
79 75 30
79 75 29
86 81 32
83 79 33
128 158 204
128 158 204
127 158 204
126 157 204
124 156 204
126 157 204
123 155 204
124 156 204
124 156 204
124 156 204
123 155 204
122 155 204
121 155 204
122 155 204
121 154 204
122 155 204
121 154 204
121 154 204
119 153 204
120 153 204
119 153 204
118 153 204
119 153 204
118 152 204
118 152 204
118 153 204
117 152 204
117 152 204
116 151 204
115 151 204
116 151 204
116 151 204
115 151 204
115 151 204
115 151 204
114 150 204
113 149 204
114 150 204
113 150 204
112 149 204
113 149 204
112 149 204
112 149 204
111 148 204
111 148 204
111 148 204
111 149 204
110 148 204
110 148 204
111 148 204
110 148 204
109 147 204
109 147 204
109 147 204
108 147 204
108 147 204
108 146 204
108 147 204
108 146 204
108 147 204
108 146 204
107 146 204
107 146 204
106 146 204
106 145 204
106 145 204
106 145 204
106 145 204
106 145 204
105 145 204
105 145 204
105 145 204
105 145 204
105 145 204
105 144 204
104 144 204
105 144 204
104 144 204
104 144 204
104 144 204
104 144 204
104 144 204
104 144 204
104 144 204
103 144 204
104 144 204
103 144 204
103 144 204
104 144 204
103 144 204
104 144 204
104 144 204
104 144 204
104 144 204
104 144 204
104 144 204
104 144 204
104 144 204
105 145 204
105 145 204
105 145 204
106 145 204
106 145 204
106 146 204
107 146 204
108 146 204
108 147 204
109 147 204
110 148 204
111 148 204
112 149 204
114 150 204
115 151 204
114 148 200
112 145 194
106 136 182
99 126 167
97 122 159
126 153 193
169 203 253
171 205 255
171 205 255
171 205 255
171 205 255
171 205 255
170 204 255
170 204 255
170 204 255
170 204 255
170 204 255
170 204 255
170 204 255
170 204 255
170 204 255
170 204 255
170 204 255
170 204 255
170 204 255
169 204 255
169 204 255
169 204 255
169 204 255
169 204 255
169 204 255
169 204 255
169 204 255
169 204 255
169 204 255
169 203 255
169 203 255
169 203 255
169 203 255
169 203 255
168 203 255
168 203 255
168 203 255
168 203 255
168 203 255
168 203 255
168 203 255
168 203 255
168 203 255
168 203 255
168 203 255
168 203 255
168 203 255
168 203 255
168 203 255
168 203 255
168 203 255
168 203 255
167 203 255
167 203 255
167 203 255
167 203 255
167 203 255
167 203 255
166 201 254
120 151 214
48 74 150
15 38 124
15 38 119
15 38 122
15 39 122
14 37 110
15 38 119
15 38 114
15 38 111
15 39 119
15 38 111
15 38 114
15 38 117
15 38 118
15 38 117
16 39 120
15 38 114
15 38 115
14 37 110
15 38 113
14 37 113
15 38 113
15 38 115
15 38 116
15 38 124
15 38 110
15 38 117
15 38 118
15 38 113
15 39 124
15 38 119
15 38 115
14 37 112
15 38 116
15 38 120
15 37 111
15 37 115
14 38 117
14 36 115
15 37 118
14 37 120
44 69 146
100 130 197
163 197 249
167 203 255
167 203 255
167 203 255
167 203 255
167 203 255
167 203 255
168 203 255
168 203 255
168 203 255
168 203 255
168 203 255
168 203 255
168 203 255
168 203 255
168 203 255
168 203 255
168 203 255
168 203 255
168 203 255
168 203 255
168 203 255
168 203 255
168 203 255
168 203 255
169 203 255
169 203 255
169 203 255
169 203 255
169 203 255
169 203 255
169 204 255
169 204 255
169 204 255
169 204 255
169 204 255
169 204 255
169 204 255
169 204 255
169 204 255
170 204 255
170 204 255
170 204 255
170 204 255
170 204 255
170 204 255
170 204 255
170 204 255
170 204 255
170 204 255
170 204 255
170 204 255
170 204 255
171 205 255
171 205 255
171 205 255
171 205 255
171 205 255
167 200 248
119 136 149
80 80 43
73 71 31
75 72 31
77 75 33
69 68 31
84 82 37
84 82 37
63 62 28
75 74 33
75 73 33
93 91 41
87 86 38
87 85 38
82 80 36
78 77 35
80 78 35
80 78 35
86 85 39
88 85 38
80 78 35
83 81 37
84 81 36
89 88 40
90 89 40
87 86 38
92 90 40
88 85 38
92 90 40
87 85 38
95 92 41
92 90 40
93 91 41
94 92 41
92 90 40
102 100 45
93 91 40
87 84 37
98 96 43
94 92 41
95 93 41
99 96 43
96 93 41
89 86 38
101 98 43
100 97 43
97 93 41
100 96 43
100 97 43
95 92 41
98 94 41
98 94 40
98 96 43
99 96 42
97 94 41
100 97 43
103 98 43
99 94 40
103 99 43
97 93 40
91 87 38
99 94 40
111 106 46
96 92 38
95 92 40
103 98 42
100 96 41
97 94 41
98 94 41
104 99 43
89 86 37
109 104 45
89 85 37
94 91 39
100 96 41
100 96 42
91 88 37
93 89 37
98 93 39
97 93 40
93 89 38
95 91 38
97 91 38
98 94 38
98 92 38
90 85 34
98 93 38
84 82 34
91 87 38
90 85 35
89 86 36
100 95 38
95 91 37
95 89 36
88 85 36
90 85 36
92 87 37
84 80 32
83 79 31
85 79 31
84 81 33
82 79 33
96 92 36
90 85 35
91 86 36
85 80 33
94 89 36
85 80 33
76 72 29
79 74 29
88 83 33
85 80 32
87 82 32
84 80 32
80 74 31
96 90 34
83 77 30
74 70 28
90 85 34
128 158 204
125 157 204
125 157 204
125 157 204
125 156 204
125 157 204
124 156 204
124 156 204
123 155 204
122 155 204
123 155 204
123 156 204
122 155 204
122 155 204
120 154 204
120 154 204
120 154 204
121 154 204
119 153 204
120 154 204
120 154 204
118 153 204
118 153 204
119 153 204
118 153 204
118 152 204
117 152 204
117 152 204
115 151 204
116 152 204
117 152 204
116 151 204
116 151 204
114 150 204
114 150 204
115 150 204
115 151 204
114 150 204
114 150 204
114 150 204
112 149 204
112 149 204
112 149 204
112 149 204
112 149 204
112 149 204
111 148 204
111 148 204
111 148 204
110 148 204
111 148 204
110 148 204
110 148 204
110 148 204
109 147 204
109 147 204
109 147 204
109 147 204
108 147 204
107 146 204
107 146 204
108 146 204
107 146 204
107 146 204
107 146 204
106 145 204
106 145 204
106 145 204
106 145 204
105 145 204
106 145 204
105 145 204
105 145 204
105 144 204
105 145 204
105 144 204
104 144 204
104 144 204
104 144 204
104 144 204
104 144 204
104 144 204
104 144 204
104 144 204
104 144 204
104 144 204
104 144 204
104 144 204
104 144 204
103 144 204
104 144 204
104 144 204
104 144 204
104 144 204
104 144 204
104 144 204
104 144 204
104 144 204
104 144 204
104 144 204
105 145 204
105 145 204
106 145 204
106 145 204
107 146 204
107 146 204
108 147 204
108 147 204
109 147 204
109 147 204
110 147 204
111 149 204
112 149 204
113 150 204
114 150 204
109 143 194
112 144 192
102 131 174
99 126 167
104 129 167
150 182 228
171 205 255
171 205 255
171 205 255
171 205 255
171 205 255
171 205 255
171 205 255
171 205 255
171 205 255
170 204 255
170 204 255
170 204 255
170 204 255
170 204 255
170 204 255
170 204 255
170 204 255
170 204 255
170 204 255
170 204 255
170 204 255
170 204 255
170 204 255
169 204 255
169 204 255
169 204 255
169 204 255
169 204 255
169 204 255
169 204 255
169 204 255
169 204 255
169 204 255
169 203 255
169 203 255
169 203 255
169 203 255
169 203 255
169 203 255
168 203 255
168 203 255
168 203 255
168 203 255
168 203 255
168 203 255
168 203 255
168 203 255
168 203 255
168 203 255
168 203 255
168 203 255
168 203 255
168 203 255
168 203 255
163 198 252
103 133 199
27 51 134
15 38 116
15 38 120
15 38 116
15 38 118
15 37 115
15 38 116
15 38 124
14 37 111
14 37 106
15 38 118
15 39 122
14 37 111
15 37 108
15 38 114
15 38 114
14 37 110
15 38 117
15 38 113
15 38 117
14 37 113
15 38 116
15 37 113
15 38 121
15 37 112
15 39 121
15 38 117
14 38 115
15 38 119
15 38 116
15 37 107
15 38 115
15 38 119
15 38 115
15 37 111
15 38 115
15 39 120
15 37 115
14 37 106
15 38 124
14 37 112
14 37 118
15 38 121
15 38 122
14 37 113
33 57 134
111 141 206
165 200 253
168 203 255
168 203 255
168 203 255
168 203 255
168 203 255
168 203 255
168 203 255
168 203 255
168 203 255
168 203 255
168 203 255
168 203 255
168 203 255
168 203 255
168 203 255
169 203 255
169 203 255
169 203 255
169 203 255
169 203 255
169 203 255
169 204 255
169 204 255
169 204 255
169 204 255
169 204 255
169 204 255
169 204 255
169 204 255
169 204 255
169 204 255
170 204 255
170 204 255
170 204 255
170 204 255
170 204 255
170 204 255
170 204 255
170 204 255
170 204 255
170 204 255
170 204 255
170 204 255
170 204 255
170 204 255
171 205 255
171 205 255
171 205 255
171 205 255
171 205 255
171 205 255
171 205 255
171 205 255
171 205 255
154 180 211
78 80 58
66 64 28
71 68 30
76 73 33
85 82 37
79 77 34
74 73 32
81 79 35
78 76 34
70 69 31
88 86 38
76 75 33
81 80 36
79 77 34
89 88 40
98 96 43
90 89 40
84 83 37
82 81 36
91 88 39
89 87 39
85 84 38
91 89 40
95 94 42
83 81 36
89 88 40
92 91 41
96 93 41
93 92 41
95 93 41
88 85 38
87 84 37
96 94 41
92 90 40
99 96 43
91 90 40
94 90 40
98 97 44
91 88 39
100 97 43
90 88 39
98 95 42
99 96 43
103 100 45
102 99 44
91 88 38
96 94 42
93 90 40
103 100 45
102 98 43
98 94 41
98 94 41
96 93 41
85 82 36
97 93 40
97 93 40
99 96 42
102 98 43
100 97 43
107 103 45
103 98 43
96 93 41
95 91 38
103 99 43
99 95 42
105 99 41
99 95 41
90 87 37
103 98 41
100 96 42
108 103 45
91 86 37
91 87 37
82 77 33
98 94 40
96 91 38
101 95 41
96 92 38
96 92 39
102 98 43
99 94 40
102 97 42
99 94 39
90 85 34
96 92 39
88 84 35
94 89 37
93 88 36
107 102 43
85 82 34
93 88 36
77 73 30
92 88 36
92 87 36
87 84 34
85 80 33
97 91 37
87 83 34
92 87 36
86 82 34
88 84 35
100 94 38
82 77 31
92 87 36
89 85 33
92 88 34
80 78 31
89 84 32
88 84 32
80 75 28
72 68 27
88 83 33
83 78 31
80 75 28
92 85 33
93 87 35
83 79 29
83 77 29
79 73 28
85 80 33
126 157 204
127 158 204
126 157 204
126 157 204
125 157 204
124 156 204
125 157 204
125 156 204
123 156 204
124 156 204
124 156 204
122 155 204
122 155 204
122 155 204
121 154 204
122 155 204
120 154 204
120 154 204
120 154 204
120 154 204
120 153 204
119 153 204
120 153 204
119 153 204
117 152 204
118 153 204
117 152 204
117 152 204
116 152 204
117 152 204
116 151 204
116 152 204
115 151 204
115 151 204
114 150 204
115 151 204
115 151 204
114 150 204
114 150 204
113 150 204
113 150 204
113 150 204
112 149 204
112 149 204
112 149 204
112 149 204
112 149 204
111 148 204
110 148 204
111 149 204
111 148 204
110 148 204
110 148 204
109 147 204
110 148 204
109 147 204
108 147 204
108 147 204
108 147 204
108 146 204
109 147 204
107 146 204
107 146 204
107 146 204
107 146 204
107 146 204
106 146 204
106 146 204
106 145 204
106 145 204
106 146 204
105 145 204
105 145 204
105 145 204
105 145 204
105 145 204
105 145 204
105 145 204
104 144 204
104 144 204
104 144 204
104 144 204
104 144 204
104 144 204
104 144 204
104 144 204
104 144 204
104 144 204
104 144 204
104 144 204
104 144 204
104 144 204
104 144 204
104 144 204
104 144 204
104 144 204
104 144 204
104 144 204
104 144 204
105 145 204
105 145 204
105 145 204
105 145 204
106 145 204
106 145 204
106 146 204
106 146 204
107 146 204
108 146 204
109 147 204
109 147 204
110 148 204
110 148 204
112 149 204
112 149 204
114 150 204
116 152 204
111 144 194
112 144 192
102 131 174
86 108 142
122 147 186
168 200 250
171 205 255
171 205 255
171 205 255
171 205 255
171 205 255
171 205 255
171 205 255
171 205 255
171 205 255
171 205 255
171 205 255
171 205 255
171 205 255
170 204 255
170 204 255
170 204 255
170 204 255
170 204 255
170 204 255
170 204 255
170 204 255
170 204 255
170 204 255
170 204 255
170 204 255
170 204 255
170 204 255
169 204 255
169 204 255
169 204 255
169 204 255
169 204 255
169 204 255
169 204 255
169 204 255
169 204 255
169 204 255
169 204 255
169 204 255
169 203 255
169 203 255
169 203 255
169 203 255
169 203 255
169 203 255
168 203 255
168 203 255
168 203 255
168 203 255
168 203 255
168 203 255
111 142 207
32 56 135
14 37 116
15 38 121
15 37 112
15 38 120
15 38 119
15 38 120
15 39 124
15 38 116
14 37 113
15 38 117
15 38 117
15 38 119
15 38 112
15 38 114
14 37 114
14 37 113
15 38 113
15 38 113
15 37 108
15 38 117
15 38 116
15 38 119
15 38 110
15 38 117
15 38 110
15 38 115
15 38 110
15 38 112
15 38 115
15 37 112
15 38 108
15 37 108
15 38 112
15 38 110
15 37 113
14 37 111
14 36 104
15 37 112
15 38 120
15 37 109
15 38 116
15 37 110
15 38 117
15 38 115
14 36 107
15 38 111
14 37 115
15 37 114
41 65 139
127 159 217
168 203 255
168 203 255
168 203 255
168 203 255
168 203 255
169 203 255
169 203 255
169 203 255
169 203 255
169 203 255
169 203 255
169 203 255
169 204 255
169 204 255
169 204 255
169 204 255
169 204 255
169 204 255
169 204 255
169 204 255
169 204 255
169 204 255
169 204 255
170 204 255
170 204 255
170 204 255
170 204 255
170 204 255
170 204 255
170 204 255
170 204 255
170 204 255
170 204 255
170 204 255
170 204 255
170 204 255
170 204 255
170 204 255
171 205 255
171 205 255
171 205 255
171 205 255
171 205 255
171 205 255
171 205 255
171 205 255
171 205 255
171 205 255
171 205 255
171 205 255
171 205 255
165 196 242
120 140 161
65 63 30
60 59 27
74 73 33
65 62 27
71 69 31
80 78 35
67 66 29
75 73 33
75 74 33
75 74 34
78 78 35
90 88 39
90 88 39
80 79 36
81 79 36
86 84 38
74 74 34
85 84 38
80 78 35
85 84 38
91 90 41
89 87 39
94 92 41
91 90 41
98 96 43
94 94 43
97 95 43
93 91 41
88 86 38
100 97 44
95 92 41
94 93 41
91 89 39
93 90 40
89 87 39
102 98 44
90 87 39
100 96 43
92 87 38
95 93 41
96 93 41
90 88 39
83 82 37
85 82 36
95 91 40
99 95 42
101 96 42
86 84 37
98 94 42
100 97 43
99 95 41
100 95 41
105 102 45
93 91 39
100 97 43
103 99 43
100 96 41
94 90 39
102 98 42
97 93 41
86 83 36
98 93 40
106 100 44
95 92 39
95 91 40
92 88 38
105 101 45
102 98 42
100 96 43
103 99 42
99 95 40
98 94 40
99 94 40
106 102 44
104 98 41
102 97 41
90 86 36
95 90 38
100 95 41
93 88 37
93 90 37
87 82 34
95 91 38
96 92 40
100 95 40
105 98 40
96 91 39
92 88 36
102 97 40
89 85 35
95 90 37
89 84 35
87 82 33
92 87 36
94 90 38
95 91 39
95 90 37
99 93 39
96 91 37
85 80 33
90 84 34
96 92 37
81 76 31
93 87 32
82 77 31
84 78 31
89 85 34
95 90 34
86 80 33
86 80 32
91 85 34
83 78 31
87 81 32
90 85 34
91 86 35
87 82 31
91 86 32
81 77 29
85 80 33
94 87 35
86 81 33
128 158 204
126 157 204
126 157 204
125 156 204
125 157 204
125 157 204
125 156 204
124 156 204
123 156 204
123 156 204
123 155 204
122 155 204
122 155 204
122 155 204
123 155 204
121 154 204
120 154 204
121 154 204
121 154 204
119 153 204
119 153 204
120 154 204
119 153 204
118 153 204
117 152 204
118 153 204
118 153 204
117 152 204
117 152 204
116 152 204
116 151 204
116 151 204
117 152 204
116 151 204
115 151 204
116 151 204
115 151 204
115 151 204
114 150 204
114 150 204
113 150 204
114 150 204
113 150 204
112 149 204
113 149 204
112 149 204
112 149 204
111 148 204
111 149 204
111 148 204
111 148 204
111 148 204
110 148 204
110 148 204
110 148 204
109 147 204
109 147 204
109 147 204
109 147 204
109 147 204
108 146 204
108 146 204
108 147 204
107 146 204
107 146 204
107 146 204
107 146 204
107 146 204
106 146 204
106 145 204
106 145 204
106 145 204
106 145 204
105 145 204
105 145 204
105 145 204
105 145 204
105 145 204
105 145 204
105 145 204
105 145 204
104 144 204
104 144 204
104 144 204
104 144 204
104 144 204
104 144 204
104 144 204
104 144 204
104 144 204
104 144 204
104 144 204
104 144 204
104 144 204
104 144 204
104 144 204
104 144 204
104 144 204
104 144 204
105 144 204
105 144 204
105 144 204
105 145 204
105 145 204
106 145 204
106 145 204
106 146 204
107 146 204
107 146 204
108 147 204
108 147 204
108 147 204
110 148 204
110 148 204
112 149 204
112 149 204
114 150 204
114 150 204
115 150 202
111 144 194
108 137 182
93 118 155
91 113 146
154 184 230
172 205 255
172 205 255
172 205 255
172 205 255
171 205 255
171 205 255
171 205 255
171 205 255
171 205 255
171 205 255
171 205 255
171 205 255
171 205 255
171 205 255
171 205 255
171 205 255
171 205 255
170 204 255
170 204 255
170 204 255
170 204 255
170 204 255
170 204 255
170 204 255
170 204 255
170 204 255
170 204 255
170 204 255
170 204 255
170 204 255
170 204 255
170 204 255
170 204 255
170 204 255
169 204 255
169 204 255
169 204 255
169 204 255
169 204 255
169 204 255
169 204 255
169 204 255
169 204 255
169 204 255
169 204 255
169 204 255
169 203 255
169 203 255
142 175 234
64 91 166
14 37 115
15 38 125
15 38 121
15 38 113
14 37 110
15 38 114
15 38 116
14 37 105
15 37 104
15 38 110
15 38 122
15 38 117
15 37 111
15 38 114
15 38 119
15 38 112
15 38 111
15 38 116
14 37 103
15 38 114
15 38 112
14 37 107
14 37 106
15 38 116
15 38 108
14 37 104
14 37 101
15 38 113
15 37 109
15 38 111
15 38 113
15 38 117
14 37 115
14 37 108
15 38 113
14 37 108
15 37 108
15 37 114
15 38 112
15 38 116
15 37 108
15 38 116
14 37 113
15 38 116
15 37 112
14 37 107
14 36 107
15 38 119
15 37 107
14 37 114
15 38 114
15 38 113
55 80 152
149 182 237
169 203 255
169 204 255
169 204 255
169 204 255
169 204 255
169 204 255
169 204 255
169 204 255
169 204 255
169 204 255
169 204 255
169 204 255
169 204 255
169 204 255
170 204 255
170 204 255
170 204 255
170 204 255
170 204 255
170 204 255
170 204 255
170 204 255
170 204 255
170 204 255
170 204 255
170 204 255
170 204 255
170 204 255
170 204 255
170 204 255
171 205 255
171 205 255
171 205 255
171 205 255
171 205 255
171 205 255
171 205 255
171 205 255
171 205 255
171 205 255
171 205 255
171 205 255
171 205 255
171 205 255
172 205 255
172 205 255
172 205 255
172 205 255
145 171 205
93 97 77
70 69 31
68 66 29
69 68 31
75 74 33
73 71 31
77 75 34
78 77 35
72 71 32
76 73 33
78 76 34
83 81 37
76 75 34
81 79 35
89 87 39
74 74 34
85 84 38
83 82 37
85 83 37
83 82 37
73 72 33
88 86 38
86 84 38
89 87 39
91 89 40
98 95 42
95 93 41
87 86 39
94 92 41
99 96 42
91 89 40
90 88 39
99 96 43
93 91 41
87 86 39
94 92 41
98 95 42
100 97 43
103 99 44
90 88 40
97 94 41
104 102 45
96 92 40
103 99 44
91 87 38
102 97 43
105 101 45
107 103 45
102 98 44
93 90 40
105 100 44
99 95 42
101 98 43
108 103 45
104 101 45
96 92 39
99 95 41
87 84 37
110 105 46
102 97 42
102 98 42
94 91 39
105 100 43
110 105 46
98 94 39
100 96 42
100 97 42
105 100 43
99 96 42
103 98 43
109 103 44
109 104 44
89 87 37
93 90 39
104 98 42
94 89 35
97 92 39
103 98 41
103 98 42
100 95 38
103 97 40
97 94 40
102 96 39
106 100 43
92 87 35
97 93 40
102 97 41
96 90 35
102 98 43
94 91 37
87 83 32
93 88 34
95 89 36
95 89 38
95 91 36
92 87 34
94 89 36
92 86 34
99 95 39
93 88 33
102 96 38
92 87 35
90 85 34
90 85 34
84 79 33
99 93 38
86 81 32
90 85 35
90 85 34
98 93 36
88 84 35
80 76 30
85 80 33
81 77 31
88 83 30
78 73 29
102 95 38
84 78 30
94 89 34
87 82 33
85 80 32
78 74 28
92 86 33
127 158 204
125 157 204
125 157 204
126 157 204
126 157 204
124 156 204
125 157 204
125 156 204
125 156 204
124 156 204
123 155 204
124 156 204
123 155 204
122 155 204
123 156 204
122 155 204
121 155 204
121 154 204
121 155 204
120 154 204
121 154 204
119 153 204
119 153 204
119 153 204
119 153 204
120 154 204
118 153 204
117 152 204
117 152 204
117 152 204
117 152 204
117 152 204
116 151 204
116 151 204
116 151 204
115 151 204
114 150 204
115 151 204
114 150 204
114 150 204
114 150 204
114 150 204
113 150 204
113 149 204
113 149 204
113 149 204
111 149 204
112 149 204
112 149 204
111 149 204
112 149 204
111 148 204
111 148 204
111 148 204
110 148 204
109 147 204
110 148 204
110 148 204
109 147 204
108 147 204
109 147 204
109 147 204
108 147 204
108 147 204
108 147 204
108 146 204
108 146 204
107 146 204
107 146 204
107 146 204
107 146 204
106 146 204
106 145 204
106 145 204
106 146 204
106 145 204
105 145 204
106 145 204
106 145 204
105 145 204
105 145 204
105 145 204
105 144 204
105 144 204
104 144 204
104 144 204
104 144 204
104 144 204
104 144 204
104 144 204
104 144 204
104 144 204
104 144 204
104 144 204
104 144 204
104 144 204
104 144 204
104 144 204
104 144 204
104 144 204
104 144 204
105 145 204
105 144 204
105 145 204
105 145 204
106 145 204
106 145 204
107 146 204
106 146 204
107 146 204
108 147 204
108 146 204
109 147 204
109 147 204
110 148 204
111 148 204
112 149 204
114 150 204
115 151 204
115 150 202
115 148 198
109 141 188
101 129 169
88 111 145
138 166 208
172 205 255
172 205 255
172 205 255
172 205 255
172 205 255
172 205 255
172 205 255
172 205 255
172 205 255
171 205 255
171 205 255
171 205 255
171 205 255
171 205 255
171 205 255
171 205 255
171 205 255
171 205 255
171 205 255
171 205 255
171 205 255
171 205 255
171 205 255
170 204 255
170 204 255
170 204 255
170 204 255
170 204 255
170 204 255
170 204 255
170 204 255
170 204 255
170 204 255
170 204 255
170 204 255
170 204 255
170 204 255
170 204 255
170 204 255
170 204 255
170 204 255
169 204 255
169 204 255
169 204 255
169 204 255
168 202 254
84 112 180
22 46 127
15 38 116
15 38 118
15 38 117
15 38 119
15 37 112
15 38 115
15 38 112
15 37 110
15 38 118
15 38 116
15 38 114
14 37 108
15 38 116
15 38 107
15 38 116
14 37 112
14 37 104
15 38 112
15 38 114
15 37 108
15 38 111
15 38 112
15 38 113
15 38 115
15 37 106
15 37 108
15 38 112
15 38 115
15 38 107
15 38 110
15 37 104
15 38 108
15 38 114
15 38 113
15 38 111
15 38 112
15 38 115
15 38 110
15 38 106
15 38 111
15 37 108
15 37 109
14 36 98
15 37 113
15 38 115
15 38 107
15 37 111
14 37 104
15 38 115
15 37 109
14 36 109
14 37 109
14 36 106
14 37 111
19 41 115
103 132 196
169 204 255
169 204 255
169 204 255
169 204 255
170 204 255
170 204 255
170 204 255
170 204 255
170 204 255
170 204 255
170 204 255
170 204 255
170 204 255
170 204 255
170 204 255
170 204 255
170 204 255
170 204 255
170 204 255
170 204 255
170 204 255
170 204 255
170 204 255
171 205 255
171 205 255
171 205 255
171 205 255
171 205 255
171 205 255
171 205 255
171 205 255
171 205 255
171 205 255
171 205 255
171 205 255
171 205 255
171 205 255
172 205 255
172 205 255
172 205 255
172 205 255
172 205 255
172 205 255
172 205 255
172 205 255
172 205 255
144 164 183
64 62 32
78 75 33
72 69 31
67 65 29
71 69 31
80 78 35
75 74 33
79 77 35
77 76 34
81 79 36
84 82 37
87 84 38
86 84 38
99 97 44
83 82 38
78 77 35
82 80 36
81 80 36
80 78 35
91 89 40
90 87 39
87 85 38
81 80 36
84 82 37
89 88 40
99 97 44
92 90 40
99 96 43
91 89 40
98 94 41
90 88 39
99 96 43
91 88 40
89 87 39
103 100 44
97 94 42
99 96 43
101 97 43
94 91 40
102 98 43
93 91 40
96 93 41
104 100 44
102 98 42
99 96 43
92 88 39
91 88 39
96 92 40
95 92 40
105 101 45
111 105 45
101 97 42
96 92 40
103 98 41
103 98 43
91 88 39
101 98 43
105 99 43
105 100 44
102 96 41
97 93 40
109 104 44
101 98 42
108 105 46
106 102 44
97 93 40
103 98 43
100 97 41
104 99 43
107 102 44
109 104 44
93 88 37
98 94 39
97 93 39
97 90 38
99 95 39
108 102 42
101 96 39
102 96 39
100 95 40
91 88 37
97 94 40
88 85 34
102 98 41
97 92 39
101 96 39
98 92 37
95 91 36
94 89 37
88 83 35
97 91 36
91 86 36
92 88 34
98 92 38
94 90 37
97 93 40
89 85 35
100 95 39
88 83 33
99 94 39
89 84 35
98 93 38
96 92 35
90 85 34
87 82 33
96 90 34
95 90 34
86 83 34
94 88 34
94 89 35
77 73 29
88 83 33
93 88 35
79 75 29
95 90 36
92 87 33
91 87 34
98 92 36
95 89 35
75 70 27
88 83 32
98 92 36
89 83 32
80 76 29
128 158 204
126 157 204
126 157 204
127 158 204
124 156 204
127 158 204
125 157 204
124 156 204
123 156 204
124 156 204
122 155 204
122 155 204
123 156 204
122 155 204
122 155 204
121 154 204
122 155 204
122 155 204
122 155 204
121 154 204
120 154 204
120 154 204
120 154 204
119 153 204
119 153 204
119 153 204
117 152 204
118 152 204
118 153 204
117 152 204
117 152 204
117 152 204
117 152 204
116 152 204
116 151 204
117 152 204
115 151 204
115 150 204
115 151 204
115 151 204
114 150 204
115 151 204
113 150 204
114 150 204
114 150 204
113 149 204
113 150 204
113 150 204
112 149 204
111 148 204
111 149 204
112 149 204
112 149 204
112 149 204
111 148 204
111 148 204
111 148 204
110 147 204
110 148 204
110 147 204
109 147 204
109 147 204
109 147 204
108 147 204
108 147 204
108 147 204
108 147 204
108 147 204
107 146 204
108 146 204
107 146 204
106 146 204
107 146 204
106 145 204
106 146 204
106 145 204
106 145 204
106 145 204
105 145 204
105 145 204
105 145 204
105 145 204
105 145 204
105 145 204
105 144 204
105 145 204
105 145 204
105 144 204
104 144 204
104 144 204
104 144 204
104 144 204
104 144 204
104 144 204
105 144 204
104 144 204
105 144 204
105 144 204
105 145 204
105 145 204
105 145 204
105 145 204
105 145 204
105 145 204
105 145 204
105 145 204
106 145 204
107 146 204
107 146 204
107 146 204
107 146 204
108 146 204
109 147 204
108 147 204
109 147 204
111 148 204
111 148 204
113 150 204
112 149 204
115 151 204
116 152 204
115 149 200
115 147 196
103 130 172
94 118 153
124 150 190
169 202 251
172 206 255
172 206 255
172 206 255
172 205 255
172 205 255
172 205 255
172 205 255
172 205 255
172 205 255
172 205 255
172 205 255
172 205 255
172 205 255
171 205 255
171 205 255
171 205 255
171 205 255
171 205 255
171 205 255
171 205 255
171 205 255
171 205 255
171 205 255
171 205 255
171 205 255
171 205 255
171 205 255
171 205 255
171 205 255
170 204 255
170 204 255
170 204 255
170 204 255
170 204 255
170 204 255
170 204 255
170 204 255
170 204 255
170 204 255
170 204 255
170 204 255
170 204 255
150 182 237
41 66 137
15 37 111
15 38 117
15 37 120
15 38 120
15 37 110
15 38 121
15 38 114
15 37 112
15 38 107
14 37 112
14 37 104
15 37 107
15 38 116
14 37 104
15 37 109
15 38 111
15 38 117
14 37 113
15 38 113
15 37 105
15 38 112
15 38 117
15 38 112
14 37 107
15 38 115
15 38 107
15 38 113
15 38 110
15 38 115
15 38 108
15 38 107
15 38 112
15 37 103
15 38 116
15 38 107
15 38 112
15 38 111
15 38 115
15 38 107
14 36 97
14 37 98
15 38 108
15 38 116
15 38 110
15 37 107
14 37 111
14 37 108
15 38 112
15 37 105
14 37 101
15 37 104
15 38 118
15 37 102
15 37 112
15 37 114
14 36 106
15 38 117
15 37 113
48 73 147
148 181 234
170 204 255
170 204 255
170 204 255
170 204 255
170 204 255
170 204 255
170 204 255
170 204 255
170 204 255
170 204 255
170 204 255
170 204 255
170 204 255
171 205 255
171 205 255
171 205 255
171 205 255
171 205 255
171 205 255
171 205 255
171 205 255
171 205 255
171 205 255
171 205 255
171 205 255
171 205 255
171 205 255
171 205 255
171 205 255
172 205 255
172 205 255
172 205 255
172 205 255
172 205 255
172 205 255
172 205 255
172 205 255
172 205 255
172 205 255
172 206 255
172 206 255
172 206 255
170 203 251
111 122 116
76 73 31
63 61 27
74 71 31
71 68 30
68 66 30
79 77 35
77 76 34
79 77 35
77 75 34
73 72 33
76 74 33
94 92 41
80 79 36
89 87 39
81 80 36
80 79 36
89 87 39
77 76 35
96 94 42
84 84 38
79 79 36
79 77 34
95 93 42
95 92 41
92 89 40
94 92 42
97 95 43
93 91 41
90 88 40
91 89 40
94 92 41
102 99 44
94 92 41
98 96 43
100 98 44
104 100 44
96 93 41
87 85 38
93 90 40
96 94 42
99 95 42
100 97 43
97 95 43
101 96 42
90 87 38
104 99 44
106 102 44
108 104 46
104 101 45
105 99 43
98 94 41
104 100 44
109 105 46
103 98 41
100 96 43
104 100 44
96 92 40
107 102 44
105 101 44
105 99 43
99 95 41
106 101 45
97 93 41
100 94 40
107 102 43
105 100 43
94 89 37
102 98 41
93 89 37
107 101 42
110 106 45
105 99 41
108 103 44
104 100 43
103 98 41
100 96 40
94 90 38
93 88 38
99 94 39
95 91 37
98 93 40
99 95 40
89 85 35
101 96 40
98 93 38
104 99 43
103 98 40
100 95 40
104 98 40
102 96 39
95 90 38
105 98 40
106 100 41
86 83 34
92 88 36
99 93 37
87 82 34
99 94 37
98 93 37
98 92 35
94 89 35
100 95 37
93 88 33
97 91 37
101 96 40
97 92 37
94 89 36
88 83 33
88 82 32
89 84 32
93 88 36
95 89 33
94 89 35
90 85 33
85 81 32
81 76 30
97 90 34
92 86 34
90 85 32
92 87 34
92 86 34
86 81 30
79 76 31
81 76 29
77 72 27
127 158 204
128 158 204
128 159 204
125 156 204
126 157 204
125 157 204
124 156 204
124 156 204
124 156 204
123 155 204
125 157 204
124 156 204
124 156 204
124 156 204
123 156 204
122 155 204
123 155 204
123 155 204
121 155 204
121 154 204
121 154 204
120 154 204
121 154 204
120 154 204
119 153 204
119 153 204
119 153 204
118 152 204
118 152 204
117 152 204
118 152 204
117 152 204
117 152 204
116 151 204
116 152 204
116 151 204
115 151 204
116 151 204
115 151 204
115 151 204
115 151 204
115 150 204
114 150 204
114 150 204
115 151 204
114 150 204
113 150 204
113 150 204
113 150 204
113 149 204
113 149 204
112 149 204
112 149 204
111 148 204
111 148 204
111 148 204
111 148 204
110 148 204
109 147 204
110 148 204
110 148 204
109 147 204
110 148 204
109 147 204
108 147 204
108 147 204
109 147 204
109 147 204
108 146 204
108 146 204
108 146 204
107 146 204
108 146 204
107 146 204
107 146 204
106 146 204
106 146 204
106 145 204
106 145 204
106 145 204
106 145 204
106 146 204
106 145 204
106 145 204
105 145 204
105 145 204
105 145 204
105 145 204
105 145 204
105 145 204
104 144 204
105 145 204
105 145 204
105 145 204
105 144 204
104 144 204
105 144 204
104 144 204
105 145 204
105 145 204
105 145 204
105 145 204
105 145 204
106 145 204
106 145 204
106 145 204
105 145 204
107 146 204
106 145 204
107 146 204
107 146 204
107 146 204
108 147 204
109 147 204
109 147 204
110 148 204
111 148 204
111 149 204
113 149 204
113 150 204
115 151 204
117 152 204
119 153 204
116 149 198
115 147 194
92 115 151
107 131 167
155 185 231
173 206 255
173 206 255
173 206 255
172 206 255
172 206 255
172 206 255
172 206 255
172 206 255
172 205 255
172 205 255
172 205 255
172 205 255
172 205 255
172 205 255
172 205 255
172 205 255
172 205 255
172 205 255
171 205 255
171 205 255
171 205 255
171 205 255
171 205 255
171 205 255
171 205 255
171 205 255
171 205 255
171 205 255
171 205 255
171 205 255
171 205 255
171 205 255
171 205 255
171 205 255
171 205 255
171 205 255
171 205 255
170 204 255
170 204 255
170 204 255
125 156 218
22 45 122
15 38 118
15 37 114
14 36 110
14 37 113
15 38 115
14 37 111
15 38 118
15 38 114
14 37 105
15 38 110
14 37 108
15 38 112
15 38 113
15 38 111
15 38 115
15 38 107
14 37 112
15 38 108
15 38 110
15 38 104
16 39 120
14 37 102
15 37 106
15 38 106
15 38 103
15 37 107
15 38 108
15 37 108
15 38 107
15 38 110
15 38 109
15 38 110
15 38 111
15 38 113
14 37 103
15 38 108
15 38 115
15 37 106
15 38 112
14 37 106
14 36 103
15 38 111
15 38 113
15 38 110
15 38 108
15 37 106
15 38 113
15 37 105
14 37 111
15 38 114
15 37 109
15 37 110
14 37 110
15 37 109
14 36 104
14 37 109
14 37 112
14 37 109
14 36 104
14 35 99
17 40 116
117 147 203
170 204 255
170 204 255
170 204 255
171 205 255
171 205 255
171 205 255
171 205 255
171 205 255
171 205 255
171 205 255
171 205 255
171 205 255
171 205 255
171 205 255
171 205 255
171 205 255
171 205 255
171 205 255
171 205 255
171 205 255
171 205 255
171 205 255
172 205 255
172 205 255
172 205 255
172 205 255
172 205 255
172 205 255
172 205 255
172 205 255
172 205 255
172 205 255
172 206 255
172 206 255
172 206 255
172 206 255
172 206 255
173 206 255
173 206 255
173 206 255
163 193 235
80 82 58
62 60 25
80 76 33
67 65 29
74 71 32
78 77 35
69 68 31
81 79 36
81 79 36
77 74 33
79 78 35
71 70 32
79 78 36
87 86 39
82 82 38
85 83 38
80 78 35
95 94 43
89 86 39
92 90 40
94 91 41
81 79 36
82 80 35
88 87 39
87 85 39
95 92 41
94 92 41
95 92 41
95 92 41
93 91 41
97 94 41
105 102 46
95 93 42
104 100 44
98 96 43
90 88 40
94 92 41
98 95 42
103 99 44
98 95 42
101 97 43
97 93 41
98 95 41
103 99 44
100 96 42
101 97 42
100 96 42
104 99 44
98 94 41
105 101 44
97 94 41
102 99 44
100 96 42
108 104 45
105 99 43
104 100 44
98 95 41
107 103 44
105 100 44
105 99 42
107 102 43
104 99 41
104 100 43
107 102 44
109 105 45
101 96 39
99 95 40
106 101 41
110 105 45
99 94 40
98 94 40
111 106 45
94 89 37
98 93 38
106 100 43
104 100 41
102 97 38
107 103 45
104 99 41
102 97 40
107 101 41
94 89 38
101 98 40
110 102 41
95 91 38
100 97 41
100 94 39
96 92 39
94 89 34
106 100 41
94 89 36
102 96 39
96 91 37
98 92 36
94 89 35
101 95 38
98 93 39
96 91 38
103 97 39
95 89 35
101 94 37
91 87 35
88 83 35
91 88 37
86 81 32
91 85 32
98 93 36
95 90 34
94 89 35
86 80 31
96 90 35
93 87 33
98 93 36
94 88 35
95 89 36
83 78 30
92 86 32
92 87 35
103 96 37
98 92 36
97 91 35
93 87 33
102 96 37
90 85 33
92 86 33
82 78 30
89 85 33
128 158 204
126 157 204
126 157 204
127 158 204
126 157 204
126 157 204
125 157 204
125 157 204
124 156 204
124 156 204
125 157 204
123 156 204
125 157 204
123 156 204
124 156 204
122 155 204
122 155 204
121 155 204
122 155 204
121 154 204
122 155 204
122 155 204
120 154 204
120 154 204
121 154 204
120 154 204
119 153 204
118 153 204
118 153 204
118 152 204
117 152 204
119 153 204
117 152 204
117 152 204
118 153 204
117 152 204
118 152 204
116 151 204
116 151 204
115 151 204
116 151 204
115 151 204
117 152 204
115 151 204
114 150 204
114 150 204
113 149 204
114 150 204
113 150 204
114 150 204
113 150 204
113 150 204
113 150 204
112 149 204
112 149 204
111 148 204
111 149 204
111 148 204
111 148 204
110 148 204
110 148 204
110 148 204
110 148 204
109 147 204
109 147 204
109 147 204
109 147 204
108 147 204
108 147 204
109 147 204
109 147 204
108 146 204
108 146 204
108 147 204
108 146 204
107 146 204
108 146 204
107 146 204
107 146 204
106 145 204
107 146 204
106 145 204
106 145 204
106 145 204
106 145 204
106 145 204
106 145 204
105 145 204
106 145 204
105 145 204
105 145 204
105 145 204
105 144 204
105 145 204
105 145 204
105 145 204
105 145 204
105 145 204
105 145 204
105 145 204
105 145 204
106 145 204
106 145 204
105 145 204
106 145 204
106 145 204
106 145 204
107 146 204
107 146 204
107 146 204
107 146 204
108 146 204
108 146 204
108 147 204
108 147 204
110 147 204
110 148 204
110 148 204
112 149 204
113 150 204
113 150 204
115 151 204
116 151 204
118 153 204
118 151 200
109 139 184
100 125 163
90 112 145
150 180 224
173 206 255
173 206 255
173 206 255
173 206 255
173 206 255
173 206 255
173 206 255
173 206 255
172 206 255
172 206 255
172 206 255
172 206 255
172 206 255
172 206 255
172 205 255
172 205 255
172 205 255
172 205 255
172 205 255
172 205 255
172 205 255
172 205 255
172 205 255
172 205 255
172 205 255
171 205 255
171 205 255
171 205 255
171 205 255
171 205 255
171 205 255
171 205 255
171 205 255
171 205 255
171 205 255
171 205 255
171 205 255
169 203 254
91 119 183
16 39 119
14 36 114
15 38 119
14 37 115
15 37 110
15 38 114
14 37 107
15 37 111
15 37 111
15 38 115
14 36 102
15 37 111
15 38 110
14 37 112
15 38 112
14 37 98
15 38 107
15 37 104
15 38 106
15 38 109
15 38 108
14 37 107
15 38 108
14 37 112
15 38 111
15 38 108
14 37 106
15 37 107
15 38 113
15 38 107
14 37 101
15 38 113
15 38 110
15 38 111
15 37 105
14 37 93
15 37 102
15 38 104
15 37 111
15 38 117
14 37 96
15 37 104
15 38 110
15 37 111
15 37 101
14 37 111
14 37 96
14 37 103
15 38 113
15 37 110
15 38 109
15 37 111
15 37 105
15 37 106
15 37 113
14 36 105
15 37 112
14 35 102
14 36 105
15 37 112
15 38 116
14 37 112
14 36 107
14 36 104
66 92 163
169 203 254
171 205 255
171 205 255
171 205 255
171 205 255
171 205 255
171 205 255
171 205 255
171 205 255
171 205 255
171 205 255
171 205 255
171 205 255
172 205 255
172 205 255
172 205 255
172 205 255
172 205 255
172 205 255
172 205 255
172 205 255
172 205 255
172 205 255
172 205 255
172 206 255
172 206 255
172 206 255
172 206 255
172 206 255
172 206 255
173 206 255
173 206 255
173 206 255
173 206 255
173 206 255
173 206 255
173 206 255
173 206 255
145 167 190
61 61 37
72 70 31
72 70 31
71 69 31
76 74 32
84 81 35
69 68 31
79 78 35
76 76 35
81 80 37
77 76 35
84 83 38
86 85 38
85 83 37
82 80 36
85 84 39
91 89 40
100 97 44
96 94 42
85 83 37
89 87 39
91 90 41
91 89 40
94 91 41
90 88 39
89 88 39
99 97 44
94 91 41
87 85 38
100 98 45
97 94 42
98 95 43
95 93 41
100 97 43
94 91 41
101 98 43
109 103 45
101 98 44
98 95 42
94 92 40
107 101 44
103 99 44
98 95 42
102 97 43
97 93 40
97 93 41
111 105 45
105 99 43
106 101 45
103 100 43
103 99 43
102 96 41
113 107 46
108 104 45
106 103 45
108 104 45
104 98 40
108 103 44
99 95 41
105 101 43
108 104 43
103 98 42
100 95 41
111 105 45
99 95 40
106 101 43
102 98 42
114 108 45
107 102 43
100 95 39
105 100 41
109 104 45
109 103 45
108 103 44
102 97 41
101 96 38
112 106 45
108 102 43
108 103 42
100 95 39
108 102 45
104 98 41
101 97 41
107 100 40
96 92 37
99 94 39
104 98 39
98 93 39
106 100 41
97 92 37
101 96 39
96 91 36
103 97 38
96 92 37
107 102 42
95 90 37
100 93 36
94 89 37
97 92 37
95 89 36
95 90 36
95 90 35
89 84 34
93 88 33
88 84 33
90 85 34
100 94 38
95 89 35
99 92 36
94 89 34
89 84 32
106 100 40
94 89 35
94 89 35
90 85 33
84 78 31
86 80 31
102 96 37
100 93 35
87 82 28
97 91 33
94 89 33
85 81 30
80 75 28
95 90 32
87 82 34
88 82 32
95 88 33
130 160 204
127 158 204
128 158 204
126 157 204
126 158 204
126 157 204
124 156 204
125 157 204
125 157 204
125 157 204
125 157 204
124 156 204
123 156 204
123 156 204
123 156 204
123 155 204
122 155 204
124 156 204
122 155 204
121 154 204
122 155 204
123 155 204
121 155 204
122 155 204
120 154 204
119 153 204
119 153 204
119 153 204
120 153 204
119 153 204
119 153 204
120 154 204
117 152 204
119 153 204
118 152 204
116 151 204
119 153 204
117 152 204
116 152 204
116 151 204
116 151 204
116 151 204
115 151 204
116 151 204
115 150 204
115 151 204
115 150 204
115 150 204
114 150 204
113 150 204
114 150 204
113 149 204
112 149 204
112 149 204
113 149 204
112 149 204
112 149 204
112 149 204
112 149 204
111 148 204
111 148 204
111 148 204
110 148 204
110 148 204
110 148 204
110 148 204
110 148 204
109 147 204
110 148 204
109 147 204
110 147 204
109 147 204
108 147 204
109 147 204
108 147 204
108 147 204
107 146 204
107 146 204
108 146 204
107 146 204
107 146 204
107 146 204
107 146 204
107 146 204
106 146 204
107 146 204
106 145 204
106 145 204
106 145 204
106 145 204
106 146 204
106 145 204
106 145 204
106 145 204
106 145 204
105 145 204
106 146 204
105 145 204
105 145 204
105 145 204
105 145 204
106 145 204
106 145 204
106 145 204
106 145 204
106 145 204
107 146 204
107 146 204
107 146 204
106 146 204
108 146 204
107 146 204
107 146 204
108 147 204
109 147 204
109 147 204
109 147 204
111 149 204
112 149 204
111 149 204
113 150 204
114 150 204
115 151 204
117 152 204
118 153 204
119 152 202
117 150 198
101 128 167
108 135 175
136 163 204
173 206 255
173 206 255
173 206 255
173 206 255
173 206 255
173 206 255
173 206 255
173 206 255
173 206 255
173 206 255
173 206 255
173 206 255
173 206 255
173 206 255
173 206 255
172 206 255
172 206 255
172 206 255
172 206 255
172 206 255
172 205 255
172 205 255
172 205 255
172 205 255
172 205 255
172 205 255
172 205 255
172 205 255
172 205 255
172 205 255
172 205 255
172 205 255
172 205 255
171 205 255
171 205 255
159 192 245
60 86 159
14 37 116
15 38 116
14 36 109
14 37 116
15 38 112
14 37 106
14 36 103
14 36 95
14 38 115
14 36 96
15 37 114
14 36 101
15 38 111
15 37 110
14 37 110
15 37 106
15 38 110
14 37 104
14 37 104
15 38 109
15 38 110
15 38 111
15 37 100
15 37 103
14 37 102
15 38 101
15 37 108
14 37 103
14 37 106
15 37 91
15 37 104
15 38 108
15 37 103
15 37 99
15 37 107
15 38 107
14 37 97
14 36 102
15 38 115
15 38 106
14 37 102
15 38 106
15 37 104
15 37 106
15 38 110
15 38 106
15 38 115
15 38 109
15 37 110
15 38 111
14 37 110
14 37 103
15 38 113
14 36 99
15 38 105
15 37 111
14 37 105
14 37 107
14 36 108
15 37 111
14 36 103
14 37 107
14 36 110
14 36 103
13 34 98
14 35 105
67 93 158
167 200 251
171 205 255
171 205 255
171 205 255
172 205 255
172 205 255
172 205 255
172 205 255
172 205 255
172 205 255
172 205 255
172 205 255
172 205 255
172 205 255
172 205 255
172 205 255
172 206 255
172 206 255
172 206 255
172 206 255
172 206 255
172 206 255
173 206 255
173 206 255
173 206 255
173 206 255
173 206 255
173 206 255
173 206 255
173 206 255
173 206 255
173 206 255
173 206 255
173 206 255
173 206 255
173 206 255
142 163 187
71 70 35
63 59 25
82 79 34
64 62 28
76 75 34
60 60 28
83 80 36
76 74 34
84 82 37
81 80 37
75 74 34
85 83 38
72 71 33
84 82 37
83 81 36
85 83 37
82 80 36
85 84 38
79 78 36
85 83 37
95 93 42
88 86 39
93 92 42
87 86 39
90 87 39
81 80 36
93 91 40
99 96 42
101 98 44
102 98 43
100 98 44
95 92 41
96 93 41
99 97 43
100 97 43
97 93 41
102 99 44
98 95 41
103 100 45
102 99 43
102 98 43
101 97 43
105 101 44
108 104 46
101 98 43
104 100 42
104 100 44
97 92 40
108 104 46
110 104 46
103 98 43
111 105 45
101 96 40
108 104 45
104 99 43
103 100 44
99 95 40
106 101 44
112 108 46
111 106 46
105 100 44
103 99 43
105 100 43
104 100 43
108 104 46
96 92 38
112 106 45
99 95 40
99 94 39
109 104 43
103 98 42
100 95 40
106 101 42
112 106 45
102 97 41
109 104 44
105 99 41
109 103 43
110 104 44
97 93 38
110 103 41
96 91 38
99 94 39
107 101 43
102 95 38
111 105 44
109 104 45
97 92 37
105 99 40
110 104 43
101 96 40
101 95 35
92 89 37
103 97 39
103 98 40
93 88 37
105 99 40
97 91 38
93 88 36
96 93 39
108 101 40
99 94 38
97 92 36
98 93 37
93 88 35
96 91 34
99 93 35
86 81 33
93 88 36
91 85 33
97 91 34
104 99 38
89 84 35
96 90 35
98 92 34
102 96 37
92 86 33
92 86 33
100 94 37
100 95 36
96 89 34
89 85 31
89 84 31
86 82 30
96 90 35
92 85 33
91 85 29
86 80 31
81 77 28
128 158 204
129 159 204
127 158 204
126 157 204
127 158 204
126 157 204
127 158 204
125 157 204
125 157 204
125 157 204
125 157 204
124 156 204
125 157 204
123 156 204
124 156 204
122 155 204
124 156 204
123 155 204
122 155 204
121 154 204
121 155 204
121 154 204
121 155 204
123 155 204
120 154 204
121 155 204
120 154 204
120 154 204
120 154 204
120 154 204
119 153 204
119 153 204
120 154 204
118 152 204
119 153 204
118 152 204
118 153 204
117 152 204
117 152 204
117 152 204
117 152 204
116 151 204
116 151 204
116 151 204
115 151 204
116 151 204
115 151 204
114 150 204
115 151 204
115 151 204
114 150 204
114 150 204
114 150 204
115 150 204
113 150 204
113 150 204
112 149 204
113 149 204
112 149 204
112 149 204
112 149 204
111 148 204
111 148 204
111 148 204
112 149 204
110 148 204
110 148 204
111 148 204
109 147 204
110 148 204
110 148 204
110 148 204
109 147 204
109 147 204
108 147 204
108 147 204
108 147 204
108 146 204
108 147 204
108 146 204
108 146 204
107 146 204
107 146 204
108 146 204
107 146 204
107 146 204
107 146 204
108 146 204
107 146 204
106 145 204
107 146 204
106 145 204
106 145 204
106 146 204
106 146 204
106 145 204
106 145 204
106 145 204
106 145 204
107 146 204
106 146 204
106 145 204
107 146 204
106 146 204
107 146 204
107 146 204
107 146 204
106 146 204
107 146 204
107 146 204
108 146 204
107 146 204
107 146 204
108 147 204
109 147 204
109 147 204
110 148 204
110 148 204
112 149 204
112 149 204
112 149 204
114 150 204
114 150 204
115 150 204
117 152 204
118 153 204
120 154 204
119 151 198
105 132 174
88 110 143
132 158 198
174 206 255
174 206 255
174 206 255
174 206 255
173 206 255
173 206 255
173 206 255
173 206 255
173 206 255
173 206 255
173 206 255
173 206 255
173 206 255
173 206 255
173 206 255
173 206 255
173 206 255
173 206 255
173 206 255
173 206 255
173 206 255
172 206 255
172 206 255
172 206 255
172 206 255
172 206 255
172 206 255
172 205 255
172 205 255
172 205 255
172 205 255
172 205 255
172 205 255
158 190 243
53 78 148
14 37 114
15 37 114
14 36 111
14 37 112
14 37 108
15 38 111
14 37 109
15 37 106
15 38 109
14 37 112
15 37 108
15 37 101
15 38 116
15 38 113
15 39 116
15 37 105
14 37 102
14 37 104
14 36 105
15 37 101
15 37 100
15 38 110
15 37 103
15 37 108
15 38 116
15 38 110
14 37 104
15 37 103
15 38 107
15 39 110
15 38 106
15 37 104
14 37 102
15 38 109
15 37 103
15 37 103
14 37 100
15 37 102
14 37 110
14 37 104
15 37 110
15 38 108
15 38 106
15 38 112
15 38 108
15 38 107
15 37 105
14 37 102
14 36 106
14 37 101
14 37 110
14 37 102
15 38 110
15 38 114
14 36 108
14 37 104
14 37 108
15 38 110
14 36 103
15 37 110
14 36 100
14 37 103
14 36 98
14 36 104
14 36 99
14 36 103
14 34 99
14 36 113
55 80 146
159 192 243
172 205 255
172 205 255
172 205 255
172 205 255
172 205 255
172 205 255
172 206 255
172 206 255
172 206 255
172 206 255
172 206 255
172 206 255
173 206 255
173 206 255
173 206 255
173 206 255
173 206 255
173 206 255
173 206 255
173 206 255
173 206 255
173 206 255
173 206 255
173 206 255
173 206 255
173 206 255
173 206 255
173 206 255
174 206 255
174 206 255
174 206 255
174 206 255
174 206 255
119 132 135
59 57 26
65 63 28
64 62 28
68 67 30
77 76 35
60 60 27
74 73 33
80 78 35
81 80 36
76 74 33
84 82 37
85 83 38
78 77 36
81 80 36
74 74 35
83 82 37
77 77 35
77 76 35
84 83 38
90 88 40
90 88 40
89 88 40
88 86 39
84 82 37
92 90 40
91 89 40
104 100 44
95 92 41
97 95 43
102 99 44
95 91 40
98 95 42
100 96 43
98 94 42
100 97 43
98 95 41
97 94 40
102 98 43
99 95 42
109 103 45
101 97 43
102 98 43
109 104 45
100 95 39
102 98 43
112 107 47
100 96 41
103 99 43
105 101 44
100 95 42
106 103 45
100 96 41
105 99 41
106 103 45
112 107 45
100 95 41
105 100 43
109 104 45
107 101 42
114 108 46
112 107 44
107 102 43
107 102 44
105 100 40
101 95 39
108 102 43
101 96 38
109 103 43
109 102 42
108 102 43
102 97 39
94 89 37
106 100 42
101 95 40
96 92 38
104 99 40
110 104 43
109 103 43
106 101 41
106 100 43
106 100 42
106 100 40
104 99 39
112 105 43
107 100 40
99 95 38
94 90 36
108 101 41
97 91 38
97 92 36
101 96 39
101 97 39
109 103 42
103 96 39
106 100 41
101 95 39
102 98 39
96 91 39
97 91 36
106 99 38
97 93 37
100 94 37
92 87 34
92 87 33
90 87 34
96 92 37
101 94 37
93 89 34
102 96 38
112 104 41
98 92 36
99 94 38
94 89 34
95 89 34
83 79 33
91 85 33
95 88 35
100 94 38
90 84 31
100 94 35
90 85 30
98 92 35
95 89 35
99 93 34
85 79 30
97 91 37
92 86 32
90 85 34
96 89 34
82 77 29
127 158 204
127 158 204
128 159 204
127 158 204
128 158 204
127 158 204
126 157 204
127 158 204
126 157 204
127 158 204
126 157 204
125 157 204
125 157 204
125 157 204
123 156 204
125 156 204
124 156 204
123 156 204
123 156 204
123 155 204
123 155 204
122 155 204
122 155 204
122 155 204
122 155 204
122 155 204
121 154 204
121 154 204
119 153 204
121 155 204
118 153 204
119 153 204
119 153 204
119 153 204
119 153 204
119 153 204
118 153 204
119 153 204
117 152 204
118 153 204
117 152 204
116 151 204
117 152 204
116 152 204
116 151 204
116 151 204
116 151 204
115 151 204
116 152 204
114 150 204
115 150 204
115 150 204
114 150 204
113 149 204
113 150 204
114 150 204
113 150 204
114 150 204
113 150 204
113 149 204
113 150 204
112 149 204
112 149 204
112 149 204
111 148 204
112 149 204
110 148 204
111 148 204
111 148 204
110 148 204
110 148 204
110 148 204
110 148 204
109 147 204
109 147 204
109 147 204
109 147 204
109 147 204
109 147 204
108 147 204
109 147 204
109 147 204
108 147 204
108 147 204
108 147 204
108 146 204
108 147 204
107 146 204
107 146 204
107 146 204
107 146 204
107 146 204
107 146 204
108 146 204
107 146 204
107 146 204
107 146 204
107 146 204
106 146 204
107 146 204
106 145 204
107 146 204
107 146 204
107 146 204
107 146 204
107 146 204
107 146 204
107 146 204
108 146 204
108 147 204
108 146 204
108 146 204
108 146 204
108 147 204
110 147 204
109 147 204
110 148 204
110 148 204
111 148 204
112 149 204
112 149 204
113 149 204
114 150 204
114 150 204
116 151 204
117 152 204
119 153 204
120 153 202
115 146 192
108 138 182
94 117 151
135 162 203
174 207 255
174 207 255
174 207 255
174 207 255
174 207 255
174 206 255
174 206 255
174 206 255
174 206 255
174 206 255
173 206 255
173 206 255
173 206 255
173 206 255
173 206 255
173 206 255
173 206 255
173 206 255
173 206 255
173 206 255
173 206 255
173 206 255
173 206 255
173 206 255
173 206 255
173 206 255
173 206 255
173 206 255
173 206 255
172 206 255
172 206 255
147 178 232
40 64 132
14 37 114
14 37 112
15 37 115
15 37 102
15 37 108
14 36 103
14 36 108
15 37 107
15 37 109
15 37 109
15 37 107
14 37 108
14 36 99
15 37 111
15 37 104
14 37 103
15 38 109
15 38 106
15 38 107
15 38 106
15 37 103
15 37 104
15 37 104
14 37 99
15 37 103
15 38 102
14 37 98
14 37 108
15 38 112
15 37 99
15 37 104
15 38 108
15 37 94
15 38 107
14 37 94
14 37 100
14 37 98
15 37 102
14 37 103
15 38 115
15 38 111
15 37 101
15 38 106
15 37 110
15 37 104
14 36 96
15 37 100
14 37 106
15 37 106
15 37 100
15 37 106
15 37 109
15 38 106
14 37 99
14 36 101
15 38 109
14 36 106
14 36 98
15 37 106
14 36 104
15 37 96
15 37 107
14 36 94
15 37 106
14 37 105
14 35 98
14 35 98
14 36 105
14 35 100
14 36 110
37 60 124
168 200 251
172 206 255
172 206 255
173 206 255
173 206 255
173 206 255
173 206 255
173 206 255
173 206 255
173 206 255
173 206 255
173 206 255
173 206 255
173 206 255
173 206 255
173 206 255
173 206 255
173 206 255
173 206 255
173 206 255
173 206 255
174 206 255
174 206 255
174 206 255
174 206 255
174 206 255
174 206 255
174 207 255
174 207 255
174 207 255
174 207 255
174 207 255
98 107 102
50 49 22
61 59 26
81 78 34
74 72 32
63 62 28
68 68 31
74 73 33
80 78 35
78 77 35
64 64 30
72 70 32
82 81 36
80 79 36
84 83 38
83 82 38
79 77 35
78 78 36
90 88 40
85 84 38
84 82 37
85 83 38
90 89 40
93 91 41
88 87 40
98 95 43
93 90 39
96 94 42
98 96 43
93 91 41
99 96 42
85 83 37
102 99 44
100 96 42
96 93 41
97 95 42
106 102 45
103 100 44
95 90 39
109 105 46
96 93 41
106 102 44
107 103 45
106 101 44
101 99 43
107 102 44
112 106 45
105 100 43
96 93 41
111 105 45
108 102 44
101 96 41
108 102 43
106 102 44
106 101 44
102 98 41
105 99 43
117 110 46
112 106 45
104 99 42
116 110 48
112 106 45
112 106 45
109 104 42
110 105 44
109 103 43
110 105 44
97 92 38
115 109 46
106 100 42
110 102 41
107 101 43
99 94 39
105 100 43
103 98 41
111 105 43
100 95 41
101 96 40
105 100 41
109 103 43
110 104 44
101 96 39
111 105 43
104 99 40
97 91 37
108 102 41
101 97 40
100 95 40
102 97 38
94 89 35
104 99 40
102 97 38
100 95 36
99 95 37
101 96 38
108 102 40
104 99 39
103 99 40
101 96 37
104 99 41
96 91 35
103 96 39
100 94 38
99 93 37
99 93 35
104 98 40
102 96 37
92 87 35
106 100 38
99 93 37
98 93 35
87 80 32
99 93 37
102 96 35
101 94 38
99 93 37
91 85 35
97 90 35
105 97 37
87 82 29
91 85 33
88 82 31
90 85 33
100 93 34
92 87 31
91 86 34
91 87 33
87 83 32
91 85 33
89 84 31
90 84 32
94 89 34
130 160 204
130 159 204
129 159 204
128 159 204
127 158 204
126 158 204
127 158 204
127 158 204
127 158 204
128 158 204
126 157 204
126 157 204
125 157 204
126 157 204
125 157 204
125 157 204
125 157 204
124 156 204
124 156 204
125 157 204
123 155 204
122 155 204
123 156 204
123 156 204
121 154 204
123 155 204
122 155 204
121 154 204
121 154 204
121 154 204
121 154 204
121 155 204
121 154 204
118 153 204
119 153 204
120 153 204
118 153 204
118 152 204
118 152 204
117 152 204
117 152 204
118 152 204
117 152 204
118 152 204
116 151 204
116 151 204
116 151 204
116 151 204
117 152 204
117 152 204
115 150 204
115 151 204
115 151 204
114 150 204
114 150 204
114 150 204
114 150 204
114 150 204
113 149 204
114 150 204
113 150 204
112 149 204
114 150 204
112 149 204
112 149 204
112 149 204
111 149 204
112 149 204
112 149 204
111 148 204
110 148 204
110 148 204
111 148 204
110 148 204
110 148 204
110 148 204
110 148 204
110 148 204
109 147 204
109 147 204
110 148 204
109 147 204
108 147 204
109 147 204
109 147 204
109 147 204
108 147 204
108 147 204
108 147 204
109 147 204
108 147 204
108 147 204
108 146 204
108 146 204
108 146 204
108 146 204
108 146 204
108 146 204
108 146 204
107 146 204
108 146 204
107 146 204
107 146 204
107 146 204
107 146 204
107 146 204
108 147 204
108 146 204
108 146 204
108 147 204
109 147 204
108 147 204
109 147 204
108 147 204
109 147 204
110 148 204
110 148 204
110 148 204
111 148 204
111 148 204
113 149 204
113 150 204
113 150 204
115 151 204
115 150 204
116 152 204
118 153 204
119 153 204
120 154 204
121 154 202
116 146 190
103 128 165
127 153 193
175 207 255
174 207 255
174 207 255
174 207 255
174 207 255
174 207 255
174 207 255
174 207 255
174 207 255
174 207 255
174 207 255
174 207 255
174 206 255
174 206 255
174 206 255
174 206 255
174 206 255
173 206 255
173 206 255
173 206 255
173 206 255
173 206 255
173 206 255
173 206 255
173 206 255
173 206 255
173 206 255
173 206 255
173 206 255
167 199 250
28 50 115
15 38 112
14 37 112
14 36 105
14 37 112
15 37 105
14 36 105
14 37 109
15 38 115
14 37 102
14 37 104
15 38 108
15 37 105
14 36 95
15 37 104
14 37 105
15 38 107
14 37 99
14 37 110
15 37 106
15 37 108
15 37 109
15 38 104
15 38 111
15 37 103
15 38 115
15 37 104
14 37 100
14 37 98
15 38 104
15 37 99
15 37 97
15 38 104
15 38 110
15 38 102
15 37 106
14 37 104
15 37 106
15 38 102
13 35 93
15 38 102
14 37 97
15 37 101
15 37 104
15 37 104
15 38 104
14 37 106
14 37 103
14 36 93
15 38 102
15 37 104
15 37 100
15 37 103
15 36 99
15 37 103
14 36 98
14 37 96
15 37 100
14 37 101
14 37 95
14 37 103
15 37 104
14 36 106
14 35 97
15 36 104
14 35 96
14 36 105
14 37 110
14 37 112
14 35 97
15 37 107
13 34 98
14 34 103
38 60 128
168 201 251
173 206 255
173 206 255
173 206 255
173 206 255
173 206 255
173 206 255
173 206 255
173 206 255
173 206 255
173 206 255
173 206 255
173 206 255
174 206 255
174 206 255
174 206 255
174 206 255
174 206 255
174 207 255
174 207 255
174 207 255
174 207 255
174 207 255
174 207 255
174 207 255
174 207 255
174 207 255
174 207 255
174 207 255
174 207 255
100 109 102
74 70 30
68 67 30
77 75 33
70 67 30
63 62 29
65 64 30
73 71 32
77 76 35
69 69 32
74 75 36
84 82 38
74 74 35
76 74 34
73 70 31
82 81 36
90 89 41
94 92 41
86 85 39
92 89 40
87 85 39
81 80 37
87 86 39
91 89 41
92 90 41
87 86 39
89 88 40
94 91 41
93 89 40
95 93 42
97 95 43
93 90 39
94 91 41
96 93 41
99 95 41
107 103 46
94 91 41
106 102 44
108 103 45
101 97 43
106 102 45
108 102 44
104 101 45
102 98 43
104 100 43
103 98 43
110 105 45
104 100 43
107 102 43
115 110 46
101 98 42
107 102 44
104 101 44
116 110 48
108 103 44
103 99 43
106 101 43
110 104 44
105 101 43
108 100 41
111 105 45
111 106 44
108 103 44
113 107 46
111 104 43
110 103 44
102 97 40
104 98 41
114 108 44
120 113 47
107 102 41
106 100 42
109 104 41
100 95 39
107 101 42
100 94 38
106 101 39
108 102 43
109 103 43
106 99 41
108 102 41
104 98 40
110 102 43
111 104 41
98 93 39
96 91 37
106 101 41
105 100 41
115 107 43
110 104 41
105 101 40
110 104 43
103 98 38
100 95 38
107 101 43
106 101 40
91 85 32
105 99 41
104 97 39
104 98 40
109 102 40
102 97 38
104 97 39
92 87 33
98 92 37
97 92 37
94 89 35
101 96 39
102 96 38
101 95 38
101 95 38
95 89 35
102 96 37
95 91 37
87 83 31
97 90 34
104 96 36
90 84 33
95 87 35
97 91 33
87 83 32
88 83 32
86 82 32
90 85 30
99 93 36
94 87 35
83 78 31
88 84 32
87 83 31
99 94 38
98 92 33
96 91 34
89 83 30
129 159 204
129 159 204
129 159 204
127 158 204
127 158 204
129 159 204
127 158 204
126 157 204
126 157 204
125 157 204
125 157 204
125 157 204
126 157 204
125 157 204
126 157 204
125 157 204
124 156 204
125 157 204
124 156 204
125 157 204
125 157 204
123 156 204
124 156 204
123 155 204
123 155 204
122 155 204
122 155 204
121 154 204
121 155 204
121 154 204
121 155 204
122 155 204
122 155 204
121 154 204
120 154 204
120 153 204
120 154 204
118 153 204
119 153 204
120 153 204
118 152 204
119 153 204
118 152 204
118 153 204
119 153 204
117 152 204
118 152 204
117 152 204
116 151 204
117 152 204
116 151 204
117 152 204
116 151 204
115 151 204
116 151 204
114 150 204
115 151 204
115 151 204
114 150 204
114 150 204
114 150 204
114 150 204
113 149 204
113 150 204
112 149 204
113 149 204
113 150 204
112 149 204
113 149 204
111 148 204
112 149 204
112 149 204
112 149 204
112 149 204
111 148 204
112 149 204
111 148 204
110 148 204
110 148 204
111 148 204
110 148 204
109 147 204
109 147 204
110 148 204
110 147 204
109 147 204
109 147 204
109 147 204
108 146 204
108 147 204
108 147 204
109 147 204
109 147 204
109 147 204
109 147 204
108 146 204
108 146 204
108 146 204
108 147 204
109 147 204
108 146 204
108 147 204
108 147 204
108 147 204
108 146 204
108 146 204
108 147 204
108 147 204
109 147 204
109 147 204
109 147 204
109 147 204
109 147 204
110 148 204
110 147 204
110 148 204
110 148 204
111 148 204
112 149 204
112 149 204
112 149 204
113 149 204
112 149 204
114 150 204
115 151 204
115 151 204
116 151 204
118 153 204
119 153 204
122 155 204
118 149 196
113 141 184
100 124 161
121 146 183
175 207 255
175 207 255
175 207 255
175 207 255
175 207 255
175 207 255
175 207 255
174 207 255
174 207 255
174 207 255
174 207 255
174 207 255
174 207 255
174 207 255
174 207 255
174 207 255
174 207 255
174 207 255
174 207 255
174 206 255
174 206 255
174 206 255
174 206 255
174 206 255
174 206 255
174 206 255
173 206 255
166 198 249
37 60 132
14 36 110
15 38 120
15 37 111
14 37 109
14 36 105
15 38 111
15 37 107
14 36 100
15 38 113
15 38 112
14 37 108
15 37 102
15 38 111
15 38 108
15 37 107
14 37 101
15 38 105
14 37 101
15 38 107
15 38 108
14 37 98
15 38 112
15 37 105
15 38 108
15 37 101
15 37 96
15 38 103
15 37 100
15 37 101
15 37 102
15 38 111
15 37 105
14 37 99
15 37 106
15 37 106
15 38 104
14 37 98
15 38 106
15 37 101
15 37 103
15 38 106
14 36 97
14 36 97
15 37 107
15 38 107
14 36 97
15 38 112
15 37 100
15 38 109
15 37 102
15 37 101
15 37 108
15 37 101
15 37 99
14 36 98
14 36 100
14 37 103
14 36 97
15 37 109
15 37 100
14 37 100
15 37 108
14 36 100
14 37 108
15 37 107
14 36 102
14 36 102
14 36 98
14 36 104
14 34 88
13 33 89
14 36 100
14 35 97
15 37 114
39 62 128
162 194 246
173 206 255
174 206 255
174 206 255
174 206 255
174 206 255
174 206 255
174 206 255
174 206 255
174 207 255
174 207 255
174 207 255
174 207 255
174 207 255
174 207 255
174 207 255
174 207 255
174 207 255
174 207 255
174 207 255
174 207 255
175 207 255
175 207 255
175 207 255
175 207 255
175 207 255
175 207 255
175 207 255
115 130 139
77 73 32
70 68 30
67 66 29
77 74 32
72 70 32
75 73 33
77 75 34
79 77 35
76 75 34
80 78 36
81 79 35
76 75 35
75 74 34
73 73 34
79 79 36
82 82 38
70 70 32
84 83 38
88 86 38
80 79 36
86 85 39
86 84 38
86 84 38
88 86 39
91 89 40
82 80 36
100 96 42
90 86 38
95 92 41
97 94 42
99 95 42
101 98 43
94 91 40
96 93 42
95 92 40
94 91 40
103 99 43
101 97 42
106 101 44
106 102 43
97 94 42
106 102 45
100 97 42
107 102 45
105 102 44
104 100 44
101 97 41
109 104 45
112 107 47
106 101 42
110 104 44
112 107 45
109 103 45
105 99 41
97 93 39
112 106 45
108 102 44
110 104 43
108 103 45
107 103 44
108 103 43
105 101 43
111 107 47
114 108 45
111 106 46
109 103 43
108 101 43
112 106 45
113 107 45
117 110 45
110 104 44
111 105 45
110 104 43
111 104 43
116 109 45
110 104 43
112 105 41
113 107 43
112 105 45
103 98 40
109 102 40
106 101 42
112 105 43
105 98 41
113 105 41
113 107 43
108 101 39
110 103 42
100 94 36
108 102 42
104 99 38
107 100 42
107 100 39
104 98 38
99 93 35
109 102 41
105 98 39
106 99 40
101 94 36
102 97 39
101 96 39
98 92 36
100 94 37
110 104 40
101 96 39
94 88 34
102 97 36
97 91 32
103 97 37
101 94 36
110 102 38
92 86 32
98 92 33
104 97 37
92 87 32
99 92 33
97 92 37
107 100 39
101 93 33
90 86 34
101 95 37
99 92 36
92 85 33
94 90 33
89 83 33
89 83 29
87 82 30
96 90 34
94 89 35
91 87 33
97 92 33
84 79 28
97 90 31
128 159 204
129 159 204
129 159 204
128 159 204
129 159 204
128 159 204
127 158 204
128 159 204
128 159 204
127 158 204
127 158 204
128 158 204
126 157 204
126 157 204
125 157 204
126 157 204
126 157 204
124 156 204
125 157 204
124 156 204
124 156 204
123 156 204
123 156 204
123 155 204
123 156 204
122 155 204
122 155 204
123 156 204
124 156 204
121 154 204
121 154 204
121 154 204
122 155 204
122 155 204
122 155 204
120 153 204
121 154 204
120 154 204
120 154 204
121 154 204
120 154 204
118 153 204
120 154 204
118 153 204
118 152 204
118 153 204
117 152 204
118 152 204
118 153 204
117 152 204
116 152 204
116 152 204
116 151 204
116 152 204
115 151 204
115 151 204
117 152 204
116 151 204
116 151 204
115 151 204
116 151 204
115 151 204
115 151 204
115 151 204
115 150 204
114 150 204
114 150 204
113 150 204
113 150 204
113 149 204
114 150 204
112 149 204
113 149 204
113 149 204
113 149 204
111 148 204
111 148 204
111 148 204
112 149 204
112 149 204
111 148 204
111 149 204
111 148 204
110 148 204
111 148 204
110 148 204
110 148 204
110 148 204
110 148 204
110 148 204
110 148 204
110 148 204
109 147 204
109 147 204
110 148 204
109 147 204
109 147 204
109 147 204
108 146 204
109 147 204
109 147 204
109 147 204
108 146 204
109 147 204
109 147 204
109 147 204
108 147 204
110 147 204
109 147 204
110 148 204
110 148 204
109 147 204
109 147 204
109 147 204
110 148 204
111 148 204
110 148 204
111 149 204
110 148 204
112 149 204
112 149 204
112 149 204
114 150 204
114 150 204
115 150 204
116 152 204
115 151 204
117 152 204
118 153 204
120 154 204
122 155 204
117 148 194
106 133 174
103 126 161
131 157 197
175 207 255
175 207 255
175 207 255
175 207 255
175 207 255
175 207 255
175 207 255
175 207 255
175 207 255
175 207 255
175 207 255
175 207 255
175 207 255
175 207 255
174 207 255
174 207 255
174 207 255
174 207 255
174 207 255
174 207 255
174 207 255
174 207 255
174 207 255
174 207 255
174 207 255
172 205 254
60 86 160
14 37 115
14 37 112
15 38 118
15 37 109
15 37 109
14 36 103
14 36 97
14 36 103
15 37 101
15 37 104
14 37 103
14 37 96
15 37 109
14 37 102
15 37 105
15 37 106
14 36 94
14 37 103
15 38 105
15 38 109
15 37 97
14 36 91
14 36 95
15 37 104
15 37 102
14 36 97
15 37 103
14 37 99
14 37 99
15 37 102
15 38 104
14 37 94
15 38 106
15 37 103
15 37 107
15 38 99
15 37 99
15 38 105
14 37 104
15 38 102
15 38 102
15 37 106
14 37 97
15 38 107
15 38 111
15 38 103
15 38 107
15 37 100
15 37 106
15 37 102
15 38 103
14 36 93
15 38 102
15 37 106
15 37 99
15 37 108
15 38 108
14 37 101
15 37 105
15 38 105
14 37 101
14 37 108
15 37 109
15 37 101
15 37 107
15 37 107
14 36 100
14 36 101
14 35 97
14 34 92
14 37 104
14 35 92
14 35 99
13 33 93
14 35 102
14 35 95
61 85 146
169 201 249
174 207 255
174 207 255
174 207 255
174 207 255
174 207 255
174 207 255
174 207 255
174 207 255
174 207 255
174 207 255
174 207 255
175 207 255
175 207 255
175 207 255
175 207 255
175 207 255
175 207 255
175 207 255
175 207 255
175 207 255
175 207 255
175 207 255
175 207 255
175 207 255
175 207 255
127 141 145
72 69 30
66 64 29
60 58 26
71 70 32
74 73 34
68 67 31
79 76 34
58 59 27
77 75 34
83 82 37
72 71 33
76 75 35
77 76 35
78 77 35
68 67 31
70 70 32
84 84 39
87 86 40
79 78 36
88 86 38
84 83 38
84 82 37
86 85 38
98 95 42
85 83 37
92 90 41
95 92 41
95 93 42
91 90 41
94 91 41
101 98 44
96 94 42
101 98 43
97 93 42
96 93 41
104 99 43
96 93 41
106 102 44
102 98 43
104 99 42
102 98 44
97 92 39
101 96 42
108 103 43
111 107 46
114 108 46
110 105 44
107 103 45
111 107 46
114 108 46
109 105 45
112 107 46
113 107 44
108 102 42
110 106 44
106 102 43
104 98 42
114 108 47
111 105 44
112 107 44
107 102 41
112 105 43
107 102 41
110 105 43
113 106 45
107 101 43
108 101 41
114 108 43
108 102 40
111 104 41
105 99 39
115 107 43
115 109 45
114 107 44
105 99 40
102 97 39
105 99 40
105 100 41
107 101 41
109 103 43
107 101 40
107 102 41
102 98 39
106 99 39
115 107 44
108 101 38
104 98 37
96 91 35
101 96 38
105 98 38
102 97 38
113 106 41
105 101 40
113 106 41
103 98 39
107 102 40
108 103 42
112 105 41
105 98 36
105 98 40
107 100 38
102 96 38
89 84 33
98 92 35
107 101 39
104 97 36
107 100 38
100 95 38
103 96 40
97 92 36
105 98 39
99 93 34
102 95 36
102 96 37
97 90 35
100 95 36
102 96 36
103 96 35
95 90 33
96 90 33
101 95 36
100 93 37
104 97 35
99 92 34
102 96 36
99 92 34
91 85 30
90 84 31
88 83 29
98 92 33
93 87 34
96 91 34
95 89 35
83 78 28
130 160 204
130 160 204
131 160 204
129 159 204
128 159 204
130 160 204
129 159 204
128 158 204
128 159 204
128 159 204
128 158 204
128 158 204
126 157 204
128 158 204
126 157 204
127 158 204
126 157 204
126 157 204
126 158 204
125 157 204
125 157 204
126 157 204
124 156 204
125 157 204
125 156 204
125 157 204
124 156 204
122 155 204
123 155 204
122 155 204
123 155 204
123 155 204
121 154 204
122 155 204
122 155 204
121 155 204
121 154 204
121 154 204
122 155 204
121 154 204
120 154 204
121 154 204
120 154 204
120 154 204
119 153 204
119 153 204
117 152 204
119 153 204
119 153 204
117 152 204
117 152 204
118 153 204
117 152 204
117 152 204
116 151 204
117 152 204
117 152 204
116 151 204
117 152 204
116 151 204
116 151 204
115 151 204
116 151 204
115 151 204
116 151 204
114 150 204
115 151 204
114 150 204
114 150 204
114 150 204
113 150 204
113 150 204
114 150 204
113 150 204
113 150 204
113 149 204
112 149 204
112 149 204
112 149 204
112 149 204
112 149 204
111 149 204
111 148 204
111 149 204
112 149 204
111 149 204
111 148 204
110 148 204
111 149 204
110 148 204
110 148 204
111 148 204
110 148 204
110 148 204
110 148 204
110 148 204
109 147 204
110 148 204
110 148 204
109 147 204
109 147 204
109 147 204
109 147 204
110 148 204
110 148 204
109 147 204
109 147 204
110 148 204
110 148 204
110 148 204
109 147 204
111 148 204
109 147 204
110 147 204
110 148 204
111 148 204
111 148 204
111 148 204
112 149 204
112 149 204
113 149 204
113 149 204
114 150 204
115 151 204
115 151 204
116 151 204
116 151 204
119 153 204
119 153 204
119 153 204
121 154 204
122 155 204
123 155 202
111 139 180
94 116 149
132 157 196
176 208 255
176 208 255
176 208 255
175 207 255
175 207 255
175 207 255
175 207 255
175 207 255
175 207 255
175 207 255
175 207 255
175 207 255
175 207 255
175 207 255
175 207 255
175 207 255
175 207 255
175 207 255
175 207 255
175 207 255
175 207 255
175 207 255
175 207 255
174 207 255
70 96 160
14 36 113
14 37 110
14 36 105
14 36 106
14 37 105
15 37 110
14 36 103
15 38 109
15 38 102
14 36 99
14 37 102
14 36 102
14 37 110
15 37 104
15 37 102
15 37 105
15 37 105
14 36 104
15 38 105
15 37 105
14 36 88
14 37 92
15 37 110
15 38 108
15 37 100
14 37 94
14 36 87
14 36 92
15 37 102
15 37 99
15 37 99
14 37 99
15 37 98
14 37 93
14 37 101
14 37 104
15 38 113
15 38 107
15 37 98
15 37 101
14 36 94
14 36 95
14 36 85
15 37 92
14 36 94
15 37 107
15 37 98
14 36 93
14 37 99
15 37 98
14 36 97
14 36 93
15 38 103
15 37 103
14 36 97
14 37 92
14 37 100
14 36 95
14 36 95
14 35 91
15 37 102
14 36 104
14 35 94
14 35 95
14 37 100
15 37 101
15 37 107
14 34 89
14 35 90
14 35 97
15 37 100
14 34 94
15 37 107
14 35 99
13 34 90
14 35 96
14 35 104
14 34 91
84 109 165
174 207 255
175 207 255
175 207 255
175 207 255
175 207 255
175 207 255
175 207 255
175 207 255
175 207 255
175 207 255
175 207 255
175 207 255
175 207 255
175 207 255
175 207 255
175 207 255
175 207 255
175 207 255
175 207 255
175 207 255
175 207 255
176 208 255
176 208 255
176 208 255
122 136 143
70 67 27
73 70 31
66 65 29
67 67 31
61 60 28
65 63 29
72 71 31
66 65 30
68 68 32
61 61 29
81 80 37
74 74 34
81 81 37
75 74 34
79 78 35
77 76 34
81 81 38
80 79 37
89 88 40
77 76 34
90 88 40
88 85 37
85 83 36
87 85 38
85 84 39
87 84 38
93 90 40
87 85 39
96 92 40
88 87 39
89 86 37
99 95 42
88 86 38
101 97 42
93 90 38
101 98 43
102 98 41
97 94 40
94 90 38
102 98 42
112 107 46
104 100 43
98 96 43
110 106 46
103 99 43
108 103 44
106 103 45
104 100 42
102 98 43
107 103 44
102 98 41
104 100 41
101 96 41
109 103 42
115 109 46
103 98 40
109 104 42
102 98 41
113 105 44
113 107 42
112 107 44
113 107 45
108 104 44
113 107 46
109 104 44
111 105 45
115 108 45
109 104 43
117 109 44
110 103 41
106 100 41
112 107 45
112 105 41
108 103 42
110 104 39
106 100 42
110 103 43
111 106 43
113 107 44
114 106 42
116 108 43
109 102 41
104 98 37
108 100 41
114 107 41
114 106 43
112 104 41
109 103 42
107 102 41
109 102 39
101 94 38
103 98 36
103 97 37
106 100 40
101 97 37
101 95 36
112 105 40
107 101 38
108 100 36
109 102 36
105 99 40
107 101 38
102 96 36
111 103 41
102 95 34
105 98 39
106 99 37
102 96 37
96 90 32
96 90 33
104 97 34
98 92 35
105 99 39
97 90 32
97 91 34
104 97 39
101 94 34
92 85 31
97 90 33
98 92 35
98 92 35
91 86 32
89 84 33
97 90 33
101 93 32
99 93 35
105 97 34
87 80 30
95 89 32
99 93 35
81 75 27
92 85 31
99 93 35
87 82 31
90 84 28
129 159 204
131 160 204
129 159 204
129 159 204
128 159 204
128 159 204
128 159 204
129 159 204
128 159 204
129 159 204
128 159 204
127 158 204
127 158 204
127 158 204
127 158 204
126 157 204
127 158 204
127 158 204
125 157 204
126 157 204
126 157 204
126 157 204
125 157 204
124 156 204
126 157 204
125 157 204
125 156 204
123 156 204
124 156 204
123 156 204
123 155 204
122 155 204
121 154 204
123 155 204
122 155 204
123 155 204
122 155 204
122 155 204
121 154 204
121 154 204
121 154 204
122 155 204
120 154 204
120 153 204
121 154 204
120 154 204
119 153 204
119 153 204
120 154 204
120 154 204
118 152 204
118 153 204
118 153 204
118 152 204
117 152 204
119 153 204
118 152 204
118 152 204
118 152 204
117 152 204
116 151 204
117 152 204
116 151 204
115 151 204
117 152 204
116 151 204
115 151 204
116 151 204
115 151 204
114 150 204
115 150 204
114 150 204
115 150 204
114 150 204
114 150 204
114 150 204
114 150 204
112 149 204
113 149 204
112 149 204
113 149 204
112 149 204
112 149 204
112 149 204
112 149 204
112 149 204
113 149 204
112 149 204
111 148 204
111 148 204
111 148 204
111 149 204
111 148 204
111 148 204
110 148 204
110 148 204
111 148 204
111 148 204
110 148 204
111 148 204
110 148 204
111 148 204
110 148 204
110 148 204
110 148 204
111 148 204
111 148 204
110 148 204
111 148 204
111 148 204
112 149 204
110 148 204
111 148 204
111 148 204
110 148 204
111 148 204
112 149 204
112 149 204
112 149 204
112 149 204
112 149 204
113 150 204
115 150 204
114 150 204
114 150 204
117 152 204
117 152 204
118 152 204
118 153 204
119 153 204
121 154 204
121 155 204
122 155 204
121 152 198
115 144 186
93 115 147
150 178 220
176 208 255
176 208 255
176 208 255
176 208 255
176 208 255
176 208 255
176 208 255
176 208 255
176 208 255
176 208 255
176 208 255
175 207 255
175 207 255
175 207 255
175 207 255
175 207 255
175 207 255
175 207 255
175 207 255
175 207 255
175 207 255
175 207 255
96 123 184
14 35 105
13 35 109
14 36 106
15 38 112
14 36 97
14 37 108
14 35 86
14 36 101
14 36 96
14 37 101
14 36 99
14 36 92
14 37 103
14 36 100
14 37 103
15 37 100
14 36 92
15 37 101
15 37 95
14 36 95
14 37 100
14 37 101
15 38 112
15 37 100
15 37 107
14 37 94
15 37 98
15 37 99
15 37 99
15 37 102
15 37 97
15 38 103
15 38 109
15 37 103
14 37 95
15 38 103
15 38 102
14 37 92
15 37 93
15 38 103
15 38 98
14 36 91
15 37 101
14 36 90
14 36 94
15 37 102
15 38 106
15 37 105
15 37 103
15 37 104
14 37 96
15 37 99
15 37 93
15 37 94
15 36 92
15 37 102
15 37 97
15 38 103
15 37 103
14 36 102
14 36 91
15 38 104
15 37 102
14 36 94
14 36 100
14 36 94
14 36 92
14 35 91
14 36 94
15 37 100
14 35 102
15 36 93
13 34 91
14 36 97
15 36 102
14 34 99
13 34 91
14 34 87
13 33 93
13 33 90
120 148 200
175 207 255
175 207 255
175 207 255
175 207 255
175 207 255
175 207 255
175 207 255
175 207 255
175 207 255
175 207 255
175 207 255
176 208 255
176 208 255
176 208 255
176 208 255
176 208 255
176 208 255
176 208 255
176 208 255
176 208 255
176 208 255
176 208 255
144 166 187
64 62 28
65 64 28
63 61 27
71 69 31
73 71 32
66 65 30
75 74 34
57 57 26
76 76 35
72 72 33
63 63 30
78 77 36
79 78 36
74 74 35
81 80 36
88 86 39
80 78 35
82 80 37
73 72 33
91 89 40
88 86 38
94 92 41
90 86 38
90 87 39
87 86 38
86 84 37
89 87 39
89 87 38
88 87 38
87 86 39
98 95 43
96 92 40
99 95 42
99 96 42
99 96 42
104 100 43
98 95 42
100 97 42
103 98 43
102 98 44
108 103 44
99 94 41
107 102 42
111 107 45
108 102 44
104 100 42
102 99 42
113 108 46
107 102 44
112 107 46
108 103 42
111 107 46
105 99 41
114 108 45
110 105 44
102 98 40
112 106 44
106 102 44
115 109 46
113 107 43
108 104 43
109 103 43
112 106 44
112 107 46
111 104 41
114 107 44
114 108 45
109 103 40
112 106 43
108 101 41
109 103 41
117 108 44
112 105 41
111 105 42
109 101 38
112 106 42
108 102 43
111 104 42
115 107 41
112 105 43
114 107 43
108 103 43
108 102 42
111 105 40
108 102 40
107 101 40
112 106 43
106 100 40
109 102 38
107 101 40
98 91 34
107 101 38
104 98 40
111 105 40
104 99 40
102 96 34
109 102 40
111 105 41
108 102 38
103 96 36
109 102 39
102 96 33
97 91 33
102 96 37
96 90 32
105 97 35
100 94 35
95 90 35
100 94 35
95 90 35
107 100 38
101 95 36
103 97 37
102 95 37
105 99 37
94 88 34
105 99 35
92 87 32
97 90 33
90 85 33
95 90 33
101 94 32
103 97 36
93 87 35
102 95 35
96 89 31
91 86 31
94 88 31
91 85 30
102 96 35
100 91 34
91 86 33
98 91 32
96 90 34
97 90 35
90 84 32
132 161 204
131 160 204
131 160 204
130 160 204
131 160 204
131 160 204
130 160 204
131 160 204
128 159 204
129 159 204
128 159 204
128 159 204
129 159 204
128 159 204
127 158 204
127 158 204
128 158 204
125 157 204
128 159 204
126 157 204
125 156 204
127 158 204
126 157 204
127 158 204
125 157 204
124 156 204
125 157 204
124 156 204
124 156 204
124 156 204
124 156 204
124 156 204
124 156 204
123 156 204
122 155 204
122 155 204
124 156 204
122 155 204
123 155 204
123 156 204
123 155 204
122 155 204
122 155 204
121 154 204
120 154 204
121 154 204
122 155 204
120 154 204
121 154 204
120 153 204
120 154 204
119 153 204
119 153 204
118 153 204
119 153 204
118 153 204
119 153 204
117 152 204
117 152 204
118 152 204
117 152 204
118 152 204
116 151 204
117 152 204
117 152 204
116 152 204
115 151 204
116 152 204
116 151 204
116 151 204
116 151 204
115 151 204
115 151 204
116 151 204
115 151 204
115 150 204
115 151 204
115 151 204
113 150 204
113 150 204
113 150 204
113 150 204
113 150 204
114 150 204
113 149 204
113 150 204
113 150 204
113 150 204
112 149 204
112 149 204
112 149 204
113 149 204
112 149 204
112 149 204
112 149 204
112 149 204
111 149 204
112 149 204
112 149 204
111 149 204
111 148 204
111 148 204
111 148 204
112 149 204
111 148 204
112 149 204
112 149 204
111 148 204
112 149 204
111 148 204
112 149 204
112 149 204
111 148 204
112 149 204
112 149 204
112 149 204
114 150 204
113 149 204
113 150 204
114 150 204
113 150 204
114 150 204
114 150 204
115 151 204
115 150 204
118 152 204
117 152 204
117 152 204
118 152 204
119 153 204
118 153 204
121 154 204
123 155 204
124 156 204
120 151 196
116 143 184
94 116 148
158 187 231
176 208 255
176 208 255
176 208 255
176 208 255
176 208 255
176 208 255
176 208 255
176 208 255
176 208 255
176 208 255
176 208 255
176 208 255
176 208 255
176 208 255
176 208 255
176 208 255
176 208 255
176 208 255
176 208 255
176 208 255
142 171 222
18 40 110
14 37 116
14 35 100
14 36 102
15 37 109
14 36 105
14 36 104
14 36 93
14 35 81
14 36 98
14 36 95
14 36 100
15 37 102
15 37 104
14 37 101
14 36 95
14 37 100
14 37 101
14 37 110
14 37 103
14 36 95
14 36 95
15 37 102
14 36 86
15 37 103
15 37 98
15 37 101
14 37 97
15 38 111
14 37 98
15 37 94
15 37 92
14 37 92
15 37 101
15 37 103
14 36 97
14 37 101
15 37 101
15 37 94
15 37 95
15 37 92
15 37 97
15 37 98
14 37 98
14 36 94
14 36 92
15 37 102
15 38 103
14 36 95
15 37 101
15 37 95
14 37 104
15 37 94
15 38 101
14 36 92
15 37 102
14 36 95
14 37 101
14 37 96
14 36 98
14 36 101
15 37 103
14 35 85
14 36 95
15 37 99
14 36 91
14 35 99
14 36 90
13 34 92
14 35 101
14 36 102
14 35 94
13 34 87
14 36 101
13 34 88
14 36 100
14 35 97
14 35 98
14 35 101
13 33 86
13 34 85
15 35 94
133 161 212
176 208 255
176 208 255
176 208 255
176 208 255
176 208 255
176 208 255
176 208 255
176 208 255
176 208 255
176 208 255
176 208 255
176 208 255
176 208 255
176 208 255
176 208 255
176 208 255
176 208 255
176 208 255
176 208 255
176 208 255
147 171 199
69 67 34
65 63 28
67 66 29
68 66 29
62 61 27
63 63 30
73 72 33
70 69 32
77 76 35
64 65 31
72 71 33
62 62 29
75 76 36
75 75 35
80 79 36
84 82 38
67 66 31
86 84 38
76 76 35
89 86 39
88 86 39
85 83 37
96 94 43
82 82 37
96 94 42
89 87 40
95 92 40
98 94 41
88 85 38
90 87 38
88 86 39
97 94 42
97 93 41
97 94 41
95 91 39
99 96 41
103 99 42
101 98 43
108 103 45
93 90 40
101 97 42
97 94 41
105 102 44
111 105 45
110 105 44
110 105 45
109 103 44
105 101 42
103 98 41
108 103 42
113 107 46
110 104 43
109 104 42
113 107 44
110 105 43
111 105 44
111 105 44
104 99 41
110 104 43
109 103 43
114 107 44
115 108 43
107 102 42
113 107 42
115 108 42
116 109 45
111 104 43
104 99 40
107 101 39
107 101 42
114 106 43
113 106 43
116 110 44
108 103 43
112 104 41
111 104 40
110 104 40
113 108 42
111 105 43
108 102 39
105 98 38
106 100 39
113 106 41
107 101 40
105 99 39
109 102 41
115 108 43
111 102 40
108 102 39
113 106 41
109 103 41
114 107 41
112 106 42
109 103 38
116 108 42
104 99 37
100 93 34
104 99 38
100 94 34
109 102 37
100 94 37
106 99 40
101 95 35
109 103 41
101 94 36
111 104 40
105 100 36
104 98 37
99 93 34
113 105 40
93 87 30
102 96 38
98 93 35
106 100 38
96 91 33
105 98 35
95 90 35
95 89 34
103 97 37
100 94 33
97 91 35
103 95 35
95 88 34
102 95 34
97 91 33
103 95 37
104 96 33
98 91 30
108 101 39
98 94 33
94 87 32
92 86 31
98 92 34
97 90 32
90 84 31
97 91 33
96 89 33
132 161 204
129 159 204
131 160 204
132 161 204
131 160 204
130 159 204
131 160 204
129 159 204
130 160 204
128 159 204
130 160 204
130 160 204
127 158 204
129 159 204
128 159 204
127 158 204
128 159 204
128 158 204
127 158 204
128 159 204
126 157 204
127 158 204
126 158 204
125 157 204
125 157 204
126 157 204
127 158 204
125 157 204
125 157 204
126 157 204
125 157 204
124 156 204
124 156 204
124 156 204
124 156 204
123 156 204
123 155 204
122 155 204
123 156 204
123 156 204
122 155 204
123 156 204
121 154 204
123 155 204
121 155 204
121 154 204
122 155 204
122 155 204
121 154 204
120 154 204
120 154 204
121 154 204
120 154 204
120 154 204
121 154 204
119 153 204
119 153 204
119 153 204
118 152 204
119 153 204
118 152 204
117 152 204
119 153 204
118 153 204
118 152 204
118 153 204
117 152 204
116 151 204
117 152 204
117 152 204
116 151 204
117 152 204
116 151 204
116 151 204
116 151 204
115 151 204
115 151 204
115 151 204
115 151 204
114 150 204
116 151 204
115 151 204
115 151 204
114 150 204
114 150 204
114 150 204
113 150 204
113 150 204
114 150 204
113 150 204
112 149 204
113 150 204
113 150 204
113 149 204
113 149 204
113 149 204
113 149 204
113 149 204
112 149 204
112 149 204
112 149 204
112 149 204
112 149 204
112 149 204
112 149 204
113 149 204
112 149 204
112 149 204
112 149 204
113 149 204
112 149 204
113 149 204
113 149 204
113 150 204
113 150 204
113 149 204
113 149 204
113 149 204
114 150 204
114 150 204
114 150 204
115 151 204
114 150 204
115 151 204
115 151 204
116 151 204
116 152 204
117 152 204
119 153 204
120 153 204
120 154 204
121 154 204
121 154 204
123 156 204
124 156 204
120 149 192
112 137 176
109 132 166
172 203 249
177 208 255
177 208 255
177 208 255
177 208 255
177 208 255
177 208 255
177 208 255
177 208 255
176 208 255
176 208 255
176 208 255
176 208 255
176 208 255
176 208 255
176 208 255
176 208 255
176 208 255
176 208 255
173 204 252
39 62 127
14 36 109
14 37 111
14 36 100
14 35 90
13 34 93
14 36 98
14 36 98
14 37 103
14 37 108
14 37 98
14 36 94
15 37 101
15 37 107
14 36 97
14 36 87
14 36 100
15 37 105
14 37 97
15 37 100
15 37 105
15 38 106
14 36 93
14 36 102
14 36 96
15 37 105
15 37 102
14 35 89
15 37 96
14 37 100
14 37 95
15 37 105
15 37 96
15 37 101
15 37 103
15 37 95
14 36 90
15 38 104
14 37 93
14 37 99
15 37 98
15 37 102
15 37 103
14 36 94
15 37 101
15 37 99
15 37 102
14 36 92
14 37 97
14 35 91
15 37 94
15 37 92
15 37 105
14 36 92
15 37 93
14 36 94
14 36 87
14 36 93
14 36 94
14 36 98
15 37 100
14 37 95
14 36 94
15 37 101
14 35 88
14 36 100
14 37 95
15 37 100
14 35 94
14 35 92
14 37 103
14 35 94
15 36 98
15 37 102
14 35 101
14 35 96
14 35 100
14 35 95
14 36 93
14 35 98
13 33 93
14 35 92
14 34 99
31 51 99
163 194 243
176 208 255
176 208 255
176 208 255
176 208 255
176 208 255
176 208 255
176 208 255
176 208 255
176 208 255
176 208 255
177 208 255
177 208 255
177 208 255
177 208 255
177 208 255
177 208 255
177 208 255
177 208 255
166 193 232
78 77 48
75 72 31
64 62 28
63 60 27
59 59 27
71 70 32
63 62 29
80 79 37
71 71 33
64 64 30
68 68 32
83 82 38
91 90 41
70 70 34
73 73 34
84 84 39
78 77 36
79 78 36
82 81 36
89 86 38
79 78 35
86 85 39
76 76 34
91 89 40
82 81 36
95 93 41
81 80 37
92 90 40
97 94 42
99 96 43
95 92 39
91 89 40
88 87 40
108 104 44
96 93 41
99 94 40
102 98 42
94 90 38
97 94 41
106 100 43
106 102 44
110 104 44
105 100 44
104 99 42
100 95 41
111 106 44
103 99 42
106 102 43
109 102 41
109 104 44
112 106 45
99 94 39
108 104 45
109 103 41
114 108 43
108 102 43
111 105 43
109 102 40
106 101 43
109 104 42
116 109 44
106 102 42
110 105 44
116 108 45
118 111 45
109 103 41
105 100 38
116 109 45
105 100 42
116 109 45
115 109 42
113 108 43
111 105 43
108 101 40
115 109 44
118 110 44
111 105 43
113 107 44
116 109 43
103 97 39
112 106 40
114 108 40
111 104 42
114 106 43
107 102 39
109 103 38
107 101 38
106 100 40
120 112 43
107 99 38
104 97 36
115 107 41
108 101 42
107 102 39
103 97 37
116 108 40
113 106 38
105 99 38
105 99 39
109 102 38
112 105 40
108 103 39
109 102 39
101 94 34
107 99 38
112 105 41
93 88 33
99 93 34
107 100 37
109 102 38
107 100 36
97 90 33
107 99 40
105 97 32
100 93 33
94 90 34
95 89 32
108 100 39
105 98 36
93 87 30
91 86 28
107 99 38
99 93 36
105 98 35
100 94 34
98 93 33
104 99 38
97 92 32
98 91 32
101 95 35
99 93 33
102 96 33
96 89 33
107 100 35
96 90 34
87 81 28
99 92 34
99 93 34
133 162 204
132 161 204
132 161 204
133 161 204
131 160 204
131 160 204
130 160 204
130 160 204
130 160 204
131 160 204
130 159 204
130 160 204
130 160 204
129 159 204
129 159 204
129 159 204
128 158 204
129 159 204
128 159 204
129 159 204
127 158 204
126 157 204
128 158 204
125 157 204
128 158 204
126 157 204
126 157 204
127 158 204
126 158 204
126 157 204
126 157 204
125 157 204
124 156 204
125 157 204
124 156 204
125 157 204
124 156 204
123 155 204
123 156 204
123 155 204
123 155 204
124 156 204
122 155 204
122 155 204
122 155 204
123 155 204
123 155 204
122 155 204
121 154 204
122 155 204
120 154 204
121 154 204
120 154 204
120 154 204
121 154 204
120 153 204
120 154 204
118 153 204
120 154 204
120 153 204
118 153 204
119 153 204
119 153 204
120 154 204
119 153 204
119 153 204
119 153 204
119 153 204
117 152 204
117 152 204
117 152 204
117 152 204
117 152 204
117 152 204
117 152 204
117 152 204
117 152 204
117 152 204
116 152 204
117 152 204
117 152 204
116 152 204
115 151 204
115 151 204
115 151 204
115 151 204
115 150 204
114 150 204
114 150 204
113 150 204
115 151 204
115 150 204
113 150 204
113 150 204
114 150 204
114 150 204
114 150 204
114 150 204
113 149 204
113 149 204
114 150 204
113 149 204
113 150 204
114 150 204
114 150 204
114 150 204
113 150 204
113 149 204
113 150 204
114 150 204
114 150 204
113 150 204
113 149 204
114 150 204
115 150 204
114 150 204
114 150 204
114 150 204
115 150 204
115 151 204
116 151 204
114 150 204
116 151 204
115 151 204
117 152 204
116 152 204
117 152 204
118 153 204
119 153 204
118 153 204
120 154 204
121 154 204
123 156 204
123 155 204
124 156 204
126 157 202
121 149 192
105 128 163
113 136 172
176 206 253
177 209 255
177 209 255
177 209 255
177 208 255
177 208 255
177 208 255
177 208 255
177 208 255
177 208 255
177 208 255
177 208 255
177 208 255
177 208 255
177 208 255
177 208 255
177 208 255
177 208 255
72 97 163
14 35 101
14 36 109
14 35 103
14 36 105
14 36 102
14 37 105
14 36 108
14 36 108
14 36 97
14 36 93
14 36 102
14 36 90
15 37 101
15 37 99
14 36 100
15 37 101
15 37 103
14 36 93
14 36 98
15 37 101
15 36 101
15 37 101
15 37 102
14 37 97
14 36 86
15 37 102
15 37 104
14 36 92
15 37 102
14 36 90
15 38 113
15 37 98
15 37 107
15 37 92
14 36 94
14 37 98
14 35 82
15 37 94
15 38 107
14 36 98
15 37 94
15 37 95
14 37 99
15 38 107
14 36 89
14 36 90
14 36 94
14 37 98
15 37 94
15 37 94
15 37 96
14 36 88
14 36 88
14 36 90
14 37 103
14 36 89
15 37 97
15 37 95
14 36 93
14 36 88
14 36 97
14 35 86
15 37 97
14 36 95
14 36 94
14 36 91
15 37 94
14 35 93
15 37 103
14 36 94
14 34 89
14 36 95
15 37 96
14 36 97
14 35 97
14 35 86
14 35 94
14 34 89
13 33 88
14 34 85
13 33 92
14 34 91
13 33 91
14 35 93
61 84 141
177 208 255
177 208 255
177 208 255
177 208 255
177 208 255
177 208 255
177 208 255
177 208 255
177 208 255
177 208 255
177 208 255
177 208 255
177 208 255
177 208 255
177 209 255
177 209 255
177 209 255
172 202 244
104 111 99
58 56 24
67 65 29
60 59 28
61 59 26
61 61 28
62 61 29
73 71 32
64 65 31
71 71 33
68 68 32
69 68 32
80 80 37
64 64 30
80 79 36
69 69 33
75 75 35
76 75 34
74 74 34
68 68 32
79 78 35
81 80 37
95 93 42
89 87 39
90 89 40
80 80 36
86 83 37
84 83 37
91 89 38
87 86 40
93 90 39
98 95 42
98 95 40
96 94 40
102 99 43
98 94 39
100 96 40
106 101 43
97 94 40
103 98 43
109 104 42
107 102 43
105 101 43
107 102 44
108 102 41
107 101 43
95 92 38
106 101 41
107 102 44
111 106 43
109 104 42
107 102 41
106 100 41
115 109 46
111 106 44
107 102 42
115 108 45
112 106 42
107 101 39
109 103 40
107 101 40
112 105 38
115 108 43
108 103 39
114 108 43
115 106 41
111 106 42
117 109 43
115 110 45
116 108 42
116 109 45
113 107 39
117 110 44
111 104 39
110 104 40
112 105 39
105 99 38
115 108 42
114 106 41
114 107 44
111 104 40
120 112 43
106 100 39
118 110 43
117 110 43
107 100 38
112 103 41
111 104 38
105 99 38
111 104 40
114 106 40
120 111 41
103 97 38
113 106 41
110 103 37
113 106 41
111 105 39
110 102 41
110 103 38
104 97 38
98 92 36
107 101 37
116 108 41
112 104 35
103 96 34
106 99 36
108 102 37
103 97 38
105 97 33
100 93 35
107 100 39
106 99 38
107 100 37
102 95 34
98 92 33
94 88 32
107 99 36
103 98 37
108 100 38
97 91 33
103 96 34
94 88 33
101 94 36
101 95 36
96 88 34
98 90 34
104 96 34
101 94 36
100 94 37
93 86 32
105 99 34
93 87 31
95 88 32
98 90 33
90 83 30
105 97 36
96 90 32
95 89 31
105 99 34
132 161 204
132 161 204
132 161 204
132 161 204
133 162 204
131 160 204
130 160 204
131 160 204
130 160 204
132 161 204
130 160 204
131 160 204
128 159 204
129 159 204
130 160 204
129 159 204
129 159 204
129 159 204
128 158 204
129 159 204
128 159 204
128 159 204
128 158 204
128 159 204
128 158 204
127 158 204
127 158 204
128 158 204
125 157 204
127 158 204
127 158 204
125 157 204
127 158 204
126 157 204
126 157 204
125 157 204
126 157 204
125 157 204
125 156 204
125 156 204
125 157 204
124 156 204
124 156 204
122 155 204
123 156 204
124 156 204
124 156 204
123 156 204
121 155 204
122 155 204
122 155 204
122 155 204
122 155 204
120 154 204
121 154 204
121 154 204
122 155 204
121 154 204
122 155 204
121 154 204
121 154 204
120 154 204
120 154 204
120 153 204
120 154 204
119 153 204
119 153 204
118 153 204
119 153 204
121 154 204
119 153 204
118 152 204
118 153 204
118 153 204
118 152 204
118 152 204
117 152 204
118 152 204
117 152 204
117 152 204
117 152 204
117 152 204
117 152 204
117 152 204
116 151 204
116 151 204
116 151 204
116 151 204
117 152 204
116 151 204
115 151 204
115 151 204
115 151 204
115 151 204
115 150 204
114 150 204
114 150 204
115 151 204
115 150 204
115 151 204
115 150 204
114 150 204
115 151 204
114 150 204
114 150 204
114 150 204
114 150 204
115 151 204
114 150 204
115 151 204
114 150 204
114 150 204
114 150 204
115 151 204
115 151 204
115 151 204
115 150 204
115 151 204
115 151 204
115 151 204
116 151 204
117 152 204
117 152 204
117 152 204
117 152 204
117 152 204
118 152 204
118 152 204
119 153 204
119 153 204
120 154 204
122 155 204
122 155 204
124 156 204
124 156 204
125 157 204
129 159 204
114 140 180
108 132 167
125 148 183
178 209 255
178 209 255
178 209 255
178 209 255
178 209 255
177 209 255
177 209 255
177 209 255
177 209 255
177 209 255
177 209 255
177 209 255
177 209 255
177 208 255
177 208 255
177 208 255
123 152 210
14 35 106
14 35 101
14 36 97
14 37 110
15 37 110
14 35 99
14 36 103
14 37 105
14 36 99
14 36 95
14 36 99
15 37 107
15 37 102
14 37 97
14 36 99
14 36 101
14 36 93
15 37 92
15 37 99
14 36 101
14 37 97
14 37 95
15 37 102
14 37 95
15 37 102
15 38 104
15 37 97
15 37 94
15 37 98
14 37 104
15 37 101
14 37 95
15 37 102
15 37 96
15 37 99
15 37 99
15 38 101
14 36 93
15 37 100
14 37 94
15 38 99
15 37 102
14 36 89
14 36 93
14 36 90
15 37 94
15 38 103
15 38 106
14 36 93
15 38 101
15 37 100
14 36 93
15 38 102
14 37 90
14 37 98
15 37 98
15 37 101
14 36 84
15 37 98
15 37 91
14 36 89
15 37 103
14 35 92
15 37 97
14 37 96
14 36 93
14 36 94
14 36 93
14 36 98
15 37 103
14 35 95
14 35 88
14 36 100
14 35 92
14 34 81
15 36 96
14 35 89
14 35 97
14 34 89
14 34 91
13 32 78
14 34 89
13 33 80
13 34 92
14 35 101
13 34 95
124 152 203
177 208 255
177 208 255
177 208 255
177 209 255
177 209 255
177 209 255
177 209 255
177 209 255
177 209 255
177 209 255
177 209 255
178 209 255
178 209 255
178 209 255
178 209 255
178 209 255
127 142 146
70 66 29
59 57 26
52 51 24
74 71 32
60 60 27
70 70 33
62 63 32
74 73 34
58 59 28
63 63 30
63 63 29
63 63 29
76 76 35
72 70 32
70 70 32
79 79 37
75 75 34
72 73 34
73 72 32
91 89 39
76 76 35
80 78 35
83 82 36
81 79 35
95 92 41
88 85 38
100 96 42
95 92 40
85 83 37
94 92 41
89 86 38
86 85 38
76 74 34
96 92 40
100 97 42
90 86 37
99 96 42
106 102 42
107 102 44
101 97 43
102 98 42
99 95 40
107 101 41
109 103 42
102 97 43
101 99 42
106 101 42
107 102 41
104 99 40
110 105 44
105 100 41
110 105 43
105 100 43
118 111 46
114 108 44
108 101 40
116 108 45
112 105 41
108 103 44
112 106 43
117 111 44
109 102 41
113 107 41
119 112 46
112 105 42
112 106 43
110 102 41
119 112 44
109 104 40
110 104 40
113 105 41
103 98 39
108 102 39
113 107 41
117 109 41
118 110 41
111 106 39
113 106 41
111 105 42
109 103 42
117 110 45
110 104 38
111 104 41
108 101 40
111 103 39
112 105 38
115 108 41
111 104 36
103 97 37
111 104 40
108 102 38
110 103 36
107 100 38
106 98 39
111 105 39
105 99 37
105 99 36
109 101 37
106 100 37
114 106 40
101 95 37
106 99 36
111 103 39
106 98 36
110 103 38
106 99 37
102 96 36
103 96 34
100 95 33
98 93 34
98 91 33
101 94 33
106 98 36
94 89 30
100 93 34
98 92 35
106 99 35
108 100 38
101 94 34
118 109 40
101 95 32
96 90 31
99 93 34
105 97 35
110 102 38
95 89 32
102 95 35
100 93 33
106 98 35
97 91 31
103 95 33
92 85 32
94 88 31
94 88 31
95 89 31
93 86 30
96 90 32
94 87 31
94 87 29
133 162 204
134 162 204
134 162 204
132 161 204
131 160 204
132 161 204
132 161 204
132 161 204
132 161 204
131 160 204
132 161 204
131 160 204
129 159 204
131 160 204
131 160 204
130 160 204
131 160 204
131 160 204
130 160 204
129 159 204
128 159 204
128 158 204
129 159 204
128 159 204
129 159 204
128 159 204
128 158 204
127 158 204
128 158 204
128 158 204
128 158 204
127 158 204
127 158 204
127 158 204
126 157 204
127 158 204
125 157 204
127 158 204
125 157 204
126 157 204
125 157 204
125 157 204
125 157 204
124 156 204
124 156 204
124 156 204
123 156 204
125 157 204
123 156 204
124 156 204
124 156 204
123 155 204
123 155 204
123 156 204
123 156 204
123 155 204
122 155 204
122 155 204
122 155 204
121 154 204
122 155 204
121 155 204
121 154 204
122 155 204
120 154 204
120 154 204
120 154 204
119 153 204
119 153 204
121 154 204
119 153 204
119 153 204
120 154 204
120 154 204
119 153 204
119 153 204
118 153 204
119 153 204
119 153 204
118 153 204
118 153 204
118 152 204
118 152 204
117 152 204
117 152 204
118 152 204
117 152 204
117 152 204
117 152 204
117 152 204
116 152 204
116 151 204
116 151 204
116 151 204
116 151 204
115 151 204
117 152 204
116 151 204
116 151 204
115 151 204
115 151 204
116 151 204
114 150 204
115 151 204
115 151 204
115 151 204
116 151 204
115 151 204
115 151 204
115 151 204
117 152 204
116 151 204
115 151 204
115 151 204
116 151 204
115 151 204
116 151 204
116 151 204
116 152 204
116 152 204
117 152 204
117 152 204
117 152 204
117 152 204
117 151 203
113 147 200
117 151 203
115 149 201
116 149 200
114 146 198
119 152 203
122 155 204
122 155 204
125 157 204
125 156 204
125 157 204
129 159 204
125 155 200
119 146 186
108 130 164
159 187 229
178 209 255
178 209 255
178 209 255
178 209 255
178 209 255
178 209 255
178 209 255
178 209 255
178 209 255
178 209 255
178 209 255
178 209 255
178 209 255
178 209 255
173 204 251
28 50 115
14 36 102
14 35 103
13 34 99
14 35 101
14 35 87
14 37 101
15 37 103
14 36 99
14 36 98
14 36 89
14 35 92
14 36 96
14 36 89
14 35 92
14 36 90
14 36 96
14 36 97
14 36 99
15 37 94
14 36 97
15 37 97
14 36 92
14 35 93
14 37 98
15 38 112
14 37 97
14 36 94
15 38 105
14 36 93
15 37 95
15 37 95
14 37 91
14 37 95
14 36 89
14 36 84
14 36 84
14 35 80
15 37 97
14 36 95
14 37 99
15 37 88
15 38 98
14 37 90
14 37 97
14 36 87
15 38 101
14 37 94
14 37 90
15 38 101
14 37 96
14 36 88
15 38 103
14 36 92
14 36 94
15 37 106
15 37 101
14 36 83
15 37 97
15 37 100
14 36 92
15 37 93
14 36 95
15 36 96
14 36 89
14 36 99
14 36 93
14 36 89
15 36 94
15 37 103
14 35 88
14 36 94
14 36 93
14 36 101
14 36 97
13 34 88
15 36 102
13 34 82
14 36 91
14 35 100
14 34 83
14 34 86
13 33 84
14 34 90
13 34 88
14 34 96
13 32 89
33 53 111
169 200 247
178 209 255
178 209 255
178 209 255
178 209 255
178 209 255
178 209 255
178 209 255
178 209 255
178 209 255
178 209 255
178 209 255
178 209 255
178 209 255
178 209 255
148 169 194
68 65 27
51 50 22
53 52 24
66 65 30
68 66 31
61 61 29
60 60 29
60 60 28
71 71 34
64 64 30
67 67 31
71 71 34
73 72 33
64 64 30
60 61 29
79 77 35
68 68 32
76 75 35
80 79 35
74 74 33
85 82 37
83 81 36
88 86 39
81 80 35
77 77 35
85 83 35
86 84 38
75 76 35
79 79 36
97 93 41
97 95 42
91 89 38
100 95 41
89 87 38
101 98 43
93 92 39
98 94 40
93 91 39
108 102 42
100 96 41
101 97 42
95 92 40
118 110 45
103 99 41
105 101 42
107 102 43
101 97 39
111 105 43
112 107 44
111 105 42
107 102 42
108 104 43
109 103 40
113 107 45
118 111 44
116 109 44
111 106 44
118 110 43
112 106 42
113 106 42
111 105 43
113 107 43
118 110 43
113 106 44
112 104 42
113 108 44
116 109 43
107 100 36
107 103 41
120 112 45
112 106 42
104 100 38
113 106 41
113 107 41
115 108 40
111 104 38
114 106 38
117 110 44
115 108 45
110 104 41
114 108 42
119 111 43
111 104 43
116 109 42
117 110 41
110 104 38
108 101 39
108 101 37
112 105 39
112 105 40
116 108 41
110 104 40
111 104 38
107 100 38
108 101 36
114 105 40
106 99 36
109 102 40
105 99 36
107 101 35
115 107 43
114 106 41
111 103 39
114 106 39
105 99 36
104 97 35
111 104 40
103 97 33
105 97 35
112 105 40
105 99 35
103 98 35
106 99 38
105 98 36
107 99 36
107 100 38
105 97 32
99 91 31
105 98 35
104 98 35
93 87 32
103 97 35
104 97 34
101 94 34
104 97 36
101 94 33
101 94 31
98 92 33
96 89 32
105 98 37
104 97 33
88 82 29
100 93 31
97 90 33
94 87 31
91 86 27
95 89 30
94 88 27
97 90 28
96 89 32
134 162 204
135 163 204
133 161 204
134 162 204
132 161 204
132 161 204
132 161 204
131 160 204
133 161 204
132 161 204
130 159 204
133 161 204
131 160 204
130 160 204
131 160 204
132 161 204
131 160 204
130 160 204
130 159 204
131 160 204
130 159 204
129 159 204
129 159 204
129 159 204
129 159 204
127 158 204
129 159 204
129 159 204
128 159 204
127 158 204
128 158 204
127 158 204
128 158 204
127 158 204
128 159 204
127 158 204
127 158 204
127 158 204
126 158 204
125 157 204
124 156 204
126 157 204
125 157 204
125 157 204
125 157 204
125 157 204
125 156 204
125 157 204
124 156 204
125 156 204
124 156 204
125 156 204
125 156 204
124 156 204
124 156 204
124 156 204
122 155 204
123 155 204
123 156 204
122 155 204
122 155 204
122 155 204
123 155 204
122 155 204
123 155 204
121 154 204
122 155 204
121 155 204
120 154 204
121 155 204
120 154 204
120 154 204
121 154 204
121 154 204
119 153 204
120 154 204
119 153 204
120 154 204
119 153 204
120 153 204
119 153 204
119 153 204
117 152 204
119 153 204
118 152 204
119 153 204
117 152 204
117 152 204
118 153 204
119 153 204
117 152 204
117 152 204
117 152 204
117 152 204
117 152 204
116 152 204
117 152 204
117 152 204
116 152 204
117 152 204
117 152 204
116 152 204
115 151 204
117 152 204
117 152 204
116 151 204
117 152 204
115 151 204
116 152 204
116 152 204
116 151 204
116 151 204
117 152 204
116 151 204
116 151 204
116 151 204
119 153 204
117 152 204
117 152 204
118 153 204
118 152 204
116 151 203
114 149 202
114 148 201
109 143 196
105 137 189
101 132 187
111 144 197
107 139 192
115 148 200
115 148 199
118 151 201
117 150 200
123 154 202
125 157 204
127 158 204
127 158 204
129 159 204
126 154 196
118 144 184
114 137 172
177 207 252
179 209 255
179 209 255
178 209 255
178 209 255
178 209 255
178 209 255
178 209 255
178 209 255
178 209 255
178 209 255
178 209 255
178 209 255
178 209 255
79 103 159
13 34 107
14 35 104
12 32 88
14 36 100
13 34 93
13 34 89
13 35 95
14 35 95
14 36 98
14 36 97
14 35 88
14 36 99
14 36 103
14 37 99
14 37 102
14 36 96
14 36 91
14 37 95
15 37 96
14 37 95
14 36 92
15 37 97
14 36 97
14 36 93
15 37 100
14 36 92
14 36 90
15 37 95
14 36 92
14 37 97
15 38 106
14 36 92
15 37 96
14 36 97
15 38 98
15 37 101
14 36 95
15 37 99
14 36 86
14 36 86
14 37 90
14 36 90
15 37 101
15 37 90
15 37 94
14 36 90
14 37 97
14 36 87
15 37 103
15 37 100
14 37 94
15 37 93
15 37 97
14 36 89
14 36 98
14 36 83
15 37 102
14 36 97
14 36 89
14 36 82
14 36 87
15 37 97
15 37 91
14 36 85
15 37 96
14 36 90
14 37 100
14 36 92
14 35 93
14 35 87
15 37 96
14 34 84
14 36 96
14 35 93
15 36 91
14 35 90
14 36 96
14 36 96
15 36 95
14 34 83
14 36 101
14 34 97
14 36 97
13 34 88
13 32 78
13 34 93
13 31 77
13 32 88
102 128 181
178 209 255
178 209 255
178 209 255
178 209 255
178 209 255
178 209 255
178 209 255
178 209 255
178 209 255
178 209 255
179 209 255
179 209 255
179 209 255
171 200 243
66 69 50
50 49 22
56 55 25
52 52 24
53 54 26
61 60 28
59 58 28
59 59 27
65 65 31
62 62 29
72 71 33
64 65 32
64 64 31
69 68 32
69 70 33
70 69 33
71 72 33
72 72 34
79 79 37
75 73 33
83 82 38
71 71 31
81 81 36
76 77 36
85 83 38
96 93 41
87 85 38
82 81 37
94 90 39
85 82 37
99 96 41
94 91 38
92 89 39
88 86 38
106 101 44
99 95 39
100 95 40
99 94 39
96 92 39
99 94 40
106 101 42
102 98 41
111 105 44
97 93 39
111 106 44
107 102 40
105 100 41
106 101 41
113 107 44
103 98 40
106 101 42
113 106 43
114 107 43
105 101 41
104 98 37
110 104 40
113 107 43
108 101 40
113 107 41
113 107 42
119 110 40
111 105 43
108 100 37
109 102 40
120 111 43
110 104 41
112 105 40
118 110 43
113 107 40
118 110 43
115 109 41
116 109 42
114 106 43
111 103 39
111 105 40
116 108 40
114 107 41
116 109 43
115 108 41
115 107 42
115 107 40
114 107 39
111 104 39
111 104 40
112 106 41
112 104 39
110 102 36
111 104 39
106 101 39
113 107 39
110 103 38
111 103 40
112 106 39
112 105 40
114 106 38
110 103 37
102 96 35
111 103 38
113 105 38
108 101 39
110 102 38
105 98 36
113 106 40
107 99 37
110 104 35
110 102 37
101 95 34
107 101 37
108 100 34
104 96 36
108 101 37
107 99 36
99 92 32
91 86 30
106 99 37
102 95 33
107 100 40
102 95 33
102 96 33
103 96 35
109 101 38
98 93 32
99 92 32
98 92 35
100 93 33
99 92 34
100 93 34
102 94 33
112 104 40
101 93 31
98 92 34
96 89 32
108 101 37
91 85 30
90 84 29
94 89 32
93 87 29
100 93 33
100 93 34
96 90 31
97 91 32
133 161 204
134 162 204
134 162 204
134 162 204
134 162 204
133 161 204
133 161 204
133 162 204
133 161 204
133 162 204
132 161 204
133 161 204
132 161 204
130 160 204
133 161 204
132 161 204
131 160 204
131 161 204
133 161 204
130 160 204
130 160 204
130 160 204
129 159 204
130 160 204
131 160 204
130 160 204
129 159 204
129 159 204
129 159 204
129 159 204
127 158 204
127 158 204
129 159 204
128 158 204
129 159 204
129 159 204
127 158 204
127 158 204
127 158 204
127 158 204
127 158 204
127 158 204
127 158 204
126 157 204
127 158 204
126 157 204
126 157 204
125 157 204
127 158 204
126 157 204
125 156 204
125 157 204
124 156 204
125 157 204
125 156 204
124 156 204
124 156 204
125 156 204
124 156 204
124 156 204
123 155 204
122 155 204
121 154 204
122 155 204
123 155 204
123 156 204
123 155 204
122 155 204
122 155 204
121 155 204
122 155 204
123 155 204
121 154 204
121 154 204
119 153 204
121 154 204
120 154 204
121 154 204
120 154 204
121 154 204
122 155 204
121 154 204
120 154 204
120 154 204
120 154 204
119 153 204
119 153 204
119 153 204
120 154 204
119 153 204
118 152 204
119 153 204
119 153 204
119 153 204
119 153 204
119 153 204
119 153 204
117 152 204
119 153 204
119 153 204
118 152 204
119 153 204
118 153 204
118 153 204
117 152 204
118 153 204
118 152 204
117 152 204
117 152 204
117 152 204
118 153 204
117 152 204
118 152 204
118 153 204
118 152 204
118 152 204
117 152 204
118 153 204
118 152 204
115 150 202
114 148 200
115 149 201
105 138 192
104 136 189
103 135 190
103 135 189
97 128 182
97 128 181
108 141 195
100 131 186
102 133 186
108 139 192
104 135 186
114 146 196
119 151 200
122 154 202
128 158 204
128 158 204
127 157 202
119 146 186
103 126 159
123 147 181
179 210 255
179 210 255
179 210 255
179 210 255
179 210 255
179 210 255
179 210 255
179 209 255
179 209 255
179 209 255
179 209 255
179 209 255
162 192 241
15 37 108
13 34 101
14 35 92
13 34 97
14 36 104
14 35 93
14 36 95
14 35 97
14 36 99
14 36 101
14 36 100
14 37 96
15 37 103
14 36 90
14 36 93
14 36 94
14 37 102
15 37 92
15 37 102
14 36 87
14 36 93
14 37 100
14 36 91
14 36 93
14 36 98
14 35 78
14 36 96
14 37 97
15 37 99
15 37 95
14 36 87
14 36 89
14 36 100
15 37 99
14 36 85
14 36 94
14 36 87
15 37 99
14 36 98
15 37 92
14 37 94
14 36 92
14 36 94
14 36 87
14 36 84
14 36 85
14 36 86
14 35 92
14 37 93
14 37 94
14 36 87
15 38 101
14 36 88
14 36 93
14 36 97
14 36 90
15 37 94
14 36 88
14 36 83
14 37 95
15 37 100
14 36 88
14 36 91
15 37 102
14 36 93
15 37 94
14 36 85
15 37 98
14 36 99
15 36 97
14 36 93
14 36 92
14 36 93
14 35 86
14 35 94
15 36 97
14 35 94
14 34 81
14 35 85
14 36 92
14 34 91
14 34 89
14 34 86
14 34 96
13 34 91
13 33 87
13 34 90
13 32 89
13 32 83
19 36 73
154 183 231
179 209 255
179 209 255
179 209 255
179 209 255
179 209 255
179 209 255
179 210 255
179 210 255
179 210 255
179 210 255
179 210 255
179 210 255
112 124 125
58 56 24
52 51 22
57 56 27
58 58 27
60 61 29
45 46 23
59 59 28
53 54 25
64 64 31
67 67 32
60 61 29
60 60 29
63 63 30
63 64 31
74 74 35
63 64 31
73 73 33
69 69 32
68 68 32
71 71 34
80 79 36
78 78 35
78 77 35
80 78 35
85 83 36
82 82 38
74 73 32
93 92 41
89 86 38
85 83 37
87 84 36
86 84 37
90 88 39
107 102 43
94 91 37
102 97 41
91 87 34
92 89 38
100 96 40
96 92 38
107 101 41
105 99 42
110 104 42
106 102 42
106 101 40
104 98 41
100 96 41
105 100 40
102 98 41
103 98 39
109 104 41
114 108 43
113 108 44
108 104 45
106 100 40
114 108 45
109 103 42
113 107 41
112 105 42
115 109 43
108 104 44
113 106 40
114 107 43
109 104 42
112 105 40
108 101 37
112 106 39
106 100 38
116 109 44
115 108 39
112 106 39
115 108 43
112 105 39
115 107 40
109 102 40
116 109 42
115 108 44
118 110 42
112 105 38
120 112 44
114 107 37
107 101 37
109 102 38
113 106 40
110 103 38
108 102 39
115 108 41
111 104 38
109 102 37
107 102 42
103 97 35
109 103 38
110 104 40
103 96 33
121 112 44
114 108 37
112 104 39
109 101 36
112 104 39
112 106 37
110 103 37
106 99 32
115 107 42
110 103 38
109 102 37
104 97 34
108 102 38
109 103 36
109 102 36
96 90 32
111 104 36
104 97 36
103 98 36
113 105 39
100 93 33
99 92 31
105 98 33
103 96 34
97 91 32
103 97 35
101 94 33
106 97 35
103 97 35
102 95 34
103 95 36
106 97 34
103 97 34
110 101 38
96 89 31
99 92 33
91 85 31
99 92 31
94 87 31
95 88 29
104 96 34
99 92 33
97 89 31
89 83 29
103 96 31
92 87 31
102 95 31
135 163 204
134 162 204
136 163 204
135 163 204
134 162 204
134 162 204
134 162 204
133 162 204
134 162 204
133 162 204
133 162 204
132 161 204
134 162 204
132 161 204
132 161 204
132 161 204
132 161 204
131 160 204
131 160 204
131 160 204
132 161 204
131 160 204
132 161 204
130 160 204
131 160 204
130 160 204
130 159 204
130 160 204
130 160 204
129 159 204
130 160 204
127 158 204
130 160 204
129 159 204
129 159 204
128 159 204
130 160 204
127 158 204
128 158 204
128 159 204
129 159 204
127 158 204
127 158 204
127 158 204
127 158 204
127 158 204
127 158 204
127 158 204
125 157 204
127 158 204
125 157 204
125 157 204
125 157 204
127 158 204
126 157 204
127 158 204
125 157 204
124 156 204
126 157 204
124 156 204
124 156 204
124 156 204
125 157 204
125 157 204
125 156 204
124 156 204
123 156 204
123 156 204
123 155 204
123 156 204
124 156 204
123 155 204
123 155 204
122 155 204
122 155 204
122 155 204
123 155 204
122 155 204
120 154 204
122 155 204
122 155 204
121 154 204
120 154 204
121 154 204
120 154 204
121 154 204
121 154 204
120 154 204
120 154 204
121 154 204
121 154 204
120 154 204
120 153 204
119 153 204
120 153 204
118 153 204
119 153 204
120 153 204
119 153 204
120 153 204
120 154 204
119 153 204
119 153 204
118 152 204
119 153 204
118 153 204
120 154 204
119 153 204
118 153 204
119 153 204
118 153 204
118 153 204
118 153 204
118 153 204
120 154 204
119 153 204
119 153 204
118 153 204
117 151 203
109 142 194
105 138 191
106 138 192
103 135 190
101 133 188
97 128 183
102 133 186
89 119 172
99 131 184
88 117 173
97 127 181
99 130 181
90 118 172
97 127 181
102 132 184
110 140 191
109 139 189
121 152 200
128 159 204
130 159 204
131 161 204
112 137 174
98 119 150
160 187 229
180 210 255
179 210 255
179 210 255
179 210 255
179 210 255
179 210 255
179 210 255
179 210 255
179 210 255
179 210 255
179 210 255
75 99 158
13 34 91
14 36 104
13 34 95
14 36 101
14 36 104
14 36 100
14 36 96
15 37 108
14 37 102
14 35 87
14 36 94
14 36 91
14 35 87
14 36 91
14 36 97
15 37 97
14 36 97
14 37 100
15 37 100
14 37 92
14 36 91
14 36 91
14 35 83
14 36 100
14 36 89
14 35 78
15 37 99
15 38 100
15 37 101
14 37 93
14 36 95
14 36 90
14 37 94
14 36 93
15 38 102
14 36 95
14 36 89
15 37 92
15 37 95
15 38 106
15 37 98
14 37 97
15 37 98
15 38 98
15 38 102
15 37 96
14 36 87
15 37 92
14 36 89
15 37 99
14 37 94
15 37 97
14 36 99
15 37 101
14 36 81
14 36 90
14 36 90
15 37 94
15 37 92
14 36 96
14 36 88
15 37 100
14 36 87
15 37 98
15 37 93
15 36 95
14 35 80
14 36 89
14 36 91
14 36 88
14 34 84
14 36 92
15 37 95
14 34 84
14 36 96
14 36 85
14 34 88
14 35 88
13 33 82
14 35 88
14 35 83
13 33 84
13 33 81
14 35 91
13 33 86
13 32 82
13 33 82
13 32 88
13 33 87
12 29 75
93 118 169
179 210 255
179 210 255
179 210 255
179 210 255
179 210 255
179 210 255
179 210 255
179 210 255
179 210 255
179 210 255
179 210 255
152 174 200
69 66 29
66 64 28
69 67 31
55 54 25
60 59 27
52 53 26
59 58 28
50 50 23
57 58 27
57 58 28
63 64 31
64 64 30
61 62 30
71 71 34
58 59 29
58 59 28
59 60 29
64 64 30
68 68 32
76 76 34
75 74 34
71 72 33
82 81 37
86 84 37
84 82 37
81 80 36
87 84 37
88 85 37
91 89 40
90 87 36
90 87 37
92 88 38
94 92 40
84 82 36
98 95 41
90 88 37
94 91 38
92 88 38
93 88 38
99 97 40
101 96 40
103 98 40
104 99 36
95 92 38
97 93 36
113 108 42
101 97 37
105 100 42
106 100 39
108 101 38
112 105 42
110 103 39
110 104 41
104 98 38
105 99 40
112 105 43
109 103 41
108 102 39
111 105 41
113 106 41
111 105 40
113 107 42
109 103 38
112 106 40
115 108 40
115 108 41
114 108 39
111 107 43
114 107 42
112 105 41
115 108 41
115 109 41
112 105 40
116 109 39
120 113 43
115 108 39
115 108 43
110 103 38
117 109 43
117 109 41
108 102 38
110 103 40
113 107 40
107 101 37
113 106 40
110 104 35
114 106 37
108 101 37
113 105 39
118 110 41
115 107 40
108 101 38
110 103 38
105 99 37
102 96 30
116 108 39
112 105 39
109 102 40
100 94 34
110 102 36
109 102 35
110 101 38
114 106 39
115 107 40
112 104 39
108 101 39
110 104 37
107 102 34
114 106 37
106 99 35
110 103 39
101 94 32
104 99 33
108 101 39
103 98 35
109 101 36
107 100 36
102 94 34
103 96 29
88 82 29
111 103 36
103 96 30
112 104 37
109 102 38
109 101 35
100 93 31
98 91 31
103 96 33
107 99 36
98 91 32
100 93 34
109 100 35
94 87 29
106 99 37
99 93 34
99 92 33
98 90 32
96 90 32
91 84 26
94 87 31
100 94 31
93 87 32
137 164 204
135 163 204
136 163 204
135 162 204
136 163 204
134 162 204
134 162 204
135 163 204
135 163 204
132 161 204
133 161 204
133 161 204
133 162 204
133 162 204
133 161 204
133 162 204
134 162 204
132 161 204
132 161 204
132 161 204
133 161 204
133 161 204
132 161 204
132 161 204
132 161 204
130 160 204
131 160 204
130 160 204
132 161 204
130 160 204
131 160 204
131 160 204
130 160 204
129 159 204
131 160 204
132 161 204
129 159 204
130 160 204
130 160 204
129 159 204
129 159 204
129 159 204
130 159 204
128 159 204
127 158 204
129 159 204
128 158 204
128 158 204
129 159 204
127 158 204
126 158 204
127 158 204
127 158 204
128 159 204
127 158 204
127 158 204
127 158 204
126 157 204
127 158 204
126 158 204
126 157 204
125 157 204
126 157 204
126 157 204
125 157 204
125 157 204
123 156 204
125 157 204
123 156 204
123 156 204
123 155 204
126 157 204
124 156 204
124 156 204
122 155 204
122 155 204
123 155 204
124 156 204
122 155 204
125 157 204
122 155 204
121 155 204
123 155 204
122 155 204
123 155 204
121 154 204
122 155 204
121 155 204
121 154 204
121 154 204
121 155 204
121 154 204
120 154 204
121 154 204
119 153 204
120 154 204
120 154 204
121 154 204
119 153 204
121 154 204
121 154 204
120 154 204
120 154 204
121 154 204
119 153 204
119 153 204
120 154 204
120 154 204
119 153 204
120 153 204
120 154 204
120 154 204
121 154 204
119 153 204
120 154 204
120 154 204
119 152 203
115 148 199
114 147 197
109 141 194
110 142 193
102 134 188
96 127 180
96 128 182
91 121 176
85 114 170
98 129 185
85 115 171
82 110 167
87 116 169
80 108 164
82 110 166
83 111 166
93 122 176
97 127 180
100 129 181
105 134 183
120 150 197
126 156 202
129 158 202
129 158 200
115 139 174
108 128 158
179 209 254
180 210 255
180 210 255
180 210 255
180 210 255
180 210 255
180 210 255
180 210 255
180 210 255
180 210 255
144 173 220
13 33 98
12 32 91
13 34 100
14 35 93
14 35 91
13 35 92
14 35 95
14 35 94
14 35 94
15 37 103
14 36 93
14 36 93
14 35 94
14 36 84
14 35 91
14 36 90
14 35 90
14 36 93
14 35 83
14 35 82
14 37 91
14 36 87
14 36 87
14 37 93
14 36 89
14 36 91
14 36 96
15 37 94
14 35 83
14 36 88
14 36 89
15 37 94
15 37 95
14 36 84
15 37 94
14 36 85
15 37 101
15 37 91
14 36 89
15 37 99
14 36 83
15 37 95
15 37 94
14 36 87
14 36 87
14 37 102
15 37 89
14 37 93
15 37 93
14 36 92
14 36 92
14 36 92
14 36 96
14 36 88
15 37 89
14 37 92
14 36 90
14 36 92
14 36 88
14 36 95
15 36 93
15 37 98
14 36 96
14 36 92
14 35 80
15 38 98
15 37 93
14 34 75
14 36 92
14 34 86
14 36 98
14 35 89
14 35 87
14 36 92
15 37 91
14 36 98
14 35 83
13 34 89
14 35 81
14 34 79
14 34 91
14 34 93
14 35 89
14 35 93
14 36 99
13 32 85
14 35 88
14 34 89
12 30 71
13 32 89
13 32 87
14 32 75
147 175 220
180 210 255
180 210 255
180 210 255
180 210 255
180 210 255
180 210 255
180 210 255
180 210 255
180 210 255
178 208 253
82 88 74
46 45 20
42 42 20
47 47 23
51 51 24
52 53 26
50 51 25
53 53 26
66 66 31
56 57 27
60 60 29
49 50 24
58 60 29
69 70 34
67 67 31
55 56 27
58 60 30
66 67 31
64 64 30
75 75 35
71 70 31
68 67 30
79 77 35
86 84 37
84 83 38
77 77 34
76 75 35
78 77 33
90 86 36
91 89 37
89 86 35
91 88 38
89 87 36
95 91 39
98 94 39
84 82 35
95 91 37
94 90 38
100 96 40
98 94 38
97 93 39
103 98 39
101 98 40
96 92 38
98 94 39
102 98 38
103 97 39
111 105 42
112 106 43
102 96 34
111 104 41
109 103 39
113 106 41
111 104 41
112 107 42
109 103 39
114 107 39
107 101 42
110 105 40
114 106 40
108 103 40
114 107 43
113 107 41
114 108 39
106 101 39
114 106 39
116 108 38
115 108 40
110 103 40
118 110 39
103 96 38
111 104 41
119 111 42
110 103 35
121 113 44
113 105 37
116 107 41
119 111 41
116 108 40
116 109 42
110 105 40
114 106 39
119 112 43
108 102 35
114 105 35
111 104 37
113 106 39
105 99 35
118 109 41
106 100 37
110 103 36
108 102 35
113 106 40
112 105 37
111 104 38
123 114 43
119 110 41
109 103 37
110 103 38
108 101 36
117 108 38
102 96 33
112 104 37
115 106 37
112 104 37
105 97 34
105 99 35
108 101 34
110 102 38
113 105 38
102 95 35
114 105 38
105 98 35
101 95 33
112 103 37
104 97 35
109 100 35
113 103 37
99 92 34
105 97 34
104 97 34
99 92 33
105 98 32
102 95 34
103 97 33
112 104 38
105 97 34
107 100 34
108 101 32
101 93 32
94 88 33
94 88 31
97 90 31
93 86 31
90 84 31
96 90 31
100 94 30
108 100 33
107 99 36
95 89 32
93 86 30
98 91 29
96 89 30
136 163 204
136 163 204
135 163 204
137 164 204
136 163 204
135 163 204
136 163 204
134 162 204
135 163 204
134 162 204
134 162 204
133 161 204
135 162 204
135 163 204
134 162 204
134 162 204
133 161 204
133 161 204
133 162 204
132 161 204
132 161 204
135 162 204
132 161 204
133 161 204
132 161 204
133 161 204
132 161 204
131 160 204
132 161 204
132 161 204
131 160 204
131 160 204
131 160 204
130 160 204
131 160 204
131 160 204
131 160 204
130 160 204
130 160 204
130 160 204
130 159 204
131 160 204
129 159 204
130 160 204
129 159 204
128 159 204
129 159 204
128 159 204
129 159 204
128 158 204
129 159 204
128 158 204
128 159 204
127 158 204
126 157 204
127 158 204
127 158 204
127 158 204
127 158 204
129 159 204
127 158 204
126 158 204
126 157 204
128 159 204
125 157 204
125 157 204
126 157 204
125 157 204
125 156 204
125 157 204
125 157 204
125 157 204
125 157 204
125 157 204
125 157 204
123 155 204
125 156 204
124 156 204
124 156 204
123 155 204
124 156 204
123 156 204
124 156 204
123 155 204
122 155 204
123 156 204
124 156 204
122 155 204
123 155 204
123 155 204
123 156 204
122 155 204
122 155 204
121 154 204
123 156 204
122 155 204
121 154 204
122 155 204
123 155 204
121 155 204
121 154 204
122 155 204
121 154 204
120 154 204
121 154 204
120 154 204
121 154 204
120 154 204
122 155 204
122 155 204
121 154 204
120 154 204
120 154 204
121 154 204
121 155 204
122 155 204
113 145 196
110 142 193
112 144 194
109 141 193
101 133 188
97 128 182
94 124 179
94 125 180
88 118 172
102 133 186
83 112 167
81 110 163
78 106 162
76 103 159
80 108 163
80 108 160
74 101 157
81 109 164
91 119 171
94 122 174
98 126 176
103 131 181
116 145 193
130 159 202
131 160 202
130 157 198
105 126 157
149 174 211
180 210 255
180 210 255
180 210 255
180 210 255
180 210 255
180 210 255
180 210 255
180 210 255
180 210 255
79 103 158
12 32 87
13 34 94
13 33 89
13 34 91
14 36 101
13 33 78
14 35 92
13 35 86
15 37 93
14 35 88
14 35 89
14 35 92
14 36 93
14 36 92
14 35 85
14 36 94
14 36 89
14 37 99
15 37 98
14 35 84
14 35 83
14 37 92
15 37 97
15 36 97
14 36 90
14 36 89
14 35 85
15 37 86
15 37 91
14 35 83
14 35 79
15 37 97
15 37 99
15 37 89
15 37 97
14 36 88
14 37 88
14 36 89
14 36 89
14 37 92
14 36 97
14 36 87
15 37 97
14 37 89
14 36 90
14 36 95
14 36 88
14 36 94
15 37 93
15 36 90
15 38 95
14 36 89
15 37 94
15 37 93
15 38 102
15 37 92
14 36 89
15 36 92
15 37 89
14 36 89
15 37 90
15 37 98
14 37 94
14 35 76
14 37 93
15 37 96
14 36 91
14 36 89
14 35 87
13 33 76
14 35 77
14 36 91
14 35 82
14 35 87
14 36 91
14 34 81
14 35 85
14 36 92
14 35 90
14 36 97
14 35 88
13 33 84
13 33 87
14 34 86
13 33 84
14 34 86
14 34 94
13 33 80
13 33 89
13 31 75
12 30 71
12 29 75
66 87 133
180 210 255
180 210 255
180 210 255
180 210 255
180 210 255
180 210 255
180 210 255
180 210 255
180 210 255
135 155 174
57 54 22
54 53 24
38 38 18
51 51 23
43 44 21
55 56 28
51 52 26
50 51 25
49 51 25
53 55 26
52 54 27
59 59 27
46 48 24
63 65 30
62 64 30
60 61 29
58 59 28
67 68 33
67 68 33
71 71 32
77 75 33
77 76 36
73 72 31
74 73 34
82 82 35
87 84 38
92 88 37
84 82 37
81 79 34
80 78 33
81 79 32
99 95 40
87 85 37
85 83 35
87 85 35
105 100 42
98 95 40
94 91 38
97 93 37
97 94 39
97 93 38
101 96 39
94 91 36
95 91 37
103 98 39
99 95 38
105 100 40
111 106 42
110 103 38
107 102 40
113 106 41
106 101 39
111 105 41
110 103 41
109 104 42
117 109 40
102 96 34
111 104 41
111 106 42
116 108 42
112 105 38
107 101 37
117 109 40
109 104 38
109 104 39
110 105 43
119 112 42
119 110 41
113 106 41
118 110 43
110 104 40
114 106 37
116 110 39
114 108 42
115 107 39
114 108 40
113 106 40
116 109 39
109 103 36
115 108 40
116 109 40
118 110 38
115 107 39
119 110 40
117 109 39
113 104 36
118 110 38
117 109 39
110 103 41
111 103 38
118 109 39
113 106 39
112 105 39
107 100 38
105 100 36
112 105 38
112 104 37
106 98 34
119 109 42
109 101 35
115 107 36
112 104 33
106 101 34
117 109 40
112 104 36
108 101 34
116 107 37
104 98 36
106 98 36
110 102 36
105 97 34
102 94 34
110 102 35
111 103 37
102 96 35
109 103 39
108 101 35
108 101 34
100 94 32
94 88 30
107 99 32
98 90 29
109 102 33
105 99 32
107 99 34
105 97 33
101 95 30
108 101 34
106 97 35
90 84 27
95 89 31
95 88 27
96 89 30
106 98 31
87 81 27
97 90 33
89 83 31
104 96 35
94 88 29
100 92 33
98 91 30
92 86 27
98 90 30
138 164 204
138 165 204
137 164 204
137 164 204
136 163 204
136 163 204
135 163 204
135 162 204
134 162 204
135 163 204
136 163 204
134 162 204
134 162 204
135 163 204
134 162 204
134 162 204
135 163 204
133 162 204
134 162 204
135 163 204
133 162 204
134 162 204
133 162 204
134 162 204
132 161 204
133 162 204
133 162 204
133 161 204
134 162 204
134 162 204
132 161 204
132 161 204
132 161 204
132 161 204
132 161 204
131 161 204
130 160 204
132 161 204
132 161 204
130 160 204
129 159 204
132 161 204
131 160 204
130 160 204
130 160 204
129 159 204
130 160 204
128 159 204
130 159 204
130 159 204
129 159 204
130 160 204
128 159 204
128 159 204
130 159 204
130 160 204
129 159 204
127 158 204
129 159 204
128 158 204
128 159 204
128 159 204
128 158 204
127 158 204
127 158 204
126 157 204
127 158 204
127 158 204
126 158 204
127 158 204
127 158 204
128 158 204
127 158 204
125 157 204
127 158 204
125 156 204
125 157 204
125 157 204
125 157 204
124 156 204
124 156 204
125 157 204
124 156 204
125 157 204
124 156 204
124 156 204
124 156 204
124 156 204
124 156 204
124 156 204
123 156 204
123 156 204
124 156 204
123 156 204
125 156 204
124 156 204
123 156 204
124 156 204
122 155 204
124 156 204
122 155 204
124 156 204
123 155 204
123 155 204
123 156 204
122 155 204
121 154 204
122 155 204
122 155 204
122 155 204
122 155 204
123 156 204
122 155 204
122 155 204
121 153 202
113 146 197
121 154 203
104 134 186
111 142 193
105 136 187
97 127 180
91 121 175
84 113 166
86 115 170
75 103 161
74 101 153
79 108 164
64 90 146
69 96 152
79 107 161
59 84 142
74 100 155
75 102 156
72 97 150
77 104 159
69 93 149
84 110 163
81 106 161
101 128 179
111 138 183
131 159 202
132 160 202
130 156 194
120 141 173
177 206 250
181 211 255
181 211 255
181 211 255
181 211 255
181 211 255
181 211 255
181 211 255
166 195 241
16 36 91
13 33 100
12 32 85
14 35 91
13 35 90
14 36 99
13 32 81
13 35 85
14 35 86
14 35 93
14 35 88
14 36 93
14 36 97
14 36 93
14 35 75
13 35 86
14 36 95
14 36 84
14 35 78
15 37 96
15 37 101
14 36 89
14 36 91
14 36 91
15 37 99
14 36 87
14 36 86
15 37 102
14 36 93
15 37 92
14 37 93
14 36 84
14 36 90
15 37 98
14 34 84
14 36 89
15 37 94
15 37 97
14 35 78
14 36 95
14 36 91
15 37 95
15 37 99
14 36 85
14 36 84
15 37 89
15 37 98
14 36 88
14 36 81
14 35 80
14 36 84
15 37 99
15 38 98
14 36 82
15 36 93
15 36 91
15 37 92
14 36 92
14 35 84
14 36 83
14 36 85
15 37 93
14 35 78
14 35 86
14 35 80
13 34 84
14 36 87
14 35 89
14 35 85
14 35 83
14 35 80
14 35 86
14 35 80
14 35 80
14 36 90
14 36 92
14 35 73
14 35 85
14 36 85
14 35 88
14 35 86
14 34 80
14 34 86
14 34 80
13 34 85
13 34 88
14 35 94
12 31 75
13 33 76
12 30 80
14 34 96
13 31 77
11 28 76
12 28 77
156 184 229
181 211 255
181 211 255
181 211 255
181 211 255
181 211 255
181 211 255
181 211 255
174 203 246
73 76 56
47 45 19
48 49 24
56 56 26
48 49 24
50 51 24
44 46 23
47 48 23
54 54 25
46 47 23
53 53 25
52 52 25
66 67 31
69 69 32
58 60 28
55 56 27
66 66 31
66 66 31
66 66 30
68 67 30
68 68 32
70 71 34
68 68 32
68 68 31
70 68 30
70 69 30
76 75 34
82 81 35
85 83 36
88 86 37
87 86 35
82 80 34
92 88 36
85 83 33
85 84 36
88 86 36
86 84 35
95 92 38
97 94 38
91 87 36
96 92 36
109 103 40
97 92 37
107 102 41
104 99 37
105 99 40
112 105 42
107 103 42
100 96 37
105 99 37
108 102 38
105 99 36
109 102 39
105 99 37
107 102 41
114 108 41
108 103 39
108 102 38
115 109 41
109 101 38
108 103 39
113 106 41
121 113 41
114 108 39
116 110 43
116 109 40
112 106 39
112 105 40
111 104 38
116 109 40
114 107 36
113 105 35
121 112 42
116 108 43
116 108 38
114 106 40
112 106 38
112 105 40
112 105 38
113 107 38
109 102 36
113 106 38
112 106 35
113 106 40
114 108 38
115 108 38
120 112 43
119 111 38
112 104 37
120 110 39
106 99 34
120 111 40
108 99 33
112 104 35
120 112 39
113 105 39
113 105 38
112 105 36
112 104 33
113 106 38
113 104 37
113 106 38
107 100 32
111 104 38
112 104 36
109 101 35
108 102 36
113 104 39
108 102 37
117 108 41
107 100 34
106 98 31
103 95 31
108 101 37
110 103 36
107 100 32
106 98 33
99 93 32
100 94 32
109 101 34
104 97 33
100 94 32
107 100 32
109 103 38
105 97 32
98 92 29
101 93 30
93 87 31
103 96 32
106 99 34
99 92 31
106 99 35
91 85 29
100 92 31
94 87 29
99 92 32
109 101 35
102 95 33
103 96 32
105 97 30
96 89 31
109 101 33
101 94 33
100 95 33
138 164 204
138 165 204
138 165 204
139 165 204
136 164 204
139 165 204
136 163 204
137 164 204
137 164 204
136 163 204
136 163 204
136 163 204
136 163 204
136 163 204
137 164 204
136 164 204
136 163 204
134 162 204
134 162 204
134 162 204
135 163 204
134 162 204
132 161 204
135 163 204
133 161 204
134 162 204
134 162 204
135 163 204
132 161 204
133 162 204
134 162 204
132 161 204
133 162 204
132 161 204
132 161 204
131 161 204
131 161 204
132 161 204
133 162 204
132 161 204
131 160 204
132 161 204
131 160 204
131 161 204
130 160 204
130 160 204
131 160 204
131 160 204
131 160 204
132 161 204
130 160 204
130 160 204
130 159 204
131 160 204
130 159 204
128 159 204
129 159 204
130 160 204
129 159 204
129 159 204
127 158 204
129 159 204
127 158 204
129 159 204
129 159 204
128 159 204
129 159 204
129 159 204
128 159 204
127 158 204
128 159 204
126 158 204
128 158 204
127 158 204
127 158 204
127 158 204
127 158 204
127 158 204
126 157 204
127 158 204
127 158 204
126 157 204
126 157 204
126 157 204
126 157 204
125 157 204
126 157 204
125 157 204
125 157 204
124 156 204
124 156 204
125 157 204
125 157 204
124 156 204
125 157 204
125 157 204
124 156 204
125 157 204
123 155 204
124 156 204
124 156 204
125 157 204
123 156 204
124 156 204
124 156 204
122 155 204
124 156 204
123 156 204
124 156 204
124 156 204
124 156 204
124 156 204
122 155 204
124 156 204
120 152 200
109 140 189
111 141 189
105 135 184
100 130 182
96 126 177
95 126 180
91 121 173
79 107 159
76 103 159
77 105 159
58 83 138
75 102 155
61 86 145
66 92 150
55 79 136
60 84 137
56 81 136
61 86 143
62 87 145
63 87 144
61 84 138
72 97 151
73 97 151
91 117 167
92 119 170
112 139 186
131 159 202
125 151 190
107 128 159
136 159 194
181 211 255
181 211 255
181 211 255
181 211 255
181 211 255
181 211 255
181 211 255
88 112 165
13 33 95
12 32 89
13 34 93
13 33 87
14 35 91
13 34 86
13 33 83
14 35 79
14 36 103
14 35 92
14 35 96
14 35 80
14 36 85
14 36 91
14 35 87
14 36 96
14 36 92
14 36 91
15 37 87
14 36 90
14 35 84
14 36 94
14 36 85
14 36 96
14 37 97
14 36 86
15 37 97
14 37 100
14 36 87
14 36 86
13 34 83
14 35 84
14 36 85
15 37 89
14 36 98
14 36 93
15 37 91
14 36 90
15 37 95
14 36 89
15 36 85
14 36 93
15 37 93
14 36 94
15 37 97
14 36 84
14 36 92
14 36 83
15 37 98
14 36 80
14 36 86
15 37 99
15 37 90
14 36 93
14 36 84
14 36 98
14 35 84
15 37 97
14 36 95
15 37 96
14 36 87
14 36 84
14 35 93
15 37 91
14 36 90
14 36 90
14 36 89
14 35 84
14 35 84
14 35 81
14 36 80
15 37 102
14 36 94
14 35 81
14 35 85
14 34 80
14 35 86
14 34 81
14 35 91
14 35 95
14 36 92
14 35 91
13 34 80
13 32 77
14 34 86
13 32 78
12 31 75
12 30 71
12 29 74
13 32 81
13 32 82
12 30 77
13 31 76
11 28 68
93 116 159
181 211 255
181 211 255
181 211 255
181 211 255
181 211 255
181 211 255
181 211 255
144 163 183
64 61 26
54 53 24
49 49 22
58 57 26
42 42 20
49 49 23
42 43 22
51 53 25
57 58 29
64 64 29
51 52 26
57 59 29
51 53 25
52 53 26
58 59 28
57 58 27
64 64 29
67 68 32
66 67 32
64 65 32
68 68 31
65 65 30
75 74 32
80 79 35
79 78 34
75 74 33
79 78 33
81 79 35
81 80 33
84 82 34
88 86 38
80 79 35
88 85 33
96 93 40
101 97 41
91 88 35
86 83 34
92 89 35
99 96 39
91 88 35
100 96 39
102 99 42
102 97 40
105 99 39
104 98 37
105 100 40
106 100 40
112 106 38
110 105 41
108 103 39
113 106 42
106 99 38
110 105 43
112 105 37
110 103 36
111 104 39
110 104 36
112 106 40
116 108 42
107 102 37
113 106 38
105 100 38
117 111 43
107 102 35
118 111 43
116 108 39
115 108 38
117 110 40
113 106 39
114 106 37
122 112 43
116 108 39
121 112 44
107 102 35
117 110 38
117 108 39
111 106 42
120 110 39
115 107 38
114 107 39
116 109 42
116 107 39
117 109 42
127 116 46
109 103 34
118 109 40
110 102 35
115 107 38
115 108 35
114 106 40
110 104 34
113 105 36
111 104 35
119 110 40
112 105 37
114 105 37
117 109 38
112 104 33
108 101 36
110 103 34
107 100 34
112 103 32
115 106 37
112 104 35
111 103 37
113 104 36
101 95 30
116 108 37
109 101 35
107 100 33
106 99 36
108 101 35
103 97 34
105 97 32
108 100 37
108 100 33
107 100 34
100 93 34
103 95 34
111 104 36
106 98 32
103 95 34
106 99 31
98 91 29
109 101 33
104 98 33
106 97 32
102 96 35
99 92 31
107 99 36
100 92 28
98 92 27
99 92 32
108 102 36
108 99 35
93 87 26
100 93 30
92 86 27
91 84 24
91 86 28
105 98 34
101 94 29
98 90 28
101 95 32
139 165 204
138 165 204
138 165 204
139 165 204
139 165 204
138 165 204
138 165 204
138 164 204
137 164 204
136 164 204
138 164 204
136 163 204
137 164 204
136 164 204
137 164 204
137 164 204
136 163 204
136 164 204
135 163 204
136 163 204
137 164 204
137 164 204
136 163 204
135 163 204
135 163 204
134 162 204
134 162 204
133 162 204
135 163 204
135 163 204
133 162 204
133 161 204
133 162 204
134 162 204
134 162 204
135 163 204
133 162 204
134 162 204
133 162 204
133 162 204
131 160 204
131 161 204
133 162 204
133 162 204
133 161 204
131 160 204
131 160 204
132 161 204
131 160 204
132 161 204
130 160 204
132 161 204
132 161 204
130 160 204
131 160 204
131 160 204
130 160 204
130 160 204
130 160 204
131 160 204
130 159 204
129 159 204
129 159 204
131 160 204
130 160 204
129 159 204
129 159 204
130 160 204
129 159 204
129 159 204
130 159 204
128 158 204
129 159 204
126 157 204
128 158 204
127 158 204
127 158 204
128 158 204
127 158 204
127 158 204
128 158 204
127 158 204
126 157 204
126 157 204
128 158 204
127 158 204
127 158 204
127 158 204
127 158 204
125 157 204
125 157 204
127 158 204
127 158 204
125 157 204
126 157 204
126 157 204
126 158 204
125 157 204
125 157 204
126 157 204
124 156 204
126 157 204
127 158 204
125 156 204
126 157 204
126 157 204
125 157 204
124 156 204
124 156 204
124 156 204
126 157 204
125 157 204
125 157 204
119 150 198
113 145 195
108 138 189
108 138 188
101 131 183
92 120 171
94 123 174
78 105 157
83 111 165
81 109 159
82 111 165
56 80 132
65 91 146
58 82 139
58 82 137
42 64 118
56 80 135
54 78 130
45 67 120
46 68 119
43 64 121
52 75 130
68 92 145
61 84 138
74 99 153
73 96 149
86 111 163
85 110 157
116 143 187
130 157 198
109 131 163
116 136 166
180 209 253
182 211 255
182 211 255
182 211 255
182 211 255
182 211 255
180 209 254
35 56 123
12 32 97
13 34 101
13 34 95
13 34 95
14 35 89
14 36 93
14 34 90
14 35 90
14 35 86
13 34 82
14 36 89
14 35 91
13 34 83
14 36 90
14 36 99
14 36 88
14 35 79
14 35 86
14 35 89
14 36 87
14 36 94
14 34 78
14 35 88
14 35 89
14 35 86
14 36 88
14 35 82
15 37 102
15 37 94
14 36 83
15 37 97
15 38 101
15 37 89
15 37 97
15 36 90
15 37 92
14 36 97
14 36 93
14 36 89
14 37 94
14 36 81
14 36 89
15 37 90
15 37 92
15 37 89
14 35 82
14 36 87
14 36 80
14 36 83
14 35 85
14 36 92
15 37 92
15 37 94
15 37 92
15 37 92
14 35 90
14 36 95
14 35 79
14 36 83
14 36 83
14 36 84
14 36 91
13 34 78
14 36 82
14 36 87
14 34 83
14 34 75
14 35 83
14 35 84
14 35 81
14 34 80
14 35 78
14 35 84
14 35 85
14 35 88
14 36 89
14 35 84
14 36 90
14 34 79
13 33 77
14 34 88
14 35 92
13 33 82
14 34 90
14 35 81
14 34 88
13 33 78
14 34 81
13 32 77
13 32 77
13 32 77
13 31 80
12 29 71
12 29 71
16 32 75
175 203 246
182 211 255
182 211 255
182 211 255
182 211 255
182 211 255
181 210 253
76 81 69
52 51 23
48 48 23
34 35 17
42 43 22
51 52 26
47 50 25
47 49 24
55 57 28
43 44 21
48 50 25
43 45 22
53 54 25
57 59 29
48 50 25
56 58 27
63 64 29
58 59 27
67 68 30
69 69 31
67 68 31
59 59 28
67 66 30
73 72 31
79 77 33
77 76 32
83 80 34
90 87 38
86 84 36
79 78 34
80 78 32
84 83 35
84 83 36
86 84 33
87 84 33
87 84 34
83 82 35
91 87 36
105 101 42
102 98 40
103 98 39
107 100 39
103 98 37
101 96 39
110 106 43
109 103 38
100 95 38
109 103 39
98 94 35
103 98 36
112 106 41
107 102 39
104 98 36
111 104 40
110 103 39
111 105 39
106 100 37
112 105 39
114 107 40
108 102 38
109 103 35
111 104 39
114 108 40
115 108 41
118 110 38
115 107 40
114 107 40
118 110 41
113 105 36
115 106 38
113 106 40
115 107 37
120 112 44
114 109 38
119 111 41
118 110 41
116 109 40
121 111 39
113 106 39
115 108 40
115 107 37
119 110 41
112 104 33
115 107 34
114 108 37
116 107 38
110 102 33
120 112 41
113 106 38
112 103 34
117 109 38
116 108 36
110 104 34
111 103 33
119 111 42
121 112 41
112 104 36
109 102 35
112 106 35
114 106 34
111 104 35
111 104 36
116 107 39
108 101 31
105 98 32
108 101 34
104 97 37
111 103 37
113 105 34
105 98 30
104 97 33
108 101 35
109 102 35
103 96 32
109 101 36
111 103 34
108 101 36
107 99 34
106 99 35
110 103 36
106 100 34
112 104 36
106 99 32
108 99 34
106 99 32
110 102 33
103 96 34
104 96 30
99 91 29
104 96 31
102 95 32
104 96 33
96 89 27
101 93 30
99 93 30
97 90 29
106 99 35
103 96 33
96 89 27
96 89 30
110 102 35
95 88 30
96 91 30
90 83 25
92 86 29
138 164 204
139 165 204
137 164 204
139 165 204
139 165 204
139 165 204
138 165 204
138 164 204
137 164 204
139 165 204
139 165 204
138 164 204
138 164 204
139 165 204
136 163 204
138 164 204
138 164 204
138 164 204
135 163 204
138 164 204
136 163 204
137 164 204
136 164 204
134 162 204
135 163 204
136 164 204
137 164 204
135 163 204
137 164 204
134 162 204
135 163 204
136 163 204
135 163 204
135 163 204
136 163 204
134 162 204
135 162 204
134 162 204
134 162 204
132 161 204
135 162 204
133 161 204
134 162 204
132 161 204
133 162 204
132 161 204
131 161 204
134 162 204
132 161 204
133 162 204
132 161 204
132 161 204
132 161 204
131 161 204
132 161 204
131 160 204
131 160 204
131 160 204
131 160 204
132 161 204
130 160 204
132 161 204
131 160 204
131 160 204
131 160 204
132 161 204
130 159 204
130 160 204
131 160 204
130 160 204
130 160 204
130 160 204
129 159 204
129 159 204
129 159 204
129 159 204
130 160 204
129 159 204
129 159 204
129 159 204
130 160 204
129 159 204
128 158 204
127 158 204
129 159 204
129 159 204
128 159 204
128 159 204
128 158 204
129 159 204
127 158 204
126 158 204
128 158 204
127 158 204
127 158 204
126 157 204
127 158 204
126 158 204
127 158 204
126 157 204
126 157 204
127 158 204
127 158 204
126 158 204
127 158 204
127 158 204
128 158 204
126 157 204
125 157 204
125 157 204
126 157 204
126 157 204
126 156 203
124 154 200
101 130 181
103 132 182
103 133 183
95 124 176
99 128 176
99 128 180
79 105 156
79 106 158
68 93 148
71 97 152
60 85 140
49 72 121
48 70 128
59 83 137
52 75 129
47 69 125
39 61 118
56 79 135
40 62 119
41 62 118
42 63 117
42 62 119
49 70 125
63 86 140
63 85 140
73 97 148
83 107 155
109 135 181
112 138 183
126 150 186
108 129 159
155 181 219
182 212 255
182 212 255
182 212 255
182 212 255
182 212 255
131 156 203
12 30 85
12 32 83
13 33 89
13 34 92
14 35 98
14 35 82
13 34 85
14 35 90
14 35 92
13 34 90
14 35 95
14 35 90
14 35 83
13 34 78
14 35 90
15 37 94
14 36 93
14 36 91
14 36 84
15 37 90
14 35 85
14 35 82
14 35 82
14 36 87
14 35 85
14 36 93
14 36 94
14 36 82
15 37 88
14 36 91
13 34 78
14 35 79
15 37 89
14 36 85
14 34 72
14 36 81
14 35 76
14 36 84
14 36 84
14 36 81
14 35 80
15 37 84
15 37 91
14 36 83
14 36 89
14 36 80
13 34 74
14 36 90
14 36 85
14 37 92
15 37 100
14 36 87
14 37 88
14 36 89
14 36 84
14 36 89
14 36 88
14 36 81
14 36 84
14 36 81
14 36 85
15 37 97
15 37 86
14 36 89
14 34 82
14 35 79
14 36 89
14 35 83
14 35 84
14 36 89
14 35 82
14 35 79
14 34 76
14 35 78
15 37 93
14 35 84
13 34 70
13 33 75
15 37 102
14 34 86
14 36 87
14 35 77
13 33 80
13 33 81
13 33 74
13 32 83
13 34 85
13 33 89
13 33 82
14 34 93
13 31 70
14 34 81
12 30 68
12 29 79
12 29 70
13 31 76
146 173 221
182 212 255
182 212 255
182 212 255
182 212 255
182 212 255
141 161 180
49 48 20
50 49 22
41 41 19
53 53 23
49 50 24
50 51 25
34 37 20
37 39 19
37 40 20
48 50 25
37 39 19
53 55 28
52 53 25
47 48 23
56 57 28
59 60 28
59 60 28
57 58 27
73 73 33
77 76 33
57 59 27
67 66 29
60 60 28
74 73 32
71 72 31
72 70 28
77 75 31
74 72 31
81 79 34
78 76 33
80 79 35
82 81 31
93 90 39
82 79 34
98 94 39
101 96 37
86 83 32
88 86 35
90 87 35
95 92 36
104 99 40
99 94 36
100 96 37
98 94 40
99 95 35
108 103 38
98 94 35
98 94 39
98 93 35
108 103 40
105 100 38
105 100 39
106 101 38
111 105 40
115 108 42
107 103 36
109 104 38
116 109 40
114 108 39
115 108 40
106 100 36
115 107 39
109 103 40
117 109 39
109 102 37
107 101 35
115 106 36
113 107 39
121 113 43
112 105 37
114 106 38
115 107 37
117 110 41
114 107 37
111 104 36
117 109 40
114 107 36
119 111 39
114 107 36
118 110 37
114 106 39
119 111 41
113 106 34
112 103 35
119 110 37
120 111 41
113 106 38
116 108 37
114 108 39
117 108 35
119 110 39
107 101 33
115 108 36
115 106 38
115 106 35
114 107 32
112 104 34
114 105 34
110 102 32
117 109 38
112 105 39
108 100 34
108 100 35
111 103 32
114 105 35
105 98 34
109 102 34
114 106 36
110 102 34
112 104 35
109 102 34
108 100 32
105 97 34
110 101 35
111 103 34
107 101 34
107 98 34
104 97 33
110 103 36
105 97 32
114 106 35
108 100 34
105 98 30
105 97 33
106 99 32
101 94 33
99 92 31
104 97 32
105 98 34
100 94 31
109 101 35
96 90 30
101 94 28
95 88 30
102 95 31
100 93 34
103 95 30
94 88 31
100 93 32
90 83 27
101 94 30
94 88 30
102 95 29
100 93 29
94 87 28
139 165 204
138 165 204
139 165 204
141 166 204
139 165 204
140 166 204
140 166 204
138 165 204
139 165 204
138 164 204
139 165 204
137 164 204
137 164 204
138 165 204
138 164 204
138 164 204
138 165 204
137 164 204
138 165 204
138 165 204
137 164 204
137 164 204
137 164 204
136 163 204
135 163 204
137 164 204
136 163 204
136 164 204
136 163 204
136 163 204
137 164 204
135 163 204
136 163 204
136 163 204
137 164 204
135 163 204
136 163 204
134 162 204
135 163 204
134 162 204
135 163 204
136 163 204
133 162 204
137 164 204
135 163 204
132 161 204
134 162 204
133 162 204
134 162 204
134 162 204
133 161 204
133 162 204
133 162 204
133 162 204
132 161 204
134 162 204
132 161 204
133 161 204
133 162 204
133 161 204
133 161 204
133 161 204
132 161 204
131 161 204
132 161 204
132 161 204
130 160 204
132 161 204
132 161 204
131 160 204
131 160 204
131 161 204
132 161 204
132 161 204
132 161 204
129 159 204
133 162 204
129 159 204
132 161 204
130 160 204
130 160 204
129 159 204
131 160 204
130 160 204
130 160 204
129 159 204
128 159 204
127 158 204
129 159 204
130 159 204
130 159 204
129 159 204
128 159 204
130 160 204
127 158 204
128 159 204
129 159 204
128 158 204
129 159 204
128 158 204
128 159 204
128 159 204
129 159 204
129 159 204
129 159 204
128 158 204
129 159 204
129 159 204
127 158 204
127 158 204
129 159 204
126 156 202
123 153 199
120 150 198
109 138 186
101 129 176
96 123 171
100 128 177
88 115 163
82 109 160
77 103 154
80 107 155
59 83 131
71 97 148
50 73 121
54 78 129
47 69 119
55 79 126
36 56 114
38 59 112
33 54 110
28 48 106
32 52 108
36 55 108
32 51 107
42 63 119
36 55 110
39 59 114
52 73 125
57 78 131
76 99 148
91 115 162
102 127 171
123 148 187
116 138 172
114 134 163
183 212 255
183 212 255
183 212 255
183 212 255
183 212 255
82 106 156
12 32 86
13 32 89
12 32 80
13 34 89
13 34 90
13 35 95
14 35 87
14 35 89
13 32 73
14 36 90
14 36 97
14 35 93
14 36 86
14 35 86
14 35 85
14 35 83
14 35 82
14 36 92
14 35 78
14 36 95
15 36 87
13 34 70
14 35 81
14 35 87
15 37 93
14 34 79
14 36 84
15 37 95
14 36 84
14 36 93
14 34 79
15 37 94
14 35 89
14 35 80
14 35 86
14 35 76
14 36 87
14 35 80
14 36 91
14 36 90
14 36 82
14 35 81
14 36 87
15 37 93
14 36 84
14 36 85
14 36 81
14 36 80
14 36 91
14 37 90
14 36 85
15 36 91
15 37 92
14 36 87
15 37 100
15 36 92
14 36 90
14 37 93
14 36 87
14 35 83
13 34 73
15 37 88
14 36 86
14 35 79
14 35 83
14 36 90
14 35 83
13 33 73
14 35 88
14 36 83
14 36 97
14 36 87
14 35 78
14 35 77
14 36 96
14 36 99
14 35 94
13 33 70
14 34 85
14 35 82
14 36 84
14 35 88
14 34 84
14 34 83
13 34 87
14 34 84
13 33 77
14 33 75
13 31 72
12 30 67
13 33 81
12 31 72
12 29 62
13 31 74
13 31 80
12 29 66
69 90 130
183 212 255
183 212 255
183 212 255
183 212 255
183 212 255
89 95 86
53 50 21
40 40 18
38 39 18
31 33 16
39 40 19
39 41 20
36 38 19
43 44 21
47 50 25
40 42 21
49 51 25
33 35 17
48 50 24
44 46 23
52 54 26
50 50 25
58 59 26
51 53 24
61 62 26
70 69 31
66 65 28
65 66 29
75 74 33
75 73 30
75 75 32
73 71 30
73 71 30
83 80 33
80 78 34
80 79 32
81 79 33
81 78 28
85 83 35
76 75 30
93 90 38
90 86 32
95 90 35
89 87 32
96 92 37
99 94 35
91 88 35
101 96 38
103 98 36
100 95 37
103 98 37
107 101 38
109 103 39
107 101 36
102 96 36
113 106 40
104 99 37
103 98 37
108 102 38
112 104 39
109 103 38
107 101 36
108 101 34
110 104 35
115 106 36
111 104 37
112 105 38
112 105 37
114 108 37
113 105 39
116 108 40
105 100 34
112 105 36
115 108 38
115 108 40
114 107 38
115 109 39
112 105 39
116 109 40
114 105 36
118 109 40
121 112 42
113 106 36
119 110 39
120 111 41
113 106 36
116 108 35
116 108 37
116 108 38
113 106 34
113 105 34
116 107 38
118 110 37
115 107 37
102 95 29
118 108 35
108 102 35
115 106 38
118 109 39
115 108 39
114 105 33
119 111 41
114 106 37
104 98 34
106 99 31
108 100 35
117 108 36
112 104 36
109 101 35
115 108 35
106 98 34
108 101 34
107 100 34
113 105 32
117 108 38
112 103 38
108 102 35
117 108 36
108 100 35
110 103 32
110 102 32
113 104 35
98 90 28
112 104 35
110 103 33
109 102 34
105 97 32
102 94 32
101 95 29
111 103 33
110 103 34
106 100 34
96 90 31
104 97 34
97 90 27
101 93 29
94 86 27
100 93 30
101 94 30
104 97 32
104 98 33
95 89 27
94 88 30
102 94 33
98 91 31
89 83 28
99 90 31
107 98 35
95 87 28
92 86 26
92 85 24
141 166 204
140 166 204
141 167 204
140 166 204
141 166 204
139 165 204
138 165 204
140 166 204
141 166 204
140 166 204
142 167 204
139 165 204
139 165 204
138 165 204
139 165 204
140 166 204
138 165 204
139 165 204
137 164 204
138 165 204
138 165 204
138 165 204
138 164 204
137 164 204
136 163 204
137 164 204
137 164 204
137 164 204
137 164 204
137 164 204
137 164 204
136 163 204
138 164 204
137 164 204
138 164 204
137 164 204
137 164 204
136 163 204
138 164 204
135 163 204
134 162 204
136 164 204
135 163 204
136 163 204
135 163 204
136 164 204
137 164 204
137 164 204
137 164 204
135 162 204
133 162 204
134 162 204
134 162 204
135 163 204
134 162 204
134 162 204
133 162 204
133 162 204
134 162 204
133 161 204
132 161 204
132 161 204
135 162 204
133 162 204
133 161 204
133 162 204
132 161 204
133 161 204
131 161 204
132 161 204
133 161 204
133 161 204
131 160 204
132 161 204
131 160 204
133 161 204
133 162 204
132 161 204
131 160 204
131 160 204
131 160 204
131 161 204
131 161 204
132 161 204
132 161 204
130 160 204
131 161 204
131 161 204
131 160 204
131 160 204
130 159 204
131 160 204
128 159 204
130 160 204
131 160 204
130 160 204
128 158 204
129 159 204
129 159 204
128 159 204
129 159 204
130 160 204
129 159 204
129 159 204
127 158 204
129 159 204
130 160 204
130 160 204
128 159 204
129 159 204
128 159 204
125 155 200
121 151 197
121 151 197
108 137 185
107 135 184
91 118 166
102 130 178
86 113 164
74 99 149
80 106 155
71 96 144
73 99 150
51 74 123
55 78 130
40 62 111
49 72 123
40 61 110
31 51 104
32 53 107
26 44 97
25 44 102
25 43 97
27 47 100
20 36 85
24 41 96
35 54 107
29 46 101
48 68 119
53 73 125
56 76 125
64 84 132
100 124 170
109 133 176
118 141 177
114 135 165
171 198 238
183 212 255
183 212 255
183 212 255
171 199 243
18 38 97
12 31 78
12 32 81
13 34 93
12 32 89
14 34 87
14 35 94
13 34 83
14 35 83
14 35 91
13 35 91
14 36 90
14 35 88
13 33 81
13 35 85
14 35 84
14 35 89
14 36 91
14 36 87
14 35 80
14 35 79
14 35 86
14 36 84
14 36 86
13 34 80
13 34 68
14 35 86
15 37 82
14 36 85
14 36 83
15 36 84
14 35 80
14 35 80
14 35 81
14 36 86
14 36 93
14 35 83
14 35 66
14 35 81
14 36 81
14 35 79
15 37 89
14 35 81
14 36 87
14 36 89
15 37 85
14 36 79
14 36 85
14 35 83
14 36 84
14 35 72
14 36 91
14 36 90
14 36 88
14 36 83
14 35 80
14 36 83
14 36 87
14 35 87
14 35 83
14 36 87
14 35 82
14 36 80
14 36 87
14 35 84
14 35 78
15 37 89
14 35 86
14 36 88
13 33 73
14 35 81
13 33 76
14 36 88
14 36 88
14 36 88
14 35 83
14 34 80
14 35 93
13 33 61
14 36 86
14 34 85
14 35 75
14 35 80
14 35 91
13 34 75
14 34 78
12 31 62
14 34 81
14 33 86
13 32 72
13 32 78
12 31 72
13 32 72
13 31 74
12 30 76
12 28 54
12 28 63
18 33 67
173 200 241
183 212 255
183 212 255
183 212 255
165 188 213
58 56 23
43 43 20
34 34 16
33 33 17
44 45 22
39 40 20
35 36 18
35 38 20
37 40 21
38 39 19
36 38 18
35 38 21
39 41 20
46 49 24
40 42 21
49 51 22
61 62 28
44 46 22
63 63 28
61 62 29
60 61 28
64 64 30
72 71 31
78 78 34
62 62 28
73 72 32
66 65 28
82 79 33
65 66 28
71 70 30
84 82 33
87 84 35
74 73 30
85 82 33
76 75 31
90 86 34
93 90 36
98 93 37
97 91 35
103 98 36
92 88 34
98 93 35
104 99 38
101 97 37
98 93 36
108 102 39
105 98 38
103 97 38
105 100 38
107 101 39
109 102 37
109 103 37
104 99 38
108 102 40
111 106 39
107 102 36
109 103 37
108 101 35
114 106 37
98 93 33
114 107 37
112 104 37
117 108 41
115 107 40
112 106 38
117 109 40
112 105 37
123 114 42
116 109 39
120 111 40
113 107 38
111 104 39
116 109 40
117 108 39
115 107 37
119 110 41
118 110 36
110 102 35
118 110 38
114 107 32
121 112 39
115 106 38
119 109 36
114 106 38
115 106 35
110 103 36
110 104 35
117 108 36
120 111 39
113 105 34
118 110 39
108 102 36
115 106 35
111 102 36
110 103 32
118 108 37
117 108 38
118 110 40
113 104 35
117 109 36
115 107 36
115 107 34
116 108 35
113 105 37
111 104 33
108 102 34
109 102 38
115 107 36
109 102 35
109 101 34
108 101 33
106 99 33
107 100 34
114 105 34
107 99 34
108 100 33
102 95 29
103 95 32
111 103 36
106 98 34
108 101 34
105 97 33
110 101 33
95 89 27
107 99 32
101 94 30
107 99 33
103 96 29
104 96 32
97 90 30
104 96 31
98 91 30
108 100 33
100 92 30
101 93 31
104 97 30
101 94 32
99 93 30
106 98 33
96 88 31
98 92 28
102 95 29
100 92 29
101 94 28
93 86 28
94 88 29
142 167 204
142 167 204
142 167 204
141 166 204
141 166 204
141 166 204
142 167 204
140 166 204
141 166 204
139 165 204
140 166 204
140 166 204
140 166 204
139 165 204
140 166 204
139 165 204
140 166 204
139 165 204
138 164 204
140 166 204
138 165 204
140 166 204
139 165 204
139 165 204
140 166 204
138 165 204
138 165 204
139 165 204
139 165 204
138 165 204
138 165 204
137 164 204
137 164 204
138 165 204
137 164 204
138 164 204
137 164 204
137 164 204
139 165 204
137 164 204
137 164 204
136 163 204
135 163 204
136 164 204
136 163 204
137 164 204
136 164 204
135 163 204
136 163 204
136 163 204
135 163 204
136 163 204
136 163 204
136 163 204
136 163 204
136 163 204
135 163 204
135 163 204
134 162 204
134 162 204
133 162 204
134 162 204
135 163 204
133 162 204
134 162 204
135 163 204
135 163 204
134 162 204
134 162 204
133 162 204
133 161 204
132 161 204
134 162 204
132 161 204
133 162 204
133 161 204
132 161 204
133 161 204
132 161 204
133 162 204
132 161 204
131 160 204
131 160 204
133 161 204
133 162 204
132 161 204
132 161 204
131 160 204
132 161 204
131 160 204
132 161 204
133 161 204
130 160 204
130 160 204
131 160 204
132 161 204
131 160 204
131 160 204
131 160 204
130 160 204
131 160 204
129 159 204
130 160 204
130 160 204
129 159 204
130 159 204
130 159 204
132 161 204
131 160 204
130 160 204
130 159 204
126 156 201
120 149 193
110 138 183
110 137 180
105 133 179
97 124 174
81 106 151
90 117 169
77 102 151
75 100 153
61 85 133
66 90 137
52 74 126
40 61 115
47 69 119
36 57 109
37 57 112
22 40 87
23 42 96
19 37 88
13 31 88
11 26 81
12 28 81
11 27 83
12 28 82
16 32 82
17 33 85
32 49 100
33 50 102
36 52 97
64 84 129
77 99 144
98 121 166
114 137 177
113 134 165
143 165 200
184 213 255
184 212 255
184 212 255
128 153 196
12 31 92
11 30 80
12 32 86
13 34 88
13 33 84
13 33 82
13 34 89
14 35 88
13 34 77
14 35 96
13 34 80
14 35 84
13 34 83
14 36 88
14 36 89
14 36 82
13 34 81
14 35 81
14 36 86
14 35 82
13 34 82
15 37 90
13 35 86
14 36 97
15 37 98
14 36 89
14 35 83
14 35 87
14 35 82
14 36 76
14 35 85
14 36 89
14 35 72
14 36 86
15 37 90
14 35 84
14 36 91
14 36 94
14 35 81
14 35 85
15 37 95
14 36 81
14 36 85
14 36 85
14 36 88
14 35 85
14 35 83
14 36 85
14 35 70
14 36 87
14 37 88
14 35 78
14 35 79
14 36 83
14 36 76
15 37 87
14 36 84
14 35 83
14 36 83
14 36 80
14 35 79
15 37 94
14 36 81
14 35 80
14 35 74
14 36 89
14 34 72
14 35 82
14 35 84
13 33 73
14 35 84
15 36 91
14 34 76
14 35 76
14 35 87
14 34 78
14 35 84
14 35 85
13 34 78
14 36 84
14 35 80
13 33 77
14 34 79
13 33 79
14 35 81
13 34 82
13 32 67
13 33 75
13 33 77
13 31 65
13 32 82
13 33 77
13 32 78
12 30 71
11 27 66
12 29 66
11 29 70
11 26 57
116 140 184
184 212 255
184 212 255
184 212 255
104 113 112
33 33 16
32 33 16
38 39 18
46 46 22
30 33 16
34 35 17
31 34 18
36 38 19
31 33 17
40 43 22
49 51 25
38 41 21
51 52 25
35 38 20
43 45 22
50 52 25
46 48 22
54 55 27
42 44 20
66 67 31
57 57 25
71 70 31
72 72 30
67 67 29
73 71 30
78 77 32
80 78 34
73 72 29
93 90 35
86 83 36
78 76 28
87 84 34
79 77 33
81 79 33
91 87 36
94 90 36
86 83 31
103 98 41
79 77 28
86 83 30
92 88 31
101 97 36
96 92 34
101 94 36
111 104 44
97 93 38
107 101 37
101 95 33
97 92 34
99 94 33
103 98 34
98 94 29
108 101 37
104 100 36
110 103 36
112 105 37
101 95 34
113 105 37
115 108 37
112 106 39
111 105 37
116 107 37
106 100 37
106 101 32
113 106 38
116 109 36
117 110 42
108 103 37
110 103 35
118 109 38
115 109 37
114 107 38
115 107 36
116 108 36
116 109 39
117 108 37
116 109 38
114 106 37
117 109 38
107 100 31
115 107 35
112 105 35
114 105 36
110 103 33
118 109 37
116 108 35
113 105 37
109 102 33
113 105 34
115 107 36
115 107 37
110 102 33
116 109 37
119 110 38
107 100 33
111 104 35
115 106 35
116 109 39
110 102 34
114 106 36
106 99 33
108 102 35
114 106 35
115 107 37
118 108 37
111 103 34
100 94 31
107 99 29
117 109 36
101 96 29
108 102 29
106 98 33
113 105 35
107 98 31
103 95 29
108 100 33
110 102 31
109 102 34
97 91 28
115 106 38
110 101 33
106 98 33
110 102 34
104 97 33
106 98 33
101 94 28
109 101 36
110 102 33
106 98 33
110 103 31
102 95 27
104 96 31
105 98 29
94 87 28
104 95 28
104 96 32
105 98 32
108 99 33
102 94 31
94 87 24
98 91 25
98 90 28
96 90 28
90 85 24
96 89 28
93 87 27
141 166 204
141 166 204
143 167 204
142 167 204
142 167 204
141 166 204
144 168 204
142 167 204
142 167 204
140 166 204
141 166 204
140 166 204
141 166 204
140 165 204
141 167 204
142 167 204
141 166 204
139 165 204
140 166 204
139 165 204
139 165 204
140 166 204
140 166 204
139 165 204
139 165 204
140 166 204
139 165 204
138 164 204
140 166 204
140 165 204
142 167 204
138 165 204
139 165 204
139 165 204
139 165 204
139 165 204
140 166 204
138 164 204
140 166 204
138 165 204
139 165 204
137 164 204
137 164 204
139 165 204
137 164 204
137 164 204
137 164 204
137 164 204
136 163 204
138 165 204
135 163 204
136 163 204
137 164 204
136 163 204
136 163 204
137 164 204
136 163 204
136 163 204
136 163 204
136 163 204
137 164 204
137 164 204
135 163 204
135 163 204
136 163 204
136 163 204
135 163 204
136 163 204
135 163 204
136 164 204
137 164 204
134 162 204
135 163 204
136 163 204
134 162 204
135 163 204
134 162 204
135 163 204
135 162 204
133 161 204
134 162 204
133 162 204
134 162 204
133 161 204
132 161 204
134 162 204
132 161 204
134 162 204
133 162 204
133 162 204
133 161 204
133 162 204
133 162 204
133 161 204
133 161 204
133 161 204
132 161 204
131 160 204
132 161 204
132 161 204
132 161 204
132 161 204
132 161 204
133 162 204
132 161 204
131 160 204
132 161 204
132 161 204
132 161 204
131 160 204
130 158 199
124 152 193
121 149 191
100 127 170
105 132 178
102 129 174
101 127 171
86 111 160
83 108 153
72 96 140
70 94 141
59 82 131
54 77 124
54 77 126
38 58 107
32 52 106
34 54 112
19 37 87
19 36 86
17 34 80
10 27 84
10 27 81
9 25 74
10 26 79
9 24 71
9 23 75
8 23 73
8 22 72
17 32 83
20 36 88
35 53 104
50 68 115
50 68 114
88 110 154
109 131 169
112 133 166
114 133 163
184 213 255
184 213 255
184 213 255
84 107 157
12 31 85
12 30 77
13 33 80
13 33 75
13 33 81
13 34 85
14 35 97
14 35 88
13 34 80
13 33 79
13 34 80
14 35 87
13 34 75
14 35 86
14 35 85
14 36 98
14 35 86
14 36 89
14 35 80
14 36 89
14 35 77
14 35 82
15 37 91
14 35 83
14 36 86
14 36 82
14 35 78
14 35 79
14 36 90
14 34 74
14 36 82
14 35 88
15 37 90
14 35 84
14 36 81
14 35 80
15 37 84
14 36 87
14 37 89
15 36 90
14 35 75
15 37 91
14 35 85
14 36 90
14 36 91
14 35 81
14 35 78
14 36 86
15 37 85
13 34 75
15 37 89
14 36 87
14 35 70
14 35 80
14 36 89
14 35 78
14 36 87
14 36 83
14 36 89
14 35 76
14 35 70
14 36 88
14 36 83
14 36 79
14 36 81
14 35 81
14 34 78
14 35 78
14 34 86
14 34 80
14 36 83
14 36 85
14 35 81
14 35 76
14 35 72
14 34 81
14 34 85
14 35 83
13 33 70
14 35 85
13 33 81
13 34 77
14 35 85
13 33 70
13 33 80
14 34 78
14 33 75
14 34 83
13 33 77
13 32 75
13 32 68
12 31 70
12 30 71
11 28 63
13 32 78
13 31 78
11 27 59
11 27 58
81 100 130
184 213 255
184 213 255
184 213 255
66 65 33
38 38 17
38 38 16
31 32 15
24 25 12
33 34 17
36 37 18
29 31 16
32 34 17
45 47 24
48 49 23
39 41 21
34 37 19
38 40 20
38 40 20
39 41 19
54 56 26
55 56 26
52 52 24
47 49 22
57 57 25
68 68 29
59 60 27
62 61 26
74 73 30
60 60 25
65 65 26
78 76 31
76 74 29
77 74 26
68 67 28
77 76 31
85 82 33
77 75 28
89 86 34
91 87 35
93 90 34
90 87 36
99 94 35
94 89 34
96 91 32
87 83 33
94 90 32
106 100 37
95 90 35
97 92 36
99 94 35
107 102 37
107 100 37
110 103 38
103 98 34
110 103 36
105 99 34
106 101 38
109 103 40
110 102 35
101 97 33
112 104 36
111 105 36
110 102 34
113 106 39
112 105 36
111 104 36
114 107 37
117 108 40
112 105 39
111 105 39
117 110 37
116 107 37
114 107 37
118 110 39
111 105 39
112 105 33
119 110 39
114 107 36
118 109 39
113 106 33
110 103 32
113 107 34
117 109 36
118 110 39
120 112 39
110 103 31
114 107 35
116 108 35
107 100 31
115 107 36
114 107 38
117 108 36
121 110 37
109 103 34
114 105 34
112 105 33
114 106 35
117 108 37
111 103 34
113 106 36
110 103 36
106 99 30
112 105 32
114 105 34
111 104 33
117 108 37
111 103 35
112 104 34
109 101 35
113 106 34
108 100 29
106 99 33
105 98 31
106 98 32
106 99 34
105 98 33
108 102 30
108 101 31
106 101 31
107 100 32
105 97 29
104 96 32
109 102 35
107 99 32
108 99 32
109 100 30
107 99 34
105 97 29
103 96 28
107 99 34
103 95 30
107 100 32
105 97 31
107 100 31
99 92 28
97 90 30
99 91 28
100 94 31
99 91 29
101 94 30
99 91 28
100 92 32
99 91 29
94 88 27
93 86 26
105 98 31
103 95 29
93 86 30
103 95 30
91 85 26
142 167 204
143 167 204
143 168 204
143 168 204
143 167 204
141 166 204
141 167 204
143 167 204
141 166 204
142 167 204
142 167 204
141 167 204
142 167 204
142 167 204
141 166 204
143 168 204
141 166 204
141 166 204
141 166 204
142 167 204
140 166 204
142 167 204
141 166 204
140 166 204
140 166 204
141 166 204
141 166 204
139 165 204
140 166 204
141 166 204
140 165 204
139 165 204
140 166 204
139 165 204
140 166 204
141 166 204
139 165 204
140 166 204
140 166 204
140 166 204
140 166 204
138 164 204
138 164 204
138 164 204
139 165 204
139 165 204
139 165 204
137 164 204
137 164 204
138 164 204
137 164 204
138 165 204
138 165 204
136 164 204
138 164 204
138 165 204
139 165 204
137 164 204
138 164 204
137 164 204
137 164 204
137 164 204
138 165 204
139 165 204
136 163 204
137 164 204
138 164 204
137 164 204
136 163 204
136 163 204
136 163 204
136 163 204
135 163 204
135 163 204
135 163 204
135 163 204
135 163 204
137 164 204
136 163 204
136 163 204
134 162 204
134 162 204
134 162 204
134 162 204
133 162 204
135 163 204
135 163 204
135 163 204
134 162 204
136 163 204
134 162 204
135 163 204
135 163 204
134 162 204
134 162 204
134 162 204
134 162 204
134 162 204
133 162 204
134 162 204
134 162 204
135 163 204
134 162 204
134 162 204
133 162 204
132 161 204
135 163 204
133 161 204
135 162 204
134 162 204
127 155 200
121 148 191
117 145 185
110 137 179
98 124 167
90 114 161
92 118 165
85 109 151
76 100 146
68 93 140
64 87 137
52 74 119
56 79 126
49 71 118
36 56 102
34 54 107
24 42 90
16 33 78
10 26 76
10 26 73
10 26 78
10 27 81
10 25 78
9 25 73
9 24 73
9 24 73
9 24 75
9 23 73
8 21 71
16 30 81
27 43 91
29 43 88
48 66 110
70 90 135
93 116 158
116 138 173
100 116 141
165 191 228
185 213 255
185 213 255
31 50 100
13 33 90
13 32 89
12 32 75
13 34 80
13 32 82
14 35 89
14 35 84
13 33 80
14 34 92
14 36 83
13 33 80
14 35 86
14 35 81
14 35 86
14 35 83
14 35 84
14 35 86
14 35 79
13 34 78
14 36 92
14 36 83
14 36 91
14 35 80
13 34 74
14 36 82
14 35 83
14 35 73
14 36 86
14 36 83
14 35 79
15 37 95
15 37 89
14 35 75
14 36 93
14 36 83
15 36 92
14 36 84
14 36 79
14 36 92
14 36 80
14 35 76
14 35 85
14 36 86
14 36 84
15 36 92
14 36 87
14 35 83
15 37 87
14 36 89
14 36 88
14 35 69
14 36 88
14 35 76
14 35 79
14 36 85
14 36 87
14 36 89
15 37 86
14 35 79
15 37 99
14 35 84
14 36 88
13 34 75
14 35 72
14 35 86
14 36 83
14 36 88
14 36 86
13 33 80
14 36 79
14 36 79
14 35 92
14 34 75
13 34 82
14 35 75
13 34 77
14 34 79
14 36 84
14 36 94
14 35 78
14 36 87
14 35 89
13 33 68
13 33 75
13 33 76
14 35 88
14 34 88
13 32 67
13 32 73
13 33 78
13 32 67
12 31 69
12 30 71
13 31 70
12 29 75
12 30 62
12 30 69
11 26 61
24 39 70
185 213 255
185 213 255
168 192 227
37 37 16
44 43 16
26 27 12
28 29 14
37 38 18
33 35 18
33 34 17
24 26 13
30 33 17
32 35 18
23 26 14
33 36 19
29 31 15
39 41 19
47 49 24
42 44 20
47 48 23
45 47 22
47 49 21
57 58 26
52 53 24
54 54 23
68 66 29
65 66 31
57 58 24
63 63 26
63 62 25
67 67 29
72 71 31
76 75 30
79 78 30
82 79 30
73 71 29
82 80 28
88 85 34
103 97 38
86 84 33
99 94 36
95 90 34
102 97 37
101 96 38
91 87 32
96 92 33
89 86 32
101 95 33
101 96 33
98 94 33
91 88 33
105 99 35
105 99 37
111 105 37
95 91 33
98 94 31
112 105 39
111 105 36
103 97 34
108 103 34
106 100 35
113 106 39
110 104 38
112 105 36
110 103 34
115 107 39
110 104 37
110 103 35
113 106 37
115 108 40
115 109 39
119 112 41
116 108 38
118 109 36
115 107 38
114 107 33
112 105 31
116 106 36
117 109 36
117 109 36
116 109 39
116 108 36
109 101 33
116 107 37
119 110 38
116 108 34
111 104 31
114 106 36
117 109 37
110 104 32
112 103 34
114 106 35
113 105 34
107 101 33
115 107 35
113 105 34
112 105 34
116 107 35
113 105 33
120 111 39
113 105 33
115 107 33
110 103 34
113 106 34
114 105 32
111 103 32
110 102 35
119 109 36
113 103 30
115 106 36
107 99 31
108 100 34
114 106 37
108 101 32
110 103 33
108 101 29
110 100 33
109 101 32
110 101 33
112 103 34
114 105 36
109 101 34
101 93 26
103 96 29
99 93 28
110 102 34
103 94 33
107 99 33
100 93 29
103 95 30
112 103 33
106 99 33
108 99 33
104 96 29
102 95 30
104 96 31
109 101 32
102 95 30
99 92 28
105 98 29
99 90 29
91 83 27
100 92 29
102 94 28
98 92 28
110 101 35
104 96 30
94 88 27
91 85 23
101 94 32
144 168 204
143 167 204
144 168 204
143 167 204
143 167 204
142 167 204
144 168 204
142 167 204
142 167 204
143 167 204
143 167 204
143 168 204
142 167 204
142 167 204
144 168 204
142 167 204
142 167 204
140 166 204
143 167 204
141 166 204
141 166 204
142 167 204
141 166 204
139 165 204
142 167 204
143 168 204
140 166 204
142 167 204
142 167 204
140 166 204
140 166 204
140 166 204
141 167 204
140 166 204
141 166 204
141 166 204
140 166 204
140 166 204
140 166 204
140 166 204
140 166 204
141 166 204
139 165 204
139 165 204
140 166 204
138 165 204
139 165 204
139 165 204
140 166 204
139 165 204
140 166 204
140 166 204
138 164 204
138 165 204
138 164 204
139 165 204
139 165 204
138 165 204
138 164 204
139 165 204
138 165 204
139 165 204
136 164 204
138 165 204
137 164 204
137 164 204
137 164 204
137 164 204
135 163 204
137 164 204
137 164 204
137 164 204
138 164 204
136 163 204
137 164 204
137 164 204
136 163 204
136 164 204
137 164 204
136 163 204
136 163 204
136 163 204
138 165 204
135 163 204
136 163 204
135 163 204
137 164 204
135 163 204
137 164 204
136 163 204
137 164 204
137 164 204
134 162 204
137 164 204
135 163 204
135 163 204
135 162 204
135 163 204
136 163 204
135 163 204
134 162 204
135 163 204
135 163 204
135 163 204
136 163 204
134 162 204
135 162 204
134 162 204
135 163 204
131 159 199
119 146 187
119 146 187
119 145 184
110 135 175
111 137 176
100 127 174
84 107 150
88 112 155
78 102 141
56 77 124
58 80 122
49 70 116
44 65 107
38 58 106
26 44 86
20 38 89
22 39 85
10 26 74
11 27 75
10 26 71
10 25 71
10 25 78
10 26 80
9 24 74
9 24 77
8 21 62
8 21 72
8 20 66
9 23 72
7 20 66
9 22 68
25 40 90
29 44 94
45 61 106
87 108 151
95 115 149
115 135 164
136 158 188
185 213 255
156 182 228
11 30 84
11 28 70
12 31 89
13 33 86
12 32 86
13 33 85
13 34 88
13 34 87
13 33 81
13 33 74
13 34 78
14 36 91
13 33 80
13 33 77
13 34 76
13 34 75
14 35 77
13 34 75
14 36 87
13 34 73
14 36 79
13 34 78
14 34 75
13 35 84
14 35 78
14 36 85
14 36 82
15 37 87
14 35 77
14 35 79
14 36 81
14 36 86
14 35 75
14 35 84
14 36 84
14 36 80
15 37 93
14 35 74
15 37 93
14 34 68
15 37 87
12 32 55
14 36 88
15 37 87
13 34 69
14 36 90
14 36 87
14 36 84
14 35 84
15 37 92
14 36 81
14 36 81
14 37 83
14 36 80
13 34 73
14 35 80
13 33 65
14 35 80
14 36 84
14 36 93
14 35 78
13 34 69
14 36 80
14 35 80
15 37 94
14 36 86
14 36 85
14 36 80
14 34 78
14 36 88
14 36 81
14 34 79
14 35 75
14 34 77
14 35 80
14 36 82
14 35 81
14 36 88
13 33 69
13 33 79
13 33 74
14 34 78
13 34 78
14 34 73
13 33 73
14 34 78
13 32 65
13 32 75
13 33 80
13 33 76
13 31 62
13 31 70
13 32 73
13 32 71
12 30 72
12 30 70
12 30 67
11 26 55
10 25 56
10 26 58
166 193 232
185 213 255
107 119 123
36 35 15
31 31 13
29 30 13
32 33 16
23 24 12
22 25 14
26 28 13
25 27 13
36 39 21
28 31 17
36 38 20
31 34 17
41 43 21
35 37 17
47 48 21
33 36 17
46 47 21
50 52 25
42 45 20
54 54 26
50 50 22
54 55 23
63 62 26
66 65 28
68 68 28
63 63 28
69 67 28
71 70 27
67 67 27
88 85 33
78 76 29
82 80 31
79 78 30
83 80 29
86 82 30
86 83 32
88 85 33
80 76 30
86 81 28
96 92 35
90 86 32
96 91 32
90 86 32
94 88 31
93 89 32
94 88 31
101 96 38
103 98 35
99 94 30
105 99 33
103 97 33
106 100 35
103 96 35
104 99 33
108 101 37
105 100 34
106 100 34
114 107 37
101 96 32
111 103 35
110 103 37
109 102 33
110 104 34
117 109 34
119 109 38
114 106 35
112 105 35
115 107 38
117 109 38
116 108 35
114 107 36
111 104 35
115 108 35
112 105 35
110 104 34
112 105 31
118 110 36
110 102 35
116 108 36
113 106 35
115 107 35
115 108 35
115 108 34
118 109 37
115 108 35
113 105 34
113 103 33
114 107 35
114 106 34
114 105 36
112 105 37
116 107 34
113 105 32
108 100 30
116 108 36
110 103 33
109 101 32
111 103 33
111 103 34
105 97 29
109 101 33
112 104 33
109 101 32
112 104 32
111 101 35
110 103 35
112 105 32
105 98 31
108 101 31
113 105 33
107 99 31
104 96 29
111 102 33
106 99 28
111 103 34
102 94 30
102 94 29
111 102 32
106 98 32
106 99 32
111 102 36
106 98 29
100 93 27
113 103 34
98 91 27
107 100 32
105 96 29
105 97 31
100 93 28
101 94 29
100 93 26
107 99 33
98 90 26
94 87 26
100 93 26
103 96 30
103 95 31
96 89 24
105 97 31
106 98 33
101 93 28
96 89 27
101 94 30
96 89 28
94 87 29
102 95 26
95 87 28
143 167 202
144 168 202
144 168 204
144 168 202
143 168 204
143 168 202
144 168 204
145 168 202
144 168 204
146 169 204
144 168 204
146 169 204
143 168 204
143 168 204
142 167 204
143 167 204
143 167 204
144 168 204
141 167 204
142 167 204
143 167 204
142 167 204
144 168 204
143 167 204
143 167 204
143 167 204
143 167 204
144 168 204
142 167 204
142 167 204
142 167 204
141 167 204
142 167 204
140 166 204
142 167 204
142 167 204
142 167 204
142 167 204
143 168 204
141 166 204
140 165 204
140 166 204
141 166 204
142 167 204
140 166 204
141 166 204
141 166 204
139 165 204
141 166 204
141 166 204
141 166 204
141 166 204
139 165 204
139 165 204
140 166 204
140 166 204
140 166 204
141 166 204
140 165 204
140 166 204
139 165 204
140 166 204
139 165 204
140 166 204
141 166 204
139 165 204
140 166 204
139 165 204
138 164 204
138 165 204
137 164 204
139 165 204
140 165 204
137 164 204
139 165 204
138 165 204
139 165 204
138 164 204
139 165 204
137 164 204
138 165 204
139 165 204
140 166 204
137 164 204
137 164 204
137 164 204
137 164 204
136 163 204
137 164 204
137 164 204
137 164 204
139 165 204
137 164 204
138 164 204
136 163 204
137 164 204
137 164 204
138 164 204
137 164 204
137 164 204
137 164 204
136 163 204
136 163 204
135 162 204
136 163 204
136 163 204
137 164 204
135 163 204
136 163 203
125 147 179
128 155 194
121 147 186
116 142 183
101 125 166
100 124 162
94 118 157
85 109 157
90 114 161
78 101 147
64 86 121
62 85 127
40 59 102
44 64 112
38 57 101
26 45 97
19 37 79
13 30 80
10 26 64
10 25 70
10 26 70
10 25 71
9 24 71
9 25 71
8 22 68
8 22 66
9 23 69
7 20 63
8 22 64
6 18 62
7 19 62
7 18 63
10 22 63
24 36 75
37 52 96
64 82 124
89 109 150
124 146 177
113 131 156
186 214 255
113 136 181
10 26 77
11 30 73
12 31 75
12 32 78
12 32 74
12 32 81
13 33 72
14 34 83
14 35 88
13 32 71
14 35 87
14 35 74
13 34 76
14 35 81
13 34 79
13 34 81
14 35 88
14 34 76
14 35 77
13 33 65
14 36 90
13 34 70
14 35 85
14 35 82
14 36 88
14 34 68
14 36 87
14 35 71
13 34 80
14 35 79
14 35 76
14 35 76
14 35 78
14 36 83
14 35 82
15 36 89
14 36 91
14 35 76
14 35 78
14 35 85
14 36 83
14 35 74
14 36 89
14 36 89
15 36 85
14 36 91
14 36 78
14 35 79
14 35 81
14 35 72
13 34 70
13 34 71
14 36 90
14 36 81
14 36 83
14 36 82
14 36 86
14 35 87
14 35 70
14 36 80
14 35 76
13 34 70
14 34 72
14 36 84
13 34 72
14 35 82
14 35 83
14 35 72
15 37 87
14 35 87
14 35 84
14 35 78
14 35 80
14 35 79
13 34 81
13 34 77
13 33 70
13 33 75
14 35 75
13 33 71
13 33 61
14 36 91
14 34 76
13 31 60
14 34 76
13 32 73
13 33 77
13 33 79
13 31 70
13 32 74
12 31 67
13 31 66
12 30 67
13 33 74
13 31 67
12 29 60
11 28 52
12 28 64
12 27 62
11 26 58
117 140 179
186 214 255
79 83 69
43 41 17
27 29 15
31 31 15
20 21 9
28 30 16
29 31 16
23 25 13
26 28 15
19 22 12
22 25 13
32 35 19
36 39 19
34 36 18
43 44 21
39 41 20
46 49 24
41 43 20
40 43 19
49 51 22
49 51 23
62 62 26
53 54 24
65 64 25
53 55 24
66 65 25
68 67 29
57 57 21
75 73 29
72 71 29
82 79 31
83 79 30
83 80 29
82 79 27
86 83 32
91 88 35
85 82 28
83 82 32
83 81 30
85 82 29
93 88 33
89 85 32
89 86 32
97 92 31
94 91 31
97 91 31
95 91 35
101 96 35
96 93 33
95 91 33
100 95 36
108 102 36
96 92 32
104 99 34
114 106 35
106 100 32
111 104 34
115 107 40
111 104 37
106 100 35
108 101 36
109 102 32
115 107 37
115 107 39
113 105 35
111 104 36
109 102 34
114 107 38
116 108 38
105 99 30
114 107 35
113 105 34
116 108 37
110 102 33
114 107 34
117 108 38
115 106 39
115 107 35
119 109 36
113 105 37
118 109 33
122 112 39
111 104 35
114 106 33
115 108 34
118 109 37
117 109 35
114 105 32
113 106 34
118 109 35
113 105 34
116 108 36
109 102 30
114 107 35
114 104 33
119 111 33
114 105 33
112 104 31
115 106 36
115 107 33
115 108 34
111 104 33
110 102 31
118 108 36
109 102 34
113 104 32
111 102 37
116 108 34
110 102 33
111 102 32
112 103 30
115 106 35
103 97 27
108 100 33
111 104 31
107 98 33
111 103 30
108 101 29
104 96 30
106 99 31
111 103 34
104 97 28
103 96 28
100 93 30
113 104 37
104 95 31
107 99 29
101 93 31
108 100 31
98 91 27
106 97 30
107 99 33
106 98 29
98 91 30
97 91 26
101 94 28
102 95 30
100 93 30
104 97 27
100 92 31
93 86 29
105 97 32
105 97 30
92 85 25
100 94 24
95 89 26
99 93 29
98 91 29
143 167 196
142 166 194
143 167 198
139 163 182
142 167 200
143 167 202
142 166 190
144 168 198
142 167 200
143 167 198
142 167 200
143 167 200
143 167 200
143 168 204
142 166 200
143 167 200
142 167 202
144 168 202
145 168 204
143 168 204
143 168 202
143 167 204
144 168 204
143 168 204
144 168 204
142 167 204
143 168 204
142 167 204
143 167 204
143 168 204
143 167 204
144 168 204
142 167 204
144 168 204
145 169 204
144 168 204
143 168 204
144 168 204
141 167 204
142 167 204
141 167 204
143 167 204
142 167 204
141 167 204
142 167 204
141 166 204
141 167 204
140 166 204
141 166 204
142 167 204
141 166 204
142 167 204
141 166 204
140 166 204
142 167 204
140 166 204
143 167 204
141 166 204
142 167 204
142 167 204
140 166 204
140 166 204
140 166 204
140 166 204
142 167 204
140 166 204
141 167 204
140 166 204
141 166 204
139 165 204
138 165 204
139 165 204
140 166 204
140 165 204
138 165 204
139 165 204
140 166 204
138 165 204
139 165 204
139 165 204
139 165 204
138 165 204
140 166 204
140 166 204
138 165 204
138 164 204
140 166 204
138 164 204
139 165 204
139 165 204
138 165 204
139 165 204
139 165 204
138 164 204
138 165 204
139 165 204
138 165 204
138 164 204
140 165 204
137 164 204
137 164 204
138 165 204
139 165 204
138 165 204
138 165 204
137 164 204
138 165 204
137 163 203
132 157 192
128 153 190
127 153 193
118 143 176
111 136 175
113 138 178
100 124 160
76 99 144
76 98 137
81 103 143
68 89 122
56 78 122
55 76 120
42 62 96
27 45 83
29 48 91
27 46 90
11 28 78
10 27 73
10 25 69
10 25 70
10 26 75
10 26 72
10 26 73
8 22 62
9 23 72
9 23 65
9 22 65
6 18 58
7 18 58
7 19 61
6 18 58
7 19 62
6 16 56
15 27 67
28 40 81
47 61 101
76 94 133
109 131 162
109 128 147
183 210 249
72 92 136
11 29 75
12 30 76
13 33 81
13 32 90
13 33 76
13 34 83
13 34 87
13 33 74
13 33 74
14 34 85
14 34 81
13 33 79
13 34 85
14 34 80
14 35 92
14 35 73
13 34 74
14 35 85
13 34 77
13 34 78
14 36 90
14 36 85
14 36 88
14 35 88
14 36 80
14 36 86
14 36 81
14 35 73
14 35 83
14 35 80
14 35 79
14 34 71
14 35 90
14 35 81
14 35 86
15 36 83
14 36 85
14 35 71
13 34 59
14 36 79
14 35 82
14 36 76
14 35 80
14 36 86
14 35 78
14 36 77
14 36 79
14 36 80
14 34 86
14 36 82
14 36 74
13 34 65
15 37 98
14 36 72
14 35 80
14 36 84
14 35 77
14 35 75
14 34 79
13 34 75
14 35 77
14 36 87
14 36 79
14 36 84
14 36 88
14 36 78
13 34 74
14 34 75
15 36 88
14 35 82
13 34 77
13 34 75
13 34 70
13 34 78
14 34 70
14 36 90
14 35 78
14 35 85
14 35 81
13 33 65
13 33 74
13 33 66
14 34 80
14 34 72
14 35 84
14 34 72
13 32 64
13 32 74
13 33 77
13 33 81
12 30 63
12 31 66
13 30 58
12 30 67
12 29 62
13 31 73
12 29 59
11 28 58
11 26 53
10 25 51
89 108 139
181 207 244
51 50 22
34 33 13
18 19 9
29 29 14
26 28 15
22 25 13
23 25 13
24 27 14
22 23 11
18 21 11
30 33 17
30 33 17
42 44 21
32 35 18
38 40 20
38 40 19
45 47 20
45 47 22
51 53 24
46 48 21
49 50 21
45 46 20
61 60 22
61 62 26
59 58 21
62 62 26
68 67 26
57 57 24
60 59 24
70 68 25
73 72 26
79 76 30
74 73 28
82 80 29
82 78 28
82 79 30
85 82 30
93 89 33
84 81 30
86 83 30
83 81 30
87 83 29
96 92 35
87 84 29
97 92 33
99 94 34
103 97 33
98 93 32
99 93 33
92 88 33
107 101 33
108 102 36
106 100 35
100 95 32
105 99 29
103 98 32
106 101 36
101 96 32
106 99 27
113 106 38
111 104 36
113 106 36
103 98 34
110 102 33
112 105 35
111 104 37
108 101 37
111 104 33
116 108 38
111 104 32
114 106 36
111 103 33
112 103 33
109 102 31
114 107 35
118 110 37
117 109 35
115 107 33
109 102 32
112 105 35
118 110 38
113 106 34
113 105 33
113 106 30
119 110 36
118 109 30
116 107 33
114 106 32
116 107 35
113 105 32
118 109 35
112 104 33
108 99 29
111 103 34
111 103 33
115 108 35
115 107 34
117 109 35
119 110 36
115 106 34
113 104 34
107 99 30
109 101 34
110 101 32
113 105 34
112 104 30
116 107 30
117 107 37
107 101 29
109 101 29
112 104 32
112 103 33
106 98 27
105 96 31
115 106 33
111 102 31
111 103 32
94 87 26
114 105 36
105 97 31
101 93 29
106 98 30
113 105 33
101 93 28
109 101 32
99 93 28
101 94 31
96 90 26
102 95 26
101 94 29
106 98 32
94 87 25
99 93 28
100 94 26
108 99 30
111 102 36
105 97 31
105 97 32
100 93 31
96 88 29
99 91 27
90 83 21
105 97 31
98 91 29
101 94 28
89 82 23
97 90 31
101 93 28
144 167 192
143 166 190
142 166 192
142 166 194
141 165 192
138 163 186
141 166 194
144 167 198
141 165 190
141 166 194
144 168 200
145 168 198
145 169 202
144 167 200
142 166 198
142 166 192
144 168 202
142 167 198
142 167 198
143 167 200
141 166 198
144 168 202
145 169 204
142 166 196
144 168 202
143 167 204
142 166 196
143 167 202
143 167 200
142 166 198
143 167 202
143 167 204
143 167 202
144 168 202
142 167 200
143 167 202
142 167 202
142 167 204
144 168 204
143 168 204
142 167 204
144 168 204
144 168 204
144 168 204
144 168 204
142 167 204
143 167 204
143 167 204
142 167 204
143 168 204
143 168 204
142 167 204
142 167 204
144 168 204
142 167 204
142 167 204
140 166 204
143 167 204
140 166 204
141 166 204
142 167 204
141 167 204
143 168 204
142 167 204
143 167 204
143 167 204
141 166 204
140 166 204
142 167 204
141 166 204
140 166 204
140 166 204
139 165 204
141 166 204
141 166 204
140 166 204
140 165 204
140 166 204
139 165 204
140 166 204
139 165 204
141 166 204
139 165 204
140 166 204
139 165 204
140 166 204
139 165 204
141 166 204
141 166 204
140 166 204
141 167 204
139 165 204
141 166 204
140 166 204
140 166 204
139 165 204
141 166 204
138 164 204
140 166 204
140 166 204
139 165 204
140 166 204
139 165 204
138 165 204
138 165 204
138 165 204
132 157 193
132 156 191
133 157 188
121 145 180
122 147 185
113 136 169
118 141 176
105 129 170
98 120 156
103 126 162
78 101 138
80 102 137
68 89 128
52 73 123
58 78 118
50 70 112
31 50 89
24 42 87
19 36 75
10 26 76
10 26 72
9 25 65
10 25 69
9 24 70
9 24 64
8 22 59
9 24 68
9 23 70
8 22 64
7 19 57
9 22 65
7 19 63
7 19 62
7 19 61
6 17 57
6 16 56
4 12 47
13 22 55
40 53 89
64 80 115
98 117 141
103 121 132
164 189 223
48 68 117
11 28 75
11 29 71
12 31 74
12 31 78
12 32 69
13 34 86
13 33 78
13 34 80
14 35 80
13 34 75
13 34 81
13 34 75
13 33 79
14 35 81
14 34 77
13 34 76
13 34 71
13 33 68
14 35 81
14 35 76
14 35 76
14 35 81
15 37 92
14 34 74
14 36 86
14 35 76
13 34 77
13 34 77
14 35 81
14 35 75
14 34 69
14 36 81
14 36 90
14 34 76
14 36 80
14 35 67
14 35 84
14 35 79
14 35 71
14 35 70
13 34 66
14 37 88
14 35 75
14 36 74
14 35 85
14 36 84
15 37 93
14 35 79
14 35 70
14 35 71
14 34 70
14 35 71
14 36 81
14 35 76
13 34 83
14 36 83
14 35 83
15 36 97
14 36 85
13 34 81
14 35 79
14 36 80
14 35 79
14 36 76
14 35 83
14 35 76
14 35 69
13 34 70
14 34 66
14 35 74
14 35 84
14 35 76
13 33 73
14 35 73
14 34 78
13 34 65
14 34 74
13 33 68
13 34 80
14 34 79
13 34 77
13 33 73
14 35 89
14 35 74
14 34 82
13 33 71
13 31 63
13 33 78
14 34 82
13 32 72
13 33 67
13 32 67
13 33 75
13 32 75
13 32 71
12 30 61
12 30 71
11 27 52
12 29 71
11 26 58
43 60 88
150 171 198
41 39 15
26 26 11
32 32 13
16 18 9
17 19 10
18 20 10
23 25 12
26 27 14
20 23 13
20 24 13
24 28 15
27 29 13
27 30 14
38 40 19
40 43 18
38 41 19
40 42 19
44 45 18
43 45 21
44 46 21
45 46 19
55 55 24
55 55 22
55 55 23
62 61 24
63 63 27
61 61 24
66 65 24
66 65 25
65 65 25
71 70 28
74 73 29
78 75 28
86 82 28
74 72 28
88 85 32
89 84 29
81 79 27
84 80 29
87 84 30
88 85 29
91 86 31
95 91 29
97 92 33
95 90 30
95 91 32
86 82 27
101 94 34
98 92 33
101 97 34
95 91 29
102 97 30
103 97 31
109 102 34
108 101 36
103 97 32
107 100 32
109 101 32
106 100 34
111 104 35
110 104 35
107 101 31
112 104 35
107 100 31
109 102 35
109 103 35
113 106 37
114 106 34
107 100 30
114 107 32
109 101 30
114 106 33
112 105 33
114 107 35
115 107 34
117 109 34
111 104 29
113 104 34
120 111 36
109 102 33
112 104 27
119 109 38
115 107 34
111 103 31
114 106 33
114 106 29
117 109 34
114 105 32
108 102 31
119 110 36
110 102 30
111 104 30
108 101 30
108 102 30
101 95 29
112 104 30
112 103 31
112 103 30
116 106 34
106 99 29
103 97 26
117 108 33
115 106 35
107 98 31
114 106 33
106 99 30
111 102 34
107 100 26
117 108 33
109 101 32
106 99 28
105 97 26
116 107 32
110 102 32
116 108 33
105 98 26
113 105 35
102 95 28
98 91 26
105 97 27
110 102 32
100 93 29
107 99 29
106 99 31
106 97 29
104 96 27
96 89 25
107 99 30
106 99 32
101 93 26
96 91 28
107 99 35
97 89 27
102 94 30
99 93 28
107 98 30
97 90 26
107 98 31
95 88 24
92 86 27
102 94 28
92 86 24
99 92 25
104 96 29
101 93 29
105 98 30
101 93 26
97 90 22
143 166 188
142 166 190
140 165 188
139 163 182
139 163 180
141 165 188
142 166 192
140 164 186
141 166 194
143 167 196
140 164 186
142 166 194
144 167 198
141 165 190
143 167 194
140 164 190
140 165 190
141 165 192
142 166 190
139 163 178
140 164 186
143 167 194
142 166 194
142 166 192
140 164 188
140 164 188
141 165 188
141 165 188
140 164 190
142 166 196
144 168 200
140 165 188
142 166 192
142 166 192
141 166 196
140 165 194
142 166 200
142 166 196
144 168 200
141 166 196
141 166 198
143 167 202
143 167 202
142 166 198
145 168 204
144 168 202
143 167 204
141 166 196
143 167 204
143 167 202
144 168 204
145 169 204
143 168 204
144 168 204
143 167 204
143 167 202
144 168 204
142 167 204
144 168 204
142 166 202
143 167 202
143 167 204
144 168 204
144 168 204
142 167 204
143 167 204
142 167 204
141 166 204
142 167 204
143 167 204
143 167 204
143 167 204
143 167 204
143 168 204
140 166 204
142 167 204
143 167 204
141 167 204
141 166 204
141 166 204
141 166 204
141 167 204
142 167 204
143 167 204
141 166 204
141 166 204
142 167 204
141 166 204
141 166 204
142 167 204
141 166 204
140 166 204
142 167 204
140 165 204
141 166 204
139 165 204
141 166 204
143 167 204
140 166 204
140 166 204
142 167 204
140 166 204
138 165 204
142 167 204
141 166 204
139 164 201
139 165 202
134 157 190
132 155 186
129 152 185
126 150 184
109 131 163
105 127 162
103 126 160
91 114 153
88 110 142
71 91 128
73 95 134
59 79 117
56 76 115
52 72 106
40 59 91
33 52 92
20 38 80
13 29 71
10 27 67
10 25 62
10 27 70
10 25 63
10 25 65
9 24 64
9 23 64
8 22 63
9 25 68
8 22 59
8 21 61
7 18 59
7 18 56
7 18 52
6 17 53
6 16 50
5 14 48
5 15 52
6 14 44
18 29 67
47 61 98
81 99 124
113 133 150
139 161 184
21 38 84
11 29 77
11 29 75
12 32 74
13 32 75
13 32 76
13 33 87
13 34 79
13 34 79
13 33 75
13 33 78
14 34 78
13 32 67
14 35 75
14 34 79
13 34 80
13 34 72
15 36 87
13 34 68
13 34 77
14 35 84
13 34 66
14 35 76
14 34 76
14 35 76
14 34 80
14 35 80
14 35 81
14 36 83
14 35 75
13 34 65
14 35 72
14 36 81
15 37 94
14 36 85
14 35 72
14 36 82
14 35 78
14 35 72
14 36 85
14 35 80
14 35 75
15 37 92
13 34 76
14 35 80
14 36 88
13 34 70
14 36 83
14 35 80
14 35 70
14 35 71
13 34 68
14 35 78
14 35 78
14 36 80
14 35 77
14 36 81
14 36 78
13 34 72
13 34 66
14 36 81
14 35 74
14 35 74
14 35 78
14 35 76
14 35 74
14 35 78
14 35 79
14 35 83
14 35 74
14 35 88
13 34 72
14 34 83
13 33 69
14 36 78
14 34 74
14 35 84
14 34 78
14 34 74
14 35 84
14 34 73
13 33 65
14 34 75
13 33 76
14 35 81
13 32 69
14 35 79
13 32 70
14 35 84
13 32 67
12 30 66
12 31 74
12 30 63
13 31 66
12 30 58
12 30 63
12 29 66
12 29 69
11 27 53
10 25 47
10 25 50
19 33 60
121 134 140
40 39 15
27 26 11
25 25 12
20 22 10
18 20 10
15 17 9
22 24 12
16 18 10
20 23 12
19 23 13
21 24 13
24 27 13
30 33 17
24 27 13
27 30 15
35 39 18
32 35 16
35 37 16
51 52 21
43 45 21
55 56 23
62 60 24
59 59 24
49 50 20
59 59 23
67 64 23
62 61 26
66 65 25
59 58 22
62 62 23
69 68 25
66 67 26
81 79 31
78 76 31
75 74 28
78 76 26
81 78 27
79 77 26
92 87 31
90 86 33
89 85 28
91 86 31
100 94 32
81 78 24
97 92 30
101 95 33
93 90 32
92 87 29
104 98 35
100 94 31
97 92 32
101 95 34
104 97 33
103 96 31
102 95 31
108 102 33
109 102 30
112 105 35
108 102 29
110 103 35
101 96 26
114 107 35
108 101 32
113 105 34
114 106 34
115 106 34
109 101 30
114 107 38
112 105 30
107 101 32
112 104 31
114 107 36
110 103 35
118 109 36
114 106 36
117 108 32
115 108 34
113 106 32
116 108 33
112 106 33
117 108 33
116 108 34
110 103 33
110 102 33
111 104 28
113 105 32
115 107 33
116 108 36
110 102 29
114 105 34
122 112 38
112 105 32
113 104 34
116 107 34
113 106 33
107 101 32
116 107 36
108 101 30
107 100 28
108 101 31
111 103 34
109 101 30
102 94 31
112 104 30
113 104 36
108 100 32
110 103 29
112 103 32
107 99 33
108 100 30
102 95 27
105 98 29
110 102 34
113 103 36
110 102 30
107 99 27
111 103 32
104 96 28
110 102 35
109 100 30
105 97 28
112 103 31
105 97 28
110 101 27
106 99 27
105 95 29
103 95 30
103 97 26
106 99 31
96 88 26
106 98 29
100 91 28
108 100 30
105 98 30
99 92 29
98 92 26
98 91 29
101 94 29
104 95 30
94 88 26
95 88 26
103 95 30
98 91 27
94 88 27
104 97 31
87 82 24
99 92 26
94 88 26
141 165 186
138 163 182
141 165 186
142 166 190
145 169 202
140 164 182
140 164 184
140 163 176
140 164 182
143 166 190
137 162 174
138 162 176
142 166 192
139 163 182
135 160 167
141 165 188
140 164 180
137 161 169
141 165 188
138 162 178
140 164 178
140 164 182
142 165 190
140 164 184
139 164 182
142 166 194
141 165 190
141 166 192
142 166 190
140 164 184
140 164 184
138 163 180
142 166 194
141 165 188
143 167 196
141 165 192
140 164 184
145 168 200
142 166 192
140 165 188
139 164 186
142 166 196
144 168 202
143 167 196
142 166 194
143 167 198
143 166 194
143 167 200
142 166 196
140 165 192
141 165 192
142 166 194
143 168 202
141 165 190
141 165 188
144 167 198
143 166 194
143 167 202
140 165 194
141 166 192
142 166 196
140 165 196
142 167 200
142 167 202
142 167 200
142 166 196
143 167 200
143 167 200
143 167 200
144 168 202
144 168 204
141 166 200
144 168 202
143 168 204
141 166 198
143 167 200
142 167 200
142 167 204
144 168 204
145 169 202
143 168 204
143 167 202
143 167 204
144 168 202
144 168 204
143 167 202
142 167 200
142 167 200
144 168 202
144 168 204
143 168 204
144 168 204
143 168 204
145 168 204
143 167 204
143 167 204
143 167 204
143 167 204
143 168 204
142 167 204
143 168 204
141 166 204
142 167 204
141 167 204
142 167 204
139 164 199
142 166 201
134 155 184
129 150 180
122 143 170
117 139 174
104 126 155
101 122 158
98 118 152
103 126 160
96 118 154
86 107 141
67 88 127
61 81 112
63 83 126
50 69 101
34 52 92
30 48 89
19 36 72
11 27 66
10 25 59
9 25 64
10 26 73
9 24 62
10 25 64
9 23 65
8 21 55
8 21 58
8 22 60
8 20 54
7 20 52
7 18 55
8 20 63
7 18 56
6 17 51
5 14 48
5 14 46
4 12 41
5 13 46
20 31 67
42 54 89
67 83 114
102 122 129
110 128 145
11 29 79
11 29 67
10 27 59
13 32 78
12 32 74
13 34 72
12 31 77
12 32 67
13 32 64
13 33 75
13 33 82
13 34 76
14 35 78
13 34 75
14 35 83
13 34 81
14 36 91
14 35 82
13 34 75
14 34 78
14 35 81
13 34 72
14 35 72
13 34 67
13 34 70
14 35 79
13 34 73
13 33 64
14 35 76
15 36 87
13 34 68
14 34 76
14 35 78
14 36 82
14 36 82
14 36 77
14 36 85
14 35 79
14 36 79
14 36 81
14 35 70
14 35 74
14 35 75
14 36 78
14 35 77
14 35 81
14 35 75
14 35 83
14 35 79
14 36 88
14 34 71
14 35 70
14 34 79
14 36 76
13 34 75
13 34 71
14 35 76
14 35 71
13 34 81
14 35 79
14 35 78
14 35 70
14 36 81
14 36 80
14 34 74
14 35 71
14 36 75
13 34 78
14 35 79
14 35 79
14 35 74
13 33 72
14 35 75
13 33 67
13 34 67
13 34 71
14 35 77
14 34 73
14 34 79
13 33 79
14 35 78
14 34 83
13 34 78
13 33 76
14 34 83
14 34 80
14 35 69
14 34 75
13 33 63
13 31 68
12 31 65
13 31 64
13 32 67
12 30 62
12 30 66
11 28 62
12 30 62
12 29 66
12 28 63
10 26 53
10 24 49
8 19 43
73 79 71
23 23 7
17 18 8
21 23 10
13 14 7
15 17 9
13 15 8
17 19 9
14 18 10
20 22 11
19 21 11
23 26 13
21 24 11
20 23 12
32 34 15
36 39 17
34 37 19
32 34 16
38 40 17
40 42 19
37 39 18
52 53 23
53 55 23
59 59 21
58 58 22
60 61 22
52 53 20
65 65 24
65 65 25
64 65 24
64 64 22
62 62 18
68 67 27
71 69 21
78 76 23
74 72 23
89 86 29
82 80 31
75 74 24
92 88 33
84 81 30
93 90 30
92 88 30
97 92 32
99 93 32
94 89 32
88 83 24
89 85 28
102 96 32
96 91 32
96 91 28
102 95 30
98 93 32
103 97 35
105 98 29
103 97 33
113 105 35
107 100 31
102 96 30
113 105 33
101 95 30
112 104 37
105 99 33
109 100 31
107 101 26
107 101 32
107 101 32
106 99 29
112 104 33
110 102 30
107 100 28
117 109 36
112 105 33
111 104 34
118 109 35
112 104 31
114 107 34
113 105 32
118 108 33
107 101 26
108 101 31
107 101 29
109 102 29
110 102 31
116 107 31
113 105 32
117 107 37
112 104 33
111 104 32
111 103 32
112 103 29
114 105 35
114 106 34
111 102 31
117 107 32
112 104 32
114 106 31
104 97 29
112 104 32
107 99 28
111 104 31
114 105 32
113 105 33
107 101 28
114 105 30
103 95 28
115 106 33
111 102 33
107 99 30
105 99 27
109 100 34
111 103 30
108 101 30
106 98 32
102 94 26
103 96 26
107 99 28
110 101 33
92 86 25
109 102 29
109 101 28
106 98 31
99 91 26
105 98 24
108 99 29
109 100 28
108 100 31
100 92 27
106 96 28
105 98 28
93 87 23
105 98 29
96 90 20
110 101 31
100 93 27
109 101 31
99 91 27
97 90 24
104 96 25
99 92 25
101 93 27
92 85 23
92 85 25
99 91 28
102 94 29
80 74 19
91 84 25
106 98 29
89 84 23
137 161 172
137 161 169
139 163 178
140 163 178
139 163 178
139 163 180
139 163 178
138 163 184
138 163 178
137 161 167
141 165 184
139 163 178
134 158 157
142 165 184
141 165 186
139 163 178
137 161 172
138 162 174
140 164 182
139 163 180
143 166 190
141 165 186
137 162 174
139 163 180
142 166 186
142 166 184
142 166 190
136 161 174
141 165 182
142 165 184
139 163 182
141 165 188
139 163 176
142 166 190
139 164 182
139 163 178
136 160 167
141 165 190
141 165 184
139 163 180
141 165 188
141 165 186
141 165 190
140 164 190
140 164 186
142 166 192
142 166 192
141 164 184
139 164 182
142 166 192
138 163 184
142 166 194
139 163 182
142 166 190
141 165 188
142 166 192
137 162 184
139 164 186
143 167 192
142 166 194
142 166 190
139 164 186
141 166 192
140 165 192
141 165 192
141 165 194
142 167 196
140 165 190
141 165 190
141 165 192
139 164 186
140 164 188
140 164 186
141 165 192
141 165 192
141 165 192
139 164 188
141 165 196
141 165 190
142 166 194
140 165 196
143 167 198
141 165 192
142 166 194
140 164 188
144 167 198
140 165 194
141 166 196
142 166 194
144 168 200
142 166 196
142 166 194
142 166 200
141 166 196
144 168 202
142 166 196
142 166 194
141 166 198
140 165 196
143 167 202
140 164 190
140 165 196
141 166 196
142 166 202
139 163 196
140 163 191
137 161 190
137 159 189
129 150 178
132 156 187
117 139 171
114 135 161
101 122 147
95 114 142
89 108 138
69 88 125
79 98 129
77 97 134
64 84 115
58 78 117
39 58 99
32 50 87
22 39 78
15 32 68
10 26 62
10 25 66
10 26 67
9 23 49
10 26 70
9 24 67
9 23 63
8 22 52
8 22 59
8 21 59
8 21 60
8 21 57
8 20 58
7 20 61
6 17 56
5 14 44
5 14 45
6 16 53
4 11 41
4 12 44
9 18 47
43 53 82
61 76 108
74 90 108
73 90 108
10 26 70
11 29 66
11 29 77
12 32 71
12 32 70
13 34 80
12 32 71
13 33 85
13 34 78
13 33 77
13 32 70
13 33 76
13 32 65
13 33 62
14 34 83
13 33 67
14 35 76
14 35 76
14 35 79
13 34 73
14 35 80
14 34 73
14 35 73
14 35 70
14 35 82
14 35 73
14 36 75
14 35 74
13 34 77
15 37 93
13 34 72
14 34 70
14 35 79
14 35 70
14 36 81
14 35 75
14 34 70
14 36 87
14 35 82
14 35 74
14 35 87
14 35 75
14 35 73
14 35 76
14 36 81
14 34 78
15 36 90
14 35 76
14 35 70
14 36 81
14 34 70
14 36 84
14 36 85
14 35 70
14 36 81
14 35 84
13 33 65
13 34 74
14 35 67
14 36 74
14 36 83
14 35 79
14 36 80
13 33 74
14 34 69
14 35 62
13 34 69
14 34 66
14 34 81
12 32 65
14 35 77
14 34 72
13 34 69
14 35 71
14 35 82
14 36 86
14 35 79
13 33 71
13 33 69
13 33 67
14 33 72
13 33 75
14 34 68
13 32 67
14 36 89
13 33 77
13 33 73
12 31 66
13 32 73
12 30 65
13 32 70
13 31 62
13 33 77
12 30 64
12 30 62
12 30 64
13 33 74
11 28 59
12 29 59
11 27 54
10 26 58
9 22 42
26 28 15
33 32 14
19 19 7
22 23 10
15 17 8
13 15 8
16 18 9
16 19 9
19 21 10
15 17 8
15 18 9
17 20 11
29 31 14
25 29 14
26 28 12
27 30 13
35 38 19
40 41 16
45 46 20
35 37 13
35 37 16
40 43 19
41 43 17
49 50 20
58 58 22
56 56 21
59 58 23
56 58 19
52 53 19
61 60 24
69 67 21
76 74 28
70 66 19
83 80 27
70 69 22
85 81 30
84 80 23
81 78 30
82 78 27
83 79 26
83 79 27
90 86 27
81 78 25
92 87 29
83 80 27
99 93 31
93 87 29
93 88 30
94 88 28
99 93 31
90 86 27
93 88 26
99 93 29
98 92 31
96 91 28
104 98 33
102 96 32
106 99 29
105 98 35
108 101 31
102 98 33
109 101 30
107 100 31
107 100 32
109 102 30
117 109 38
108 100 27
113 105 34
108 101 31
114 106 33
110 103 34
113 106 31
112 104 31
113 104 34
105 98 27
112 103 29
115 108 33
117 108 31
109 101 31
113 104 31
109 102 31
113 105 33
117 108 35
107 101 30
125 115 41
112 103 30
115 108 35
115 107 34
111 104 29
107 99 28
112 103 34
114 106 33
115 106 31
116 107 33
114 105 32
109 101 31
106 99 25
118 108 32
118 110 34
101 94 25
110 102 26
111 103 30
110 101 27
114 106 32
109 100 32
106 97 30
113 104 30
103 96 26
107 100 31
110 102 30
106 99 26
110 101 27
105 97 29
107 99 29
118 107 35
108 100 27
117 106 32
109 100 27
104 97 28
105 98 26
109 101 27
112 103 33
102 92 28
105 97 31
101 94 26
111 101 29
106 97 28
105 97 31
96 90 23
98 92 26
105 97 27
103 95 28
101 94 25
107 99 28
103 95 28
104 95 26
103 95 26
99 91 27
100 92 24
92 86 23
106 98 31
103 97 28
100 92 31
95 88 26
93 86 24
86 79 18
97 89 26
95 88 24
82 76 16
138 161 165
135 159 161
137 160 161
137 161 167
137 161 167
136 161 174
138 162 169
137 161 167
140 164 178
138 162 169
134 159 161
139 163 176
140 164 178
138 162 174
137 161 169
137 162 174
139 163 176
139 163 176
139 163 180
138 162 172
136 160 161
138 162 178
134 159 165
142 165 188
136 160 163
142 165 188
139 163 174
140 164 178
137 161 169
137 161 174
139 163 178
137 161 167
140 164 180
138 163 178
136 160 167
136 160 165
134 159 163
139 163 182
139 163 178
140 163 176
135 159 161
139 163 174
137 162 172
137 162 172
139 163 180
137 161 167
139 164 184
142 166 192
135 159 161
141 165 190
139 163 174
140 164 186
139 164 184
143 166 192
141 165 184
139 163 184
142 166 192
138 162 178
142 165 186
138 162 176
140 164 182
139 163 180
140 164 178
141 164 182
139 163 180
139 164 184
139 163 184
139 163 182
139 163 178
138 163 182
141 165 190
139 164 184
143 166 190
138 162 184
137 161 169
140 164 184
140 164 186
141 165 188
139 163 178
137 162 174
139 163 180
141 165 188
141 165 192
140 164 196
139 163 180
140 164 184
143 167 196
140 164 184
138 163 178
143 166 192
139 163 182
141 165 188
138 162 180
142 166 192
137 162 182
141 166 192
142 166 196
141 165 194
140 164 188
141 165 190
142 166 192
143 167 198
139 164 186
140 164 186
140 164 186
132 156 176
134 156 174
127 149 156
123 145 164
123 144 161
106 125 143
115 136 161
104 125 144
94 115 142
94 114 143
83 103 138
61 79 111
64 84 117
61 80 115
53 72 109
41 59 97
30 48 88
25 42 76
10 25 60
11 27 69
10 25 60
10 25 63
10 25 62
9 22 54
10 25 62
9 24 61
8 22 58
7 19 44
8 21 61
7 20 54
7 20 53
7 18 45
6 17 49
6 16 48
6 17 46
6 15 45
4 11 34
4 11 35
4 11 37
2 7 28
21 29 55
43 54 79
77 94 108
69 86 98
9 25 56
11 28 67
12 30 71
12 31 73
12 30 68
13 33 69
13 33 78
13 33 82
13 32 70
12 31 73
13 33 75
13 33 71
14 35 83
13 33 71
14 34 78
14 35 86
13 34 71
13 34 77
14 35 78
13 33 69
13 34 70
13 33 61
14 34 70
14 35 73
14 35 69
14 35 75
14 35 80
14 34 79
14 35 71
13 34 71
14 35 80
13 34 73
14 36 85
13 34 66
14 35 75
14 36 82
13 34 74
14 34 77
14 35 74
15 37 94
14 36 79
14 35 69
14 36 76
15 36 84
14 35 76
14 34 70
14 35 81
14 36 77
14 35 81
13 34 66
14 35 70
14 35 75
14 35 75
14 35 79
14 36 90
14 35 78
14 36 80
14 36 74
14 36 81
14 36 76
14 34 76
14 36 79
14 35 77
14 34 70
14 35 71
14 35 80
14 35 85
14 35 76
13 33 77
14 35 83
14 35 76
14 34 75
14 35 75
14 35 83
14 34 71
14 34 73
14 34 71
14 35 80
14 35 76
14 35 83
13 34 65
13 33 66
12 30 67
13 34 70
13 32 66
13 31 70
14 34 81
13 33 74
13 32 69
12 31 63
13 32 67
13 32 65
12 30 65
12 30 58
13 32 72
12 30 67
13 32 67
11 27 56
11 27 51
12 28 62
10 25 55
9 23 48
22 25 20
23 23 7
13 14 5
13 14 6
13 15 7
9 11 5
7 10 6
8 11 6
12 15 6
12 16 9
19 21 10
20 23 10
18 20 9
31 34 16
33 36 15
29 30 13
32 34 15
36 38 15
33 35 14
42 44 15
45 46 20
52 52 22
57 58 24
52 52 17
58 58 24
48 48 18
62 62 23
56 55 23
61 60 22
64 63 22
68 66 22
70 68 22
71 70 23
70 70 25
76 74 25
73 72 24
82 79 25
88 85 29
87 82 26
78 75 24
86 83 27
85 80 28
82 80 25
93 88 29
97 91 31
89 84 28
91 88 28
96 91 27
101 95 31
99 94 29
100 95 29
106 99 30
99 93 31
108 100 36
102 96 30
104 97 29
109 102 32
101 95 30
102 96 28
111 102 33
110 102 32
106 99 26
111 105 32
105 98 34
106 100 28
106 100 27
105 99 29
110 102 33
111 105 32
112 103 31
108 102 28
111 103 31
112 104 31
111 103 33
111 104 31
110 103 27
106 100 30
113 105 34
110 103 29
112 105 29
113 105 28
116 107 32
110 102 28
115 106 33
114 106 31
117 109 34
115 106 31
115 105 30
109 102 28
113 106 32
114 106 29
105 98 31
106 99 24
107 100 29
115 106 33
112 104 30
108 101 24
114 105 33
115 107 31
113 104 31
105 100 29
103 96 26
114 104 29
119 109 34
105 98 29
110 102 30
109 102 28
108 99 24
117 107 32
110 102 31
109 101 29
110 101 27
113 103 29
109 100 28
107 100 25
108 99 29
100 94 25
106 99 27
103 96 27
107 98 30
102 95 28
104 96 29
108 100 29
112 102 31
102 94 29
113 105 33
100 94 27
104 97 29
107 98 29
109 99 28
110 100 30
108 99 27
106 98 29
89 82 23
104 94 28
105 96 27
87 81 22
99 93 28
98 92 26
98 90 26
95 88 23
97 89 26
100 92 26
105 98 28
97 90 27
98 92 25
102 93 28
106 97 25
101 93 28
139 162 167
131 156 145
137 161 167
134 158 157
134 158 157
136 160 165
135 159 161
139 162 169
134 159 161
133 157 149
136 160 161
136 161 167
138 162 169
137 160 165
137 161 169
140 163 172
132 157 151
137 161 167
136 161 165
136 159 155
134 159 157
137 161 165
137 161 165
138 162 165
139 163 174
138 162 172
141 164 178
138 162 169
140 162 172
137 161 163
139 163 174
136 160 167
137 161 167
136 160 167
139 163 172
138 161 167
135 160 163
136 160 165
137 161 165
138 162 174
138 161 167
132 156 151
137 161 169
135 159 157
139 163 176
136 160 163
140 163 174
137 161 167
134 158 155
138 162 174
139 163 180
137 161 167
138 161 167
138 162 176
135 159 161
138 162 176
140 163 178
137 161 167
141 165 182
137 162 178
134 159 161
136 160 163
141 164 178
138 162 167
134 158 159
140 164 178
136 160 167
140 163 174
134 158 159
143 166 186
140 164 180
139 163 178
137 161 169
137 161 169
135 160 163
141 165 184
135 159 161
137 161 169
139 163 176
137 161 165
139 163 180
140 164 180
136 160 167
138 162 180
132 157 157
139 164 182
140 164 178
140 164 178
140 164 184
139 164 184
136 161 172
140 164 182
135 159 163
138 163 180
135 160 169
138 162 172
134 159 161
142 165 186
136 161 169
137 161 172
139 163 180
138 163 178
142 166 188
136 161 172
139 163 178
138 162 178
128 150 144
125 146 140
125 146 163
115 135 139
110 133 135
108 129 146
98 118 131
101 122 136
93 112 128
87 106 125
82 102 128
64 83 111
47 65 93
41 58 91
32 49 80
35 52 90
16 32 69
11 26 52
10 26 69
10 25 61
9 24 58
9 25 58
9 22 55
9 23 53
9 22 55
8 22 53
8 22 60
8 21 53
7 19 48
7 18 49
7 19 48
6 17 43
5 14 41
5 14 39
5 13 40
4 11 37
4 11 36
4 13 36
3 9 31
15 24 53
51 63 87
76 92 101
63 79 97
10 27 60
11 29 67
11 29 62
12 30 65
13 33 82
12 32 68
13 33 66
12 31 57
12 31 67
14 34 72
13 33 72
13 32 64
14 34 74
13 33 72
13 34 73
14 35 81
14 34 72
14 36 82
13 33 69
14 35 73
13 34 72
14 36 83
13 34 77
14 35 77
13 34 75
13 34 73
14 35 72
14 34 74
14 35 80
14 35 83
14 34 71
14 35 68
14 35 77
14 36 80
14 35 80
14 35 72
13 34 63
14 35 73
14 36 85
14 35 75
14 35 72
14 35 80
14 35 68
14 36 76
14 35 74
14 35 74
14 35 72
13 33 66
14 35 72
14 35 78
14 35 81
14 36 83
14 35 75
14 35 71
13 33 64
14 36 83
13 34 73
14 35 72
13 33 74
14 34 77
14 36 84
13 34 64
13 34 66
14 34 67
14 34 73
14 36 72
14 34 71
13 34 62
14 34 65
14 34 76
13 32 66
13 33 61
14 36 83
14 36 81
14 34 64
14 34 74
14 35 79
13 32 66
13 34 82
13 33 66
14 34 77
14 34 70
13 33 65
14 34 80
13 33 62
13 32 67
13 31 66
13 33 69
13 33 71
13 32 75
12 29 56
13 32 58
13 32 68
12 30 69
12 31 69
12 30 56
11 27 52
12 29 56
12 28 61
12 28 51
10 24 48
9 22 39
24 28 20
26 25 10
17 17 8
14 15 6
10 12 5
9 10 5
8 11 5
11 13 6
9 12 5
11 13 5
14 18 11
15 17 8
18 20 10
24 26 12
27 30 14
28 30 12
28 31 14
37 39 17
36 38 14
36 38 15
45 45 17
51 51 20
44 45 16
52 52 20
50 51 18
57 56 21
55 55 20
62 60 20
51 51 20
67 66 26
68 67 25
66 66 22
77 75 27
78 74 28
75 73 25
68 67 25
74 72 23
78 76 27
82 79 27
87 83 25
81 78 24
90 86 26
88 84 30
97 92 31
96 92 28
88 84 25
95 90 28
95 90 26
93 89 26
94 89 28
91 86 24
90 86 24
99 93 24
94 89 26
100 94 30
102 97 32
101 95 30
102 96 29
102 97 29
107 99 29
98 93 24
111 104 31
102 97 27
109 102 30
108 100 28
114 105 32
102 96 24
110 103 32
110 103 31
116 108 37
116 107 31
106 99 30
114 106 32
109 101 26
106 99 29
112 104 31
114 107 31
109 101 27
108 101 28
113 104 30
116 106 33
114 105 33
111 102 27
109 101 28
106 98 26
108 101 30
111 103 28
116 108 31
116 107 34
112 104 28
113 104 29
118 109 34
115 107 32
118 109 32
110 102 30
113 105 30
113 105 31
111 102 29
109 102 25
113 105 31
111 104 30
107 100 27
106 99 26
104 97 28
114 105 30
109 100 30
112 105 32
101 94 26
107 100 26
112 102 29
104 96 27
104 96 24
107 99 28
107 100 28
110 103 29
104 95 30
106 98 30
111 102 30
107 100 29
108 99 27
97 89 26
100 92 26
106 97 28
107 99 28
111 102 32
106 98 30
100 92 25
111 103 30
100 91 25
105 96 29
90 83 23
92 86 20
100 93 27
102 95 27
99 93 25
93 87 26
99 91 29
103 95 28
99 92 25
97 89 27
92 85 23
102 94 28
101 93 26
100 91 24
96 89 22
95 87 26
92 85 25
99 92 25
96 89 21
138 162 172
134 158 151
133 158 151
138 162 172
136 160 157
138 162 169
136 160 163
134 158 153
131 155 145
134 157 147
137 161 167
132 156 147
130 154 135
133 157 147
132 156 147
135 159 159
141 165 180
133 157 149
135 158 155
136 160 161
137 161 165
130 154 137
135 159 157
138 162 174
129 153 131
138 162 174
132 157 149
137 161 165
133 157 151
133 157 149
135 160 163
135 160 161
134 159 157
136 159 163
137 161 165
136 159 157
136 160 159
139 162 169
138 162 172
131 156 143
139 163 174
138 162 172
134 158 157
135 159 157
134 158 157
139 163 174
140 163 174
136 160 163
142 165 184
133 157 151
136 161 167
141 164 180
138 161 165
136 160 163
135 158 153
136 161 169
134 158 155
134 158 157
134 159 157
137 160 165
136 161 167
133 157 153
135 160 163
136 160 161
139 162 172
137 161 167
140 164 178
134 158 159
139 162 172
137 161 169
136 160 161
136 159 155
137 161 167
132 156 143
131 155 149
137 161 172
136 160 165
132 156 147
133 157 147
137 161 172
138 161 167
136 160 165
133 158 157
136 160 172
134 159 159
138 162 176
133 157 157
136 160 165
140 164 182
138 162 176
137 161 167
136 160 161
140 163 178
138 162 169
139 163 176
140 163 180
134 159 157
134 158 161
136 160 159
135 159 163
135 160 163
141 164 182
138 162 176
138 162 169
139 163 182
131 153 159
135 157 166
121 141 136
117 139 136
113 134 130
108 128 129
102 123 137
85 104 103
96 117 120
71 91 106
78 96 115
74 94 111
51 70 99
53 71 100
44 61 91
39 55 82
32 48 78
15 31 62
10 26 61
9 24 55
9 25 59
9 24 53
10 24 58
9 22 50
8 22 54
8 21 56
8 21 52
9 22 58
7 19 45
7 18 41
7 19 51
6 17 45
6 17 43
6 16 43
5 14 39
5 14 43
5 14 36
4 11 34
4 11 37
3 8 28
10 16 37
39 49 67
54 69 71
52 68 89
10 25 57
10 27 65
11 29 71
12 32 75
12 31 71
13 33 76
13 33 72
12 32 65
13 33 74
13 33 75
14 34 75
13 33 77
13 32 74
13 33 73
14 34 75
13 33 66
14 34 76
13 34 77
13 33 64
14 34 70
14 35 79
14 35 78
13 34 71
14 36 83
14 36 87
14 36 91
13 33 58
14 35 65
13 34 67
14 35 77
14 36 79
14 35 79
14 36 79
14 35 80
14 35 73
14 34 70
14 35 72
13 34 68
13 33 66
14 36 81
14 34 73
13 34 74
14 36 85
13 35 79
13 34 72
14 35 68
14 36 79
14 35 69
14 35 76
14 35 78
14 34 78
14 36 79
14 36 83
14 35 78
14 35 72
14 35 75
14 35 81
13 34 74
14 36 80
14 35 75
13 33 70
14 35 73
13 34 66
14 34 70
14 35 79
14 36 83
13 33 64
14 35 71
13 34 67
13 33 60
13 33 69
14 35 74
14 35 78
14 34 68
14 35 81
14 34 69
12 30 61
13 32 72
13 33 71
14 34 74
14 34 68
13 33 68
13 33 71
13 33 72
13 33 68
13 33 63
13 31 65
12 31 67
12 30 57
12 29 59
14 34 80
13 31 61
12 31 67
13 32 65
12 29 52
11 28 54
14 33 72
12 29 62
10 25 42
10 24 42
9 23 47
9 21 40
21 25 24
13 14 5
17 18 7
14 14 6
6 8 3
5 7 3
8 11 5
11 13 6
11 14 8
16 19 10
14 18 10
12 15 7
23 26 11
24 26 11
22 25 8
25 27 10
31 33 15
47 47 18
35 37 16
38 41 17
40 42 18
45 46 16
51 52 20
43 44 17
42 42 15
58 57 19
60 59 19
57 57 18
52 51 17
67 66 23
61 60 22
61 60 20
75 73 26
78 75 26
71 69 23
81 78 27
81 78 26
64 63 21
79 75 24
79 76 25
81 78 24
80 77 24
95 90 26
78 76 28
86 82 23
92 88 26
86 82 24
86 82 22
92 88 29
103 97 30
97 92 29
88 85 28
94 89 30
95 90 27
103 96 30
103 97 27
106 99 30
102 96 30
107 101 32
108 102 30
109 101 30
104 97 24
99 95 25
102 95 24
115 105 30
105 99 29
108 101 30
101 96 26
106 100 27
110 102 31
104 98 27
110 103 30
108 100 28
114 106 32
112 104 29
107 99 28
115 106 29
112 104 29
113 105 30
106 99 25
113 105 32
110 102 28
117 108 29
110 103 28
119 109 35
106 99 25
105 97 28
112 105 28
116 106 29
117 108 32
118 109 32
113 104 31
108 101 29
109 101 29
110 103 28
108 100 29
106 99 25
117 108 33
114 105 30
111 104 27
116 107 32
112 104 31
113 105 27
110 101 30
109 100 28
109 101 29
106 99 27
116 107 32
113 105 29
109 101 25
108 101 28
113 104 28
107 99 29
111 103 31
109 99 28
110 102 30
113 104 31
100 94 28
103 96 27
108 99 31
102 95 25
111 103 30
110 102 27
104 95 27
102 95 28
110 102 30
104 96 28
96 89 27
101 95 22
98 92 26
99 91 27
95 89 22
102 94 28
100 93 26
95 89 23
98 91 25
106 96 30
97 90 27
96 88 25
100 92 29
101 93 27
95 88 25
109 99 30
100 93 27
99 92 27
88 82 21
99 92 24
86 79 22
100 93 29
138 162 169
133 157 143
132 156 145
137 161 163
136 159 155
135 159 157
135 158 151
133 158 151
135 159 153
138 162 169
129 153 131
135 159 157
133 158 155
131 155 141
137 161 163
135 159 155
132 156 145
137 161 163
137 161 161
135 159 153
129 154 137
132 156 149
129 153 137
136 160 159
130 154 143
134 158 153
137 161 163
131 156 143
135 159 155
130 155 139
132 156 145
136 159 157
135 159 161
129 154 135
139 162 165
132 157 149
133 157 155
138 162 172
134 158 155
136 160 161
136 160 161
136 160 161
136 160 159
133 158 153
134 158 153
132 156 147
135 159 157
133 156 147
137 160 161
133 157 159
134 158 155
135 159 157
136 159 157
136 160 163
137 161 161
135 158 153
133 157 145
128 153 135
135 159 157
136 160 157
136 160 163
133 156 145
133 157 145
133 158 155
136 160 159
134 158 153
138 161 167
137 161 165
135 159 155
134 158 151
140 164 176
133 157 151
135 159 157
134 158 157
134 158 149
135 159 161
131 155 145
137 161 163
135 159 153
139 162 172
133 158 153
137 161 165
138 161 167
136 160 163
135 159 161
130 154 139
135 159 157
137 161 165
136 160 161
136 160 161
132 156 147
135 159 161
130 155 145
133 157 153
136 160 161
136 160 163
132 156 151
132 156 145
133 157 151
136 160 163
134 158 153
133 158 153
135 159 161
135 159 158
135 158 160
128 151 140
127 150 136
119 140 141
120 140 141
112 133 134
116 138 133
104 126 118
95 116 125
89 109 105
79 99 102
81 99 105
64 83 86
61 80 89
48 66 83
51 68 93
41 58 88
30 47 75
15 30 59
9 25 51
9 23 44
10 25 59
9 22 47
8 22 45
8 21 48
9 23 59
9 23 57
8 21 52
8 21 50
7 19 51
8 21 51
7 19 42
6 17 42
6 17 38
6 17 47
6 16 44
5 14 38
4 11 34
4 11 30
3 8 28
3 9 30
6 11 25
34 44 59
60 74 86
54 71 87
10 25 58
10 27 51
11 29 60
12 30 64
12 32 69
11 29 65
13 32 67
13 33 75
13 34 75
13 33 77
13 32 68
13 33 64
13 34 72
13 33 70
12 31 60
13 32 64
13 33 69
13 32 63
14 35 76
14 34 76
13 34 73
13 34 72
13 34 76
13 33 66
13 34 76
14 35 77
13 34 72
14 35 71
14 35 76
14 36 81
13 34 59
14 35 72
14 35 71
13 34 67
14 35 79
14 36 77
13 34 64
13 34 72
13 34 67
14 34 76
13 34 75
14 35 73
14 35 76
14 36 78
14 35 67
14 35 74
13 33 65
14 36 81
14 35 79
13 34 75
14 35 74
14 35 72
14 35 70
14 35 79
13 33 71
13 34 60
13 32 55
13 34 75
14 36 83
14 35 73
14 35 77
13 34 65
14 35 80
14 36 74
13 34 67
13 33 66
13 34 74
14 36 79
14 35 76
14 35 79
13 33 61
14 33 66
14 35 79
13 33 62
14 34 73
13 34 75
13 33 74
13 33 72
13 34 68
13 33 61
14 34 73
13 33 68
13 33 72
12 31 57
14 34 70
13 31 73
13 32 68
12 31 68
12 31 65
13 33 65
13 32 60
13 33 70
13 31 72
11 27 48
13 31 57
12 29 59
11 27 56
12 29 60
10 25 50
10 25 47
12 27 52
8 19 32
22 27 24
17 17 7
13 14 4
12 13 4
12 13 5
8 10 5
6 8 2
6 8 4
13 16 8
14 17 8
14 17 7
11 15 8
20 23 12
25 28 11
22 25 10
33 35 12
29 31 11
33 35 14
35 36 15
35 37 14
38 40 17
43 44 16
47 48 16
50 50 15
52 53 17
61 61 22
48 48 17
59 59 20
61 61 23
67 66 23
70 69 21
59 58 20
76 73 21
76 73 25
69 69 22
79 75 22
81 79 22
87 82 25
88 83 27
82 78 22
86 82 26
85 81 23
86 82 25
94 89 27
82 78 21
80 78 23
99 93 28
98 92 27
95 89 22
95 90 25
99 92 31
92 87 26
95 89 28
95 88 27
99 92 27
106 99 30
104 97 28
108 101 28
106 99 28
106 99 31
100 94 26
108 101 24
103 97 24
105 99 25
104 98 27
105 98 24
111 103 29
105 98 27
107 101 33
109 102 28
111 103 34
108 102 30
112 103 32
109 102 30
107 100 23
111 104 31
116 107 33
113 105 30
110 103 28
111 104 31
111 102 26
117 108 32
111 103 28
111 103 26
108 101 24
108 100 25
115 105 30
117 107 34
117 108 32
111 103 29
115 106 28
113 104 28
114 105 32
107 99 28
112 103 28
119 110 33
114 105 32
120 110 33
114 105 29
107 100 30
110 102 26
115 105 30
107 100 26
111 103 29
111 102 27
107 98 27
109 101 25
111 102 31
110 102 30
100 93 25
108 100 30
113 105 31
111 101 26
104 96 25
103 95 27
108 100 27
105 96 26
103 94 25
103 95 27
111 102 27
108 101 29
107 99 28
109 100 28
102 93 27
103 95 25
100 92 22
99 91 26
106 97 26
105 97 30
96 87 27
95 88 24
104 95 26
102 95 22
103 95 25
89 82 22
97 90 20
96 90 24
93 86 21
101 94 28
98 89 23
93 86 24
101 93 26
103 95 24
98 90 24
96 89 24
92 84 23
96 89 23
91 84 25
90 82 23
133 157 147
132 156 143
135 159 157
130 154 135
130 154 137
134 158 151
132 156 143
134 158 153
129 154 135
133 157 147
131 155 141
129 154 135
134 158 149
132 156 143
130 153 131
137 161 167
129 153 131
130 154 135
137 161 163
134 158 151
134 158 149
129 153 129
131 155 139
134 157 147
132 157 147
130 154 135
130 154 135
133 157 149
132 156 143
132 156 137
135 159 155
132 155 141
134 158 149
135 158 153
137 160 157
130 155 137
133 157 149
133 157 143
136 159 157
136 160 161
133 158 157
130 154 135
134 158 149
133 157 147
131 155 141
135 158 151
132 156 143
132 156 139
135 159 157
130 154 135
128 152 131
129 153 133
129 153 133
132 156 139
130 154 143
131 155 141
129 153 133
133 157 145
127 152 137
133 157 147
133 157 143
133 157 147
129 154 137
130 154 135
131 155 141
133 157 149
134 158 149
139 162 169
133 156 145
128 152 131
133 157 149
134 159 157
131 155 137
134 157 147
136 159 161
129 154 137
128 153 133
125 150 122
134 158 151
133 157 151
134 157 147
131 155 145
135 159 153
137 160 157
133 157 149
135 158 153
131 155 143
133 157 149
135 159 153
132 156 143
136 160 157
129 152 137
134 158 151
128 152 129
131 156 143
133 157 151
133 157 153
133 157 151
134 158 153
133 157 145
134 158 151
131 155 139
132 156 149
132 155 151
127 148 134
130 152 149
125 146 136
117 137 116
115 134 114
117 137 130
108 129 113
105 125 121
88 107 103
86 107 105
84 105 106
68 87 91
63 81 98
53 71 80
45 62 75
49 67 86
37 54 83
26 42 69
18 33 58
9 24 50
10 25 52
10 26 65
9 24 50
9 23 48
9 23 49
9 23 56
8 22 44
9 22 59
8 22 50
7 19 45
7 19 44
6 18 43
6 17 36
6 15 36
6 16 42
5 13 29
5 13 37
5 14 39
3 9 27
3 8 23
3 8 27
8 14 31
41 51 58
56 69 69
36 51 57
10 27 61
11 28 63
10 27 61
12 30 70
12 30 62
12 32 70
12 32 65
13 33 71
13 33 77
13 32 63
13 33 71
14 35 87
13 32 74
14 35 73
14 34 74
13 34 73
13 32 59
13 34 79
14 35 75
14 34 73
14 34 73
14 35 76
13 33 68
14 35 79
14 35 76
14 35 78
14 35 83
13 34 72
14 34 63
13 33 69
14 35 73
13 33 61
14 36 85
14 36 77
14 35 76
13 33 61
13 33 60
13 34 69
15 37 95
14 35 74
13 34 67
13 34 65
14 34 65
14 35 76
14 35 75
14 35 70
13 33 66
14 35 74
14 36 77
13 33 66
14 34 73
13 34 66
13 34 60
14 35 74
14 34 69
14 35 69
13 34 69
14 35 69
14 34 65
14 35 71
13 33 69
14 34 75
13 33 71
14 35 85
13 34 68
14 34 66
14 34 72
13 34 65
14 34 73
13 34 65
14 35 83
14 34 70
14 34 75
13 34 69
14 35 72
13 32 63
13 33 63
13 32 69
14 33 74
14 34 74
13 33 63
13 33 73
13 33 66
13 33 64
13 33 70
14 34 73
13 33 70
13 32 62
13 32 66
13 32 63
13 32 70
13 31 66
12 29 56
13 31 66
12 30 60
12 30 66
12 29 57
10 25 38
10 23 41
10 24 45
10 25 43
9 21 45
15 20 21
16 15 5
8 8 2
12 12 5
8 9 4
5 7 3
10 12 6
4 7 3
7 10 5
13 16 7
14 17 6
15 18 9
22 25 11
20 22 8
20 22 9
25 27 10
23 26 11
33 34 13
33 35 13
30 33 12
38 40 16
40 40 18
55 54 21
38 39 13
49 49 18
56 55 17
54 53 16
56 55 18
66 66 21
64 63 21
61 60 19
59 58 20
61 61 18
83 79 26
81 78 27
73 70 20
82 79 24
84 80 21
70 68 20
86 82 26
79 76 20
93 88 27
84 80 22
83 79 24
88 82 22
87 82 23
90 85 23
96 90 25
91 87 29
93 87 28
100 93 27
88 84 23
102 95 28
101 95 28
104 96 29
99 92 24
104 97 28
107 100 26
103 96 31
99 93 26
102 96 24
109 101 27
99 92 25
104 97 27
107 99 26
112 103 35
107 99 27
106 98 28
111 103 31
113 105 31
110 102 31
104 98 25
107 99 27
110 101 27
108 99 27
112 104 26
114 105 32
109 102 27
110 102 28
112 104 29
112 103 27
111 104 29
111 104 31
105 98 22
104 97 22
117 108 33
112 104 28
117 108 30
114 106 31
111 102 27
115 105 29
104 97 25
116 107 32
103 96 26
113 104 29
112 103 29
109 101 27
110 102 26
107 99 25
111 103 32
107 99 26
109 100 28
111 103 28
104 96 22
112 104 29
107 99 25
103 96 28
113 105 28
108 99 27
111 102 29
109 101 30
97 90 23
104 97 23
107 99 25
102 94 27
113 103 29
101 93 26
102 95 23
106 97 27
113 104 31
109 99 26
101 93 20
102 93 22
104 96 25
100 92 22
109 103 29
108 99 26
105 96 27
110 101 30
102 94 27
97 90 20
93 87 23
99 92 25
95 86 24
116 107 31
99 92 22
105 98 29
99 90 24
93 87 21
97 90 25
104 96 28
100 93 26
93 85 23
101 93 27
95 87 23
105 96 26
95 88 23
99 91 25
97 89 23
129 153 135
131 155 141
129 153 131
133 156 145
133 157 145
129 153 131
129 154 135
129 153 124
133 157 147
132 156 139
131 155 141
133 157 147
130 155 137
135 158 151
131 155 135
129 153 131
127 152 124
131 156 143
130 154 133
130 155 137
131 155 135
135 158 149
131 155 139
131 155 137
131 156 143
133 157 145
133 157 149
127 152 124
133 157 145
128 153 133
134 158 149
129 153 133
132 155 137
133 157 149
124 148 114
134 157 147
127 151 124
127 151 126
132 156 143
135 159 153
128 153 131
132 156 141
129 154 133
128 153 133
126 150 118
130 154 135
131 155 141
129 153 131
128 152 124
137 161 159
137 161 159
134 157 153
130 153 137
125 150 118
133 157 147
128 152 124
129 152 131
132 156 145
133 157 149
125 150 118
135 158 151
129 153 137
133 157 147
128 153 137
132 156 141
129 153 126
133 157 147
130 154 133
128 152 131
129 154 133
135 158 151
130 154 137
129 153 129
132 156 147
135 158 155
126 151 124
128 153 133
132 156 141
128 151 131
130 154 133
136 159 157
136 159 157
129 153 133
132 156 141
131 155 143
134 157 151
131 154 141
124 148 112
133 155 149
128 153 131
132 156 145
128 152 131
131 155 149
127 151 129
130 154 135
129 153 135
122 146 114
130 154 137
132 155 139
127 151 124
125 149 116
126 150 126
134 157 149
133 157 143
127 149 134
127 150 135
118 138 105
119 138 123
106 125 102
108 126 112
96 116 92
97 118 107
84 104 90
90 111 101
80 99 92
69 88 97
62 80 91
58 76 85
56 74 80
37 53 62
33 50 78
16 31 57
16 31 60
9 24 52
9 24 48
9 24 46
9 24 48
10 25 53
9 23 54
9 23 48
8 20 40
8 22 52
8 20 46
8 21 47
7 19 41
7 19 42
7 19 41
6 16 37
5 14 40
5 14 31
5 14 33
5 13 35
4 11 34
2 7 13
3 8 25
3 7 19
33 43 47
52 65 67
43 59 69
9 25 49
10 27 58
11 28 62
12 31 64
12 30 65
13 32 62
13 32 70
13 32 78
13 33 72
13 32 73
14 34 78
13 32 69
13 34 73
13 33 67
13 32 63
13 32 61
13 33 61
13 34 70
13 33 69
14 35 82
14 34 79
13 34 72
14 35 73
13 34 77
14 36 77
13 32 54
13 33 59
13 34 72
13 33 68
14 35 72
14 34 67
14 34 68
13 34 66
14 35 72
14 35 72
13 34 70
14 35 83
14 36 80
13 34 65
13 34 68
14 35 71
13 34 67
14 35 68
13 34 67
14 35 77
14 35 67
14 35 66
13 34 68
14 35 72
14 34 66
13 33 62
13 33 61
13 33 67
14 34 78
14 35 75
14 35 75
14 35 75
14 35 76
14 34 67
14 35 68
14 36 80
13 33 62
14 36 81
14 34 73
13 33 69
14 35 71
14 34 66
14 34 61
14 34 70
14 35 73
13 33 65
13 34 68
13 32 60
13 34 65
14 34 73
13 33 72
13 33 70
13 33 69
14 34 78
13 33 75
13 33 69
13 33 67
13 32 54
13 32 69
13 34 72
13 33 70
13 33 78
13 32 68
12 30 71
13 33 70
12 31 65
13 32 65
12 30 60
12 29 63
13 32 70
12 29 58
11 27 47
12 29 55
11 26 55
11 27 56
9 22 31
10 23 44
12 16 15
14 14 4
9 10 2
11 12 3
9 10 3
4 5 2
8 9 3
8 11 5
10 12 4
11 15 8
13 16 7
13 17 7
16 20 9
17 20 8
25 28 10
25 26 8
27 28 11
29 32 13
24 27 8
36 36 12
50 50 18
44 45 16
42 43 15
48 49 17
45 46 15
47 47 16
56 55 18
62 60 19
51 52 16
61 60 18
52 52 16
68 65 24
56 55 18
83 79 26
74 72 25
76 74 25
73 70 23
75 72 19
82 78 26
81 78 24
73 71 22
78 76 25
83 79 24
85 79 26
91 86 23
101 94 28
83 79 21
91 85 25
95 90 21
89 83 21
94 89 28
96 90 24
101 95 28
101 95 27
91 86 22
101 94 26
104 98 30
102 96 25
105 98 28
106 100 21
107 99 27
107 100 30
103 97 24
102 96 25
111 103 29
109 102 31
110 101 31
109 101 31
115 107 31
107 100 28
108 100 29
112 104 29
110 102 29
104 97 21
107 100 28
109 103 31
105 98 27
106 98 24
104 97 22
105 99 28
111 103 29
116 107 32
111 104 27
110 102 26
112 103 32
109 101 26
115 106 31
111 103 26
117 107 32
105 97 25
113 105 28
115 104 29
121 111 33
106 99 24
113 104 30
101 94 26
109 100 26
100 95 25
117 108 35
113 104 28
108 100 24
114 104 29
110 102 28
103 95 23
105 98 26
113 104 33
111 103 31
104 98 25
102 95 25
109 102 27
104 95 23
104 96 24
108 100 27
111 103 31
103 95 26
111 101 29
107 98 27
102 94 24
96 89 20
106 97 30
110 101 26
107 98 29
100 92 22
105 97 28
107 99 28
99 92 25
98 90 27
98 90 26
97 89 23
99 90 24
107 99 25
96 89 26
97 90 24
107 100 28
108 100 26
105 97 26
110 100 30
99 92 26
99 91 27
94 87 26
101 94 28
101 93 24
98 91 24
96 88 28
100 92 26
92 86 21
102 94 27
105 96 28
88 80 20
126 151 129
129 153 131
129 153 126
132 156 141
133 157 143
132 156 141
132 156 143
131 155 143
131 154 133
130 153 135
130 154 133
124 149 116
134 158 149
127 151 120
133 157 145
126 150 118
127 151 120
128 153 129
126 151 120
128 152 129
131 155 137
129 154 133
128 152 124
130 154 135
131 156 145
134 158 149
130 154 133
127 151 122
124 148 118
131 155 135
131 155 137
128 152 124
132 156 137
127 151 122
132 155 137
131 155 139
127 152 126
131 155 135
127 151 120
132 155 137
134 158 149
132 155 139
130 154 137
126 150 116
130 154 141
128 152 124
124 149 118
127 151 122
128 152 124
129 153 126
130 154 137
131 155 141
127 151 120
129 153 131
130 154 135
135 158 145
129 153 126
129 153 129
127 152 124
128 152 124
131 154 139
128 153 131
128 152 124
129 153 129
125 149 116
128 153 126
131 155 139
131 155 135
134 158 145
133 157 145
132 155 139
132 156 141
130 154 137
134 157 147
133 157 145
129 154 133
132 155 143
127 152 129
131 154 139
128 152 122
123 148 114
132 156 139
125 150 118
125 148 120
126 150 122
128 153 129
127 151 126
123 147 110
128 152 131
124 148 118
130 154 137
125 148 124
129 153 124
131 155 143
130 154 133
129 153 133
132 155 145
125 149 120
131 154 139
124 148 116
123 147 110
120 143 104
124 149 112
130 153 135
121 145 104
124 146 121
129 150 136
128 148 142
118 139 117
107 127 99
107 128 99
98 118 97
88 105 93
79 99 71
80 100 85
57 74 77
64 84 91
55 72 79
48 66 71
38 55 68
37 54 62
26 42 48
11 27 59
10 25 46
10 25 50
9 23 45
10 25 53
9 23 50
9 23 45
9 23 49
9 22 49
7 19 42
8 20 39
8 20 50
7 19 39
6 16 33
7 19 43
6 17 39
6 15 31
6 16 41
4 11 27
4 13 31
3 8 22
2 7 17
2 7 17
5 10 17
29 37 43
44 56 44
38 52 59
10 26 49
11 28 52
11 29 67
12 29 65
11 29 57
12 31 67
13 32 69
12 30 51
13 32 61
13 33 65
12 31 61
13 32 70
12 32 64
13 34 72
13 33 64
14 34 73
14 34 76
13 34 78
13 34 73
13 34 69
13 33 62
13 33 66
13 34 73
13 32 66
14 35 72
13 32 69
14 35 74
13 34 69
13 34 68
13 34 67
13 33 61
13 34 67
13 33 67
14 35 77
14 35 76
14 34 72
13 34 66
13 33 62
13 33 58
14 34 66
14 36 84
14 35 71
13 34 72
14 35 79
14 34 66
13 33 71
14 36 82
14 34 74
13 35 71
13 34 71
14 35 78
14 34 73
13 34 66
14 35 76
13 34 69
14 35 71
14 34 72
14 34 70
13 34 61
13 33 61
14 34 65
13 34 70
14 35 78
13 33 79
14 35 74
14 34 74
13 33 60
14 34 69
13 34 67
13 33 62
13 33 71
13 32 65
14 35 74
14 35 77
13 33 59
13 34 78
13 34 68
13 33 67
13 33 66
13 33 71
13 33 69
12 30 57
13 31 70
13 33 62
13 33 65
12 31 63
13 31 61
12 29 55
13 31 59
13 32 69
14 34 80
12 29 60
12 29 60
12 30 61
12 30 59
12 28 52
11 28 51
11 26 54
11 26 46
11 25 47
10 24 45
10 24 47
17 22 21
18 18 5
15 14 3
11 11 2
8 9 2
6 7 2
7 9 3
4 6 1
10 13 6
7 10 4
18 20 7
23 25 10
15 18 8
18 21 8
26 29 12
25 28 9
29 30 9
29 31 10
25 28 9
34 36 10
43 43 16
50 50 17
41 41 14
50 50 14
49 50 17
58 56 18
58 56 13
65 64 21
48 50 18
63 61 15
65 64 18
64 63 19
71 67 16
71 69 20
74 70 25
68 66 20
79 76 19
73 69 25
82 79 24
80 76 21
82 79 23
89 85 22
77 74 21
89 85 26
90 84 25
90 85 24
86 82 23
94 89 29
96 91 26
93 86 29
97 92 24
90 85 26
89 85 23
98 92 26
98 93 29
98 92 20
96 90 25
102 96 31
103 98 24
100 93 23
99 93 23
102 95 26
103 96 27
109 101 28
102 95 25
107 99 28
111 104 31
110 102 29
108 101 26
109 101 29
109 101 24
102 96 23
105 98 28
105 97 28
111 102 29
115 105 26
111 103 28
108 101 25
113 104 27
115 106 30
105 97 21
104 97 23
109 101 28
113 104 28
112 103 27
103 96 22
112 104 28
114 105 30
112 104 30
109 99 27
117 106 30
117 107 30
108 99 25
106 98 27
109 102 26
113 103 30
100 94 24
111 103 30
107 100 29
106 97 26
110 102 28
107 99 23
103 94 29
102 95 24
104 97 27
107 98 25
109 101 26
99 93 23
110 100 29
111 102 28
108 100 27
109 101 28
110 101 29
105 96 26
106 99 27
106 98 26
100 91 20
103 95 25
96 89 23
104 96 27
114 105 31
98 92 23
107 99 28
104 97 26
101 95 25
97 90 28
108 100 30
105 97 28
100 93 25
95 88 25
100 93 19
102 94 27
102 95 27
98 91 24
101 93 24
98 91 21
98 90 26
90 83 19
102 95 27
102 94 24
100 93 21
97 90 24
92 86 22
88 82 22
95 88 26
98 90 20
101 92 24
92 85 20
99 90 23
131 155 137
136 159 155
127 152 122
128 152 122
130 154 131
124 148 108
132 155 139
130 154 135
129 153 131
131 154 135
129 153 129
133 157 145
125 149 112
133 156 143
129 153 129
126 150 114
131 155 135
126 151 116
129 153 124
137 160 157
129 153 135
125 149 114
129 153 131
126 150 116
129 153 129
126 150 114
125 149 110
123 148 110
130 153 129
129 153 126
128 152 126
129 152 126
133 156 137
125 149 112
130 154 131
126 150 116
130 154 133
122 147 112
122 147 108
125 149 114
125 150 118
128 152 126
129 153 126
129 152 126
126 151 116
133 157 145
125 149 112
125 150 116
129 152 122
124 148 114
126 151 120
128 152 122
126 150 120
126 150 122
130 154 133
124 148 112
121 145 96
125 149 116
129 153 129
127 151 126
129 153 126
124 148 108
125 149 116
126 149 114
126 150 114
125 149 112
133 157 143
126 150 116
124 148 112
124 149 108
129 152 133
125 150 114
131 155 137
122 146 106
127 151 122
127 151 118
126 151 122
129 153 126
132 156 139
123 148 110
124 148 110
123 147 102
127 151 120
123 147 106
122 146 110
128 153 129
128 152 120
130 154 129
119 144 90
132 155 135
124 147 120
122 147 106
125 149 120
121 145 98
126 150 114
121 145 110
125 149 116
122 146 106
122 146 106
127 151 120
126 150 116
129 153 133
119 143 102
124 149 112
122 145 116
119 142 102
121 142 109
114 134 95
107 127 96
106 126 108
98 119 81
95 111 79
82 101 86
82 100 83
75 94 78
66 84 83
64 81 74
52 69 73
39 56 57
33 50 66
29 45 57
24 41 58
14 29 55
10 24 55
9 22 42
8 22 45
8 21 35
9 22 47
9 22 44
7 19 37
8 21 42
7 19 38
7 19 37
8 20 47
7 20 37
6 17 34
6 16 37
5 13 30
5 14 32
5 13 28
3 9 19
3 9 20
3 9 25
2 7 19
2 7 16
8 13 18
25 33 39
63 76 72
40 55 60
9 25 50
11 27 56
10 27 54
11 29 50
12 30 59
12 30 67
12 30 60
12 30 62
13 32 69
12 31 69
13 33 60
13 34 69
12 31 59
14 35 74
12 31 64
14 35 80
13 33 76
12 32 54
14 35 74
14 35 72
13 34 68
13 32 65
13 33 57
14 35 73
13 33 72
13 34 67
13 33 57
14 34 77
13 33 65
13 32 64
13 33 60
14 34 70
13 32 62
14 35 80
13 34 70
13 33 65
13 33 71
13 33 67
14 35 72
13 34 59
13 33 55
14 35 75
13 34 62
13 33 66
14 35 77
14 34 69
14 35 75
14 35 74
13 34 70
13 33 62
13 34 60
14 34 70
14 34 69
13 33 63
14 35 71
14 35 72
14 34 70
14 34 78
13 33 69
14 34 73
14 34 69
14 34 70
14 34 65
14 34 68
14 35 71
14 35 75
14 34 63
13 32 61
13 34 63
13 34 67
13 34 68
13 34 70
14 34 73
13 33 64
14 34 72
14 35 80
13 32 66
13 32 71
13 32 57
13 33 67
13 33 62
13 33 68
13 33 63
13 32 59
13 32 66
13 33 72
13 33 66
12 31 60
13 32 63
12 29 49
13 32 60
12 31 56
12 29 60
12 30 63
12 30 59
11 26 48
11 27 53
10 24 45
12 29 57
11 26 50
8 20 31
7 18 30
19 23 17
20 20 5
9 10 1
10 11 3
10 11 3
7 8 2
6 8 3
6 8 3
5 7 3
13 15 5
10 12 4
12 16 6
14 17 7
27 29 9
23 26 9
26 29 10
31 33 10
26 29 10
28 30 11
48 50 16
35 37 14
42 42 11
43 43 17
44 44 14
49 49 17
48 47 16
45 45 13
57 56 19
55 55 15
64 61 18
67 65 20
66 64 21
66 65 18
65 64 19
65 63 17
75 72 22
76 74 23
64 64 19
78 74 22
68 65 19
76 73 22
79 77 21
76 74 19
78 75 17
91 85 23
77 74 20
77 72 24
89 85 25
89 84 21
91 85 24
95 90 26
101 95 27
93 88 24
100 94 29
107 99 27
104 97 23
94 87 23
101 94 28
106 98 27
103 95 29
100 95 26
108 100 24
106 99 25
103 96 27
107 99 27
106 99 25
108 101 29
104 98 25
104 97 28
105 98 24
104 97 25
107 100 21
104 97 19
111 103 29
112 104 27
105 98 29
108 100 27
107 99 26
100 94 26
112 104 29
101 95 23
114 105 26
118 108 30
112 103 27
115 107 30
112 103 29
113 104 27
107 100 28
110 101 28
114 104 29
100 94 19
108 101 26
108 100 27
111 102 26
107 99 25
112 103 26
111 103 28
112 103 25
105 98 25
104 93 22
102 95 26
112 102 26
107 99 28
109 101 27
108 99 29
104 97 26
115 105 30
109 101 27
110 102 25
105 97 23
110 100 30
109 101 24
100 93 22
94 88 19
109 99 29
104 96 27
105 97 25
99 91 24
102 94 25
108 99 25
101 94 24
104 97 24
103 95 23
101 93 23
97 88 22
108 100 28
104 96 25
106 97 25
100 92 23
102 93 25
103 94 28
104 95 30
99 92 23
98 91 22
92 86 19
102 94 24
98 91 27
100 93 24
99 93 21
105 96 25
94 85 25
92 85 23
94 86 20
89 83 18
100 92 25
86 81 18
103 96 23
93 86 20
83 76 20
125 149 112
131 154 133
128 152 126
125 149 112
123 147 100
127 151 122
126 151 116
126 150 116
129 153 126
126 150 120
126 151 120
130 153 129
125 150 114
121 146 102
125 150 116
126 150 122
129 153 126
127 151 122
130 153 129
123 148 110
130 153 126
130 153 133
132 156 139
122 146 102
126 150 120
124 148 110
125 149 114
127 151 116
127 150 118
125 149 108
123 147 110
122 147 100
123 148 108
126 150 116
128 152 124
128 153 126
125 149 108
122 147 104
129 152 129
125 149 112
121 146 102
126 150 112
126 150 112
128 152 118
124 148 108
128 152 129
127 150 120
128 152 129
124 148 104
125 149 114
124 147 104
124 148 104
123 148 106
129 153 131
130 154 133
119 145 96
123 148 104
125 149 112
124 149 112
124 148 112
126 150 118
119 143 94
123 148 106
120 144 90
127 150 116
131 155 133
124 148 110
126 151 118
122 146 100
123 147 106
128 153 131
121 145 102
123 148 104
122 146 104
123 147 102
121 145 96
129 153 124
121 145 102
125 150 114
123 147 110
119 143 96
128 152 126
124 147 120
127 151 124
125 150 114
115 140 81
122 146 104
123 147 112
119 143 94
122 146 104
122 146 106
120 144 102
126 150 118
121 145 106
117 141 90
122 146 102
118 141 90
121 145 106
122 146 106
117 141 92
119 143 100
122 145 106
123 146 114
119 141 104
121 144 108
119 140 99
113 131 90
114 133 96
106 123 85
106 125 86
98 118 92
83 100 74
83 102 72
66 85 69
76 94 78
68 85 76
59 76 63
60 77 75
51 68 72
34 50 62
29 43 42
24 40 52
15 31 54
9 23 42
9 24 44
10 25 52
9 23 48
9 23 41
8 22 40
9 23 49
8 20 40
8 21 38
7 19 36
7 18 31
7 18 35
6 15 39
6 15 32
6 17 33
6 16 28
4 11 28
4 12 26
3 10 22
4 10 23
2 6 13
2 6 18
11 17 19
27 35 34
69 85 63
50 68 73
10 27 59
10 27 60
12 30 63
12 31 69
12 30 60
12 31 61
12 30 55
12 30 54
13 33 74
13 32 72
13 33 72
12 31 59
12 31 67
13 32 68
14 35 78
13 34 78
13 33 67
13 34 67
14 34 78
13 32 62
13 33 69
13 34 72
13 34 74
13 34 68
13 33 68
14 34 73
13 33 57
13 33 64
14 35 77
14 35 73
13 33 67
13 32 63
13 33 59
13 33 65
13 34 68
13 34 66
14 35 70
13 34 64
14 36 73
14 35 65
13 33 72
14 36 76
13 34 65
13 33 60
14 35 67
13 34 70
13 33 61
13 33 58
14 34 67
14 35 74
14 35 74
13 34 61
14 34 62
13 34 67
14 35 71
12 32 56
13 34 70
13 34 74
14 35 77
14 34 66
13 33 63
14 34 76
14 34 70
12 32 53
14 35 75
14 35 77
13 34 69
13 32 66
13 32 63
13 33 65
13 32 61
14 34 79
14 34 74
14 34 68
14 34 67
13 34 65
13 32 59
13 33 68
13 32 63
13 33 66
13 32 57
13 32 62
13 33 62
13 32 68
13 33 69
13 32 75
13 32 70
13 33 67
12 30 61
11 28 47
13 31 69
13 32 66
12 30 58
12 30 56
11 28 54
11 27 46
11 28 46
12 28 55
11 27 57
11 26 50
11 25 49
8 19 35
10 16 16
16 16 3
10 10 1
11 12 2
7 8 3
6 7 1
5 7 3
8 10 3
8 11 4
9 11 5
10 12 3
12 14 3
14 16 4
12 15 6
30 32 10
26 28 10
22 25 10
27 29 8
35 35 10
48 49 16
43 44 13
36 36 11
46 46 17
46 47 12
50 50 17
47 48 17
52 52 15
41 42 14
61 59 18
45 46 13
56 55 18
66 64 22
60 59 18
70 67 20
65 62 18
80 75 22
74 72 20
74 72 21
78 74 18
80 76 21
80 76 20
71 68 17
84 79 24
86 82 20
88 83 24
94 89 22
84 80 23
84 79 24
91 86 25
88 83 22
92 86 23
89 84 21
99 93 22
98 92 24
93 88 23
94 89 22
90 86 18
99 92 28
101 94 26
104 96 23
96 90 20
101 94 24
108 99 30
100 94 26
102 95 29
104 97 24
107 100 27
100 94 18
104 97 23
103 95 24
111 102 30
110 102 27
110 102 30
108 100 24
105 99 23
107 98 24
104 97 25
108 101 25
109 100 26
110 101 27
104 96 24
102 95 23
109 100 22
112 102 26
104 97 24
104 97 24
105 97 24
112 103 28
110 102 28
111 103 29
108 99 24
106 97 26
108 101 25
119 107 30
107 100 24
115 106 29
104 97 23
113 103 28
109 102 29
108 100 27
108 100 27
111 102 26
103 95 22
109 100 25
101 95 23
109 100 25
104 96 25
106 98 23
101 94 23
107 98 24
106 98 29
100 93 23
106 98 26
94 88 18
100 94 23
103 94 23
110 102 28
115 104 29
107 99 26
98 91 21
100 92 24
102 95 24
104 96 25
92 85 18
106 99 26
106 98 22
105 97 25
103 95 24
96 89 23
108 98 25
94 87 20
105 95 28
96 88 22
94 86 22
98 90 23
98 90 25
95 89 25
101 94 25
91 84 19
97 88 26
96 89 25
93 86 21
101 93 25
89 82 23
89 82 22
90 84 20
96 90 21
95 89 22
101 93 27
123 148 106
127 151 114
127 151 118
128 152 122
127 151 118
125 149 112
131 154 129
129 153 124
126 150 118
131 154 135
128 152 122
120 144 90
127 151 120
128 152 122
129 153 126
123 148 106
129 152 126
125 150 116
123 148 106
127 151 116
126 150 120
123 148 106
126 150 114
127 151 120
122 147 102
124 149 114
124 148 106
122 146 98
130 154 126
126 150 120
124 149 110
124 148 108
122 146 102
124 148 110
122 147 102
126 151 118
127 151 116
124 148 114
126 150 118
127 151 120
126 149 114
120 145 96
129 153 126
128 151 122
120 145 100
123 147 108
120 146 100
124 147 110
128 152 124
122 145 114
125 149 112
120 144 104
125 149 110
124 148 106
124 149 110
120 144 100
127 150 118
127 151 118
120 144 92
125 149 110
121 145 98
124 147 106
126 150 112
124 147 112
114 139 75
119 144 90
125 149 112
119 144 96
123 146 94
123 147 110
120 145 100
113 139 79
120 145 96
124 148 106
120 144 100
124 148 108
121 146 96
121 145 102
124 148 108
121 145 98
125 149 110
123 148 112
122 146 102
124 148 110
118 142 94
119 143 98
120 144 90
119 143 94
121 145 94
115 140 92
120 144 96
120 143 102
114 139 71
122 146 106
118 141 90
120 144 100
122 145 104
122 145 102
115 138 81
124 148 106
116 140 94
117 140 92
114 137 94
112 134 80
113 136 83
109 131 70
105 127 65
107 125 76
103 121 81
93 112 57
97 115 78
82 99 53
86 105 78
85 103 82
70 88 68
58 74 51
56 72 48
48 64 44
36 51 48
39 55 35
30 47 43
16 31 45
22 38 52
9 23 43
9 23 39
9 24 48
9 23 48
9 23 37
8 21 34
8 20 37
8 20 43
7 18 32
8 20 39
7 19 39
7 18 31
7 18 40
6 16 35
6 16 28
6 15 29
4 12 25
4 11 24
3 10 20
3 10 20
2 7 15
2 6 14
13 18 26
34 43 32
55 69 58
49 64 52
10 26 57
11 29 60
11 28 59
11 28 53
11 29 55
12 31 69
12 31 60
13 32 63
12 31 61
12 31 64
12 32 61
13 33 69
13 32 67
13 33 66
13 32 63
12 31 51
14 34 67
13 32 61
13 33 67
12 32 64
14 35 71
12 32 61
13 34 60
13 33 62
14 34 69
13 32 57
13 32 65
14 34 71
13 33 64
14 35 66
13 34 69
13 32 59
13 32 62
14 36 76
14 35 67
13 33 61
13 33 53
14 35 71
13 33 63
13 33 65
13 34 69
13 34 66
13 34 65
13 34 67
14 35 70
13 33 62
13 33 55
14 35 72
13 34 70
14 34 67
13 34 69
14 34 70
14 35 67
13 34 65
14 36 78
14 35 76
13 33 58
13 33 62
14 34 65
12 32 60
13 33 59
13 33 71
13 33 65
13 33 67
13 33 69
13 33 63
14 35 80
13 32 59
13 34 68
13 33 58
14 34 66
13 33 62
12 32 60
13 32 57
14 35 69
13 34 72
12 30 53
13 33 68
13 33 67
13 34 65
12 31 56
12 31 57
12 32 51
13 32 55
14 34 71
13 32 60
14 34 70
12 30 55
12 29 49
12 29 51
11 28 45
12 30 61
12 29 60
11 28 55
12 30 55
11 28 47
11 27 44
11 26 43
10 25 40
10 23 42
9 22 31
7 18 29
23 26 13
26 25 6
14 14 3
8 9 2
8 8 1
8 9 2
8 10 2
7 8 1
8 11 2
12 15 4
11 14 6
12 16 5
12 16 6
14 17 6
22 25 9
25 26 7
22 25 9
32 33 8
30 32 11
36 35 11
29 31 10
40 41 11
37 38 13
44 43 12
51 50 15
43 44 12
51 50 13
59 58 17
68 66 20
49 50 13
56 55 15
62 60 16
64 63 18
60 60 17
72 69 19
61 60 17
65 64 14
76 73 15
80 77 20
74 71 23
78 75 16
86 81 19
80 77 19
82 78 21
80 77 19
81 78 21
88 82 21
92 87 28
83 79 22
97 90 26
95 89 22
91 87 23
94 89 23
96 89 22
100 94 27
99 92 24
94 89 20
101 94 24
96 90 25
106 98 24
105 98 27
102 95 25
93 87 22
97 90 26
100 94 23
114 105 30
100 93 22
105 97 27
102 96 26
116 106 27
112 103 28
110 101 27
100 93 19
111 102 27
99 92 23
106 99 26
106 99 27
106 99 26
107 100 23
109 100 22
106 99 24
108 99 24
105 97 21
107 100 26
110 101 25
113 105 28
104 96 23
106 99 23
115 105 27
104 96 22
106 100 22
112 102 25
112 104 25
110 102 26
111 102 28
104 97 22
103 95 22
108 100 26
104 97 23
101 95 24
110 102 24
104 97 26
104 97 22
106 98 22
107 99 28
103 95 24
104 97 21
111 101 21
101 93 23
102 93 23
114 105 28
97 91 18
108 99 23
109 101 25
107 98 25
107 98 24
109 99 30
101 94 24
106 98 21
105 97 26
99 92 26
109 100 26
104 97 20
96 89 22
98 91 20
98 90 25
97 90 23
98 90 25
106 99 26
100 92 26
98 92 19
106 97 27
97 90 25
97 89 23
96 89 22
93 87 20
94 87 22
101 94 24
98 91 22
87 81 18
102 94 25
97 90 23
102 95 28
94 87 21
95 86 23
100 92 22
99 91 24
97 90 22
97 90 25
127 151 120
123 148 104
121 145 102
119 145 100
127 151 118
121 146 98
123 148 110
133 156 141
126 150 112
127 151 116
128 152 118
118 143 92
125 149 112
123 148 108
120 145 90
132 155 131
123 147 100
121 146 98
123 147 104
127 150 112
123 147 104
125 149 108
123 148 106
121 146 104
123 148 104
122 146 100
122 146 98
124 148 106
125 149 112
126 149 110
125 149 106
121 145 96
123 147 104
119 143 100
124 148 106
117 142 92
120 145 94
123 148 104
124 148 108
122 146 100
123 146 104
124 148 104
122 146 102
118 143 90
121 145 94
122 146 100
124 148 106
125 149 106
120 144 96
117 142 88
125 149 114
118 143 90
124 149 110
120 144 92
121 146 94
119 143 88
116 141 83
121 146 102
120 145 96
120 145 92
120 145 94
124 147 104
117 142 81
122 146 102
119 144 94
119 144 88
119 144 88
119 143 98
114 139 79
117 142 83
117 142 79
120 144 94
118 142 92
113 138 75
121 145 92
117 142 81
117 142 79
121 146 98
116 140 79
119 142 88
117 141 90
125 149 110
118 142 88
124 147 102
109 134 69
119 143 86
114 138 75
113 138 73
115 139 81
118 141 88
120 144 102
115 140 83
115 139 79
121 145 96
111 136 67
119 142 94
115 140 79
118 141 92
115 138 86
112 136 77
115 139 88
115 137 86
108 132 73
115 139 83
110 131 71
105 125 78
102 122 62
100 120 57
98 118 72
101 122 74
81 100 43
84 102 65
92 111 63
79 95 62
63 78 56
58 75 50
48 65 35
51 68 55
44 60 35
36 51 42
29 45 38
26 42 37
14 29 41
10 25 39
9 23 43
9 23 49
9 23 48
9 22 45
9 23 45
8 20 30
7 19 35
8 20 37
8 20 36
6 16 28
8 20 41
6 15 26
6 17 33
5 14 24
5 13 26
4 12 23
5 13 29
3 9 12
4 12 21
2 7 10
3 7 12
20 26 17
35 46 25
64 79 51
45 59 57
10 25 55
10 27 57
11 28 52
12 31 57
11 29 62
12 31 69
13 32 62
12 30 62
12 32 64
13 33 62
11 29 55
13 32 68
13 32 59
13 32 67
13 33 60
12 31 66
13 34 66
14 34 66
13 33 67
13 33 70
13 33 67
12 31 59
13 33 64
13 34 59
14 35 74
13 34 67
13 34 69
13 34 66
13 34 63
13 34 67
14 35 74
14 34 70
13 34 72
14 34 70
13 34 67
13 34 69
14 35 67
13 33 63
14 34 70
13 33 65
13 32 53
14 35 72
13 34 65
13 34 61
14 34 70
14 35 77
13 34 63
14 34 62
14 34 76
14 34 70
13 32 53
14 35 69
13 34 64
14 34 71
14 35 78
14 36 74
14 34 65
13 34 69
13 33 70
14 34 72
13 34 61
14 35 67
13 32 57
13 33 64
13 32 57
14 34 65
14 35 70
13 34 65
14 34 75
14 35 72
14 35 74
13 34 68
13 33 73
14 35 67
13 32 59
13 33 70
13 34 72
13 32 64
13 34 63
13 31 61
12 31 54
13 32 69
13 32 54
13 32 66
12 30 52
13 31 64
12 30 62
13 31 54
12 30 57
13 33 66
13 32 67
12 30 56
12 29 59
12 30 62
12 28 44
11 28 49
10 25 38
10 25 38
10 24 42
11 26 45
9 23 42
8 20 29
20 22 9
20 19 4
13 13 3
14 15 4
9 10 1
13 13 1
7 8 1
6 8 1
7 9 3
7 9 3
6 9 2
10 14 4
19 20 4
14 16 5
21 24 7
21 23 8
20 22 7
30 30 7
34 35 10
25 27 8
36 37 8
41 41 12
31 33 10
40 40 12
45 44 14
46 46 14
48 48 13
46 45 13
57 56 16
58 57 14
61 59 15
66 64 15
67 65 18
71 68 19
59 57 14
76 73 18
61 60 13
75 71 21
71 68 20
68 66 17
79 75 18
71 67 17
90 84 19
80 76 19
82 79 20
88 83 21
97 91 24
84 79 23
93 88 21
84 80 18
90 84 24
90 86 19
95 90 20
97 91 27
91 87 22
95 90 18
96 89 21
96 89 20
104 96 25
95 89 21
97 92 22
104 96 21
101 95 21
104 98 27
94 88 19
98 91 24
105 97 24
101 94 23
104 97 24
107 98 24
105 97 19
108 100 26
108 100 25
109 100 26
105 99 26
107 99 26
112 103 27
103 96 20
106 98 22
106 97 25
106 99 21
105 97 21
109 101 23
106 99 27
105 97 24
113 103 24
108 101 27
106 98 24
107 99 27
110 102 25
105 97 23
102 95 23
102 94 19
106 98 22
109 100 25
113 104 29
116 106 32
108 100 28
105 96 24
108 101 22
103 96 21
106 98 24
105 97 21
110 101 26
106 97 24
108 99 30
109 101 24
103 94 24
103 95 25
112 102 27
107 99 25
103 95 24
102 94 25
104 96 26
114 104 28
108 98 25
102 94 23
99 90 20
107 99 26
101 93 24
106 98 27
101 93 23
98 90 22
108 99 26
102 94 23
102 94 23
103 95 25
100 92 24
95 88 18
105 96 24
101 93 25
102 94 27
107 99 29
108 100 25
101 94 23
99 91 21
101 92 25
101 93 24
90 83 23
93 85 23
92 86 22
96 89 19
104 96 25
92 84 20
90 84 19
96 89 24
98 90 26
82 77 14
101 94 26
126 150 116
122 146 104
123 147 102
122 147 104
122 146 96
124 148 106
122 146 98
118 142 94
119 144 96
117 142 83
119 144 92
126 150 110
118 142 83
124 148 102
124 148 106
125 149 112
125 149 110
124 148 104
123 147 102
123 147 102
127 151 116
122 147 106
123 147 102
123 148 104
124 148 106
125 149 112
125 149 112
119 143 88
117 142 81
116 141 81
119 144 92
115 140 75
119 144 90
119 144 94
120 145 90
118 144 90
116 141 79
122 147 100
119 144 92
118 143 88
117 142 88
119 144 88
118 143 83
123 148 102
118 142 90
117 141 83
122 146 102
119 144 96
123 147 104
122 146 100
121 145 98
116 141 73
123 147 102
119 143 90
118 143 83
117 142 75
126 150 108
109 134 59
118 142 88
115 140 75
115 140 79
113 138 73
114 139 73
121 146 102
117 141 79
116 141 86
117 141 86
119 142 86
118 142 88
116 140 79
116 141 77
110 136 63
121 145 96
112 137 67
113 137 73
110 135 59
114 138 77
113 138 77
116 140 77
112 137 69
113 138 77
116 141 75
119 143 86
116 141 75
116 140 90
112 137 69
116 141 77
113 137 77
118 143 86
112 136 73
115 139 71
111 135 63
116 141 83
114 138 81
112 136 75
114 139 73
110 134 67
118 142 94
115 139 79
110 133 73
101 125 55
111 134 73
108 132 57
109 133 71
107 129 60
109 129 76
102 122 67
104 123 64
105 124 83
93 110 58
86 104 42
81 100 52
77 95 49
73 90 48
60 78 46
52 68 48
58 76 43
46 61 52
38 52 36
29 44 44
33 48 43
21 36 32
14 29 39
10 24 42
8 22 42
8 21 41
9 22 44
8 22 35
8 21 32
8 21 41
7 19 34
7 18 33
6 17 25
6 17 27
7 19 32
6 17 30
6 15 29
5 15 23
5 14 24
5 14 22
4 12 25
3 9 13
3 8 11
3 9 12
5 11 13
17 23 17
50 61 55
75 92 63
73 90 68
8 22 47
10 25 41
11 28 52
12 29 58
11 29 52
12 30 58
11 28 54
12 31 61
13 32 59
12 30 59
13 33 68
12 31 60
12 31 58
13 32 71
12 32 59
13 32 65
13 33 58
13 32 56
14 34 77
12 32 55
13 34 66
13 33 66
13 34 62
13 34 65
13 34 72
14 34 71
13 33 61
13 34 68
13 34 72
13 34 67
14 34 67
13 34 66
13 33 68
14 34 66
14 35 78
13 34 62
14 34 71
13 34 61
14 34 79
14 35 77
13 33 65
13 34 67
13 33 61
14 34 72
13 34 69
14 35 75
13 33 62
13 33 67
13 33 61
13 32 44
14 34 70
13 33 68
13 33 62
14 35 68
14 34 65
13 33 59
13 33 65
13 34 67
13 33 67
13 34 67
14 35 74
14 34 63
13 33 52
14 34 76
14 34 67
13 32 61
13 34 72
14 35 76
13 33 58
13 33 65
13 32 57
14 34 62
13 32 60
13 32 57
13 33 67
13 33 63
13 33 61
13 32 64
13 31 59
13 33 61
13 33 56
13 32 62
13 31 63
13 32 62
13 33 69
12 30 58
13 31 63
12 30 54
12 31 62
12 29 46
12 30 63
12 31 63
12 29 56
12 30 62
11 27 50
11 27 43
12 29 57
10 25 42
11 27 53
10 23 43
9 23 42
8 18 33
28 31 19
21 21 5
14 14 2
8 9 0
12 13 2
8 9 1
11 12 1
7 10 3
10 11 3
8 10 3
11 13 4
9 11 5
17 19 4
19 20 5
17 19 5
27 28 5
15 17 4
32 34 10
37 38 7
35 36 9
38 39 13
37 38 9
38 39 10
45 44 13
44 44 10
41 42 15
41 42 13
50 50 13
56 55 12
46 46 10
63 61 15
59 58 17
53 53 13
73 70 20
57 56 12
71 67 19
64 62 14
80 76 22
80 75 19
72 69 21
80 75 17
76 73 16
81 78 21
82 78 22
80 77 17
82 76 22
89 84 22
91 85 23
91 86 22
88 84 16
98 90 20
93 86 25
97 91 22
98 93 24
88 82 22
88 83 20
99 92 20
102 96 22
97 91 17
96 90 20
105 97 24
104 97 26
107 98 27
101 95 23
109 100 26
98 91 23
106 98 22
111 102 26
104 97 23
108 99 28
105 98 22
107 99 22
109 101 25
102 95 19
112 103 30
109 101 25
110 101 26
105 97 23
107 98 23
109 101 24
104 97 22
108 99 23
113 105 27
103 96 20
105 97 23
103 96 24
110 101 27
109 100 25
103 96 24
107 99 22
111 102 27
105 97 18
106 96 24
108 100 24
108 100 26
109 102 24
104 96 22
106 97 25
108 99 23
96 90 17
104 95 21
99 93 20
112 103 29
106 98 21
103 97 21
104 97 25
106 98 20
105 97 23
106 98 26
100 93 20
103 94 19
109 100 26
105 96 23
110 101 23
102 96 26
102 94 23
102 95 24
108 99 27
105 96 25
107 99 27
105 98 27
104 96 25
108 99 24
102 94 25
100 93 22
102 95 24
100 92 23
96 88 17
98 90 23
105 96 25
101 93 22
102 93 23
101 94 22
97 90 19
95 88 19
101 94 25
105 96 24
92 85 19
100 92 25
96 88 22
92 84 19
101 93 20
99 91 21
95 88 21
87 82 17
91 84 22
101 93 24
96 89 21
90 84 22
122 146 98
120 144 98
118 142 88
125 149 116
122 147 102
125 149 106
121 145 94
120 144 90
122 147 98
122 146 96
125 149 110
117 142 83
115 141 81
121 146 100
121 145 98
120 144 92
121 146 98
116 141 77
124 148 108
121 145 92
118 142 77
120 144 90
114 139 69
113 139 73
117 142 77
113 139 71
117 142 77
121 146 98
118 143 86
115 140 79
120 145 98
122 146 94
119 143 86
123 147 100
123 147 100
123 147 104
117 142 86
119 143 81
124 148 106
118 142 92
119 143 90
117 142 81
113 138 77
121 146 96
114 139 71
113 138 73
111 136 61
118 143 86
120 144 94
116 141 77
116 141 77
117 142 79
116 141 77
118 143 81
115 139 77
113 138 63
115 140 73
116 140 69
112 137 63
116 140 77
118 142 86
117 141 83
109 133 61
115 140 81
109 133 67
111 136 61
112 137 69
119 143 86
114 139 77
110 135 63
117 141 83
116 140 81
113 138 71
110 135 59
111 135 61
117 141 77
113 138 69
109 133 61
111 136 63
110 135 57
112 137 67
104 130 45
107 133 49
115 140 73
111 135 65
106 131 49
107 132 57
109 133 57
111 134 69
106 130 53
103 128 51
104 128 53
107 131 57
109 134 71
106 129 59
111 134 75
101 124 47
105 130 55
106 130 63
107 131 57
108 132 63
110 132 75
109 130 61
104 126 65
99 122 43
96 117 49
99 121 53
99 119 47
98 116 55
89 108 41
85 103 37
70 87 47
77 95 45
68 86 45
58 76 36
50 66 39
49 65 31
47 64 35
35 50 38
28 42 32
17 32 37
29 45 39
16 29 30
12 25 39
10 24 49
8 21 34
8 21 37
8 20 33
8 21 38
7 19 29
8 20 42
7 18 29
7 19 36
7 18 29
7 18 38
6 16 30
6 16 25
5 14 25
5 13 21
6 15 22
4 11 16
3 10 16
3 9 12
4 10 12
8 15 15
28 37 30
54 69 24
82 100 69
111 129 126
8 20 35
10 26 56
11 28 53
11 27 46
12 30 59
11 29 54
11 29 61
11 28 46
12 30 56
11 29 47
12 31 58
11 30 46
13 32 63
12 30 48
12 32 50
12 31 56
13 32 65
13 33 61
13 33 55
13 33 72
13 32 58
13 34 65
14 34 69
13 34 68
13 33 67
13 33 64
13 32 57
13 34 66
13 33 58
13 32 56
14 35 71
14 34 72
13 33 60
13 34 67
13 33 60
13 33 67
14 35 77
14 34 58
14 34 65
14 35 67
14 34 68
13 34 62
13 32 63
13 33 65
13 33 65
14 34 66
13 33 60
13 33 66
13 33 55
13 33 63
14 35 78
14 35 71
14 34 75
13 34 66
13 33 63
14 35 69
13 33 58
13 33 62
14 34 70
13 34 69
12 31 56
13 33 67
13 34 66
13 33 59
13 32 57
13 33 61
14 34 70
13 33 61
13 34 67
13 34 63
13 34 60
13 33 60
13 32 65
12 31 49
12 32 57
12 31 55
13 32 60
13 33 55
13 33 63
13 31 52
12 30 54
12 31 48
13 33 74
12 30 48
13 32 51
12 31 51
11 28 43
13 32 68
13 31 59
11 28 39
11 28 49
11 28 50
12 29 55
13 31 61
12 29 52
12 29 57
11 27 48
11 27 47
10 23 35
10 24 43
9 21 27
7 17 22
81 88 80
22 21 3
23 22 3
12 13 2
9 10 0
6 7 0
10 10 0
9 11 2
5 7 2
10 12 2
12 14 2
12 15 4
16 18 4
12 14 2
16 19 4
25 26 7
31 33 6
25 26 5
25 27 7
28 30 9
39 39 10
35 36 9
40 40 10
38 38 10
38 39 11
47 47 13
41 41 9
56 55 16
60 57 12
62 60 15
59 58 14
63 60 16
62 60 13
57 56 17
75 72 20
59 58 11
66 62 12
66 65 16
73 70 18
63 63 14
79 74 19
75 72 13
82 78 19
80 76 19
78 75 19
75 73 21
91 85 21
88 82 21
92 87 20
84 80 18
85 80 20
89 84 19
92 86 22
98 92 26
90 85 18
95 89 23
97 91 22
100 93 24
97 91 18
97 90 23
96 90 17
100 95 20
102 95 23
94 88 14
101 94 22
100 93 19
105 98 25
101 94 23
98 92 24
110 103 28
100 93 21
100 93 19
102 96 27
104 97 21
109 101 27
103 95 20
104 96 22
104 96 22
106 99 23
108 100 24
109 101 24
102 95 23
100 94 21
106 98 22
100 95 18
106 98 24
105 97 20
100 92 20
104 97 18
101 92 21
111 103 28
107 97 22
113 103 26
111 101 24
105 97 24
103 94 22
110 100 22
104 96 23
109 101 23
108 99 26
102 96 23
100 92 24
108 99 26
103 96 20
110 100 26
106 97 27
96 89 17
105 96 22
103 96 24
102 95 23
101 93 20
110 101 25
104 98 22
99 92 22
92 86 19
97 89 20
106 99 25
107 98 23
99 92 23
104 96 22
96 90 19
91 85 18
108 99 23
98 90 23
104 95 23
100 93 20
97 89 24
103 95 24
91 85 19
105 96 29
95 87 20
97 90 22
96 88 20
96 89 23
88 82 17
100 90 26
96 90 19
98 90 22
96 88 20
105 96 29
92 86 22
103 96 28
104 96 25
98 89 22
93 85 18
89 81 20
98 91 22
94 87 20
86 78 18
123 147 100
122 146 96
122 146 98
119 143 90
121 145 100
118 143 83
119 143 86
119 143 81
122 146 94
121 145 98
121 146 94
121 145 98
117 142 86
120 145 92
121 145 90
120 145 94
122 145 92
123 147 102
121 145 96
117 141 77
118 142 83
119 143 83
120 145 92
119 143 83
118 142 88
120 144 86
117 141 86
124 148 104
118 143 86
116 141 75
119 143 83
117 141 75
115 140 77
113 138 71
115 140 73
120 144 88
116 142 86
113 137 67
113 139 69
109 135 57
116 141 79
114 140 73
119 144 92
122 146 96
114 138 75
117 141 81
112 138 67
116 140 77
117 141 83
109 134 59
115 140 79
110 136 57
115 140 73
117 140 81
116 140 79
114 138 65
105 130 45
112 137 65
113 137 73
114 138 69
109 134 59
112 137 69
114 138 73
108 133 59
117 142 79
107 132 53
104 130 45
113 138 71
109 134 53
106 131 57
112 137 69
117 142 83
109 134 51
111 135 65
115 139 73
108 133 57
102 127 43
109 134 55
111 135 65
106 130 47
104 129 49
107 132 43
102 127 51
108 133 59
113 137 75
107 132 51
107 132 55
111 136 61
106 131 45
111 135 71
110 134 61
110 135 55
107 131 63
106 131 55
103 128 45
103 125 55
109 133 61
109 133 71
102 126 43
106 130 61
102 126 43
102 125 51
107 130 67
97 121 43
102 124 43
102 124 55
88 108 34
97 115 47
88 106 37
83 102 32
85 102 43
78 95 37
66 84 30
70 88 39
52 67 26
57 73 44
50 67 42
45 62 31
38 55 30
38 52 20
22 38 39
23 37 33
19 31 25
12 26 28
10 23 37
9 23 39
8 20 32
8 21 36
8 20 29
8 20 28
8 20 33
7 18 32
7 17 28
6 16 26
6 16 26
6 17 31
6 15 24
5 13 22
5 14 21
5 12 19
5 13 20
4 10 14
4 10 18
7 14 13
12 19 14
29 40 22
61 76 45
80 97 61
139 158 167
16 29 49
10 26 48
10 27 43
11 28 45
11 28 53
12 30 48
11 29 49
12 31 57
12 29 53
12 32 55
12 30 46
12 31 62
12 31 60
13 33 60
12 31 59
12 31 54
13 33 70
12 31 58
13 34 67
13 33 64
14 35 70
13 32 61
13 33 63
13 32 61
14 34 77
13 33 55
13 33 63
14 36 77
14 34 69
13 32 53
14 34 67
13 34 69
13 33 64
13 34 63
13 32 62
13 33 65
13 33 57
13 33 67
13 33 67
13 33 63
14 35 71
14 35 65
13 33 56
14 34 69
14 34 62
13 33 68
13 33 71
14 34 62
13 32 49
13 33 61
14 34 69
14 34 65
14 34 65
14 35 71
13 33 61
13 34 70
13 33 66
14 34 66
13 34 69
13 34 67
13 34 68
13 33 60
13 33 63
13 34 74
12 31 56
13 32 54
14 34 76
13 34 69
14 35 70
12 32 54
13 33 65
13 33 57
13 33 63
13 33 65
13 34 66
13 32 55
13 33 57
14 33 68
14 34 69
12 31 56
12 31 56
14 34 76
13 33 70
12 29 49
12 31 65
12 30 53
12 30 52
13 32 61
12 30 61
12 30 58
12 30 58
12 29 55
12 29 55
11 27 51
12 28 50
12 29 52
11 26 43
10 24 37
11 25 34
9 21 28
9 22 31
15 26 36
121 132 135
31 28 6
16 16 2
14 14 2
12 12 1
6 7 0
7 9 1
7 9 1
7 8 2
13 14 2
11 13 3
12 14 4
13 15 2
17 19 4
16 18 3
23 26 5
27 28 7
21 24 6
28 30 7
28 29 7
43 42 10
31 33 9
39 39 9
43 43 12
37 40 10
52 50 12
54 53 12
54 52 13
46 46 9
58 57 13
61 59 17
63 60 13
65 61 17
70 66 17
61 60 15
66 62 15
59 56 14
69 66 17
72 69 18
63 62 14
78 74 15
67 63 18
83 77 17
70 68 15
83 78 17
93 86 19
82 78 18
81 76 18
95 89 25
79 76 17
102 94 25
96 90 21
93 88 22
83 79 16
89 85 19
95 89 24
95 89 20
95 88 18
96 90 21
97 90 21
87 81 20
94 88 16
101 94 23
91 86 18
112 102 28
98 92 20
96 89 21
113 104 25
93 88 15
98 92 20
99 92 18
105 98 23
100 94 19
106 98 26
103 95 21
106 98 22
102 94 20
100 93 24
106 98 24
108 100 21
107 100 22
99 91 16
105 98 24
104 97 21
108 100 22
107 99 24
101 93 22
108 99 24
109 100 22
108 99 20
100 94 19
114 104 27
103 96 22
104 96 20
103 95 23
105 96 23
107 99 25
105 96 23
110 102 22
104 96 19
101 92 19
102 94 18
110 101 27
95 88 18
108 100 26
105 95 26
101 95 20
102 94 23
98 91 17
96 88 19
98 91 20
110 100 27
102 95 23
106 97 25
109 101 19
100 93 20
101 93 21
112 102 27
101 93 23
102 92 23
106 97 23
104 96 21
92 85 17
102 93 20
109 100 22
96 89 20
97 88 22
97 89 22
97 90 19
106 97 27
98 91 20
97 88 20
94 87 20
100 92 20
96 89 23
107 98 28
95 88 18
96 89 20
98 90 22
96 89 19
86 79 16
88 82 16
98 91 23
101 93 22
97 88 22
81 75 19
84 77 17
93 85 24
95 87 18
118 143 83
118 143 86
122 146 94
121 146 94
117 142 83
120 144 92
119 143 86
118 143 83
113 138 69
118 142 83
115 140 77
116 141 75
117 141 79
118 143 81
118 142 81
115 140 75
118 143 88
118 142 88
117 142 79
116 140 77
113 138 67
114 139 67
116 141 81
117 142 75
111 136 59
115 140 75
110 135 57
117 142 86
113 138 67
120 144 90
114 138 73
116 141 75
116 140 79
112 137 55
112 137 63
112 137 65
112 137 69
119 143 83
112 137 63
112 137 65
109 135 55
117 142 79
110 135 57
110 136 59
111 137 63
113 137 71
115 140 79
116 140 75
109 135 55
116 141 79
114 139 71
110 134 53
112 137 67
112 136 65
108 134 55
109 133 55
113 137 73
114 138 73
110 135 57
113 138 65
110 135 59
111 136 59
111 136 59
105 130 45
108 133 51
107 132 45
107 132 53
107 133 45
108 133 51
107 133 47
108 133 49
109 134 55
109 134 67
110 136 61
106 131 47
102 127 36
105 130 38
111 136 65
101 125 38
104 130 38
105 130 51
111 135 63
108 133 53
101 126 43
106 130 49
101 127 40
112 136 61
105 129 45
103 128 40
103 129 43
101 126 38
104 128 40
96 120 26
97 123 28
105 129 34
103 127 53
98 122 34
101 125 34
102 126 45
103 126 47
92 117 26
102 126 43
101 125 45
97 118 45
103 126 36
104 125 65
90 110 35
92 113 34
87 107 33
71 88 16
86 107 28
64 82 24
77 98 30
71 89 34
66 84 32
55 73 22
52 67 21
46 62 12
32 47 17
38 56 22
26 42 28
25 40 21
23 39 32
18 32 31
9 22 29
8 22 33
8 20 24
8 20 34
7 19 30
8 21 28
6 17 29
7 19 26
7 19 36
6 15 25
5 14 19
6 15 26
5 15 16
4 12 16
4 11 16
4 13 16
4 10 10
4 12 17
3 9 7
12 20 7
25 34 14
42 54 20
64 82 41
83 100 63
162 184 204
54 71 90
9 24 40
10 25 42
11 29 54
11 27 49
11 29 61
12 30 57
12 30 59
12 31 55
12 31 62
12 30 52
13 34 69
13 34 78
12 30 54
12 30 55
12 32 59
12 31 53
12 32 58
13 32 54
13 33 62
13 33 70
13 33 61
13 33 62
13 33 59
12 31 55
13 33 68
12 32 62
13 34 67
13 33 62
14 35 75
13 33 56
14 35 67
12 31 43
13 33 57
13 33 58
13 33 63
14 34 72
13 33 71
13 33 54
12 30 60
12 31 55
12 32 56
13 34 63
14 35 66
14 35 69
13 34 61
14 36 77
13 34 57
14 35 79
14 34 74
13 34 63
13 33 65
13 33 58
13 34 57
14 35 70
14 35 75
14 35 78
13 34 62
13 33 58
14 34 58
15 36 85
13 33 62
12 32 58
13 34 69
14 36 81
13 33 62
13 33 67
14 34 72
13 33 62
14 34 67
13 32 66
13 32 65
13 33 62
12 31 57
13 33 58
13 31 52
13 32 58
13 33 73
13 31 62
13 32 59
13 33 74
13 32 54
13 33 56
13 31 52
13 32 59
12 31 53
12 30 47
12 30 45
12 30 50
12 30 53
11 26 44
12 29 49
11 28 41
11 28 45
11 28 47
11 26 44
11 28 43
11 27 54
10 25 46
10 23 34
7 18 29
64 79 94
162 180 203
22 22 5
17 16 2
22 21 3
14 14 1
10 10 0
11 12 2
7 9 2
9 11 1
8 9 2
7 10 3
11 14 4
17 19 4
16 18 3
15 16 2
17 19 4
25 26 5
26 27 5
29 31 5
31 34 11
39 40 8
26 28 8
37 37 10
33 34 8
36 36 8
46 46 14
50 49 10
55 53 15
48 49 9
51 51 11
54 54 12
60 59 15
57 55 11
74 71 13
67 64 15
67 65 14
66 64 18
74 70 15
82 78 19
70 68 15
76 73 17
71 68 15
71 68 17
79 75 16
74 71 16
83 77 19
86 81 19
87 82 16
80 77 17
82 77 17
88 83 20
85 80 15
89 84 19
81 78 14
82 77 16
89 83 18
94 88 20
82 77 16
99 92 22
99 92 23
91 85 21
87 82 19
101 93 22
94 88 20
99 92 20
96 90 18
96 90 22
92 87 14
95 88 17
97 91 16
107 97 26
101 96 18
100 93 18
103 97 20
104 96 21
100 93 20
104 97 19
103 97 17
99 92 18
102 93 20
102 94 19
101 93 19
104 96 20
101 95 17
104 97 21
106 98 23
108 100 26
104 97 21
98 91 19
110 100 24
99 91 18
100 93 17
106 98 20
110 101 24
103 95 24
96 89 17
98 92 16
106 98 24
102 94 20
107 99 27
104 97 21
101 93 20
109 99 27
107 101 22
109 99 22
103 94 22
113 104 28
106 97 25
104 96 18
100 93 22
103 94 21
104 95 21
109 100 26
105 97 25
92 84 20
109 99 24
101 94 20
96 88 23
94 88 17
105 97 24
108 99 25
104 96 20
95 89 20
105 97 24
93 86 19
95 88 21
106 98 25
101 94 20
94 87 18
105 97 24
96 89 23
94 87 20
95 88 20
98 89 23
90 83 18
99 91 21
98 90 23
93 86 19
94 87 17
97 89 24
100 92 22
92 85 21
91 85 19
99 91 22
94 86 19
94 84 22
98 90 16
92 87 22
86 79 17
119 143 88
120 144 88
122 147 100
113 138 61
120 144 94
118 143 83
121 146 96
120 144 90
115 139 77
115 140 75
117 141 77
120 145 94
116 140 73
119 142 83
111 135 59
112 138 69
116 141 73
118 142 79
120 144 92
116 141 77
119 144 86
112 137 61
118 142 90
117 142 83
116 141 81
112 137 63
114 139 71
118 142 86
115 139 67
114 139 75
112 138 61
112 137 67
121 145 92
112 137 61
115 139 73
110 135 61
114 138 67
116 141 73
114 139 65
110 134 57
107 133 51
108 133 49
115 140 69
110 135 61
111 136 59
105 131 38
110 135 59
112 137 63
116 140 69
100 126 32
108 133 43
108 134 45
105 130 49
107 133 47
108 133 51
111 135 63
105 131 40
109 134 53
111 136 57
107 132 45
110 135 53
108 132 51
107 132 49
104 129 38
103 129 36
104 130 40
106 131 47
104 128 43
101 126 30
105 130 40
106 132 49
103 129 34
107 131 55
101 128 34
100 125 36
103 129 30
103 129 36
105 130 47
103 128 30
104 128 49
105 130 45
106 131 40
99 124 26
101 126 28
105 130 43
102 127 34
105 128 53
96 121 22
100 126 28
101 126 34
100 124 38
97 122 20
96 121 26
97 122 22
94 118 30
96 119 34
101 125 38
100 124 32
94 118 24
94 118 36
94 116 34
94 119 24
93 116 26
95 119 32
90 109 30
91 114 28
93 113 38
83 102 20
87 106 22
74 92 23
86 107 25
70 90 17
73 91 16
58 76 10
54 72 18
49 66 19
48 65 15
36 50 26
35 50 31
31 46 15
30 44 19
19 32 23
15 28 26
15 28 31
13 26 22
8 21 27
8 22 34
8 20 33
7 19 27
7 17 25
7 19 27
6 16 18
7 17 31
6 17 26
7 18 28
5 14 17
5 14 17
4 12 17
4 11 10
5 13 16
4 11 12
4 11 12
9 17 6
20 29 6
36 48 24
60 76 30
83 102 61
85 101 68
187 209 240
70 87 104
9 25 47
10 26 44
10 27 47
11 29 58
11 29 51
11 29 56
11 28 47
12 30 56
12 30 44
13 32 63
12 32 59
12 31 63
12 31 60
12 31 56
13 32 61
13 32 71
13 32 59
13 33 60
13 32 65
12 31 61
13 33 61
12 31 56
14 35 68
13 32 55
13 34 64
13 33 60
13 33 63
13 34 69
12 30 40
13 32 69
14 34 72
14 34 63
13 33 58
13 33 58
13 34 67
14 34 66
14 34 65
13 32 66
13 33 68
13 33 59
13 34 70
13 33 57
14 35 71
14 35 65
13 34 65
13 33 59
14 34 66
13 33 60
13 33 65
13 33 71
14 34 66
13 32 56
13 34 62
13 33 60
14 35 71
13 33 57
13 33 61
13 34 69
13 33 64
13 34 69
13 33 69
13 33 70
13 33 63
13 33 65
14 34 65
13 33 57
13 32 58
13 34 70
14 34 77
14 35 69
12 30 53
14 34 68
13 32 57
13 33 60
13 32 62
12 32 58
13 32 65
13 32 64
12 31 57
13 32 64
12 30 53
13 33 67
12 31 61
12 30 51
12 30 59
13 33 65
12 30 50
11 28 46
12 30 52
11 29 52
12 29 56
12 29 50
12 29 44
11 27 52
11 27 41
10 24 40
11 25 43
10 25 40
10 24 36
9 22 35
96 113 131
177 198 228
39 37 11
27 26 2
18 17 2
12 13 1
10 11 0
8 8 0
10 11 1
13 14 1
13 14 1
10 12 2
11 14 3
19 20 1
14 17 2
16 19 4
16 18 4
19 21 5
19 21 5
27 29 6
36 35 8
28 31 9
38 39 12
39 41 8
42 42 7
39 40 8
53 52 11
48 47 10
46 46 9
48 47 9
57 56 12
57 55 9
63 61 11
51 51 11
67 65 17
49 49 11
65 64 15
62 61 14
72 69 13
78 74 16
69 66 13
85 80 20
78 75 13
71 67 14
80 75 15
75 72 15
84 78 21
85 80 17
81 76 15
73 70 14
91 85 19
89 83 20
82 78 19
88 82 18
81 75 19
81 76 20
86 81 17
91 85 21
92 85 18
104 95 22
93 86 20
90 84 18
97 91 18
91 85 17
99 92 20
97 91 18
96 89 17
99 93 24
95 88 20
93 87 18
104 96 22
96 90 16
102 95 23
105 96 22
100 93 24
100 94 15
102 94 22
99 92 20
102 93 20
104 96 20
102 95 21
108 100 27
104 94 22
97 90 18
108 99 22
100 92 19
108 99 20
107 98 24
104 98 18
105 97 21
99 93 16
104 96 18
106 98 21
106 98 21
105 96 22
109 100 26
104 97 19
105 97 18
108 99 24
103 95 20
104 96 23
99 91 20
103 95 22
105 98 22
102 95 21
104 96 19
102 95 20
99 92 18
105 97 22
99 92 19
101 94 23
96 89 20
105 97 21
96 89 18
98 90 21
101 92 25
98 90 19
100 93 20
106 98 23
100 91 22
103 94 22
93 86 15
92 85 16
96 88 23
99 91 23
98 89 20
101 92 23
103 95 25
101 92 26
104 94 26
105 96 22
102 93 24
100 92 24
95 88 21
95 88 20
95 88 22
93 87 15
97 90 19
94 87 19
99 91 18
91 84 19
95 88 20
106 96 25
89 81 17
94 86 21
93 86 19
89 81 18
100 91 23
95 88 22
86 79 19
115 140 81
111 135 67
112 137 61
116 141 81
118 143 81
117 141 77
115 140 73
111 136 61
112 137 63
116 141 79
119 143 83
116 140 77
120 144 88
120 144 86
117 142 79
114 139 73
114 139 67
112 138 63
113 139 69
111 136 67
112 137 63
114 139 73
113 138 73
117 142 79
116 141 75
112 137 61
119 143 83
108 133 51
114 138 73
109 134 53
116 140 67
109 133 61
107 132 47
115 139 69
108 134 49
116 140 75
113 138 63
114 139 67
109 133 55
107 132 45
105 130 45
108 134 49
110 135 55
111 137 59
105 130 38
107 132 47
104 130 43
106 131 47
108 133 55
106 132 36
101 127 34
105 130 45
110 135 59
105 131 45
104 130 38
107 133 49
105 132 36
105 130 36
102 127 43
113 137 63
106 131 51
103 129 32
101 127 30
109 134 53
105 130 38
105 129 47
100 125 28
102 127 34
104 129 43
98 123 32
101 126 30
99 124 28
98 122 26
106 130 40
100 126 26
96 121 22
100 126 24
98 124 26
102 127 26
101 126 28
105 131 38
99 124 18
96 121 28
97 123 20
95 120 20
97 123 20
101 127 28
101 127 32
93 117 22
99 125 26
98 123 22
95 119 20
96 120 22
93 116 30
89 114 20
87 112 12
92 115 18
92 117 22
89 112 20
91 114 18
87 110 10
92 117 22
88 112 18
83 105 14
91 114 16
85 107 16
86 108 24
81 103 12
72 92 18
82 103 15
72 92 21
74 93 7
60 78 14
57 73 14
53 72 14
45 62 8
38 53 16
40 56 11
34 50 17
30 43 22
31 45 18
16 29 27
18 31 22
15 28 27
14 26 17
11 24 37
8 20 29
8 20 25
7 20 26
6 17 20
8 19 30
7 18 26
7 17 19
6 15 23
6 16 22
6 15 17
5 13 10
5 14 19
5 13 15
4 11 13
4 10 10
5 11 7
12 20 10
24 35 9
39 52 21
69 86 47
86 107 51
110 130 98
181 207 207
90 110 97
8 21 35
10 26 47
9 25 48
11 29 56
12 30 57
12 30 54
12 30 56
11 29 50
12 30 57
13 34 76
12 31 52
12 31 60
12 30 51
13 33 67
12 31 55
12 31 60
12 32 53
13 32 59
13 34 64
12 32 58
13 33 67
14 34 67
13 33 57
13 34 66
13 32 49
13 32 54
12 32 55
14 34 68
13 33 66
13 33 58
14 34 63
13 33 61
13 34 67
12 32 53
13 33 66
13 32 53
13 33 62
13 33 66
13 34 67
12 32 49
14 35 81
13 32 52
13 33 65
13 32 53
13 32 55
13 33 58
13 34 63
14 34 69
13 33 62
14 34 70
13 33 66
13 34 55
13 33 61
13 34 60
13 34 65
13 32 55
13 33 57
13 33 70
13 32 58
14 35 71
13 34 60
13 34 65
13 33 58
14 34 67
13 32 65
13 33 65
12 31 54
13 33 66
13 33 71
13 32 59
13 31 63
12 31 47
12 30 50
13 32 67
13 33 60
12 31 51
14 34 62
13 33 64
12 31 54
12 30 56
12 30 51
13 32 58
12 31 58
11 27 37
13 31 59
12 31 54
12 31 62
11 28 43
12 30 58
11 27 46
11 28 54
11 26 46
11 26 36
12 28 42
11 28 53
11 27 42
10 25 40
10 25 36
9 22 38
9 21 29
129 149 152
185 211 220
69 74 61
23 22 3
21 21 4
14 14 2
12 12 0
12 13 1
12 13 0
9 10 1
10 11 0
10 13 2
14 17 2
13 16 3
18 19 2
14 16 4
24 26 4
26 27 4
24 26 6
34 35 7
32 33 3
34 35 8
35 35 6
36 36 6
48 46 13
42 42 9
41 41 8
49 48 12
52 52 13
48 46 10
60 57 14
52 51 10
58 57 13
56 55 12
72 69 18
65 63 14
62 60 9
66 62 14
62 60 11
72 68 16
64 62 12
81 76 15
75 71 18
75 71 15
81 75 19
73 69 14
79 75 13
72 68 14
80 75 18
79 75 16
83 79 16
80 75 17
85 80 20
83 78 16
87 81 18
99 91 19
84 79 16
95 89 21
86 81 18
101 95 21
96 90 20
85 81 13
89 84 16
96 90 22
102 95 20
95 89 17
97 89 20
102 94 21
93 86 16
102 95 20
96 90 19
92 87 16
98 91 18
95 88 17
103 96 17
100 93 18
108 98 20
96 89 17
97 88 17
99 93 20
104 97 20
104 97 21
101 93 20
111 101 24
98 91 18
102 94 20
99 92 18
102 95 17
97 90 18
106 97 21
105 97 22
104 96 22
106 98 23
99 92 16
103 95 19
112 102 29
106 98 20
106 98 20
100 92 20
102 93 20
96 89 18
104 96 23
104 96 22
111 99 26
96 90 14
101 94 20
102 94 20
104 96 23
97 89 17
106 98 22
98 90 17
98 90 19
100 94 19
96 88 19
103 93 23
105 97 18
101 94 22
95 88 21
100 92 20
107 99 23
107 98 24
101 93 22
102 94 23
111 102 26
103 94 22
98 91 21
99 90 16
92 84 18
94 88 16
94 87 19
103 94 20
99 92 23
95 88 18
98 91 19
96 88 17
98 89 24
98 90 19
92 85 20
94 87 20
88 83 15
100 93 22
93 87 16
94 86 21
93 86 17
85 79 17
93 86 18
87 81 17
101 93 25
102 93 22
92 85 19
117 142 75
117 141 79
108 134 51
112 138 63
118 143 83
114 139 65
120 144 83
114 139 71
114 139 71
111 137 61
112 137 59
109 134 51
113 138 61
107 133 49
113 138 69
114 139 69
108 133 51
111 136 59
111 136 59
109 133 47
108 134 51
110 135 55
112 138 63
114 139 69
114 138 63
109 133 57
119 143 83
112 137 61
114 138 61
110 135 57
107 133 49
105 131 49
112 137 53
110 135 53
107 132 40
105 130 36
101 128 30
108 133 53
107 132 53
105 130 43
105 131 38
111 136 57
108 133 45
106 131 47
106 131 40
106 131 45
106 131 43
105 131 34
101 128 30
107 132 45
99 125 30
109 134 49
104 130 26
106 131 43
106 131 36
104 129 30
104 130 36
102 128 34
102 128 34
102 128 26
101 127 32
98 124 18
102 129 28
99 126 16
104 130 34
98 125 14
100 125 24
100 126 26
103 129 32
106 131 43
98 124 16
101 126 38
97 122 18
97 124 20
103 129 24
100 126 16
93 119 12
99 125 32
95 121 18
96 122 24
95 120 14
96 122 18
91 117 16
95 121 14
94 120 18
93 117 16
95 119 18
93 118 8
94 119 14
98 124 22
92 118 14
88 114 8
93 117 12
92 117 10
90 116 0
86 111 4
90 115 16
86 110 10
86 111 6
89 113 12
85 110 4
86 109 4
80 105 2
82 105 2
81 104 0
83 105 10
79 101 4
77 98 2
83 105 14
78 98 6
66 83 5
64 83 6
66 86 8
58 75 8
57 73 9
51 68 13
42 60 15
45 62 12
32 47 17
25 40 16
31 45 12
26 41 14
18 31 23
16 29 27
14 27 25
15 28 25
9 21 22
8 20 25
7 18 21
7 19 24
6 17 21
6 17 29
6 17 23
6 16 19
6 15 11
6 16 19
5 15 8
5 13 12
5 14 14
5 14 13
5 12 9
12 20 8
17 27 8
33 46 8
53 69 19
76 96 46
77 95 47
96 123 22
119 153 0
104 134 2
8 22 38
8 22 33
10 27 45
10 27 52
9 24 38
10 25 37
11 29 45
12 30 49
12 30 58
12 30 56
12 31 55
12 30 57
13 32 62
12 31 56
11 29 48
12 30 52
12 31 54
13 32 49
13 34 71
14 34 72
14 34 74
13 34 68
12 31 58
12 31 65
13 33 62
12 30 48
13 32 58
12 31 46
14 34 72
13 32 52
13 32 55
14 34 67
13 34 68
13 34 63
12 31 57
14 35 70
13 33 61
13 33 59
13 32 65
14 34 70
14 35 68
12 31 44
13 33 61
14 34 62
12 31 55
13 33 61
13 33 56
14 34 61
13 32 68
13 33 60
13 33 58
13 33 62
13 33 58
13 33 53
12 32 51
14 35 74
12 32 49
13 33 57
13 33 60
14 34 70
13 33 63
12 31 46
12 32 49
13 34 70
13 33 61
14 34 62
13 33 53
12 31 50
13 32 63
13 33 62
13 32 55
14 34 62
13 32 61
12 31 52
13 32 58
12 31 51
14 35 72
12 30 45
12 31 53
13 32 58
13 32 61
13 32 62
13 32 69
12 29 52
12 30 54
12 30 53
12 29 54
12 29 57
12 30 54
10 25 40
11 28 57
11 26 42
12 29 52
12 29 52
12 28 45
10 25 42
10 24 35
10 25 43
7 18 20
7 17 21
94 123 7
119 153 0
76 94 2
25 24 4
24 23 2
19 19 2
13 14 2
12 12 0
7 8 0
13 14 0
15 16 1
15 17 1
11 13 1
11 12 1
17 17 2
18 21 4
26 27 5
23 24 5
24 26 5
23 25 5
31 32 3
34 35 7
35 36 6
39 39 7
44 44 8
42 41 7
43 42 6
53 50 11
55 54 8
50 49 8
53 53 11
55 54 12
47 47 12
65 61 15
68 63 16
59 56 11
60 58 11
53 52 10
67 65 11
72 69 14
69 66 13
69 67 13
72 69 14
72 67 16
78 74 14
73 70 15
69 66 12
77 72 13
85 78 19
89 83 16
79 74 13
84 79 16
87 81 17
93 86 18
91 83 19
90 84 15
90 84 15
91 86 15
94 88 14
91 86 13
88 84 17
93 87 17
94 89 18
100 93 19
90 85 17
102 94 21
97 90 18
94 87 18
101 91 23
94 88 19
103 96 22
99 92 20
101 94 20
101 94 17
101 94 20
92 87 14
97 91 18
107 98 22
106 98 21
98 90 18
104 97 17
105 98 18
99 92 21
97 91 17
100 91 20
96 89 14
105 97 20
108 99 25
99 92 18
105 98 18
107 98 21
105 97 20
103 95 25
101 92 20
102 94 20
92 85 16
101 93 19
103 95 20
111 101 24
107 98 20
101 93 19
98 92 18
104 97 19
100 92 19
102 94 20
96 87 18
106 98 22
98 90 20
102 93 19
100 93 18
101 93 18
102 94 20
101 93 23
104 96 23
97 89 18
89 83 12
97 89 16
103 95 24
97 87 19
95 88 20
93 87 17
94 87 19
97 90 16
95 87 20
94 87 17
91 84 17
95 88 18
103 94 26
102 94 23
93 87 18
95 88 17
93 86 17
93 84 23
100 92 24
96 89 20
104 94 25
98 89 22
93 85 19
97 89 20
86 80 18
95 87 21
96 89 20
90 82 19
93 85 18
85 79 16
97 88 18
96 88 21
84 78 12
87 79 16
92 84 20
114 139 65
111 136 69
111 136 55
113 137 69
110 136 53
117 142 77
114 139 67
109 134 53
116 141 73
114 139 65
111 136 63
110 136 61
110 135 51
108 134 49
116 141 67
110 134 55
109 134 49
110 136 59
109 134 55
112 137 57
104 130 28
113 137 63
111 136 61
110 135 59
108 133 55
108 134 49
107 133 47
105 131 40
104 130 40
105 130 43
109 133 53
103 129 34
108 134 45
106 132 43
104 130 36
108 133 45
106 132 40
109 134 49
108 133 49
100 127 34
103 129 36
104 130 43
102 128 34
103 128 32
101 125 47
104 129 36
111 135 51
105 129 34
102 129 28
105 131 38
102 129 32
100 126 30
102 127 36
105 131 36
101 127 28
98 123 26
97 123 26
98 124 20
102 127 32
102 128 28
99 124 30
99 125 30
98 124 16
95 122 12
97 122 22
94 120 20
90 117 12
98 124 16
97 123 20
95 120 24
95 121 16
94 119 12
97 122 18
98 125 22
94 120 8
93 119 10
91 116 10
89 116 2
93 119 12
92 119 4
96 123 8
89 115 8
88 115 6
92 119 4
90 114 14
89 115 6
88 113 4
85 109 8
88 113 4
91 117 4
87 113 0
86 112 2
88 113 2
84 108 2
82 108 2
89 115 0
87 112 2
85 109 0
83 107 0
87 113 0
83 106 0
80 102 0
76 99 0
80 103 0
82 105 0
77 99 0
73 91 0
76 97 0
80 103 0
74 95 0
72 92 1
67 86 3
62 81 6
64 84 4
49 67 10
42 57 11
47 64 13
43 60 15
33 47 13
39 54 14
21 34 15
27 41 22
19 32 14
15 27 27
18 30 21
12 25 23
10 22 23
7 18 20
8 20 17
7 19 24
6 17 20
7 18 26
7 18 23
6 16 25
6 16 15
5 15 13
6 16 20
5 12 12
5 15 15
4 11 13
12 22 8
15 24 9
21 31 8
48 64 13
54 72 20
73 92 42
80 99 43
104 135 8
118 153 0
116 151 0
15 31 33
8 22 29
10 26 40
10 26 34
10 26 39
11 28 45
11 29 51
11 29 48
12 31 61
12 30 45
11 30 42
12 32 49
12 30 55
13 32 62
12 30 51
12 31 62
13 33 62
13 32 51
13 33 64
13 33 60
13 34 68
13 33 60
13 32 53
13 33 63
12 32 56
13 33 68
13 32 53
13 32 60
12 31 50
13 32 54
14 34 64
12 32 55
13 33 63
13 32 55
13 33 57
13 33 74
12 31 49
13 33 61
13 33 52
12 31 57
13 33 61
13 34 70
12 32 48
13 34 65
13 33 58
13 33 55
13 33 58
14 34 58
14 34 67
13 33 58
13 32 46
13 32 58
13 33 69
13 32 60
13 33 66
13 34 63
13 33 63
13 33 57
13 32 57
13 33 57
13 33 57
13 32 56
13 33 65
13 32 51
14 34 61
13 33 63
12 31 55
13 33 61
12 31 56
13 32 51
13 33 68
12 31 56
13 32 55
12 30 45
12 31 42
12 31 51
13 32 72
13 32 56
12 30 51
12 32 50
12 29 52
12 30 47
12 31 54
13 33 65
12 30 53
12 30 45
12 30 63
12 29 43
12 30 50
12 29 50
12 30 56
11 28 48
12 28 39
10 26 28
10 24 36
11 26 40
10 23 31
9 21 41
8 19 24
19 31 12
119 153 0
118 153 0
99 124 2
28 27 4
21 21 3
20 20 1
14 15 0
15 15 1
13 13 1
10 11 0
11 13 1
13 15 1
11 13 1
8 11 2
21 22 3
21 22 2
19 20 3
24 26 3
23 24 2
32 33 6
26 27 8
24 26 3
31 31 5
40 40 9
29 29 5
35 36 7
44 43 6
51 49 10
44 44 7
56 55 14
51 49 8
47 47 9
60 56 12
60 57 12
65 63 13
61 59 14
65 62 10
57 56 11
65 62 10
70 66 14
74 71 9
78 72 17
55 54 9
68 64 13
81 77 15
61 59 11
70 65 13
92 86 18
76 72 13
86 80 15
86 81 14
88 82 17
96 90 18
85 80 14
90 84 17
87 82 17
89 83 15
80 76 15
96 89 21
89 82 17
92 86 15
91 85 16
98 91 19
95 88 19
98 91 19
92 85 16
84 80 13
92 85 19
94 87 18
95 88 18
98 91 16
99 92 18
97 90 17
96 88 15
97 90 20
96 89 16
100 92 17
102 93 19
102 94 18
99 92 17
101 93 19
98 90 20
99 92 19
102 94 19
102 94 21
106 97 19
98 91 17
106 98 22
107 98 21
99 92 18
104 95 22
100 92 17
103 95 17
100 93 15
104 95 19
97 90 17
95 89 15
96 89 16
109 100 23
103 95 19
108 99 22
101 93 20
99 91 18
96 87 20
101 92 19
106 97 23
110 101 23
97 90 13
99 91 21
95 88 15
101 94 19
98 90 17
105 97 23
104 95 24
105 96 21
97 90 15
99 92 20
93 86 19
93 86 19
99 91 19
101 93 20
89 83 19
100 92 20
100 92 19
92 86 18
105 96 24
101 94 22
93 84 18
99 93 19
88 82 15
100 92 20
97 89 17
92 85 22
98 90 16
96 89 21
96 89 20
94 86 17
105 96 25
95 87 18
97 90 21
99 91 25
96 88 19
90 83 19
92 85 20
88 81 17
94 86 20
83 77 14
93 84 20
87 80 19
91 83 19
109 134 53
111 137 59
116 140 67
113 137 67
110 136 57
109 134 57
108 133 51
115 139 71
114 138 65
114 138 65
113 138 63
110 135 55
106 132 47
107 132 43
106 130 45
108 132 43
108 134 47
108 134 53
106 131 43
112 137 59
103 128 40
109 135 49
109 134 51
108 133 43
109 134 53
113 138 61
110 135 55
106 132 40
111 136 65
106 131 49
107 132 49
102 127 34
112 137 61
105 131 38
107 133 43
100 127 22
105 131 45
107 133 40
101 127 20
107 132 43
99 124 30
105 131 38
99 125 22
106 131 45
104 128 43
102 128 22
98 124 20
103 129 28
98 124 18
98 124 16
103 128 30
98 124 20
95 121 12
95 122 8
97 123 22
103 129 36
98 124 22
97 123 18
98 124 24
95 122 16
100 126 20
96 121 14
93 120 8
98 125 10
93 120 12
97 124 20
95 122 10
92 119 4
94 120 6
93 119 12
91 117 4
95 121 6
90 116 0
89 115 4
90 117 4
92 119 2
87 113 2
91 117 6
89 115 2
90 118 0
85 111 0
88 114 0
87 113 0
88 115 2
88 114 0
89 116 0
88 113 0
83 108 0
91 118 0
79 103 0
82 107 0
87 112 0
84 108 0
83 110 0
82 106 0
84 110 0
90 117 0
85 110 0
81 106 0
82 107 0
81 104 0
78 101 0
77 102 0
76 98 0
78 101 0
81 106 0
77 99 0
74 96 0
69 91 0
64 81 0
75 96 0
73 95 3
66 85 4
59 76 6
52 69 7
48 64 8
47 62 10
42 58 14
35 49 9
35 49 9
29 42 9
30 44 15
21 35 29
17 30 25
16 28 16
13 24 23
12 24 22
10 20 21
8 18 18
8 19 21
6 17 23
7 18 22
6 16 18
5 15 14
5 13 13
5 15 15
5 12 13
6 15 13
9 18 8
7 16 11
17 27 2
23 35 5
37 52 6
52 69 15
78 100 26
85 106 43
80 100 38
118 151 0
119 152 0
120 153 0
49 71 19
8 22 28
11 27 45
11 28 49
10 27 43
12 31 53
12 30 57
11 28 48
11 29 51
12 31 61
11 29 44
13 32 54
11 29 42
12 30 56
12 32 51
12 31 50
13 33 55
12 31 47
12 30 41
12 31 52
12 31 44
13 32 54
12 30 47
11 29 55
12 31 50
14 34 63
13 32 53
13 34 67
12 32 57
12 32 50
13 32 61
13 32 58
13 34 66
13 32 62
12 30 59
13 32 57
13 33 66
12 31 47
13 32 52
13 34 60
13 33 63
13 33 55
13 32 61
13 33 63
13 33 61
13 33 66
12 31 53
12 31 51
14 35 71
14 34 62
13 33 61
13 32 48
13 33 53
13 33 56
13 33 56
13 33 67
13 33 68
13 33 61
12 31 53
14 34 64
13 32 61
14 34 65
14 34 68
13 34 72
13 32 58
14 34 70
13 33 58
13 33 65
13 32 62
13 34 64
13 33 55
13 31 57
13 32 60
13 33 60
14 34 69
13 32 54
13 32 55
13 33 58
13 33 55
13 33 68
13 31 59
13 32 59
12 29 47
13 32 66
11 29 51
11 28 42
12 29 46
12 29 44
12 31 51
12 30 52
11 27 45
11 28 47
12 29 51
11 26 37
9 23 31
11 26 45
10 24 32
9 22 28
8 19 24
43 59 13
119 153 0
118 152 0
117 152 0
43 45 7
26 24 4
28 27 3
23 23 2
12 12 1
18 19 1
15 16 1
13 14 1
13 14 2
15 16 1
19 20 1
15 16 0
20 21 2
20 22 3
20 21 3
22 24 4
41 40 5
34 35 7
32 32 4
42 41 6
36 36 8
39 40 8
38 37 7
41 41 7
43 43 7
40 41 8
48 47 7
47 46 6
49 47 8
50 49 10
59 58 10
58 56 11
62 59 9
60 59 12
56 56 9
69 64 12
72 68 12
71 68 12
68 65 11
78 73 11
71 67 11
75 70 14
76 71 16
87 81 16
80 75 17
78 73 15
82 77 14
76 72 14
90 83 16
76 72 12
87 79 17
84 80 13
82 77 13
85 80 14
89 83 17
88 82 16
83 78 15
88 82 16
87 81 15
93 87 16
92 86 18
87 82 10
106 97 20
101 92 18
95 88 16
93 87 13
98 89 17
88 82 16
98 92 14
102 93 20
100 92 16
91 86 13
85 81 14
100 92 20
97 90 19
94 88 15
101 94 17
106 97 20
95 88 17
104 97 16
103 95 18
102 95 18
102 95 16
99 90 18
98 91 16
103 94 19
96 90 19
102 95 20
102 95 19
99 92 19
101 93 23
100 93 18
98 92 19
104 95 19
100 92 20
106 97 22
100 93 19
98 91 20
97 89 19
104 96 20
104 96 19
101 94 15
97 90 17
100 92 19
104 96 20
104 96 20
107 97 24
92 86 15
93 87 18
102 92 20
100 92 23
98 90 19
92 86 17
102 94 23
102 93 19
98 90 20
95 89 19
100 93 18
103 95 22
108 98 25
102 94 19
105 96 23
101 92 20
96 89 18
95 88 19
94 87 20
104 96 23
91 83 19
92 85 18
102 94 20
93 86 20
100 91 18
94 86 17
91 85 18
100 91 21
95 86 18
94 86 18
93 84 19
89 81 17
96 88 16
92 86 16
99 90 20
88 81 17
93 86 23
94 87 20
87 79 16
85 79 18
106 132 49
109 134 51
105 130 43
110 135 59
112 137 61
110 135 55
109 134 47
103 129 38
111 136 63
112 137 61
109 133 55
109 134 57
101 128 30
105 130 38
107 132 47
107 133 45
109 135 53
103 129 36
107 133 43
106 132 43
104 130 36
107 133 45
106 131 36
103 128 38
105 131 36
104 130 30
101 126 22
105 130 34
106 132 43
104 129 32
105 131 43
105 130 34
104 129 30
99 125 26
105 131 34
101 127 28
100 125 34
100 127 26
95 120 16
105 130 34
98 123 22
101 128 26
100 126 30
97 123 18
96 123 18
98 124 22
97 123 18
96 123 6
95 121 6
95 122 18
94 120 16
97 123 16
95 123 8
95 121 8
92 119 2
98 124 10
91 118 2
90 117 4
97 123 6
93 120 4
93 120 6
92 119 2
96 123 8
94 121 4
93 119 0
90 117 2
91 117 2
91 118 0
89 115 0
90 116 0
88 113 0
86 113 0
91 118 0
85 110 0
89 115 0
88 114 0
89 115 0
89 115 0
86 111 0
86 111 0
89 117 0
89 116 0
85 110 0
86 111 0
80 105 0
85 111 0
87 112 0
91 117 0
87 113 0
88 114 0
89 115 0
83 108 0
79 104 0
87 114 0
85 110 0
88 113 0
83 109 0
83 107 0
72 94 0
86 110 0
79 101 0
79 103 0
78 103 0
74 96 0
71 91 0
67 87 0
69 88 0
68 88 0
77 98 0
70 88 0
68 86 0
66 85 2
58 76 2
63 82 2
64 83 7
48 63 2
48 66 7
43 59 6
43 59 11
28 40 9
26 39 13
24 36 13
18 30 10
20 31 9
17 30 21
15 26 17
13 25 21
12 23 15
9 20 19
7 16 17
8 17 13
7 17 14
6 16 19
5 14 15
7 18 15
6 13 12
8 18 15
5 12 7
15 26 6
15 25 8
27 38 3
26 38 4
44 60 5
57 76 15
89 112 35
87 107 40
97 123 28
119 153 0
118 152 0
119 153 0
76 103 13
9 22 28
9 24 32
10 27 45
10 26 40
10 26 36
11 27 39
11 27 39
12 31 56
11 28 53
12 31 55
11 27 43
12 32 58
12 30 52
12 30 51
12 30 51
12 31 54
12 31 55
12 32 50
13 33 65
12 32 59
12 32 58
12 32 52
12 31 64
13 32 55
13 32 63
13 32 63
12 30 49
13 33 60
13 33 57
13 34 62
13 32 60
13 32 57
13 34 70
13 33 58
13 32 57
13 33 61
12 31 51
13 33 56
13 34 62
14 34 60
13 33 60
12 31 44
13 32 65
13 32 62
13 33 58
13 33 52
12 30 49
13 33 60
13 33 56
13 33 61
14 34 71
13 32 51
13 34 63
13 33 58
13 32 56
13 34 63
13 32 58
13 32 61
13 34 69
13 33 66
14 34 69
13 33 52
13 33 60
13 33 66
12 31 53
12 30 50
13 32 47
13 33 57
13 32 52
12 30 42
13 32 51
12 31 52
12 31 49
13 33 57
12 31 55
11 28 52
13 32 48
12 30 52
13 32 69
13 32 58
12 29 50
13 31 53
11 28 46
12 30 54
12 30 49
12 29 53
11 26 33
11 29 50
11 27 46
11 28 47
11 27 46
11 27 40
11 26 46
11 27 38
10 25 37
10 23 30
9 21 30
8 19 25
74 99 8
119 153 0
119 153 0
119 153 0
74 88 3
31 30 3
19 19 1
25 24 2
15 15 0
19 19 2
15 15 1
12 13 0
15 16 1
21 22 1
15 16 0
19 20 1
20 21 3
18 19 2
25 26 3
19 20 1
24 24 3
25 26 4
29 30 3
34 34 4
34 35 5
41 40 8
41 40 4
49 47 8
39 39 5
43 43 8
52 51 9
45 44 5
48 48 6
55 53 9
61 58 11
64 61 11
61 59 9
62 59 10
63 61 7
66 64 15
65 62 10
66 62 12
66 63 13
66 62 11
77 72 17
72 68 11
80 75 13
75 70 12
79 75 11
84 78 15
75 71 14
79 75 13
75 70 11
85 81 15
81 76 17
85 79 14
79 75 10
86 80 17
89 84 13
93 86 16
90 84 17
85 80 14
93 87 15
91 84 15
91 86 15
101 92 19
96 88 16
93 86 20
96 89 19
99 91 18
96 88 18
96 89 19
93 86 17
91 86 16
95 88 18
110 100 23
93 87 14
100 93 19
96 89 18
98 91 17
93 87 15
99 92 16
90 85 15
97 89 16
99 92 20
106 97 21
97 89 18
96 88 15
99 92 17
97 91 15
102 95 18
91 84 12
103 95 18
98 91 19
102 94 20
94 87 15
104 96 19
105 96 17
101 93 17
99 92 18
111 100 25
100 92 22
101 94 18
104 97 17
98 92 15
101 93 19
102 95 18
102 94 19
98 90 19
102 93 20
96 88 16
101 93 16
111 101 26
101 93 20
94 88 14
106 97 24
93 86 18
100 93 17
93 85 19
101 93 17
94 85 18
103 93 20
101 94 19
92 85 17
94 87 15
98 89 23
99 90 14
93 85 17
100 92 21
94 87 18
87 80 18
92 85 16
90 83 20
89 83 16
98 91 20
99 91 21
97 90 18
95 88 19
90 84 14
93 86 19
94 88 16
101 91 20
93 85 22
93 86 19
94 88 17
95 88 17
91 84 18
96 88 22
91 83 18
97 88 19
87 81 16
104 130 32
107 132 47
108 134 51
102 128 32
106 132 43
112 137 61
109 134 51
105 130 32
107 132 32
109 134 53
102 128 32
109 135 51
103 129 36
101 126 26
107 133 43
102 127 34
106 132 43
108 133 45
102 128 24
104 129 40
104 129 32
103 128 32
105 130 43
105 131 36
103 128 24
96 122 16
103 129 30
102 129 32
101 127 24
99 125 24
97 125 14
100 126 20
99 125 18
96 122 18
95 122 14
98 124 16
100 125 22
100 126 22
96 122 14
96 122 14
96 122 8
97 124 20
95 123 8
95 122 10
95 122 8
94 121 6
95 120 6
94 120 6
95 121 6
91 117 8
95 122 4
91 117 8
92 120 4
92 119 4
94 120 2
92 120 4
90 117 0
93 119 0
91 117 2
93 120 0
88 114 0
87 112 0
90 117 0
87 113 0
89 115 0
87 112 0
92 118 0
93 120 0
91 118 0
88 114 0
89 115 0
88 115 0
89 116 0
86 112 0
87 113 0
88 114 0
89 115 0
91 117 0
89 115 0
88 113 0
89 115 0
86 111 0
85 111 0
85 110 0
86 110 0
83 109 0
86 111 0
87 112 0
82 107 0
87 113 0
84 109 0
88 113 0
86 111 0
86 110 0
84 108 0
83 109 0
87 113 0
84 108 0
79 103 0
78 101 0
77 101 0
74 98 0
73 95 0
80 104 0
67 90 0
74 96 0
77 100 0
62 81 0
71 93 0
61 81 0
59 77 0
68 87 2
65 85 3
61 78 4
49 66 7
44 61 7
36 49 11
37 53 4
29 41 6
37 52 11
30 44 10
25 36 9
22 34 9
21 32 14
17 28 9
15 26 14
11 21 17
10 21 17
8 20 16
9 18 15
9 19 16
6 15 12
9 19 17
9 19 13
9 19 13
9 18 7
10 20 11
11 20 5
18 29 10
20 30 2
38 53 7
39 54 5
48 65 11
78 101 25
90 111 47
76 95 30
113 146 10
118 152 0
119 152 0
118 151 0
118 152 0
15 30 21
10 25 38
10 26 40
11 29 57
11 29 52
12 31 54
11 29 53
11 29 37
12 31 59
12 30 50
12 30 50
11 29 45
11 29 45
12 30 52
12 30 46
13 32 61
12 31 62
13 33 66
13 33 58
12 30 43
13 32 59
14 34 68
12 31 63
14 34 71
12 32 62
13 32 58
12 31 52
12 32 49
13 33 63
13 33 65
13 33 59
12 32 54
12 31 57
13 32 53
13 32 58
13 33 52
13 32 51
13 32 58
14 34 71
13 33 57
13 32 63
12 31 55
12 31 50
13 32 57
14 34 65
13 33 57
13 34 69
13 34 63
13 32 54
13 33 66
12 32 61
13 32 55
13 33 51
13 32 52
13 33 57
13 32 51
13 32 56
12 32 43
12 31 56
13 33 58
12 32 54
12 31 61
13 33 52
13 33 59
12 31 54
12 31 50
13 33 64
12 31 54
13 32 48
13 33 64
12 32 61
12 30 51
14 35 70
12 31 48
13 31 55
12 31 46
12 30 47
13 32 55
13 33 66
13 31 59
11 28 44
12 29 52
12 30 47
12 30 58
11 28 36
12 31 59
13 31 56
12 30 61
11 27 48
12 29 54
12 29 60
11 27 42
10 24 39
11 26 37
10 23 33
9 22 24
8 20 21
12 23 16
117 151 0
116 150 0
120 154 0
118 152 0
109 138 0
29 27 3
22 21 3
31 29 4
18 19 1
19 20 1
21 22 0
14 14 0
23 23 1
16 17 1
16 16 1
18 20 1
24 24 1
20 21 1
22 23 2
28 29 3
26 27 5
24 25 2
35 35 5
30 30 2
21 24 4
35 36 4
42 41 4
47 46 8
50 48 5
46 46 8
30 32 4
51 49 10
42 42 5
46 46 8
61 58 11
54 52 11
59 57 8
52 51 8
61 58 10
60 58 6
58 55 10
71 68 14
60 57 9
64 61 11
66 62 8
75 71 9
69 65 10
83 77 15
78 73 15
77 72 13
77 73 12
75 72 11
76 71 9
77 72 11
85 80 14
67 63 5
77 72 12
86 80 17
95 87 18
98 90 17
79 75 11
88 83 14
93 86 16
93 86 14
92 85 15
101 94 19
96 89 14
97 90 14
92 86 17
91 86 12
83 78 13
99 91 16
92 86 12
93 86 18
94 87 16
94 87 15
98 90 18
99 91 18
94 88 13
93 86 13
101 94 19
98 91 16
98 91 18
101 93 18
100 91 17
101 94 16
98 90 16
94 88 15
98 91 16
97 90 17
103 95 17
104 96 20
97 89 19
95 89 15
98 90 20
97 91 16
102 94 16
106 97 18
101 95 18
99 91 21
98 91 17
105 97 17
94 88 18
102 94 19
99 93 18
101 93 18
95 87 18
104 97 22
95 89 16
100 92 18
106 97 18
98 90 17
101 92 18
94 87 15
99 91 19
91 85 18
104 95 22
97 90 13
85 79 15
99 93 19
93 85 19
99 90 20
97 90 17
88 82 14
98 90 20
97 90 19
94 87 16
98 90 19
95 87 18
96 88 20
90 82 17
98 90 21
96 90 18
93 85 21
93 85 21
92 84 16
89 82 16
94 86 21
91 84 23
83 77 14
89 83 17
88 80 18
96 88 19
91 83 18
106 96 24
91 84 18
87 80 17
98 90 19
91 84 20
95 87 20
89 81 13
112 137 59
103 129 32
105 131 36
107 132 40
106 131 40
110 135 51
107 132 36
104 129 40
104 129 36
103 129 30
100 125 26
105 131 43
104 130 30
104 130 36
103 128 30
105 131 38
102 127 34
101 128 28
104 130 34
100 127 22
103 129 36
103 128 30
95 122 12
101 127 24
101 126 22
98 124 12
97 123 24
99 126 16
99 125 24
100 127 22
98 124 10
98 123 10
97 123 14
96 123 14
98 124 16
92 119 6
96 122 12
93 119 4
98 124 16
91 118 0
98 124 8
95 121 6
93 120 4
97 123 8
92 119 2
95 122 2
90 116 4
93 120 0
92 119 2
92 119 0
92 119 0
93 119 0
92 119 0
89 115 0
92 120 0
91 118 0
91 118 0
92 118 0
88 115 0
87 113 0
91 116 0
89 115 0
89 116 0
91 117 0
87 113 0
89 115 0
92 119 0
90 115 0
88 115 0
81 106 0
88 114 0
89 115 0
92 117 0
91 117 0
88 114 0
87 112 0
89 115 0
88 114 0
89 116 0
86 111 0
87 113 0
87 113 0
86 113 0
86 112 0
79 104 0
85 110 0
82 107 0
84 109 0
88 113 0
87 113 0
80 105 0
79 103 0
78 101 0
79 103 0
82 107 0
79 102 0
75 96 0
81 105 0
79 102 0
82 105 0
73 97 0
73 95 0
77 101 0
76 97 0
79 103 0
72 94 0
69 89 0
71 91 0
59 75 0
60 79 0
62 79 0
67 85 0
61 77 2
58 75 2
54 70 1
49 64 3
38 52 8
39 55 7
35 50 7
35 50 10
29 41 8
29 42 7
23 35 13
25 38 11
20 30 12
18 30 10
14 26 13
11 22 19
14 25 11
11 21 13
9 18 10
9 18 11
5 13 8
12 21 6
11 20 7
10 20 6
14 25 5
19 29 4
23 35 6
31 45 3
40 56 4
51 69 4
63 83 12
78 100 26
76 95 30
81 102 26
118 152 0
119 153 0
118 151 0
118 152 0
118 151 0
46 68 18
10 26 43
11 28 46
10 25 33
11 27 46
11 28 46
11 28 39
11 28 34
12 30 43
12 31 56
11 29 46
11 29 51
12 30 49
12 32 53
12 31 50
11 29 42
11 28 42
12 31 51
13 33 60
12 31 55
12 32 64
12 31 54
14 34 73
12 32 45
13 32 52
12 31 52
13 33 65
12 31 46
12 32 56
12 31 47
13 33 54
13 33 52
13 32 62
13 32 55
13 32 58
12 32 48
13 34 62
13 32 58
12 31 48
12 31 52
14 34 66
12 30 48
12 31 56
13 33 70
12 31 62
13 32 52
12 32 52
13 33 60
13 32 56
12 31 46
12 30 56
13 33 60
12 32 61
12 31 56
13 34 57
13 33 60
14 34 63
13 32 56
13 32 55
13 34 61
13 32 60
13 33 60
13 34 75
12 31 51
12 31 52
13 32 58
12 31 47
13 32 61
13 32 57
13 32 55
13 32 54
12 31 57
13 31 51
13 32 51
12 31 51
12 30 51
12 30 47
12 30 58
12 31 43
12 30 52
12 30 46
12 30 50
12 30 53
12 30 48
11 28 43
11 28 42
12 29 50
11 28 43
11 27 44
11 27 48
11 26 45
10 24 36
10 24 34
9 22 31
9 22 30
10 23 31
9 21 20
41 60 13
116 149 0
117 151 0
120 152 0
119 152 0
120 153 0
50 56 5
26 25 2
31 30 1
22 22 2
17 18 1
17 17 2
19 20 1
17 18 1
17 18 1
18 18 1
21 21 0
23 24 2
17 18 1
27 26 1
25 25 5
24 24 3
27 27 5
31 31 4
28 30 1
25 27 3
32 32 8
42 41 8
44 42 6
37 37 6
39 39 7
38 38 7
46 44 8
53 51 9
53 51 8
53 51 5
53 51 9
51 50 6
60 58 8
50 49 10
57 55 7
64 60 9
58 57 8
71 68 14
66 64 11
71 67 14
66 63 9
72 69 11
72 69 10
67 63 8
76 72 12
70 66 14
85 79 15
81 74 15
71 68 12
72 68 9
81 76 9
84 78 13
85 79 14
86 80 14
88 81 17
89 83 11
84 80 9
83 76 16
82 78 9
88 82 15
89 82 12
80 74 9
100 94 16
93 86 17
85 79 13
93 86 14
95 88 18
99 92 21
94 87 17
95 88 14
96 89 17
98 90 14
98 90 15
101 93 17
95 88 18
93 86 14
99 92 14
103 95 17
101 93 17
104 95 20
99 91 16
99 91 16
100 91 17
105 98 21
101 93 15
99 91 17
99 92 17
103 93 21
94 88 16
98 90 18
98 91 18
102 92 16
102 93 19
98 91 17
95 88 15
101 94 16
100 92 18
97 89 17
94 86 17
98 89 17
99 91 15
98 89 15
103 96 18
98 90 21
94 86 16
96 87 17
106 97 23
98 90 17
88 82 12
92 85 16
93 86 15
92 84 16
91 84 15
95 86 17
99 90 18
89 83 17
87 80 15
95 87 18
93 87 14
97 90 19
91 84 18
94 88 16
95 87 13
98 90 19
88 82 14
96 88 17
97 90 15
98 90 18
90 84 19
90 83 16
93 85 18
90 83 17
100 92 22
80 75 12
99 91 17
88 81 15
93 86 19
93 86 17
97 89 19
89 82 15
96 88 22
89 82 18
83 76 14
93 84 18
88 82 15
91 83 17
106 132 45
107 132 40
107 132 43
105 131 34
102 128 30
107 132 45
107 133 43
98 125 24
101 127 26
104 129 32
103 129 30
104 130 34
101 128 26
100 127 22
98 125 22
101 126 28
99 125 16
100 127 24
99 124 26
100 126 20
101 127 26
100 126 18
101 127 20
100 126 22
99 124 20
96 122 14
99 125 16
99 126 20
98 124 18
94 121 6
94 120 10
93 120 6
96 122 10
93 120 4
94 119 6
93 120 6
94 120 6
95 121 4
94 122 2
89 115 2
93 120 0
91 119 0
87 113 0
92 119 0
91 117 0
89 116 0
89 115 0
90 117 0
92 119 0
92 119 0
91 117 0
91 118 0
93 119 0
91 118 0
90 117 0
88 114 0
89 116 0
88 116 0
91 118 0
92 118 0
87 114 0
91 118 0
89 114 0
88 115 0
88 114 0
90 115 0
88 115 0
90 117 0
89 116 0
92 118 0
88 115 0
88 115 0
85 111 0
88 115 0
84 110 0
82 107 0
86 111 0
87 112 0
82 107 0
87 111 0
85 110 0
85 110 0
87 113 0
80 104 0
81 105 0
82 105 0
83 109 0
86 112 0
79 105 0
86 111 0
81 106 0
83 109 0
80 103 0
83 108 0
83 107 0
79 102 0
76 100 0
77 102 0
74 96 0
78 100 0
75 98 0
74 96 0
72 95 0
77 100 0
73 95 0
66 88 0
68 88 0
65 84 0
62 81 0
68 86 0
64 84 0
61 80 0
54 72 0
57 74 1
51 67 2
47 63 4
37 51 6
34 49 11
35 50 7
37 52 6
29 42 6
37 52 7
24 37 14
24 36 7
24 36 10
10 19 13
12 22 9
13 23 12
8 16 9
9 19 12
11 21 14
14 23 9
10 19 7
11 21 10
13 22 4
18 28 4
12 22 6
20 31 1
27 39 4
34 49 9
49 67 4
58 76 6
67 88 9
82 105 24
82 103 22
104 132 16
117 151 0
119 153 0
117 152 0
117 152 0
116 150 0
83 110 6
10 25 35
10 25 34
11 28 40
11 28 43
11 29 46
10 27 36
10 27 38
12 29 50
12 30 51
11 29 41
12 32 59
11 29 40
12 30 45
12 31 50
13 32 58
12 31 51
13 32 59
12 31 54
13 32 50
13 32 53
12 30 52
12 31 52
12 31 58
12 32 48
13 32 53
11 29 49
12 31 52
12 31 48
13 34 60
12 30 53
13 32 51
13 32 48
12 31 56
12 31 55
12 32 57
13 32 60
13 33 60
13 33 56
13 34 66
13 32 52
13 32 63
13 33 60
12 31 52
13 32 55
13 33 55
12 32 51
13 33 69
13 33 62
12 32 57
13 34 74
12 31 55
14 34 69
13 33 58
13 32 60
13 32 53
13 32 62
12 31 55
14 34 55
13 32 58
12 31 49
13 32 57
12 31 47
13 33 61
14 34 66
12 31 55
13 32 59
13 32 53
12 31 49
13 32 45
12 30 43
12 30 46
12 30 45
12 30 53
11 29 45
12 30 50
12 30 50
11 28 40
13 32 57
13 32 62
11 28 45
12 30 46
12 31 48
11 27 39
11 27 39
12 30 47
11 28 46
11 26 27
10 26 35
10 26 35
11 27 38
10 23 38
10 25 39
10 24 35
10 24 38
8 20 23
9 22 35
78 104 8
114 147 0
117 151 0
118 152 0
118 152 0
118 151 0
93 115 1
28 27 4
21 21 2
16 16 1
26 25 1
17 17 1
21 20 1
23 23 0
21 21 0
19 19 1
15 16 0
18 19 1
21 21 1
26 26 1
24 24 2
25 25 2
25 25 3
32 30 2
33 32 5
29 30 3
28 29 3
34 34 3
39 38 4
46 44 4
45 44 5
37 37 6
48 47 9
48 46 4
53 51 4
51 48 5
42 40 4
43 42 8
50 48 8
50 48 7
59 57 10
66 64 11
77 72 12
63 60 14
67 64 10
65 63 8
79 73 13
67 64 13
68 65 9
89 82 15
71 68 12
79 75 12
82 77 12
74 69 11
76 73 15
87 81 12
72 67 11
83 78 14
76 71 12
80 75 10
91 84 13
95 88 14
78 73 10
90 84 12
89 83 13
91 85 13
91 85 14
98 91 17
94 88 11
95 87 16
95 88 14
98 90 17
88 82 12
93 86 13
94 87 15
90 84 13
93 87 16
90 83 17
91 85 14
88 82 15
89 84 11
98 90 14
96 89 17
93 86 15
97 89 17
100 92 16
91 84 15
100 94 16
106 98 18
99 92 15
95 88 15
93 86 18
91 84 14
97 90 15
106 97 18
102 94 20
100 92 16
101 93 15
94 87 14
96 89 17
93 86 15
97 89 15
100 92 14
88 81 14
95 89 12
97 90 18
86 78 11
91 83 11
94 87 17
99 91 19
104 94 22
100 91 16
101 92 23
92 84 11
98 90 18
102 93 20
102 93 19
96 88 19
99 92 20
98 90 20
91 83 17
97 88 19
101 93 21
97 89 18
101 94 19
94 87 16
98 90 16
89 81 19
94 87 15
91 85 18
94 87 20
85 78 13
86 80 14
88 81 13
93 86 15
89 83 14
88 80 14
98 91 18
95 89 18
91 85 18
90 82 16
91 83 18
93 86 15
85 78 16
94 87 19
93 86 17
84 79 15
84 77 16
90 83 14
95 86 20
90 82 15
84 77 14
101 128 22
108 133 43
99 124 20
110 135 49
107 132 38
105 131 38
104 130 30
104 130 32
99 125 20
100 127 22
101 127 22
99 125 16
97 122 16
100 126 20
96 123 10
97 124 18
97 123 14
100 127 24
95 122 12
97 123 14
99 125 8
95 122 8
98 124 20
93 119 2
96 122 10
97 124 8
97 122 12
96 123 6
91 119 6
92 119 6
93 119 4
93 119 0
93 121 0
93 120 4
92 120 0
92 118 0
93 121 0
92 119 0
90 117 0
90 116 0
90 117 0
90 117 0
92 119 0
94 119 0
92 118 0
87 113 0
90 117 0
90 116 0
90 117 0
91 117 0
88 114 0
94 121 0
91 117 0
92 118 0
91 116 0
91 118 0
88 114 0
88 114 0
86 112 0
92 119 0
90 116 0
85 110 0
91 118 0
89 116 0
91 118 0
89 115 0
88 115 0
85 111 0
90 117 0
88 114 0
89 114 0
87 112 0
83 108 0
89 116 0
84 109 0
88 113 0
82 107 0
87 112 0
83 108 0
87 112 0
83 109 0
84 109 0
80 105 0
89 116 0
81 105 0
88 113 0
84 108 0
76 100 0
82 107 0
77 101 0
78 101 0
76 100 0
78 100 0
79 104 0
75 98 0
77 101 0
78 101 0
75 97 0
77 100 0
79 102 0
84 109 0
81 106 0
76 100 0
73 96 0
71 92 0
70 92 0
61 82 0
62 82 0
61 81 0
62 82 0
61 79 0
62 79 0
60 78 0
53 71 0
59 77 0
54 72 4
46 62 4
39 53 1
39 54 6
28 42 8
33 46 4
32 46 9
24 36 10
20 30 8
22 33 10
20 31 10
15 24 3
16 26 4
15 25 7
12 22 5
15 24 5
16 26 6
13 23 9
15 25 5
17 28 3
21 32 2
20 32 7
25 37 4
30 42 3
46 61 4
55 74 3
68 89 0
71 92 6
69 88 18
70 88 16
117 152 0
119 153 0
116 151 0
118 152 0
113 148 0
116 150 0
115 150 0
16 31 23
10 25 29
10 25 35
11 28 39
10 26 43
11 27 41
12 30 50
11 29 46
11 29 49
12 31 50
11 28 47
11 29 52
11 29 41
12 30 45
11 29 41
12 30 53
12 31 54
12 31 52
13 32 48
12 30 53
11 29 41
13 32 52
12 32 55
12 32 48
12 30 48
13 32 57
12 31 49
13 33 63
14 34 65
12 30 46
13 33 53
13 33 57
13 33 62
12 30 40
13 32 55
13 32 57
13 32 55
13 33 63
13 32 62
12 31 43
13 34 57
13 32 51
13 32 57
12 31 51
14 34 63
12 31 58
12 31 46
13 34 65
13 33 60
13 32 66
13 33 60
13 34 66
12 32 46
12 32 55
12 31 47
12 30 52
13 32 56
13 33 57
12 31 52
13 33 60
12 30 47
13 32 61
12 32 53
13 32 47
11 28 45
13 33 59
13 32 56
12 31 50
12 31 53
12 30 51
13 32 53
12 30 45
12 31 44
13 32 62
12 29 50
12 30 45
11 28 51
12 30 46
12 31 46
12 30 53
12 29 47
12 29 51
12 30 54
12 30 53
11 27 43
12 29 54
11 27 45
12 29 47
10 26 32
10 24 26
9 23 29
11 27 36
9 22 26
8 19 25
9 20 26
17 29 14
115 148 0
118 152 0
118 152 0
119 153 0
116 151 0
119 153 0
119 153 0
40 43 3
32 29 4
25 24 2
27 26 2
25 24 2
19 18 0
17 17 0
20 19 1
18 19 1
23 22 0
22 23 2
15 17 1
14 16 2
20 22 3
30 30 2
32 32 2
31 30 2
33 33 2
34 34 4
30 30 3
27 28 1
34 34 3
34 34 2
42 42 5
45 44 5
35 35 5
55 52 10
48 46 6
48 47 8
54 52 7
52 51 8
59 57 9
52 51 8
48 47 8
58 55 10
58 55 7
57 54 8
65 61 9
67 63 10
57 55 9
68 64 12
65 61 10
78 72 15
68 64 10
76 72 10
75 70 7
77 72 10
81 77 12
82 77 12
82 76 14
78 74 13
85 78 13
85 79 12
79 74 12
81 75 15
78 73 12
92 84 16
91 83 17
87 80 14
84 78 11
88 82 13
90 84 11
89 83 13
89 83 10
90 83 13
96 89 16
98 91 15
94 88 14
89 83 15
95 87 13
105 96 21
87 82 12
93 86 12
100 92 19
99 92 16
102 94 20
97 90 13
96 88 13
95 88 17
96 88 17
95 88 15
100 92 17
102 93 17
98 91 14
99 92 18
101 93 16
89 84 13
105 97 21
106 97 21
92 85 14
91 84 15
92 86 13
95 87 17
106 97 19
106 97 18
106 97 19
86 80 14
97 89 18
96 88 16
99 91 17
100 92 15
88 82 13
103 95 16
95 87 17
97 88 18
99 92 15
98 91 13
101 93 16
100 92 19
94 87 17
99 91 19
97 90 15
94 87 16
97 90 17
98 91 16
94 86 17
93 86 13
97 89 20
98 89 18
84 77 15
90 82 15
103 95 19
93 86 18
98 88 22
94 86 16
86 80 13
89 82 15
95 88 16
95 88 17
97 89 20
97 89 18
90 83 16
88 83 11
92 85 20
94 87 18
86 79 15
97 88 16
91 84 18
80 73 13
88 81 18
88 82 17
80 75 14
90 83 18
94 88 18
87 80 18
100 126 18
102 128 30
103 129 32
103 129 30
97 123 12
103 129 36
102 128 24
96 122 14
100 126 20
104 129 28
101 127 18
97 123 20
98 124 20
97 124 6
97 123 12
94 121 8
98 123 16
96 123 12
90 117 2
94 121 12
99 125 16
96 122 12
92 118 4
95 121 6
92 118 2
94 121 2
90 116 2
90 116 0
93 120 0
91 118 0
92 120 0
93 120 0
94 121 0
94 120 0
92 120 0
93 121 0
92 117 0
91 117 0
92 120 0
89 115 0
90 117 0
90 117 0
93 119 0
91 118 0
88 114 0
93 119 0
91 117 0
90 117 0
91 116 0
90 117 0
93 119 0
92 119 0
91 118 0
89 115 0
90 115 0
93 120 0
92 118 0
90 115 0
88 115 0
83 109 0
87 112 0
88 116 0
92 118 0
87 114 0
88 112 0
90 117 0
83 107 0
87 113 0
87 114 0
85 110 0
86 112 0
86 113 0
81 106 0
83 108 0
86 112 0
86 110 0
87 113 0
86 112 0
89 116 0
84 110 0
84 109 0
74 98 0
81 106 0
83 107 0
77 102 0
79 103 0
83 109 0
77 102 0
85 111 0
79 104 0
79 102 0
79 103 0
75 98 0
80 105 0
77 101 0
77 101 0
71 93 0
73 95 0
78 100 0
77 100 0
72 95 0
68 90 0
75 97 0
73 93 0
63 83 0
68 87 0
62 82 0
61 78 0
62 83 0
68 87 0
59 77 0
62 81 0
56 73 0
64 83 0
49 64 0
49 66 2
46 60 3
48 65 4
38 52 1
36 49 4
36 50 3
28 40 2
31 45 3
18 30 11
22 34 6
14 24 4
24 35 9
17 26 6
15 25 8
13 22 9
14 25 10
18 27 3
18 28 6
16 26 4
21 32 5
23 34 6
31 44 3
39 53 1
41 57 2
52 69 2
57 76 1
75 98 0
78 101 12
71 90 20
103 130 4
119 153 0
117 150 0
115 149 0
115 148 0
117 150 0
114 148 0
117 150 0
52 73 14
9 24 27
11 27 44
10 26 32
11 27 45
11 28 50
10 27 39
11 27 40
11 29 47
11 29 48
11 29 47
11 29 41
12 30 52
13 32 55
11 29 37
12 30 55
13 33 60
12 31 46
13 32 47
12 30 40
13 32 54
13 32 59
12 31 51
13 32 65
12 31 56
12 30 48
12 31 46
13 32 56
13 33 55
12 31 48
12 32 54
13 34 62
13 33 60
13 33 65
13 34 66
13 32 53
12 31 57
12 31 48
13 32 52
12 32 46
13 32 55
12 31 52
13 32 55
13 33 47
13 32 46
12 32 49
13 32 46
12 31 49
13 32 56
12 31 52
12 31 44
12 30 46
13 32 60
13 32 52
12 31 56
13 32 57
12 31 53
12 31 51
13 32 65
13 33 61
13 33 48
13 32 67
13 33 56
12 30 46
12 31 58
13 32 54
13 32 49
12 32 50
13 31 60
13 32 54
13 32 58
13 31 57
13 31 58
11 28 48
13 32 58
11 29 51
12 30 45
11 29 49
12 31 53
12 30 44
12 28 52
12 30 49
12 31 53
11 27 41
12 28 39
11 27 42
11 27 32
10 23 33
11 27 43
10 24 35
9 23 26
9 23 24
10 25 35
9 21 30
8 20 30
61 84 10
119 152 0
121 153 0
113 148 0
117 151 0
115 149 0
114 146 0
117 150 0
81 97 2
35 33 5
31 28 4
28 26 3
14 14 1
18 18 2
24 24 0
23 23 1
25 24 0
18 18 1
23 23 1
17 19 1
19 20 2
23 23 1
29 30 1
25 25 1
34 33 1
26 27 4
24 25 2
35 35 3
36 36 5
38 38 3
37 38 5
46 44 6
47 44 8
52 51 7
49 46 6
51 49 7
43 42 5
60 57 7
51 50 6
59 57 8
51 51 6
54 52 9
52 51 5
61 57 9
63 61 12
62 60 7
60 56 8
70 67 9
65 61 9
70 67 11
62 59 9
71 66 13
74 70 8
76 71 11
83 76 11
79 75 12
69 66 12
76 72 8
77 71 9
85 80 12
81 76 12
80 74 8
83 77 13
86 79 15
80 75 8
86 80 10
98 90 16
83 78 11
78 74 7
84 80 10
91 85 13
88 82 13
94 87 14
82 77 9
98 90 14
93 87 10
89 84 14
82 77 11
98 90 16
97 89 15
95 89 11
94 87 12
96 88 12
100 92 18
98 91 15
90 84 12
96 89 15
95 87 13
102 95 15
89 83 9
95 85 14
99 91 12
98 90 14
95 87 14
100 90 16
96 88 15
97 88 16
98 90 16
98 90 13
102 94 19
98 91 17
95 88 12
96 89 15
102 94 19
91 85 15
89 83 14
101 92 15
95 87 16
92 85 12
92 84 14
99 91 17
94 87 16
98 90 18
100 91 19
97 89 15
92 85 14
93 86 15
92 85 12
96 90 16
95 87 17
86 79 12
92 86 11
93 86 15
97 89 17
102 92 17
96 89 18
89 82 13
105 97 19
98 91 17
96 89 16
91 85 11
96 89 16
94 85 18
96 88 21
92 84 19
86 80 15
90 84 15
79 74 13
84 78 15
89 82 14
93 85 19
92 85 13
91 83 15
79 73 12
93 84 16
87 80 16
88 80 16
86 80 13
80 74 10
83 76 12
90 82 16
96 87 21
91 83 16
100 126 20
102 127 34
98 124 18
96 122 12
98 124 18
96 123 10
98 123 20
95 122 10
102 128 28
97 124 14
97 123 14
99 124 20
96 122 12
100 126 20
93 119 8
95 121 4
96 122 8
93 119 4
92 119 0
96 123 8
91 118 0
92 118 2
92 118 0
92 119 0
93 120 0
95 121 0
91 117 0
91 118 0
94 121 0
91 118 0
91 117 0
92 118 0
90 117 0
93 120 0
91 118 0
87 113 0
93 119 0
90 117 0
92 119 0
89 115 0
93 119 0
87 113 0
91 119 0
90 117 0
92 118 0
90 117 0
93 118 0
88 115 0
88 114 0
88 114 0
89 116 0
86 112 0
88 115 0
91 117 0
88 115 0
88 115 0
81 107 0
88 114 0
89 115 0
82 106 0
89 114 0
89 114 0
91 116 0
90 117 0
88 115 0
85 110 0
83 109 0
86 111 0
81 106 0
87 113 0
87 112 0
88 114 0
83 109 0
84 110 0
89 115 0
90 117 0
84 110 0
86 111 0
85 109 0
82 107 0
90 115 0
82 107 0
79 104 0
79 103 0
81 106 0
80 103 0
82 106 0
81 106 0
86 112 0
79 104 0
79 104 0
77 101 0
80 104 0
81 106 0
70 91 0
77 100 0
77 100 0
70 91 0
70 91 0
73 96 0
64 86 0
68 89 0
73 96 0
74 97 0
61 81 0
70 93 0
66 86 0
67 89 0
65 85 0
52 71 0
58 76 0
63 81 0
50 67 0
56 73 0
49 66 0
45 61 0
38 51 2
43 59 0
37 51 1
39 53 2
41 55 1
28 40 4
30 43 1
21 32 6
19 29 4
26 38 4
24 35 7
14 23 5
20 31 9
20 30 7
16 25 6
18 27 3
24 34 6
24 35 3
21 32 3
28 40 3
32 44 2
42 57 0
48 66 1
44 60 1
65 86 1
71 92 0
68 88 8
72 92 16
116 150 0
117 151 0
118 152 0
114 147 0
118 153 0
114 148 0
118 152 0
120 154 0
109 141 1
10 25 28
10 25 21
10 26 31
11 27 40
10 26 37
11 28 40
10 26 37
10 27 39
12 29 49
11 29 47
12 30 47
12 29 46
12 30 50
11 29 39
11 29 48
12 31 53
12 31 47
13 33 54
12 31 50
11 29 50
13 32 46
13 33 60
12 29 39
12 32 52
13 32 53
13 33 70
12 30 45
12 31 46
13 32 56
13 33 60
13 33 60
13 32 46
12 31 54
13 32 49
13 33 52
13 32 49
12 30 48
12 30 43
12 30 39
12 30 39
13 33 58
12 31 57
12 31 60
13 32 56
13 33 60
13 33 63
12 30 39
13 33 56
12 31 51
13 32 56
13 33 56
12 32 55
13 33 56
12 31 46
13 32 49
13 33 57
12 29 48
13 32 57
13 32 51
13 32 56
12 31 49
12 31 53
13 32 52
13 32 50
12 30 40
12 31 53
12 30 48
12 31 48
11 29 51
13 33 60
12 29 51
13 32 51
11 28 46
12 29 53
12 30 55
12 31 60
11 27 37
12 30 51
12 30 46
11 28 43
11 28 44
11 28 48
11 28 44
11 28 44
12 29 52
11 26 37
11 26 34
9 23 26
11 26 39
10 25 33
10 25 35
10 23 30
8 19 28
13 26 24
98 129 2
116 149 0
114 146 0
116 149 0
120 152 0
115 149 0
114 146 0
114 145 0
117 151 0
50 52 4
30 28 4
23 23 3
22 21 1
26 25 3
21 18 0
15 16 1
24 24 0
25 24 0
23 23 1
26 26 1
22 23 1
24 25 2
23 23 2
36 35 4
24 25 2
28 29 2
37 37 3
27 26 2
38 37 3
37 37 3
43 42 5
46 44 5
42 41 6
41 40 5
47 45 6
45 43 3
54 51 5
47 46 4
50 49 7
55 54 5
60 57 8
47 46 4
57 54 8
60 57 8
62 59 8
60 57 5
66 63 5
65 62 12
57 54 5
67 65 9
74 69 11
74 69 10
74 70 11
73 68 11
75 71 10
81 75 14
80 75 11
80 74 10
91 83 14
83 78 11
77 71 11
84 77 15
86 80 13
88 82 10
84 79 8
82 77 9
94 88 11
77 71 12
78 72 9
93 85 13
82 77 11
87 82 9
88 82 15
93 86 15
94 87 12
79 74 11
84 78 9
93 86 15
93 85 15
89 83 9
94 89 12
94 86 15
92 86 13
97 89 13
99 91 14
101 92 18
96 87 11
93 86 14
92 83 14
102 95 16
94 85 14
90 84 14
94 88 13
98 90 13
97 90 13
96 89 14
94 86 14
87 81 12
95 87 16
96 88 14
96 88 15
98 91 15
93 85 19
93 86 16
96 90 16
93 86 13
94 86 16
101 93 17
97 89 17
91 86 12
92 84 14
98 89 18
97 89 17
100 92 18
98 90 17
98 90 16
90 84 14
91 84 16
98 90 20
93 85 16
93 86 16
92 84 17
95 88 15
98 90 17
87 78 14
96 88 18
95 87 16
87 81 15
85 78 11
97 90 16
92 86 15
86 79 15
87 80 16
89 82 12
96 87 17
90 82 15
83 76 14
88 81 15
85 79 13
90 83 16
77 72 12
103 95 20
85 79 12
91 83 16
84 77 14
89 82 15
85 78 16
90 83 14
92 84 20
79 74 13
92 84 16
95 86 19
92 83 18
95 121 14
96 123 16
97 124 16
99 126 16
100 126 18
97 124 16
94 121 10
94 120 6
97 123 12
94 121 10
95 122 14
97 124 14
93 120 6
93 119 2
91 118 0
93 120 2
95 122 0
96 122 0
94 121 0
92 119 0
91 118 0
93 119 0
88 115 0
91 118 0
90 117 0
90 117 0
92 119 0
94 120 0
88 115 0
94 121 0
90 117 0
91 118 0
90 116 0
92 118 0
92 119 0
93 119 0
92 118 0
90 116 0
92 119 0
92 118 0
89 115 0
90 117 0
92 119 0
90 116 0
86 113 0
88 115 0
90 117 0
87 113 0
90 117 0
90 117 0
89 115 0
91 117 0
84 110 0
90 115 0
86 112 0
89 116 0
90 115 0
92 117 0
91 117 0
88 114 0
89 115 0
86 110 0
89 115 0
86 112 0
86 110 0
88 114 0
89 116 0
86 112 0
87 113 0
82 106 0
88 114 0
86 112 0
89 114 0
88 113 0
85 111 0
87 114 0
86 111 0
89 115 0
88 113 0
81 105 0
83 109 0
82 105 0
82 106 0
81 106 0
84 109 0
77 101 0
79 103 0
82 106 0
79 102 0
83 109 0
72 94 0
75 97 0
74 97 0
71 94 0
77 99 0
79 102 0
72 92 0
75 97 0
73 96 0
75 99 0
69 90 0
72 93 0
71 92 0
69 90 0
63 83 0
63 83 0
61 79 0
61 80 0
63 82 0
63 83 0
52 70 0
57 75 0
46 62 0
55 73 0
56 71 0
48 64 0
44 58 1
40 53 0
37 51 0
32 43 1
39 53 4
32 44 6
30 42 3
22 32 2
30 42 5
21 31 5
30 42 7
21 31 1
20 29 3
21 31 3
17 26 2
22 32 2
29 39 2
27 39 4
32 46 3
28 40 0
37 51 2
44 60 0
47 65 0
59 78 0
71 92 0
76 98 2
63 81 12
100 128 12
115 149 0
115 149 0
116 150 0
113 148 0
114 148 0
114 148 0
116 151 0
113 147 0
114 147 0
49 69 12
10 25 33
10 25 37
11 28 45
10 27 37
12 30 48
11 28 41
11 28 42
11 27 36
11 29 47
12 29 52
10 27 37
11 29 42
12 30 50
11 29 39
12 30 45
11 29 47
12 31 45
12 30 47
12 30 45
12 30 41
11 29 45
13 32 50
12 31 44
13 33 57
12 31 56
12 32 44
12 32 54
13 32 61
12 31 57
13 32 50
13 32 57
12 30 44
12 31 52
13 32 49
12 31 52
13 32 53
12 31 45
12 31 43
12 32 55
12 31 49
13 32 47
12 31 50
12 31 42
13 33 53
14 34 67
12 30 56
13 32 56
12 30 42
13 32 60
12 31 48
13 33 58
12 31 48
11 30 39
13 32 56
13 32 61
11 29 43
12 31 39
12 31 47
13 33 58
12 30 52
13 33 64
13 32 61
13 32 62
13 33 57
11 29 44
12 29 45
13 32 56
12 30 51
12 31 53
12 31 51
12 29 46
11 29 42
12 31 59
11 28 45
11 28 42
12 30 46
12 30 46
12 30 51
11 29 46
12 31 55
11 28 39
11 27 36
11 27 40
11 28 45
11 27 42
10 25 40
10 26 40
10 25 32
9 22 26
10 23 30
9 21 28
8 19 22
45 64 11
116 150 0
116 149 0
115 148 0
119 151 0
115 148 0
114 148 0
117 150 0
116 149 0
115 149 0
99 120 2
33 31 4
26 26 3
22 22 0
22 21 0
19 19 0
15 15 0
25 25 0
28 28 0
17 17 1
22 23 2
20 21 0
28 28 0
27 27 2
31 31 1
30 30 2
32 32 2
30 30 2
29 30 2
33 34 2
38 35 4
34 33 2
37 36 2
41 39 3
35 36 3
43 43 3
46 44 6
39 38 3
58 56 8
56 53 6
66 61 10
55 53 7
60 56 7
54 52 7
54 51 5
54 53 5
59 55 7
64 60 9
71 66 7
65 60 8
72 67 7
65 64 7
71 67 7
71 67 7
77 72 9
74 69 9
73 69 10
65 62 8
80 75 8
72 68 9
81 76 9
77 72 7
85 80 11
82 75 9
77 70 11
83 77 14
83 78 9
87 80 13
75 70 7
86 81 8
89 82 15
90 83 10
84 78 10
88 81 11
88 82 12
86 80 9
91 85 15
85 78 11
99 91 18
88 81 13
85 78 11
92 85 12
90 84 13
95 88 13
90 83 15
91 86 12
93 86 13
89 82 14
93 86 13
94 86 11
97 89 13
101 92 16
90 83 14
94 86 12
95 88 12
95 87 14
90 84 11
102 94 16
96 88 13
90 84 11
92 84 15
89 83 12
87 80 11
92 85 12
94 88 15
88 81 14
83 78 10
99 92 15
95 87 16
97 89 16
102 94 16
94 87 11
92 85 13
89 81 13
93 85 15
93 86 14
92 85 13
97 89 16
92 84 14
96 89 16
101 94 16
94 87 17
96 88 15
97 89 15
95 86 16
93 86 17
89 81 13
92 85 15
96 87 17
95 88 14
91 83 15
98 90 18
92 86 14
94 88 15
91 83 17
86 79 13
94 87 18
88 81 16
81 75 13
85 77 14
97 89 16
92 84 18
88 80 16
87 80 14
85 79 14
81 74 12
90 83 13
89 83 13
86 80 13
80 74 11
80 74 15
84 77 16
82 75 15
79 73 11
104 129 28
96 122 8
98 124 10
97 123 14
97 124 8
97 123 10
95 121 14
95 122 8
94 121 8
93 120 2
91 118 2
92 119 0
93 119 0
92 119 0
90 117 0
92 119 0
91 118 0
92 120 0
92 118 0
93 120 0
92 119 0
91 118 0
91 118 0
92 119 0
92 119 0
90 116 0
91 117 0
89 115 0
92 119 0
94 121 0
92 119 0
91 118 0
92 119 0
89 115 0
92 118 0
92 118 0
91 117 0
90 116 0
91 117 0
91 118 0
90 116 0
92 118 0
90 115 0
90 117 0
88 114 0
89 115 0
86 111 0
88 115 0
85 111 0
89 116 0
90 116 0
89 115 0
87 113 0
86 111 0
89 115 0
87 113 0
90 115 0
88 114 0
90 117 0
89 116 0
89 114 0
86 111 0
89 114 0
83 108 0
88 113 0
91 118 0
85 111 0
88 115 0
89 116 0
86 112 0
85 111 0
89 115 0
86 111 0
89 115 0
82 107 0
88 114 0
83 108 0
81 107 0
87 113 0
83 108 0
80 105 0
82 108 0
81 105 0
78 101 0
78 100 0
80 104 0
83 107 0
84 111 0
80 105 0
79 103 0
71 94 0
78 102 0
86 111 0
74 97 0
73 96 0
73 97 0
72 95 0
73 95 0
69 90 0
72 94 0
76 98 0
70 92 0
76 99 0
60 79 0
60 79 0
64 84 0
66 87 0
65 84 0
66 86 0
52 69 0
62 81 0
56 75 0
55 72 0
51 68 0
49 64 0
50 66 0
42 57 0
47 62 0
39 53 0
34 47 1
40 54 2
34 47 1
27 38 2
32 44 1
25 36 6
32 43 1
25 35 1
20 30 5
27 37 2
21 31 2
28 40 2
19 29 1
29 40 2
29 40 1
27 39 5
43 58 1
45 61 1
43 58 2
54 73 0
74 96 0
73 96 0
62 82 0
72 93 10
116 150 0
115 149 0
114 148 0
116 150 0
118 152 0
115 148 0
116 149 0
115 149 0
116 150 0
113 146 0
97 128 3
13 29 29
9 23 24
10 25 32
9 23 24
10 25 29
11 27 43
11 27 31
11 28 44
11 27 33
12 30 50
12 30 41
11 29 44
10 27 39
11 28 35
12 30 47
12 31 49
13 32 54
13 33 59
11 29 45
12 31 51
13 32 54
13 32 49
12 31 47
12 32 47
12 31 39
12 31 53
12 30 56
13 32 61
12 31 54
12 30 48
12 30 45
12 31 49
12 32 48
13 33 49
12 30 48
13 32 50
12 31 56
12 31 56
12 30 51
12 31 51
12 31 47
11 29 38
11 30 44
12 31 46
13 32 52
12 29 48
13 32 58
12 31 51
12 31 51
13 32 48
12 29 50
13 31 47
13 32 56
12 30 46
12 31 58
13 32 59
13 32 51
11 29 39
13 32 57
12 30 52
12 31 44
12 30 46
12 30 43
12 30 52
12 30 50
12 29 38
12 30 48
13 31 49
12 30 45
12 30 42
12 30 51
11 28 51
12 29 51
12 30 51
12 30 47
11 27 39
11 28 35
13 31 58
10 26 40
12 29 43
10 26 39
11 28 40
11 26 41
10 25 37
10 25 34
11 27 39
9 23 28
10 24 36
11 26 40
10 24 30
9 22 29
8 19 22
93 120 5
116 148 0
111 143 0
111 145 0
113 146 0
114 148 0
115 148 0
114 146 0
115 147 0
113 147 0
116 148 0
69 76 4
30 28 3
32 30 3
33 30 3
25 24 0
20 19 1
21 20 1
22 22 1
22 22 0
20 20 0
28 27 1
27 28 0
22 23 1
23 22 2
27 28 2
30 28 1
24 24 3
30 29 2
26 27 2
46 44 2
38 36 3
36 36 4
37 36 5
38 38 3
49 46 5
53 51 7
50 47 4
55 51 7
50 49 5
52 50 5
56 54 8
57 55 6
47 46 5
62 57 8
65 61 7
66 63 7
68 65 6
61 57 4
56 54 4
64 60 7
72 68 7
80 75 12
74 70 7
78 73 11
67 64 6
72 67 10
81 76 15
69 66 7
69 66 5
79 74 7
82 76 11
82 76 8
71 66 8
89 82 11
85 78 11
76 71 11
81 75 11
78 72 10
76 71 6
83 77 8
77 71 9
81 77 11
92 85 14
88 82 15
86 80 11
81 75 11
85 80 9
86 81 12
92 84 11
82 75 8
93 87 12
100 92 15
91 84 12
93 87 11
93 85 10
85 80 9
92 85 11
93 85 14
93 86 12
101 91 16
85 79 9
97 88 15
96 90 16
95 87 14
89 81 15
97 89 15
98 91 15
88 83 9
93 85 12
96 88 17
91 84 13
90 83 13
93 86 13
96 88 15
95 88 14
100 92 16
92 85 10
94 87 17
90 83 10
90 83 13
98 90 16
89 82 10
89 83 12
89 81 14
98 91 15
103 93 20
86 79 11
97 89 11
97 89 15
93 86 16
84 78 10
93 85 14
84 76 12
96 87 18
95 88 15
94 86 16
92 85 17
94 87 14
90 82 14
100 90 18
90 82 16
95 87 16
91 85 16
90 83 15
91 83 16
88 81 17
82 76 10
81 75 14
93 87 15
86 79 14
83 77 12
92 84 16
80 74 12
83 78 13
82 76 15
89 81 13
85 78 12
84 77 15
81 74 12
89 81 16
94 86 16
83 77 17
80 74 12
94 121 6
98 124 18
95 121 8
94 121 2
94 120 8
96 123 4
92 119 0
92 119 0
94 121 0
94 120 0
94 121 0
93 120 0
93 120 0
94 121 0
89 114 0
92 119 0
91 118 0
91 117 0
93 119 0
93 119 0
91 117 0
91 116 0
91 118 0
93 121 0
89 116 0
92 120 0
91 117 0
92 118 0
90 117 0
90 116 0
88 116 0
89 115 0
90 117 0
92 118 0
92 118 0
89 115 0
94 121 0
88 115 0
90 117 0
94 120 0
92 118 0
92 119 0
89 115 0
90 116 0
91 118 0
91 116 0
87 114 0
90 115 0
88 114 0
90 116 0
90 115 0
88 115 0
89 114 0
90 117 0
87 113 0
90 115 0
91 117 0
89 116 0
86 110 0
86 112 0
82 108 0
86 113 0
84 108 0
86 111 0
85 111 0
86 111 0
92 118 0
85 110 0
86 112 0
84 108 0
87 113 0
86 112 0
83 108 0
85 109 0
83 108 0
81 106 0
86 111 0
85 110 0
87 112 0
84 109 0
79 103 0
82 106 0
84 109 0
82 107 0
85 110 0
82 107 0
78 102 0
83 107 0
75 98 0
76 98 0
75 99 0
75 98 0
74 98 0
76 98 0
77 101 0
75 97 0
72 95 0
72 95 0
72 94 0
71 93 0
64 86 0
72 94 0
61 81 0
66 87 0
67 89 0
64 84 0
59 78 0
48 64 0
61 80 0
53 73 0
58 75 0
55 71 0
50 66 0
44 60 0
56 75 0
59 76 0
44 58 0
45 60 0
42 56 0
40 53 0
45 60 2
42 56 1
34 46 2
27 38 2
24 35 0
25 36 3
26 37 3
27 38 2
30 41 2
20 31 3
26 36 3
25 35 0
27 38 0
45 59 1
40 52 1
48 64 1
53 70 2
61 80 0
69 89 0
71 92 0
77 101 2
62 80 14
97 124 4
114 148 0
114 149 0
118 151 0
114 148 0
111 144 0
115 149 0
115 148 0
111 144 0
112 145 0
114 147 0
113 146 0
35 54 15
10 25 29
10 27 43
9 24 30
10 26 33
10 26 34
10 26 39
12 30 52
11 28 45
11 29 43
12 30 54
12 29 49
11 27 39
12 29 47
12 30 45
10 27 33
12 31 49
12 30 34
12 31 54
12 30 49
11 28 40
12 30 49
13 32 56
13 31 53
12 31 54
13 32 52
12 30 53
12 30 47
12 31 45
12 32 53
11 28 45
12 31 49
12 31 42
12 30 43
12 31 44
13 33 57
12 31 48
12 31 57
12 32 51
12 31 52
12 32 49
12 31 48
13 32 49
12 31 55
12 29 43
13 32 51
12 30 38
12 31 56
12 31 47
12 31 61
12 32 59
12 31 52
13 32 60
12 32 56
12 30 51
11 29 39
11 28 46
12 32 43
13 32 57
13 33 64
11 29 51
12 30 43
12 31 52
13 32 55
12 30 42
12 31 53
12 31 55
11 28 45
13 32 56
12 29 42
12 30 40
12 31 39
13 32 51
12 30 43
12 30 43
11 27 38
11 29 45
12 30 46
11 28 34
11 27 36
11 26 37
10 26 28
12 29 44
10 26 37
9 23 32
10 25 36
12 28 40
10 24 29
11 26 37
9 20 22
9 22 23
38 56 15
117 150 0
116 148 0
114 147 0
113 144 0
114 146 0
113 145 0
112 146 0
112 144 0
111 144 0
114 147 0
113 145 0
100 128 1
36 34 3
29 27 1
21 20 2
26 24 3
23 22 1
32 30 0
24 24 1
24 23 0
25 24 0
18 19 0
25 25 1
35 34 1
25 26 1
17 18 1
25 25 1
32 31 1
34 34 2
33 32 3
34 33 2
45 44 3
37 36 1
45 43 3
37 36 1
47 45 4
46 43 2
48 46 3
44 43 5
45 43 3
54 52 5
52 49 3
58 56 4
52 51 3
61 57 9
52 50 5
56 54 4
61 59 5
65 61 4
62 58 6
71 67 5
66 63 5
69 64 7
60 58 5
75 69 8
79 74 9
68 65 6
75 70 10
79 72 9
74 69 9
74 69 7
76 70 10
78 73 11
82 77 9
80 76 8
80 75 8
88 82 12
75 71 8
82 76 13
87 81 11
80 74 8
79 74 8
84 78 9
82 76 11
87 80 11
79 75 8
89 81 13
82 77 9
95 87 14
87 80 11
91 83 11
77 71 8
87 81 11
84 77 12
88 80 13
87 82 11
91 85 12
82 77 11
90 83 10
92 86 13
93 86 14
83 78 8
90 83 14
89 82 12
87 80 11
89 82 11
98 89 17
98 90 15
88 82 11
88 82 13
94 88 14
91 83 12
95 88 12
95 87 13
99 91 15
103 94 17
93 85 13
88 81 12
89 82 13
94 87 14
99 90 16
92 85 11
86 80 10
91 84 15
91 83 14
93 85 15
89 83 12
91 83 14
99 90 16
97 88 14
96 88 12
82 75 11
96 88 16
89 82 14
83 76 8
89 82 13
95 87 16
92 84 14
100 91 18
92 84 15
90 82 14
80 75 11
86 80 12
85 77 14
89 82 15
96 86 18
92 84 14
91 85 12
89 83 12
72 66 8
85 79 12
86 78 13
83 76 12
83 76 14
75 70 10
90 82 17
91 84 11
79 72 14
92 84 17
82 76 15
90 82 18
92 84 19
82 76 11
81 75 13
97 124 6
92 118 2
93 120 2
94 120 2
94 119 2
92 119 0
92 118 0
94 120 0
92 119 0
90 118 0
95 122 0
90 116 0
93 121 0
94 120 0
92 119 0
91 118 0
94 120 0
93 119 0
93 119 0
92 119 0
92 119 0
89 116 0
92 118 0
94 120 0
91 117 0
92 118 0
90 116 0
89 116 0
93 119 0
90 115 0
91 118 0
92 119 0
90 116 0
91 116 0
91 118 0
90 117 0
89 114 0
88 115 0
91 118 0
92 119 0
90 117 0
87 113 0
86 111 0
91 117 0
89 115 0
89 115 0
88 114 0
91 118 0
90 117 0
88 113 0
90 115 0
88 114 0
90 115 0
87 113 0
83 107 0
87 112 0
83 109 0
84 110 0
89 115 0
89 115 0
87 113 0
86 112 0
89 116 0
85 110 0
88 113 0
82 106 0
85 110 0
86 112 0
85 109 0
90 115 0
89 114 0
84 108 0
82 107 0
84 109 0
84 108 0
87 111 0
77 100 0
82 106 0
81 105 0
83 109 0
76 100 0
82 106 0
81 105 0
85 109 0
79 103 0
79 102 0
79 103 0
79 103 0
75 97 0
76 100 0
75 98 0
74 97 0
75 99 0
76 99 0
69 91 0
73 96 0
71 93 0
79 101 0
80 103 0
70 91 0
66 86 0
70 91 0
65 86 0
61 81 0
62 82 0
65 85 0
70 91 0
57 77 0
58 77 0
63 83 0
59 78 0
55 72 0
53 69 0
53 71 0
47 62 0
48 64 0
38 52 0
47 61 0
49 64 0
39 52 0
36 49 1
39 51 0
37 50 2
31 41 0
30 41 3
34 45 0
32 44 1
29 41 2
23 32 0
32 43 0
28 40 1
31 43 1
40 53 1
43 57 1
41 56 0
52 69 0
56 74 0
64 83 0
69 90 0
69 89 0
64 83 4
90 115 8
113 147 0
115 148 0
116 150 0
118 152 0
112 145 0
117 151 0
115 148 0
114 148 0
113 145 0
115 149 0
113 146 0
115 148 0
106 137 2
13 29 33
9 22 27
10 27 34
10 25 38
10 27 40
11 28 45
11 28 43
10 27 32
10 25 30
11 28 40
11 28 38
11 29 40
12 31 51
11 29 39
11 29 40
11 28 40
12 31 48
12 31 48
11 29 44
12 31 47
12 30 36
12 30 47
12 31 58
12 29 48
12 29 50
12 32 52
12 31 48
12 31 47
12 31 54
13 32 53
13 32 57
13 32 55
13 32 53
13 32 55
12 30 38
13 33 48
12 31 51
13 32 57
13 33 52
12 31 52
11 28 43
11 29 46
13 32 58
13 32 57
13 32 55
12 31 56
11 29 48
11 30 35
12 30 48
12 31 56
13 32 51
13 33 56
12 31 51
12 29 41
11 29 38
12 31 56
12 30 43
12 30 44
12 30 46
12 31 52
12 30 51
13 32 54
12 29 51
12 31 53
12 31 52
12 31 52
11 29 52
11 28 48
12 30 49
12 30 49
11 27 40
12 30 44
12 30 44
11 29 39
12 30 51
11 28 46
11 28 37
11 28 49
11 27 35
10 26 39
11 27 41
10 26 41
11 28 38
10 24 35
10 24 30
9 23 26
10 24 25
8 19 18
9 21 14
15 29 22
97 125 3
112 145 0
110 143 0
111 144 0
110 142 0
114 146 0
114 146 0
111 143 0
113 144 0
113 144 0
110 142 0
115 147 0
117 150 0
62 71 2
24 22 3
18 17 1
28 26 3
26 25 0
26 25 0
23 21 0
21 19 0
26 24 1
20 21 0
24 24 0
25 24 1
24 24 0
25 25 0
25 25 1
36 35 2
34 33 2
43 41 1
37 35 2
26 25 1
37 35 3
42 40 4
42 40 3
38 38 4
48 45 5
46 43 2
56 52 4
47 46 4
41 40 2
52 50 3
53 51 3
57 55 3
48 46 3
48 46 6
70 64 6
57 55 2
64 60 4
64 60 8
70 65 8
62 59 5
72 67 7
59 55 5
65 61 5
82 76 8
77 72 9
64 60 5
79 74 10
80 75 10
70 65 6
76 71 8
69 66 5
79 74 9
75 71 5
71 67 7
83 79 10
81 75 9
76 72 9
87 80 11
77 72 9
87 81 10
86 79 12
81 75 10
87 80 9
89 84 8
86 80 7
88 82 10
92 84 15
85 77 12
80 76 7
90 83 9
85 79 13
91 84 12
89 82 14
81 75 8
87 80 11
86 80 11
89 82 12
92 85 14
89 82 8
96 88 12
91 83 11
90 83 11
96 88 14
89 82 13
95 88 12
88 82 10
86 80 10
91 82 12
88 82 10
93 85 15
85 78 7
92 85 13
95 88 14
96 88 13
87 80 12
97 89 12
93 85 13
85 79 11
96 89 16
90 82 17
93 85 12
86 80 12
90 81 13
94 87 12
90 84 13
90 82 12
86 78 13
88 81 9
90 83 11
92 84 12
98 89 17
87 79 11
85 77 12
91 83 12
82 76 8
81 75 14
96 89 15
96 88 17
88 82 13
87 80 14
90 83 14
97 89 16
78 72 11
88 81 14
83 78 12
83 78 12
85 78 12
89 80 15
86 78 17
77 71 12
86 78 15
89 82 12
82 75 14
85 79 14
83 76 14
88 81 14
85 78 14
84 77 14
86 79 15
78 72 13
80 73 10
81 74 15
94 121 0
94 121 0
92 120 0
93 120 0
96 122 0
93 119 0
92 119 0
93 119 0
88 115 0
93 119 0
94 120 0
91 118 0
89 115 0
91 117 0
92 118 0
92 118 0
93 119 0
91 117 0
91 119 0
91 118 0
91 117 0
90 116 0
92 119 0
94 120 0
89 116 0
92 118 0
90 116 0
90 117 0
91 117 0
91 116 0
89 115 0
88 113 0
87 112 0
88 114 0
90 117 0
90 116 0
87 114 0
89 115 0
88 115 0
87 112 0
89 115 0
91 116 0
88 114 0
85 111 0
86 113 0
90 117 0
85 110 0
90 117 0
87 113 0
86 113 0
87 113 0
87 114 0
87 112 0
86 111 0
90 116 0
87 111 0
82 107 0
85 111 0
87 113 0
84 109 0
87 113 0
89 114 0
86 112 0
86 112 0
86 111 0
86 111 0
81 106 0
87 112 0
84 110 0
89 115 0
82 106 0
81 107 0
80 104 0
78 103 0
81 105 0
79 102 0
78 102 0
85 111 0
78 101 0
79 103 0
81 105 0
78 101 0
82 107 0
79 102 0
75 99 0
79 102 0
80 103 0
75 99 0
78 101 0
77 100 0
74 98 0
80 104 0
74 96 0
75 99 0
70 94 0
65 85 0
73 95 0
63 84 0
73 95 0
68 89 0
71 94 0
69 91 0
73 96 0
63 83 0
65 85 0
60 79 0
62 82 0
63 83 0
60 79 0
54 72 0
60 80 0
49 65 0
56 74 0
51 67 0
47 62 0
46 61 0
48 64 0
53 70 0
45 59 0
39 54 0
43 58 0
39 52 0
34 46 0
37 50 2
38 50 1
34 45 0
37 49 0
27 37 2
32 42 1
31 43 0
31 43 0
34 47 0
33 45 0
41 57 0
44 60 0
50 66 0
56 75 0
62 81 0
72 92 0
64 84 0
62 80 8
110 143 2
114 147 0
114 148 0
111 144 0
112 145 0
108 141 0
113 147 0
108 141 0
110 143 0
113 146 0
114 148 0
112 145 0
106 139 0
113 147 0
51 73 6
8 20 19
9 24 25
10 26 36
11 28 41
11 28 39
11 28 33
11 27 42
12 31 51
12 30 45
12 31 51
12 30 42
11 29 38
12 31 50
12 30 41
11 29 46
11 28 41
12 30 48
12 30 46
11 29 44
11 29 38
12 30 38
11 29 35
12 31 50
13 32 51
12 31 49
11 28 43
13 32 49
12 30 45
12 30 42
12 31 48
13 33 53
12 30 50
12 31 47
12 31 48
11 28 37
12 31 48
12 31 52
12 31 44
12 30 55
12 32 49
12 30 44
12 31 55
13 33 54
13 32 58
13 32 53
12 32 52
13 32 52
12 32 52
12 30 42
12 29 44
12 30 47
11 29 44
13 32 56
11 28 38
11 29 39
12 31 51
12 31 51
12 31 38
13 31 45
12 30 49
12 30 52
12 31 43
13 32 47
11 29 44
12 30 49
11 29 37
12 31 49
11 28 37
12 30 46
12 30 52
12 30 47
12 29 43
11 29 49
11 27 39
11 28 45
10 26 36
11 26 42
10 26 38
10 27 28
11 26 31
11 27 39
10 25 35
11 28 40
11 27 34
10 24 19
9 23 27
10 24 25
9 21 23
54 74 8
111 143 0
111 143 0
115 148 0
113 145 0
113 146 0
114 146 0
110 144 0
113 145 0
109 140 0
115 148 0
118 151 0
106 137 0
112 145 0
106 136 0
43 47 1
31 29 2
30 28 2
22 22 0
19 19 0
16 16 0
20 19 1
22 22 0
26 26 0
26 25 0
27 26 0
29 28 0
34 32 0
32 31 1
38 36 1
29 28 0
28 28 1
43 42 2
35 34 2
35 36 0
42 40 0
46 44 2
34 34 3
41 39 2
42 40 2
57 51 5
45 42 1
43 40 3
49 47 5
52 50 3
52 50 4
67 63 2
64 60 6
53 50 4
69 65 7
66 62 6
57 53 4
61 58 5
70 65 6
70 66 8
73 70 7
66 62 4
58 54 4
66 64 4
71 67 6
70 65 7
71 67 5
77 72 8
75 69 9
89 83 12
79 74 7
76 71 7
85 78 12
86 79 10
68 63 5
83 77 10
79 73 6
92 84 11
81 75 9
76 70 8
91 83 13
84 79 9
77 71 9
78 72 6
80 74 6
77 74 6
85 77 8
88 81 9
82 77 8
87 80 10
89 83 10
84 79 9
75 70 8
89 84 9
87 82 9
93 85 12
90 81 12
87 80 12
86 79 12
94 86 13
81 76 8
87 79 9
88 82 11
94 86 11
92 84 14
87 81 9
97 89 15
85 79 9
96 87 14
89 82 13
93 86 14
94 87 12
88 81 9
77 73 8
89 82 13
91 84 11
88 81 10
91 83 13
95 87 15
96 89 14
83 77 8
85 77 12
82 76 11
92 84 12
85 79 12
90 82 12
97 87 16
97 88 14
97 89 15
90 82 13
95 87 12
82 76 9
89 82 14
98 91 16
88 81 10
97 90 18
87 80 11
85 77 12
84 77 12
95 88 17
94 87 15
83 77 14
91 83 14
92 83 16
91 84 13
76 68 11
86 80 12
97 89 17
81 75 12
90 83 10
80 74 8
84 78 13
83 77 13
80 74 10
93 87 14
91 83 17
89 81 16
87 81 12
80 74 13
84 77 14
84 77 15
91 118 0
91 119 0
92 118 0
94 120 0
91 118 0
93 120 0
94 121 0
93 119 0
90 116 0
93 119 0
92 118 0
93 120 0
92 118 0
91 118 0
94 120 0
90 117 0
90 117 0
89 117 0
93 120 0
90 117 0
90 116 0
92 119 0
91 118 0
91 117 0
91 118 0
92 118 0
92 118 0
91 118 0
90 116 0
90 116 0
88 114 0
89 116 0
91 118 0
90 116 0
91 117 0
88 114 0
92 118 0
90 117 0
86 112 0
89 115 0
90 117 0
88 114 0
87 113 0
85 111 0
87 114 0
89 114 0
84 110 0
88 113 0
90 116 0
86 112 0
89 114 0
84 109 0
84 109 0
89 115 0
88 114 0
85 110 0
83 109 0
88 113 0
86 112 0
81 107 0
83 108 0
87 113 0
86 112 0
84 109 0
87 113 0
80 105 0
80 104 0
82 107 0
79 103 0
80 104 0
83 107 0
82 106 0
83 107 0
79 103 0
82 107 0
80 105 0
80 105 0
79 103 0
85 109 0
83 107 0
81 105 0
81 105 0
73 95 0
84 107 0
76 100 0
76 100 0
75 98 0
74 97 0
79 103 0
72 94 0
76 99 0
77 100 0
73 95 0
74 96 0
73 94 0
70 91 0
76 99 0
67 88 0
73 94 0
72 94 0
70 91 0
70 92 0
66 86 0
63 83 0
69 90 0
72 94 0
66 87 0
63 82 0
67 88 0
57 76 0
56 74 0
61 80 0
60 77 0
51 68 0
56 74 0
41 56 0
41 55 0
42 56 0
41 54 0
46 60 0
36 48 0
39 52 0
38 51 0
38 50 0
39 52 0
36 47 1
36 48 0
33 45 0
25 34 0
37 49 0
43 56 0
38 50 0
50 65 0
49 64 0
45 59 0
57 75 0
57 74 0
57 75 0
66 86 0
56 73 0
96 124 2
110 142 0
110 143 0
110 143 0
113 147 0
112 146 0
104 137 0
111 145 0
112 145 0
109 141 0
114 148 0
106 138 0
110 143 0
112 145 0
112 144 0
99 131 2
15 30 25
9 24 28
9 24 32
11 27 40
10 26 33
12 30 47
10 27 42
11 27 43
11 27 37
11 27 37
10 27 36
11 29 44
12 30 39
12 29 47
11 28 43
12 30 47
12 31 52
11 28 48
12 31 52
12 30 47
12 30 41
11 29 38
12 29 49
11 29 45
13 32 53
12 31 61
12 31 51
12 31 50
12 31 49
11 29 39
12 31 52
11 28 44
12 31 51
13 32 55
13 33 57
12 30 44
11 29 43
12 32 46
12 30 46
12 31 40
11 29 44
13 32 47
12 31 45
13 32 48
11 28 39
12 31 52
13 32 47
12 30 37
11 29 47
12 30 56
12 31 48
11 29 37
12 31 47
12 31 45
12 31 48
11 28 37
11 29 47
12 29 38
12 31 38
13 32 47
12 31 48
12 30 48
12 30 49
11 29 41
12 30 52
12 29 40
11 28 32
11 28 39
11 29 43
12 30 55
11 29 49
11 28 38
12 29 42
11 27 31
11 28 43
12 29 44
12 29 38
11 28 37
11 28 46
10 26 35
11 27 43
11 26 44
11 26 34
9 22 27
8 20 18
9 22 25
7 18 17
16 28 18
110 139 0
112 143 0
104 136 0
103 132 0
111 141 0
108 139 0
115 145 0
103 133 0
103 133 0
113 144 0
112 142 0
109 140 0
108 139 0
107 137 0
114 145 0
95 119 1
34 31 2
23 21 3
31 29 1
24 23 0
28 27 1
36 34 2
18 18 1
25 24 0
24 24 0
24 24 1
23 22 0
31 31 0
23 23 0
26 25 1
35 34 2
32 31 2
31 30 1
36 35 2
37 35 1
41 38 1
39 37 3
35 36 2
51 49 3
43 42 2
30 31 2
49 46 2
52 48 2
50 48 2
55 52 4
47 46 2
44 44 2
61 58 4
66 61 5
66 63 6
54 51 7
70 65 5
59 57 5
61 57 5
60 56 4
56 52 5
61 57 3
71 66 8
61 57 3
67 63 5
66 63 7
77 72 7
83 78 7
78 71 8
70 65 6
76 69 10
82 76 7
81 74 10
74 69 7
81 74 9
71 66 10
84 78 7
82 76 9
78 71 5
84 77 11
81 75 8
84 78 10
84 76 11
91 85 13
77 73 10
82 76 9
87 81 7
85 78 10
88 81 8
87 81 9
88 81 11
83 77 9
76 70 6
93 86 12
90 85 10
85 79 10
89 82 13
85 78 12
92 86 11
84 79 6
87 80 11
94 87 12
86 80 11
93 86 14
91 83 13
86 79 8
88 81 12
88 81 10
82 76 8
90 83 11
97 89 15
88 80 10
92 85 14
86 80 11
83 77 8
82 76 9
85 79 12
98 91 14
91 83 9
93 87 12
88 81 12
84 78 8
84 77 14
94 86 16
83 77 8
83 76 12
89 83 9
85 79 8
91 83 13
84 78 13
91 84 14
89 82 11
93 84 13
86 79 12
90 83 11
88 81 13
92 85 15
91 84 14
88 81 11
85 78 12
86 79 11
92 85 15
82 75 11
82 77 11
85 77 14
95 87 14
93 85 16
86 79 16
88 82 15
90 81 18
95 86 19
86 80 12
81 75 11
82 75 8
76 69 11
87 80 15
74 69 9
81 75 12
68 62 9
79 72 13
79 73 14
92 119 0
91 117 0
92 120 0
90 116 0
92 119 0
91 118 0
90 117 0
92 120 0
92 118 0
90 116 0
93 119 0
93 119 0
91 118 0
93 120 0
90 117 0
89 115 0
92 118 0
88 114 0
91 117 0
92 118 0
91 119 0
90 117 0
93 119 0
89 116 0
92 118 0
89 115 0
93 119 0
93 118 0
90 117 0
91 116 0
90 116 0
88 114 0
90 116 0
92 119 0
87 112 0
86 111 0
89 115 0
83 108 0
86 112 0
86 111 0
81 105 0
88 114 0
85 111 0
82 107 0
86 112 0
92 118 0
84 110 0
86 111 0
84 109 0
84 109 0
86 112 0
86 112 0
84 109 0
89 116 0
84 108 0
88 113 0
84 110 0
87 113 0
84 109 0
83 109 0
85 110 0
85 111 0
83 107 0
89 115 0
81 104 0
83 108 0
85 110 0
83 108 0
85 111 0
84 110 0
84 108 0
86 110 0
84 108 0
80 104 0
80 104 0
81 104 0
81 104 0
84 109 0
80 104 0
76 100 0
82 105 0
78 103 0
77 100 0
82 106 0
72 94 0
72 93 0
80 104 0
80 105 0
79 102 0
77 102 0
71 94 0
73 95 0
75 97 0
72 94 0
75 98 0
77 101 0
70 91 0
66 86 0
67 87 0
68 88 0
68 90 0
67 87 0
69 89 0
61 80 0
65 86 0
61 81 0
59 78 0
57 75 0
57 75 0
56 74 0
62 80 0
55 73 0
51 68 0
56 74 0
57 75 0
48 62 0
44 59 0
37 49 0
50 65 0
45 59 0
42 56 0
53 68 0
41 55 0
37 49 0
43 57 0
36 48 0
44 57 0
47 60 0
40 54 0
32 44 0
44 57 0
43 57 0
47 62 0
49 64 0
55 72 0
54 71 0
58 76 0
61 80 0
60 79 0
84 108 2
110 144 0
110 143 0
110 142 0
110 143 0
109 141 0
104 135 0
110 143 0
106 137 0
111 145 0
111 143 0
106 139 0
107 140 0
108 140 0
108 140 0
110 144 0
108 141 0
77 103 4
9 22 25
9 24 27
10 25 26
10 25 36
10 26 33
9 25 27
11 28 37
11 29 35
10 27 30
11 27 44
11 29 40
11 28 44
12 29 49
11 29 44
11 29 35
12 30 39
11 29 40
12 30 47
12 30 36
11 28 38
11 30 36
12 29 45
12 31 47
11 29 45
12 31 52
12 30 49
13 32 50
12 31 48
11 29 46
11 29 47
12 30 50
12 30 43
11 30 31
12 30 43
12 31 51
13 33 57
13 32 56
13 33 52
12 29 48
12 31 49
11 29 40
12 30 48
12 30 43
12 31 49
13 32 46
12 30 42
12 30 43
12 31 54
13 32 49
12 30 44
12 30 45
13 34 49
12 30 51
12 30 49
12 32 48
12 31 44
11 29 37
11 29 38
12 29 45
13 31 54
11 29 42
12 29 45
11 28 36
11 28 39
11 28 38
11 27 32
12 29 42
11 28 45
11 28 39
11 28 30
12 29 47
11 27 31
10 26 36
11 28 42
12 29 46
11 27 30
10 25 37
12 29 41
11 27 41
10 25 35
11 26 28
10 24 38
9 22 25
9 22 21
8 20 16
8 19 20
84 110 7
105 135 0
105 134 0
107 138 0
109 139 0
115 149 0
111 143 0
106 134 0
109 139 0
111 143 0
105 134 0
109 140 0
106 135 0
113 145 0
108 139 0
112 143 0
109 139 0
62 73 2
39 35 3
32 29 2
30 28 0
27 26 2
23 22 0
28 26 0
26 25 1
27 26 1
29 28 1
22 21 0
25 25 0
30 29 0
29 28 0
30 28 1
33 32 0
41 38 2
40 39 2
38 36 2
38 36 0
45 42 1
42 42 1
33 33 2
38 37 1
35 33 1
44 42 2
40 38 2
49 47 2
56 54 3
55 51 2
58 54 4
53 50 3
55 53 4
58 54 6
64 59 7
65 61 3
63 57 6
52 49 4
71 65 9
68 63 3
65 60 6
62 58 5
70 66 4
71 67 5
68 63 3
73 67 6
76 69 5
66 62 5
71 68 5
71 66 8
65 62 2
68 65 5
77 72 6
79 74 8
78 73 8
76 69 8
71 67 4
78 71 6
87 81 9
85 79 11
83 76 7
82 76 9
89 81 13
88 80 7
90 82 9
72 67 7
78 72 7
86 79 9
88 80 9
86 77 10
88 81 11
74 68 8
88 81 7
92 84 10
84 79 6
84 78 8
96 88 15
82 75 7
88 81 10
87 81 7
85 79 10
81 75 8
85 79 11
92 85 12
83 75 9
90 81 10
90 83 9
92 85 11
81 75 9
90 83 12
90 84 9
86 80 9
95 87 11
89 83 10
85 78 11
84 76 11
83 76 7
91 83 12
81 74 10
84 79 10
91 85 12
90 82 14
89 83 9
86 79 10
85 79 8
88 82 11
89 82 12
94 87 16
87 81 10
84 78 14
90 83 13
89 81 14
92 84 13
96 87 14
77 71 10
95 86 13
78 72 7
94 87 11
78 71 10
76 70 11
97 87 15
84 77 10
85 78 14
80 75 10
81 75 12
84 77 13
91 83 17
77 72 8
91 84 14
92 85 13
75 70 9
69 63 12
77 71 11
78 72 12
83 76 12
86 79 16
79 73 12
83 76 13
82 75 12
81 74 12
91 118 0
93 120 0
92 118 0
94 120 0
91 118 0
90 117 0
95 121 0
88 115 0
94 121 0
91 119 0
89 116 0
92 118 0
90 117 0
90 117 0
91 118 0
94 120 0
91 117 0
90 116 0
90 117 0
87 114 0
90 117 0
87 114 0
87 113 0
89 115 0
91 118 0
90 116 0
94 120 0
89 115 0
89 114 0
88 114 0
91 118 0
89 116 0
90 117 0
92 118 0
87 112 0
86 112 0
87 112 0
89 115 0
90 116 0
89 114 0
86 113 0
86 112 0
90 115 0
87 113 0
88 114 0
88 114 0
89 115 0
86 110 0
85 110 0
88 113 0
88 113 0
80 105 0
88 114 0
85 110 0
88 115 0
82 107 0
87 113 0
86 112 0
85 110 0
82 106 0
86 111 0
89 116 0
86 111 0
81 104 0
85 110 0
82 107 0
82 107 0
83 108 0
85 110 0
82 107 0
83 108 0
84 108 0
81 105 0
82 106 0
79 102 0
77 101 0
77 101 0
78 102 0
84 108 0
76 98 0
77 100 0
81 105 0
77 100 0
82 106 0
75 99 0
74 98 0
78 102 0
76 99 0
76 99 0
72 94 0
68 91 0
78 101 0
72 94 0
66 87 0
71 92 0
68 89 0
63 84 0
72 93 0
71 92 0
65 85 0
72 95 0
70 91 0
69 90 0
60 80 0
62 82 0
62 81 0
65 85 0
59 77 0
63 83 0
58 77 0
56 74 0
55 73 0
52 70 0
57 75 0
47 63 0
55 71 0
54 70 0
54 70 0
49 64 0
42 56 0
42 56 0
44 59 0
36 48 0
35 48 0
39 51 0
46 60 0
46 60 0
39 52 0
44 59 0
42 54 0
42 55 0
49 65 0
52 68 0
42 57 0
55 73 0
51 68 0
69 89 0
55 72 0
62 81 0
106 137 0
106 138 0
112 144 0
111 144 0
112 146 0
109 143 0
111 143 0
111 144 0
106 137 0
103 134 0
111 142 0
111 145 0
111 143 0
106 136 0
105 137 0
106 137 0
101 133 0
106 140 0
54 77 17
8 21 19
9 23 22
9 23 20
12 30 41
9 22 20
10 26 34
10 26 34
9 25 21
10 27 35
11 28 39
10 27 45
11 28 39
12 31 47
10 26 34
11 29 30
11 28 41
11 29 39
10 27 40
12 31 46
12 29 46
11 29 39
11 28 43
12 31 49
12 30 43
11 29 43
12 30 41
10 26 33
12 31 61
12 30 41
12 31 48
12 30 46
12 31 43
13 33 57
11 29 39
11 29 36
11 28 48
12 30 38
12 30 48
11 29 39
12 30 43
12 31 49
12 30 44
10 27 34
11 29 38
12 30 51
12 30 48
13 33 52
11 29 43
12 31 47
12 30 42
12 29 41
12 31 47
12 30 37
12 30 46
11 29 46
11 28 40
12 30 34
11 28 37
11 28 38
12 30 45
12 29 43
11 29 43
12 29 54
12 30 43
12 29 44
12 29 42
11 28 48
12 29 43
12 30 49
12 30 49
12 30 44
12 29 49
11 27 35
10 26 38
10 26 32
11 27 32
10 26 35
10 25 31
10 25 37
10 24 29
9 23 28
9 22 25
9 22 26
9 23 33
46 65 9
107 138 0
104 134 0
100 126 0
106 135 0
104 133 0
103 130 0
112 144 0
105 136 0
106 134 0
107 136 0
105 133 0
112 142 0
105 134 0
111 143 0
111 143 0
109 140 0
110 139 0
110 138 0
56 63 2
26 24 1
27 25 2
23 20 0
37 34 3
28 27 2
33 31 2
21 20 0
26 25 1
27 27 0
21 21 0
21 20 0
33 32 1
26 26 0
23 23 0
33 31 2
40 39 2
43 42 1
35 35 2
42 40 2
32 30 0
44 43 2
37 36 1
42 39 4
43 41 1
43 41 2
52 50 3
46 44 2
55 51 3
55 52 3
51 49 1
47 45 3
52 50 4
60 56 3
63 59 5
63 59 6
67 61 7
59 56 4
65 61 5
67 63 7
62 56 3
71 66 6
62 58 5
74 69 7
76 69 8
74 69 5
70 65 7
71 65 6
69 65 4
78 72 6
76 71 7
74 69 6
80 74 6
73 68 6
82 74 9
72 67 5
76 72 6
83 75 9
80 75 7
81 74 8
77 70 8
75 70 6
73 69 6
85 78 11
76 71 5
84 79 8
74 69 5
76 71 5
87 80 11
82 76 8
89 82 11
84 78 8
88 81 8
82 77 9
89 81 11
84 78 7
86 80 9
85 78 9
87 80 9
81 74 9
90 82 10
88 83 8
81 75 8
90 83 9
81 76 10
85 78 12
89 81 10
86 80 10
88 81 12
91 84 12
89 81 12
86 80 8
91 85 10
90 83 13
85 78 12
90 82 14
84 78 10
85 78 9
84 78 10
93 86 14
80 73 8
83 76 7
81 74 8
84 78 11
88 81 12
93 86 14
82 76 9
76 71 8
96 87 11
85 78 11
86 79 12
88 80 13
81 75 11
85 79 11
74 69 8
77 71 7
85 79 12
79 73 11
87 80 12
83 76 12
81 74 11
85 78 11
82 75 12
95 87 15
76 71 10
83 75 14
84 77 13
81 73 14
84 78 9
82 74 13
87 79 16
90 81 16
77 72 10
87 80 11
89 82 14
81 74 12
91 82 14
84 77 10
79 72 13
91 117 0
93 119 0
90 117 0
93 120 0
91 116 0
90 117 0
93 120 0
90 116 0
90 117 0
90 116 0
90 117 0
91 118 0
90 117 0
90 117 0
90 115 0
86 111 0
90 117 0
92 119 0
91 118 0
90 117 0
91 118 0
92 117 0
91 117 0
89 115 0
86 111 0
92 119 0
90 117 0
89 115 0
88 113 0
89 117 0
86 111 0
91 117 0
87 113 0
84 108 0
88 113 0
88 115 0
89 114 0
85 111 0
87 111 0
88 114 0
88 114 0
84 110 0
84 109 0
86 111 0
88 113 0
86 112 0
88 112 0
87 112 0
90 116 0
87 111 0
85 110 0
86 112 0
86 111 0
88 114 0
83 108 0
85 110 0
83 107 0
83 108 0
81 106 0
85 111 0
84 109 0
82 107 0
85 110 0
85 110 0
82 107 0
80 104 0
77 102 0
84 108 0
80 104 0
85 109 0
81 106 0
81 106 0
82 106 0
83 108 0
77 101 0
83 107 0
81 105 0
79 103 0
68 91 0
80 103 0
80 103 0
76 98 0
80 103 0
77 99 0
72 92 0
74 96 0
74 97 0
78 102 0
73 97 0
77 100 0
68 89 0
78 101 0
73 95 0
79 102 0
68 90 0
66 86 0
65 87 0
71 92 0
70 91 0
62 81 0
65 86 0
64 84 0
61 82 0
62 80 0
63 84 0
55 73 0
56 74 0
57 75 0
66 87 0
56 73 0
57 75 0
48 63 0
55 74 0
58 77 0
50 66 0
47 62 0
51 67 0
39 54 0
52 68 0
46 61 0
45 59 0
47 61 0
49 64 0
44 57 0
42 54 0
38 50 0
40 55 0
50 66 0
41 55 0
42 55 0
42 55 0
46 62 0
51 67 0
54 71 0
59 79 0
64 83 0
55 71 0
62 79 2
109 139 0
109 142 0
105 136 0
111 145 0
111 144 0
109 141 0
105 138 0
106 138 0
114 146 0
106 138 0
100 131 0
106 138 0
107 140 0
107 138 0
102 134 0
99 130 0
108 141 0
105 138 0
103 133 0
100 132 2
17 31 12
8 22 21
9 24 32
9 24 29
10 25 37
10 26 29
10 26 27
10 27 30
10 26 35
10 27 29
11 28 43
11 28 35
11 27 35
11 27 45
11 29 45
11 29 47
11 29 39
11 28 41
12 29 47
12 31 46
12 31 47
11 28 38
12 30 38
11 29 40
12 31 47
12 30 42
12 31 49
11 29 48
11 29 44
12 32 50
11 29 39
12 30 46
12 29 44
12 30 46
11 29 40
12 31 46
11 28 42
12 30 45
12 30 37
12 30 48
12 29 47
12 30 43
12 30 42
11 29 35
12 31 43
12 32 46
12 30 42
12 30 47
13 32 46
12 30 39
12 30 40
12 31 51
12 30 46
12 30 44
12 31 52
12 31 54
12 29 48
11 28 43
12 29 49
11 28 36
10 26 37
11 28 44
11 27 34
13 31 54
12 30 47
12 31 48
11 27 42
11 28 44
10 27 37
10 25 33
11 27 34
11 28 42
12 29 39
11 27 35
10 25 39
10 26 33
11 26 35
9 23 29
10 25 25
11 26 32
10 25 35
9 23 25
8 21 19
17 29 12
94 120 0
105 134 0
96 123 0
101 130 0
98 126 0
100 128 0
97 125 0
96 122 0
105 135 0
104 133 0
100 128 0
102 128 0
102 131 0
105 134 0
104 132 0
107 139 0
104 133 0
107 134 0
104 134 0
97 122 0
40 38 5
38 35 2
34 32 1
28 26 1
29 26 0
19 19 0
26 24 1
27 25 1
22 21 1
28 27 1
28 27 0
34 32 0
28 28 0
21 21 2
32 31 2
31 31 0
30 28 0
39 37 2
29 29 1
36 34 3
37 35 1
46 43 2
35 34 0
46 45 1
48 45 2
43 41 3
49 46 4
50 47 1
51 48 2
54 51 3
52 50 4
53 50 4
63 60 5
52 49 3
49 46 2
59 56 3
59 55 4
60 56 4
69 64 6
55 52 3
71 67 3
63 59 5
61 56 4
65 62 5
69 65 5
63 58 5
72 67 6
71 66 6
69 62 8
67 63 3
82 75 7
80 75 9
71 67 7
80 76 5
83 76 7
80 73 9
71 64 7
83 77 6
78 73 8
76 69 8
83 75 11
78 73 8
85 79 9
84 77 7
78 71 6
84 76 11
85 78 9
84 77 8
84 78 9
80 74 8
87 81 8
84 76 10
82 75 8
83 77 7
88 82 9
80 74 7
87 81 11
78 73 5
74 69 6
87 79 9
98 89 8
91 84 7
83 77 10
81 76 4
86 79 8
82 75 8
83 77 9
88 81 10
91 84 10
78 73 8
81 75 9
87 79 12
86 78 11
90 84 10
85 77 9
90 83 10
85 78 12
86 77 8
91 84 12
96 87 14
85 78 12
91 84 14
85 79 9
82 75 11
85 79 8
80 73 10
88 81 12
85 78 14
90 82 13
89 82 14
82 76 12
85 79 7
82 76 9
86 79 9
86 78 12
85 79 9
83 78 9
85 79 9
88 80 10
84 78 12
76 70 10
76 70 10
86 79 12
80 72 13
88 80 15
83 78 13
84 78 11
76 70 10
84 76 13
78 72 9
82 75 10
76 71 10
86 79 13
76 71 9
80 73 11
87 78 9
81 74 11
82 76 14
95 121 0
91 117 0
92 119 0
90 117 0
93 120 0
89 115 0
91 117 0
92 118 0
92 119 0
91 118 0
89 116 0
91 118 0
90 116 0
90 116 0
89 116 0
90 116 0
90 117 0
91 116 0
94 119 0
90 117 0
88 116 0
91 117 0
93 120 0
90 116 0
88 114 0
89 115 0
89 116 0
90 116 0
89 114 0
88 113 0
88 114 0
82 107 0
86 112 0
86 112 0
92 118 0
90 116 0
90 115 0
87 113 0
86 112 0
83 109 0
89 115 0
86 112 0
85 111 0
87 112 0
86 110 0
85 109 0
85 111 0
82 107 0
89 115 0
85 110 0
85 110 0
81 105 0
83 108 0
84 109 0
84 108 0
87 112 0
86 110 0
85 110 0
81 105 0
81 106 0
86 111 0
81 106 0
83 107 0
85 112 0
78 102 0
76 100 0
76 100 0
81 104 0
85 111 0
81 105 0
79 102 0
83 107 0
88 113 0
82 104 0
79 103 0
81 104 0
80 103 0
75 97 0
81 105 0
77 99 0
76 99 0
75 98 0
82 106 0
73 95 0
77 100 0
76 99 0
73 95 0
70 94 0
72 95 0
77 100 0
72 94 0
75 99 0
72 95 0
67 87 0
76 100 0
70 92 0
65 85 0
69 89 0
75 96 0
73 96 0
65 88 0
68 91 0
65 85 0
61 80 0
63 82 0
62 81 0
63 82 0
53 69 0
56 73 0
63 82 0
48 63 0
63 82 0
50 66 0
55 74 0
55 72 0
54 69 0
53 69 0
52 69 0
48 62 0
47 63 0
46 60 0
47 61 0
50 65 0
47 62 0
47 60 0
48 64 0
42 55 0
30 42 0
36 48 0
51 66 0
45 59 0
34 46 0
55 72 0
52 69 0
52 68 0
53 69 0
51 67 0
104 134 0
109 142 0
110 142 0
108 140 0
100 130 0
109 139 0
102 134 0
102 133 0
109 141 0
102 133 0
109 142 0
99 131 0
104 135 0
100 130 0
103 135 0
103 134 0
104 136 0
100 131 0
112 145 0
98 129 0
100 130 0
84 111 3
11 25 13
9 24 20
9 24 35
10 26 37
9 25 30
10 27 31
10 27 34
10 27 37
10 27 33
11 29 35
11 28 40
10 25 28
11 29 45
12 30 34
10 27 35
11 28 40
12 30 39
11 29 46
11 28 31
11 28 35
11 28 38
12 30 51
11 28 39
11 29 39
11 29 36
12 31 47
11 27 33
10 27 28
11 29 47
11 28 40
12 30 44
12 29 51
12 31 41
11 28 38
11 29 43
11 29 38
12 29 39
12 31 38
12 30 39
12 31 46
12 31 52
12 30 49
11 29 42
11 29 46
12 30 49
11 27 33
12 30 48
11 28 37
12 30 41
12 30 51
12 29 52
11 29 42
12 30 42
11 28 37
11 28 38
11 28 41
12 31 48
11 28 39
10 27 30
11 29 39
11 27 28
11 27 43
11 28 29
10 26 37
10 25 24
10 25 46
12 30 45
10 27 29
11 28 37
11 28 39
11 27 34
10 25 33
10 26 30
10 25 28
9 23 28
10 24 23
9 23 26
9 23 27
9 23 25
9 23 20
9 21 22
9 20 12
76 100 1
105 134 0
102 131 0
105 135 0
99 127 0
100 127 0
96 122 0
105 135 0
100 128 0
102 130 0
104 131 0
101 128 0
105 134 0
99 126 0
98 125 0
109 136 0
98 126 0
101 127 0
102 131 0
107 136 0
107 137 0
94 115 2
31 29 2
47 44 5
28 26 1
32 29 1
27 24 1
31 29 2
22 20 0
23 21 0
23 22 0
26 25 0
25 24 1
27 25 1
28 26 0
35 33 0
34 33 0
31 30 1
35 33 2
35 33 0
44 42 0
46 41 2
43 41 1
38 36 2
49 45 2
42 39 1
46 44 1
46 45 1
43 41 2
52 50 4
52 49 4
58 53 4
56 51 3
47 44 1
62 57 4
57 53 3
60 54 5
53 50 3
62 58 3
48 45 3
59 54 4
63 58 7
72 66 5
69 64 6
67 64 3
70 65 5
71 66 6
68 64 4
70 65 5
70 63 6
73 67 7
75 69 5
71 66 6
76 71 5
79 74 5
72 67 3
78 72 7
76 71 3
71 67 3
76 70 8
77 71 7
82 75 7
78 73 7
82 76 7
77 72 7
85 78 10
71 66 6
84 78 10
76 72 5
82 76 8
75 69 8
76 71 7
81 76 6
87 81 9
73 68 5
87 81 11
83 75 9
76 71 6
82 76 8
86 79 9
81 74 9
85 78 9
86 77 7
83 77 8
84 77 7
80 75 5
80 75 8
79 73 6
82 75 9
87 79 10
81 74 11
82 75 9
83 76 6
83 76 8
90 80 14
79 72 5
78 74 8
75 69 9
93 84 11
80 73 9
83 77 12
79 73 10
91 82 9
83 77 8
90 82 10
87 80 10
74 69 10
85 79 12
79 72 9
92 85 14
88 80 11
84 77 13
87 80 15
84 74 11
80 73 9
78 70 11
81 75 10
78 72 10
91 84 13
78 72 10
83 76 10
86 79 14
85 78 12
87 79 11
85 77 13
79 74 11
82 75 11
86 79 11
92 85 15
91 82 16
81 75 11
79 73 12
84 78 11
76 70 11
73 68 9
75 70 8
89 81 13
76 70 12
73 68 10
89 116 0
92 120 0
92 119 0
94 120 0
93 118 0
90 116 0
89 116 0
90 116 0
91 117 0
90 115 0
91 118 0
92 118 0
91 117 0
92 118 0
92 118 0
91 117 0
90 115 0
91 118 0
90 116 0
90 117 0
89 115 0
89 115 0
88 114 0
93 120 0
92 118 0
87 111 0
92 117 0
90 117 0
89 116 0
89 115 0
85 110 0
82 107 0
88 113 0
89 115 0
89 113 0
89 114 0
87 113 0
86 111 0
87 111 0
87 114 0
89 116 0
86 111 0
89 115 0
85 110 0
86 109 0
88 114 0
85 111 0
92 119 0
87 113 0
85 111 0
85 110 0
82 106 0
84 108 0
85 110 0
90 115 0
89 115 0
84 107 0
86 111 0
88 114 0
79 103 0
83 108 0
77 100 0
82 106 0
83 107 0
79 103 0
81 104 0
80 103 0
83 108 0
80 104 0
84 107 0
76 100 0
81 104 0
78 101 0
80 102 0
81 103 0
81 106 0
80 103 0
78 102 0
79 102 0
80 104 0
73 95 0
77 100 0
72 95 0
76 99 0
72 94 0
76 99 0
72 94 0
70 93 0
72 94 0
79 102 0
78 102 0
69 90 0
71 93 0
74 96 0
75 98 0
67 88 0
65 85 0
72 94 0
66 85 0
64 84 0
65 84 0
63 83 0
57 75 0
63 84 0
62 82 0
58 77 0
63 82 0
58 76 0
56 72 0
55 71 0
60 78 0
58 75 0
53 69 0
56 74 0
52 68 0
48 64 0
52 68 0
54 70 0
46 61 0
39 53 0
49 64 0
43 57 0
45 59 0
48 64 0
43 57 0
37 49 0
51 66 0
38 50 0
54 69 0
46 60 0
57 75 0
56 72 0
59 76 0
51 66 0
66 84 0
44 56 0
76 98 0
108 140 0
100 130 0
103 136 0
106 138 0
109 140 0
103 133 0
107 137 0
103 133 0
102 132 0
105 136 0
99 129 0
105 137 0
94 124 0
101 133 0
95 125 0
99 128 0
105 137 0
100 131 0
99 129 0
97 128 0
92 122 0
97 128 0
67 91 5
9 23 24
10 26 28
8 21 21
9 24 27
10 27 35
10 27 34
10 27 29
10 25 28
10 26 39
11 29 45
11 28 39
10 26 34
11 28 44
11 28 39
10 27 25
11 28 39
10 26 30
11 29 46
10 26 35
11 28 39
11 30 38
10 27 33
11 29 39
11 28 29
12 30 38
10 27 26
11 28 47
11 28 35
12 31 38
11 29 37
12 31 58
11 28 33
12 30 45
11 28 43
12 30 40
12 31 49
11 29 40
11 28 39
11 28 33
12 30 47
11 29 47
12 30 47
11 29 37
11 28 39
12 31 44
11 27 42
11 28 34
11 28 30
11 28 48
12 30 51
12 30 48
12 30 48
11 27 43
11 28 33
12 30 46
12 30 38
10 26 29
11 28 30
11 28 28
11 28 38
11 27 27
11 28 34
12 30 40
11 27 31
11 29 40
11 28 39
11 27 30
11 28 35
10 26 29
12 30 45
10 25 27
9 24 18
10 25 28
10 24 25
10 26 36
9 23 28
9 22 27
9 22 19
9 21 20
9 22 23
51 69 13
90 116 0
99 126 0
101 129 0
103 133 0
96 123 0
100 129 0
98 125 0
102 130 0
94 118 0
97 124 0
95 121 0
97 125 0
97 124 0
103 130 0
100 126 0
101 126 0
97 121 0
107 135 0
102 124 0
96 121 0
95 123 0
103 132 0
74 92 0
29 27 2
28 26 1
27 25 1
27 24 0
28 25 0
17 16 0
26 24 0
36 33 1
31 27 0
37 34 0
23 22 1
35 33 1
34 33 0
29 28 0
37 35 1
32 29 0
39 36 0
34 33 0
44 39 1
37 35 0
34 31 0
42 40 1
46 45 1
45 43 2
34 33 1
45 43 0
48 45 1
50 48 3
50 48 2
57 55 1
45 43 2
60 57 3
60 56 3
56 53 2
62 57 3
61 56 4
56 53 4
58 54 4
61 57 3
66 63 2
67 62 2
65 60 4
65 60 5
67 61 7
67 62 5
77 71 5
73 67 6
70 65 7
75 69 6
69 62 6
79 74 5
59 56 4
73 68 5
68 63 6
70 64 4
75 69 7
67 62 5
81 74 8
76 70 6
77 73 5
82 77 7
86 79 9
79 73 5
79 74 5
73 69 5
86 79 8
80 74 8
88 82 9
90 81 11
81 75 8
84 77 8
78 72 6
79 74 6
87 80 9
90 83 9
89 82 10
89 82 8
84 77 8
82 76 8
86 80 9
86 79 9
90 84 9
84 77 7
85 77 10
82 75 7
89 82 9
90 82 10
85 77 10
87 78 9
96 87 13
90 82 9
78 72 6
86 80 5
96 88 11
82 76 11
89 82 11
81 75 10
79 73 8
82 74 7
95 87 15
84 77 8
75 70 7
82 76 8
79 72 9
84 77 9
87 80 12
76 71 9
84 77 10
82 76 11
82 76 10
84 77 11
84 77 10
83 76 11
83 76 12
84 75 13
78 73 10
83 75 11
84 77 10
88 80 11
85 78 11
82 76 11
69 63 7
75 70 10
75 69 11
82 76 9
80 74 11
85 77 11
84 78 11
84 76 13
79 73 12
81 75 12
89 81 15
81 76 10
69 63 8
83 76 13
75 69 10
91 118 0
92 119 0
93 118 0
93 119 0
90 116 0
92 118 0
91 116 0
91 117 0
92 117 0
92 118 0
88 115 0
90 116 0
91 118 0
90 116 0
90 116 0
92 117 0
91 117 0
89 115 0
90 118 0
87 114 0
89 115 0
88 115 0
90 115 0
89 115 0
88 114 0
89 114 0
90 117 0
84 110 0
87 113 0
86 111 0
88 114 0
84 109 0
88 113 0
90 116 0
84 108 0
89 115 0
90 117 0
86 110 0
87 111 0
90 116 0
84 109 0
85 110 0
84 110 0
88 113 0
89 115 0
88 114 0
81 104 0
90 117 0
88 113 0
87 111 0
89 116 0
83 108 0
88 113 0
83 107 0
85 109 0
85 110 0
83 108 0
85 109 0
81 105 0
82 105 0
84 109 0
85 110 0
85 109 0
79 102 0
84 109 0
75 98 0
83 107 0
80 103 0
78 101 0
76 99 0
85 109 0
84 108 0
82 107 0
88 113 0
85 111 0
74 96 0
83 107 0
81 105 0
78 101 0
74 96 0
75 99 0
80 102 0
79 102 0
75 98 0
77 100 0
80 102 0
75 98 0
74 96 0
70 92 0
78 100 0
76 98 0
69 91 0
68 88 0
63 82 0
70 91 0
66 86 0
64 84 0
72 93 0
70 90 0
66 86 0
74 94 0
64 84 0
64 83 0
56 75 0
60 77 0
67 88 0
65 85 0
58 77 0
61 78 0
58 76 0
61 79 0
50 66 0
62 80 0
53 69 0
56 73 0
52 68 0
56 73 0
49 64 0
55 72 0
49 64 0
46 61 0
38 51 0
47 61 0
46 61 0
46 61 0
44 58 0
38 51 0
49 63 0
44 57 0
44 59 0
46 60 0
49 64 0
53 69 0
52 67 0
52 67 0
76 98 0
102 131 0
105 136 0
101 132 0
108 138 0
95 124 0
106 136 0
100 130 0
102 131 0
100 130 0
97 125 0
100 131 0
102 133 0
98 128 0
102 130 0
97 127 0
100 130 0
98 128 0
93 122 0
96 126 0
98 129 0
102 134 0
93 123 0
97 126 0
97 127 0
33 50 11
9 23 25
9 23 24
11 27 36
10 25 30
11 29 35
11 28 35
10 26 31
11 27 32
11 28 33
11 27 39
10 27 37
11 28 44
11 28 38
12 30 43
11 29 34
10 26 27
12 29 47
11 29 43
11 29 37
10 26 33
10 26 39
12 30 45
11 28 42
11 29 46
12 30 39
12 30 39
11 29 45
11 29 33
12 30 49
12 29 44
12 30 46
11 29 30
11 29 39
12 30 48
10 26 25
11 28 46
12 31 43
12 30 40
11 27 38
12 29 47
12 30 42
11 29 33
12 30 43
12 31 48
11 29 33
10 26 34
11 29 44
11 29 38
11 29 41
12 29 36
12 29 48
11 28 35
10 27 38
11 28 39
11 29 42
11 27 34
10 26 35
11 28 31
10 27 28
11 27 38
10 26 38
11 28 36
12 29 40
11 28 29
11 29 33
10 25 28
10 26 33
10 24 24
10 25 30
10 25 36
10 26 34
9 23 24
9 22 28
10 25 27
9 23 16
8 21 22
8 19 18
8 20 19
38 55 7
88 114 0
94 119 0
90 116 0
94 121 0
99 126 0
99 126 0
98 125 0
100 125 0
101 129 0
97 124 0
99 126 0
95 122 0
96 123 0
93 119 0
102 127 0
102 128 0
93 118 0
98 125 0
102 129 0
99 125 0
103 129 0
106 134 0
106 133 0
103 129 0
62 72 1
29 27 2
31 28 3
30 27 1
25 23 0
33 30 0
24 22 0
31 28 1
25 23 0
25 25 0
25 24 0
25 23 0
33 30 1
28 27 0
30 27 0
32 31 0
31 30 0
31 30 0
37 36 0
50 45 1
43 41 0
35 34 0
44 41 0
46 44 0
42 40 0
37 35 3
51 49 0
47 43 2
54 52 1
48 45 2
55 52 2
62 57 4
44 42 2
54 51 2
59 55 3
69 62 3
55 53 1
52 49 1
69 62 5
67 62 3
68 63 2
65 61 3
57 52 4
66 62 5
70 65 3
71 65 5
74 70 6
74 68 3
62 58 6
78 70 6
65 62 3
65 60 2
71 65 7
71 66 3
76 70 8
79 73 6
78 71 7
77 71 6
71 65 3
67 62 5
77 71 6
78 72 7
79 74 7
77 73 7
71 65 5
78 71 6
70 64 5
71 66 5
80 74 6
80 74 6
83 76 9
80 73 8
78 71 5
81 74 9
81 75 6
68 65 3
72 66 6
86 78 8
81 75 7
88 80 9
83 76 10
79 72 9
74 68 6
84 78 6
92 84 11
79 74 5
91 83 13
81 77 5
85 77 10
86 80 7
93 85 14
84 78 11
87 79 10
81 75 7
87 80 11
81 76 8
80 74 8
86 81 9
87 81 9
80 73 8
79 73 9
84 77 10
80 73 8
87 80 10
83 77 11
79 74 9
84 78 11
85 79 9
86 79 11
84 77 11
81 75 8
79 73 10
80 74 10
78 72 6
81 74 9
88 81 12
77 71 9
85 78 10
84 77 9
88 81 11
83 76 9
87 79 12
90 83 12
85 79 11
88 80 16
83 77 12
81 74 10
91 82 11
83 76 9
70 64 10
78 72 10
77 71 11
80 73 10
75 68 11
82 75 11
83 77 13
90 116 0
89 117 0
92 118 0
90 116 0
89 116 0
90 117 0
93 119 0
90 117 0
91 118 0
87 112 0
90 116 0
90 115 0
89 115 0
92 118 0
90 117 0
87 112 0
89 115 0
91 117 0
89 115 0
89 114 0
87 113 0
90 116 0
92 118 0
89 115 0
90 117 0
88 113 0
91 117 0
88 114 0
86 112 0
90 115 0
87 113 0
86 111 0
88 114 0
90 116 0
86 111 0
87 114 0
88 115 0
87 111 0
87 112 0
86 111 0
89 116 0
87 113 0
88 112 0
84 110 0
87 112 0
87 113 0
84 109 0
84 108 0
86 112 0
82 106 0
87 112 0
83 108 0
82 106 0
79 102 0
81 106 0
78 101 0
85 110 0
81 106 0
80 104 0
81 104 0
80 105 0
82 106 0
86 110 0
79 102 0
81 105 0
79 103 0
81 105 0
76 100 0
77 99 0
79 102 0
76 98 0
75 97 0
78 101 0
80 103 0
82 104 0
84 109 0
76 98 0
75 98 0
78 102 0
79 102 0
75 97 0
77 100 0
80 102 0
77 100 0
69 90 0
75 97 0
72 94 0
69 91 0
69 90 0
75 96 0
66 86 0
72 95 0
76 97 0
65 85 0
73 93 0
72 93 0
62 81 0
68 89 0
77 98 0
60 78 0
67 87 0
66 86 0
69 90 0
61 80 0
68 88 0
63 81 0
61 79 0
52 68 0
64 84 0
54 71 0
62 81 0
54 71 0
58 75 0
51 67 0
57 74 0
53 69 0
45 60 0
53 69 0
47 62 0
51 66 0
51 66 0
48 63 0
49 63 0
38 51 0
42 55 0
45 58 0
45 59 0
55 71 0
41 55 0
55 70 0
55 71 0
46 61 0
48 63 0
53 69 0
84 108 0
107 138 0
105 136 0
107 136 0
109 139 0
100 130 0
105 133 0
95 123 0
95 126 0
96 125 0
93 122 0
102 131 0
101 131 0
97 127 0
101 131 0
98 125 0
93 121 0
105 135 0
92 121 0
91 119 0
104 133 0
91 118 0
90 119 0
94 122 0
92 122 0
91 120 0
83 110 0
23 40 10
8 20 18
9 24 31
9 23 23
9 24 30
10 26 25
10 26 31
10 27 33
9 24 28
11 28 32
9 24 14
11 28 32
12 30 45
11 27 30
11 28 35
11 27 29
11 28 36
11 29 45
12 30 49
11 28 40
11 28 28
11 29 36
11 29 41
11 28 43
11 28 31
11 29 33
11 27 31
11 29 35
11 28 30
12 31 42
11 29 49
11 29 41
12 31 48
12 31 55
12 30 42
12 30 39
11 29 40
11 29 42
12 30 39
11 27 33
11 28 40
10 26 35
12 30 47
11 28 41
10 26 34
10 26 26
11 29 38
11 28 30
10 27 42
10 26 25
11 29 40
11 28 43
11 28 33
11 28 30
11 28 37
11 27 33
11 27 36
11 27 34
11 28 39
10 26 33
10 26 26
10 26 30
11 29 42
10 26 29
10 25 32
10 26 38
9 24 22
10 25 25
9 24 32
10 25 29
9 22 21
10 24 30
9 22 23
8 20 27
9 21 27
8 21 16
7 19 14
23 35 9
79 102 0
100 126 0
91 116 0
88 112 0
90 116 0
104 131 0
87 110 0
96 122 0
92 116 0
94 117 0
85 108 0
89 112 0
88 110 0
96 120 0
91 116 0
97 121 0
87 109 0
94 119 0
101 126 0
94 117 0
97 121 0
104 130 0
98 123 0
93 118 0
98 125 0
95 121 0
66 77 1
32 29 3
36 32 2
36 33 2
34 30 2
25 23 0
34 31 1
28 25 0
29 25 1
34 33 1
24 23 0
37 35 0
29 27 0
30 30 0
38 35 0
35 31 0
32 30 0
31 29 0
38 36 0
36 32 0
45 41 0
40 37 1
36 35 0
38 36 1
46 44 1
45 42 1
40 39 0
52 47 2
43 39 1
43 41 0
50 47 1
64 59 1
60 56 1
49 46 1
62 58 1
53 50 2
63 59 1
56 53 3
61 57 2
67 63 4
54 51 3
69 64 5
70 66 3
61 57 3
72 67 4
75 69 5
70 65 3
65 62 2
63 58 2
69 65 4
74 69 4
68 63 4
71 65 5
63 58 2
77 70 4
77 71 6
72 66 4
74 69 3
80 73 5
72 66 4
73 69 5
79 73 5
79 71 5
74 69 4
71 66 5
76 70 7
77 72 5
76 68 7
80 75 7
80 73 9
78 72 7
80 76 6
87 80 9
84 79 8
70 64 4
85 78 10
82 77 7
76 69 7
83 76 8
81 74 8
85 78 7
72 67 8
81 74 10
82 74 7
85 78 11
86 80 7
77 71 8
81 74 7
86 80 9
85 79 10
83 77 10
76 71 6
82 74 9
82 75 10
85 79 9
84 77 9
83 76 8
83 78 8
71 66 6
82 75 9
78 72 9
83 76 11
83 76 9
85 77 10
82 75 10
76 68 9
78 70 6
80 73 9
85 78 8
84 77 10
80 73 11
82 76 11
82 74 11
72 67 8
76 69 10
73 67 9
87 78 10
76 70 7
81 74 9
82 76 10
83 76 11
81 74 9
76 69 7
79 73 8
82 76 11
72 67 9
73 67 8
71 65 9
75 69 10
74 68 8
76 69 8
73 68 8
82 76 10
75 71 8
75 71 9
90 117 0
91 118 0
91 118 0
91 117 0
91 118 0
90 117 0
92 118 0
87 113 0
90 117 0
92 117 0
90 116 0
90 116 0
86 111 0
89 115 0
90 117 0
90 116 0
90 116 0
90 116 0
91 117 0
86 111 0
91 117 0
88 114 0
85 110 0
89 115 0
93 119 0
90 115 0
91 117 0
83 109 0
85 111 0
89 115 0
90 117 0
88 113 0
86 111 0
88 114 0
85 110 0
85 110 0
86 111 0
86 110 0
83 107 0
89 115 0
87 113 0
84 107 0
87 112 0
86 111 0
82 106 0
87 112 0
86 111 0
91 117 0
82 106 0
83 107 0
85 110 0
83 107 0
80 105 0
80 104 0
86 110 0
83 107 0
80 103 0
81 104 0
84 109 0
79 101 0
83 106 0
81 106 0
79 103 0
81 105 0
80 103 0
79 102 0
75 97 0
78 100 0
81 105 0
82 105 0
79 102 0
78 100 0
82 106 0
81 104 0
75 97 0
79 102 0
75 98 0
73 94 0
69 91 0
74 98 0
74 96 0
77 100 0
76 100 0
80 103 0
79 102 0
72 93 0
74 95 0
68 88 0
70 90 0
65 84 0
75 97 0
70 90 0
65 85 0
75 97 0
68 88 0
76 97 0
72 93 0
66 86 0
64 84 0
60 78 0
57 75 0
67 88 0
59 77 0
60 78 0
68 88 0
59 76 0
52 70 0
60 78 0
66 85 0
56 73 0
62 81 0
52 68 0
59 75 0
60 77 0
50 67 0
51 68 0
48 64 0
45 59 0
48 63 0
52 68 0
44 58 0
40 53 0
46 60 0
50 65 0
60 76 0
48 63 0
43 56 0
50 65 0
44 57 0
49 64 0
54 70 0
51 67 0
49 63 0
74 94 0
98 127 0
96 123 0
100 129 0
88 115 0
99 127 0
108 138 0
96 126 0
92 120 0
96 124 0
89 117 0
99 129 0
92 120 0
93 120 0
92 121 0
96 124 0
88 115 0
96 125 0
87 114 0
93 121 0
93 121 0
95 124 0
82 109 0
94 124 0
91 120 0
89 116 0
80 105 0
91 119 0
82 108 0
18 33 16
9 23 19
9 22 23
9 23 24
9 24 21
8 21 18
9 24 27
10 27 31
10 26 20
10 26 33
11 27 33
10 27 31
11 28 35
11 28 34
10 25 27
10 25 36
11 28 31
11 27 33
10 27 26
12 29 43
11 28 40
11 28 43
11 28 39
10 27 39
11 29 33
10 25 31
11 28 42
11 27 39
11 28 37
10 26 20
11 28 35
11 29 39
11 29 44
11 29 49
10 26 25
12 31 52
11 28 43
11 29 46
11 28 33
11 28 34
11 29 31
12 30 44
12 31 47
10 27 38
12 29 48
12 30 43
11 28 34
11 28 33
11 27 39
11 28 32
11 29 43
12 29 46
11 28 48
10 26 34
11 28 35
11 29 35
10 26 33
10 26 29
10 25 37
9 23 21
11 27 38
10 26 31
11 27 34
10 25 34
10 26 31
11 26 36
10 26 39
11 27 41
9 23 21
9 22 28
9 23 23
9 23 22
9 22 25
8 19 20
9 22 23
26 39 13
77 97 1
82 104 0
86 108 0
86 110 0
92 119 0
86 110 0
85 107 0
83 105 0
97 123 0
90 115 0
91 115 0
91 115 0
89 112 0
89 112 0
95 119 0
91 115 0
88 109 0
98 122 0
97 122 0
94 119 0
93 118 0
97 123 0
100 122 0
102 129 0
98 123 0
102 126 0
94 117 0
90 112 0
59 67 1
38 34 3
31 26 2
37 35 2
24 22 0
24 23 0
32 30 0
24 23 0
33 31 0
33 30 0
29 27 0
18 19 0
36 34 0
26 24 0
29 26 0
37 35 0
25 24 0
37 34 0
40 38 0
36 34 1
36 34 1
41 40 0
43 40 1
40 39 2
46 44 1
49 47 0
49 48 1
41 39 0
54 50 2
58 55 1
49 47 1
58 53 2
49 45 2
63 58 2
60 55 2
54 51 2
55 51 0
60 55 2
61 56 3
58 54 1
61 56 3
58 53 2
73 68 3
70 65 3
68 62 2
69 64 5
72 66 4
72 67 3
71 66 4
62 57 3
67 62 2
71 65 5
74 68 4
76 71 7
64 59 4
71 66 5
74 67 6
75 70 5
66 61 6
70 64 2
78 72 5
71 66 3
77 71 7
77 73 6
77 70 4
76 71 5
83 75 4
76 69 6
76 69 5
81 74 8
84 76 11
78 70 5
77 72 3
83 77 7
77 70 7
75 71 1
73 69 5
80 74 6
74 67 6
82 77 7
83 77 8
81 74 5
82 77 8
83 77 8
84 77 10
81 74 7
77 71 7
73 68 8
71 63 8
86 79 9
84 77 9
84 77 7
78 73 5
81 74 8
90 84 11
75 68 6
72 66 5
84 77 7
84 78 10
76 69 7
82 76 10
78 72 7
86 78 10
76 71 7
75 69 9
78 72 10
79 71 8
84 77 13
91 83 15
78 71 9
88 81 11
84 76 12
88 81 12
78 72 10
73 67 8
80 73 11
78 72 8
79 72 9
81 75 8
82 77 9
77 72 5
81 75 12
74 67 9
81 75 11
72 66 8
81 74 10
81 73 12
77 70 12
69 65 7
77 70 9
71 64 8
77 71 10
77 70 11
71 65 9
89 114 0
91 117 0
89 116 0
87 113 0
88 113 0
92 119 0
85 111 0
90 116 0
92 117 0
91 117 0
89 115 0
89 114 0
89 115 0
87 111 0
89 114 0
88 114 0
86 112 0
89 114 0
89 114 0
87 113 0
89 115 0
90 116 0
88 113 0
92 117 0
86 112 0
87 112 0
86 111 0
88 112 0
85 111 0
90 116 0
88 115 0
84 109 0
85 110 0
90 114 0
85 111 0
85 110 0
88 114 0
86 111 0
88 113 0
84 108 0
88 113 0
87 112 0
88 112 0
83 106 0
85 110 0
82 107 0
86 111 0
85 109 0
88 114 0
91 117 0
81 105 0
82 105 0
84 107 0
86 110 0
83 107 0
83 107 0
74 97 0
88 112 0
81 105 0
81 104 0
80 104 0
82 105 0
72 94 0
82 106 0
82 105 0
75 98 0
78 100 0
79 102 0
80 105 0
82 107 0
77 99 0
78 101 0
82 105 0
71 93 0
79 102 0
81 103 0
79 101 0
73 95 0
76 98 0
80 103 0
67 86 0
69 88 0
74 95 0
76 97 0
71 92 0
73 95 0
75 97 0
70 90 0
68 88 0
73 93 0
70 90 0
73 93 0
67 87 0
69 89 0
67 86 0
69 90 0
59 76 0
55 73 0
63 82 0
58 76 0
51 67 0
64 84 0
55 72 0
60 78 0
58 75 0
56 73 0
56 74 0
58 74 0
60 78 0
53 70 0
54 72 0
48 64 0
51 65 0
50 66 0
51 66 0
53 69 0
51 66 0
55 72 0
47 62 0
45 58 0
50 64 0
50 64 0
43 56 0
41 55 0
44 58 0
42 55 0
47 61 0
52 66 0
49 63 0
48 63 0
39 52 0
47 61 0
70 91 0
97 125 0
97 126 0
96 123 0
101 131 0
102 131 0
94 122 0
96 125 0
93 121 0
89 116 0
92 120 0
93 121 0
91 117 0
78 104 0
88 116 0
98 126 0
88 115 0
87 113 0
93 121 0
92 120 0
94 122 0
90 119 0
86 112 0
89 115 0
84 110 0
83 108 0
88 116 0
88 114 0
94 121 0
89 117 0
70 95 1
20 37 16
8 21 23
9 23 23
9 25 30
10 25 27
9 24 26
9 24 27
10 25 38
10 26 30
10 25 30
10 25 26
12 30 36
11 28 34
10 27 30
10 27 27
11 28 43
11 27 39
11 28 37
10 27 34
12 30 47
12 29 44
11 28 38
12 31 40
10 27 22
11 29 39
10 27 37
11 28 31
12 30 44
12 30 47
11 28 38
12 30 38
10 26 33
12 30 49
11 29 44
11 28 39
10 27 31
11 28 44
12 29 38
10 27 28
10 26 29
12 31 42
11 28 33
10 26 33
11 29 44
12 29 44
10 26 30
11 27 30
11 29 40
11 27 29
11 28 38
11 27 30
11 28 35
11 28 37
11 29 37
10 26 39
11 28 36
10 27 25
11 27 38
10 27 26
11 28 36
11 26 36
10 25 36
10 25 25
11 28 33
10 26 33
10 25 38
9 24 20
10 24 23
10 25 36
10 25 42
9 23 27
9 22 19
9 22 21
19 31 11
73 94 0
86 109 0
87 110 0
92 117 0
80 102 0
79 100 0
83 107 0
75 95 0
84 108 0
97 120 0
98 125 0
88 108 0
91 116 0
88 110 0
83 106 0
88 106 0
96 119 0
86 105 0
95 119 0
94 115 0
86 108 0
88 110 0
96 117 0
88 108 0
97 119 0
91 113 0
94 117 0
88 107 0
91 114 0
94 116 0
58 63 1
32 29 2
27 25 2
32 29 2
25 24 0
24 22 0
32 29 0
34 31 1
35 32 0
25 23 0
30 27 0
34 31 0
36 32 1
38 34 0
34 32 0
33 29 0
42 38 0
40 37 1
44 39 0
38 36 0
42 38 0
37 34 0
41 37 1
47 44 0
40 39 1
50 47 1
46 43 1
50 47 1
47 45 0
42 39 1
50 47 0
58 55 3
60 56 1
51 47 2
55 51 2
64 60 3
60 56 1
47 44 0
66 61 2
61 57 1
59 55 3
63 59 1
55 52 1
62 57 3
63 59 1
69 65 2
63 58 2
74 68 3
70 65 6
73 66 4
67 62 4
66 62 2
71 66 4
61 57 3
67 62 4
74 68 6
73 68 5
78 72 4
63 59 4
71 64 2
81 75 7
76 70 3
74 69 5
79 73 7
79 73 4
77 72 9
70 65 5
79 73 5
78 73 6
75 68 5
76 70 6
78 71 7
73 68 3
79 73 8
77 70 5
81 76 4
71 66 5
75 69 8
77 71 6
81 73 10
81 75 7
79 73 7
72 66 6
83 76 8
86 78 6
80 74 6
83 77 7
75 70 5
76 70 6
78 72 8
70 64 4
83 76 8
72 66 8
72 67 6
82 75 9
90 81 11
75 69 7
80 74 7
74 69 6
82 76 7
80 73 9
71 64 6
79 71 8
89 81 12
83 76 9
69 62 7
82 75 11
85 78 9
75 70 6
87 79 12
80 72 10
74 69 8
75 70 8
81 75 9
90 82 10
79 71 9
75 69 7
77 71 9
84 77 9
75 70 5
71 65 7
76 69 9
78 73 9
80 74 11
80 74 9
74 67 10
87 80 13
78 71 10
78 71 9
73 67 11
69 63 9
65 60 8
72 66 6
92 118 0
91 117 0
90 116 0
92 118 0
92 118 0
90 117 0
90 116 0
89 114 0
91 118 0
88 115 0
89 115 0
89 115 0
91 116 0
89 115 0
89 114 0
88 113 0
91 117 0
88 114 0
90 114 0
89 115 0
92 117 0
88 113 0
87 113 0
90 116 0
88 113 0
86 112 0
89 115 0
86 111 0
87 113 0
87 110 0
88 113 0
81 105 0
89 114 0
85 109 0
86 111 0
88 113 0
87 112 0
90 114 0
82 107 0
86 112 0
84 108 0
85 109 0
84 110 0
85 110 0
88 114 0
83 108 0
86 110 0
86 111 0
85 109 0
83 108 0
82 107 0
86 110 0
84 107 0
80 105 0
80 103 0
79 102 0
85 109 0
81 106 0
81 104 0
84 107 0
79 102 0
90 115 0
81 104 0
82 105 0
84 108 0
82 104 0
81 104 0
84 107 0
80 104 0
74 97 0
77 100 0
71 91 0
74 97 0
78 101 0
73 95 0
76 97 0
77 100 0
76 99 0
73 96 0
80 103 0
71 92 0
77 100 0
73 95 0
81 104 0
70 89 0
72 93 0
74 95 0
70 91 0
67 88 0
70 90 0
66 86 0
67 87 0
68 87 0
58 75 0
67 87 0
61 78 0
63 82 0
68 88 0
63 82 0
65 83 0
62 80 0
64 84 0
68 87 0
60 79 0
59 78 0
63 82 0
58 75 0
65 82 0
58 76 0
57 73 0
57 75 0
52 67 0
51 67 0
53 68 0
54 69 0
52 68 0
58 75 0
50 64 0
49 63 0
52 66 0
49 64 0
48 62 0
47 61 0
43 56 0
48 61 0
49 64 0
52 67 0
49 63 0
47 61 0
54 70 0
42 54 0
68 88 0
98 126 0
90 117 0
97 124 0
95 121 0
94 122 0
98 127 0
99 127 0
82 107 0
90 117 0
81 107 0
89 116 0
100 129 0
87 113 0
89 116 0
87 115 0
91 117 0
80 106 0
89 117 0
86 113 0
92 120 0
86 113 0
95 122 0
86 113 0
89 116 0
86 114 0
84 110 0
77 101 0
84 110 0
80 106 0
86 112 0
86 111 0
82 110 2
19 34 12
8 20 15
8 21 12
10 26 27
10 25 21
10 25 33
10 25 27
9 24 25
10 27 34
10 25 29
10 26 25
10 26 29
10 26 30
10 27 33
10 27 39
10 26 25
10 27 34
10 27 31
10 26 33
10 25 20
10 27 31
10 26 35
11 28 35
11 27 31
10 26 24
10 27 26
10 26 35
10 25 30
11 28 38
11 28 38
10 27 33
11 29 38
11 28 38
10 26 31
12 30 39
11 28 39
11 27 30
11 29 33
12 30 43
10 26 30
11 28 33
11 29 39
11 29 39
10 27 31
11 29 34
11 28 34
10 26 31
11 28 34
11 28 31
11 27 38
10 26 23
11 27 39
11 27 37
11 28 32
10 26 30
11 28 44
9 22 21
10 26 31
10 26 37
10 25 32
11 27 31
11 27 38
11 27 33
10 25 24
9 23 19
9 24 29
10 24 28
8 20 19
10 24 26
8 21 17
8 19 14
25 40 14
69 89 1
78 100 0
88 112 0
85 108 0
81 102 0
84 106 0
83 106 0
84 106 0
90 111 0
87 109 0
76 95 0
84 106 0
83 105 0
79 98 0
79 100 0
88 109 0
84 102 0
79 96 0
91 114 0
89 108 0
90 112 0
94 117 0
93 116 0
94 114 0
91 112 0
85 103 0
89 111 0
85 104 0
89 110 0
83 99 0
86 108 0
94 115 0
67 73 4
36 33 2
30 27 2
32 29 1
21 19 0
29 27 0
33 30 0
37 33 0
40 37 0
29 27 1
30 27 0
21 20 0
26 24 0
27 27 0
31 29 0
29 28 0
35 33 0
39 36 0
33 31 0
42 39 0
38 35 0
50 47 0
46 43 0
38 36 0
41 37 0
41 38 1
42 38 1
51 46 2
55 52 0
52 48 1
53 49 2
50 46 1
64 58 2
56 53 2
59 54 0
52 48 2
55 51 1
65 60 1
63 58 2
57 53 3
61 55 1
59 55 3
66 61 2
60 56 3
65 60 2
69 64 2
61 58 1
73 68 3
68 64 4
64 60 4
67 63 2
68 62 2
73 66 4
66 62 6
61 57 5
72 66 2
72 66 3
68 63 4
67 61 3
70 66 3
68 63 5
76 69 6
77 71 6
70 64 5
80 74 4
80 72 8
75 70 5
72 66 2
79 72 4
73 66 3
77 71 4
87 79 7
76 73 4
80 73 6
73 68 5
82 76 4
79 72 7
68 64 4
82 76 8
74 67 6
81 74 6
83 75 6
78 72 6
85 77 9
80 74 6
75 71 7
70 65 4
78 73 7
77 71 4
92 83 11
77 71 6
72 67 6
79 74 7
84 77 8
76 70 7
78 74 4
83 77 6
82 75 8
84 78 8
82 75 9
79 73 8
70 64 10
84 78 10
75 69 7
73 67 7
85 77 10
74 68 7
76 71 7
73 66 10
84 76 9
70 64 9
80 72 9
79 74 7
77 71 9
79 74 11
88 79 13
84 77 11
85 78 11
82 74 11
77 70 11
88 80 14
78 72 9
84 78 10
78 70 13
78 70 11
73 67 10
85 76 12
80 74 7
81 74 10
77 72 9
82 74 10
74 68 8
90 116 0
89 115 0
91 118 0
90 116 0
91 116 0
91 117 0
90 116 0
87 114 0
90 115 0
92 118 0
94 120 0
90 114 0
89 114 0
88 115 0
86 111 0
89 116 0
86 111 0
87 111 0
86 110 0
88 113 0
89 114 0
86 112 0
88 112 0
88 113 0
87 112 0
85 110 0
87 111 0
83 107 0
85 111 0
87 112 0
86 110 0
85 111 0
84 108 0
87 113 0
87 112 0
84 109 0
86 111 0
86 110 0
84 108 0
88 114 0
89 114 0
85 109 0
84 108 0
83 108 0
83 106 0
78 103 0
80 104 0
85 110 0
84 109 0
85 109 0
88 113 0
75 98 0
74 96 0
84 108 0
84 108 0
76 99 0
80 102 0
79 102 0
84 106 0
78 102 0
77 100 0
85 109 0
77 99 0
77 100 0
78 101 0
74 96 0
79 101 0
78 101 0
78 101 0
79 101 0
82 105 0
74 95 0
73 94 0
76 98 0
74 95 0
73 95 0
70 90 0
72 93 0
73 93 0
77 100 0
73 95 0
70 91 0
70 91 0
71 92 0
68 88 0
69 90 0
73 94 0
68 87 0
76 99 0
63 82 0
71 92 0
68 88 0
70 90 0
68 87 0
65 85 0
64 83 0
60 78 0
69 90 0
62 81 0
62 80 0
62 80 0
65 83 0
64 82 0
60 78 0
62 81 0
59 76 0
57 72 0
56 74 0
59 76 0
57 75 0
51 67 0
60 78 0
59 76 0
57 74 0
50 64 0
53 69 0
49 64 0
43 57 0
43 56 0
47 62 0
47 61 0
48 63 0
46 60 0
44 57 0
51 66 0
42 55 0
50 64 0
50 66 0
47 61 0
42 54 0
69 88 0
90 116 0
95 123 0
92 118 0
96 122 0
93 118 0
99 126 0
95 122 0
93 119 0
89 115 0
87 112 0
88 113 0
84 109 0
88 114 0
86 111 0
93 119 0
90 118 0
91 118 0
80 106 0
85 111 0
87 113 0
66 87 0
75 100 0
85 110 0
87 113 0
78 104 0
78 102 0
74 98 0
85 111 0
79 104 0
70 95 0
75 99 0
71 94 0
81 105 0
72 95 0
22 36 7
8 22 20
7 18 11
9 24 23
9 25 27
9 23 27
9 24 31
9 25 25
10 26 30
9 23 24
10 26 28
9 24 27
10 25 22
9 24 25
11 29 39
12 31 42
10 26 35
10 27 38
9 24 25
10 26 31
9 24 31
10 27 30
11 27 30
11 27 34
10 27 29
11 27 39
10 27 26
11 27 33
10 27 37
10 26 29
11 27 35
11 27 34
10 27 30
10 26 37
11 27 37
10 27 30
11 28 23
10 27 35
10 26 38
10 26 30
11 28 31
10 27 23
11 28 34
10 26 25
11 27 42
11 28 37
11 28 43
10 26 28
11 27 31
10 26 32
11 28 38
10 25 30
10 25 31
10 25 29
10 25 29
10 25 29
9 24 28
9 23 26
11 27 34
10 24 35
9 24 22
9 23 22
10 25 29
9 22 19
9 23 26
9 23 26
8 20 19
9 21 26
7 18 27
25 39 16
63 81 0
68 86 0
62 81 0
76 97 0
74 95 0
84 104 0
81 99 0
67 83 0
77 98 0
71 88 0
94 120 0
89 111 0
76 95 0
80 101 0
74 93 0
76 96 0
80 97 0
85 109 0
74 93 0
84 105 0
78 98 0
92 113 0
78 96 0
79 95 0
79 96 0
85 103 0
78 95 0
86 106 0
81 96 0
91 108 0
84 104 0
89 105 0
95 116 0
85 100 0
57 66 1
41 38 3
28 26 1
28 26 0
27 25 1
26 23 0
26 24 0
29 26 1
35 32 0
30 28 0
42 39 0
33 30 0
26 25 0
28 25 0
31 28 0
33 29 0
36 32 0
40 37 0
40 36 0
40 39 1
53 48 0
30 30 0
41 37 1
47 44 0
45 44 0
46 42 1
52 49 0
39 36 0
51 47 0
55 51 3
50 48 0
57 53 0
46 42 1
50 48 1
61 57 1
55 49 1
54 50 2
55 51 2
62 57 3
57 54 1
57 52 0
63 58 2
57 52 2
69 65 2
63 58 3
68 62 3
64 59 2
68 61 3
56 53 2
68 63 4
64 60 2
71 64 3
71 65 3
78 72 4
70 64 1
71 65 3
71 66 2
68 63 3
73 66 3
73 66 5
74 68 6
73 67 7
59 55 1
68 63 4
75 68 3
78 70 7
68 63 3
70 64 5
67 64 2
74 69 2
74 70 4
68 64 4
81 73 4
84 78 10
69 64 4
78 72 6
73 67 6
81 75 7
77 69 6
77 72 4
78 72 6
78 73 7
81 75 7
83 76 8
79 73 7
85 78 8
83 77 7
81 75 8
81 76 5
71 66 6
80 74 4
77 71 6
77 72 8
62 56 5
80 74 7
80 74 9
76 68 9
87 80 13
82 75 7
81 74 9
79 71 6
80 74 9
78 73 6
73 67 5
73 67 6
78 70 10
79 74 10
67 62 7
87 80 11
73 67 7
71 64 8
78 71 8
75 70 8
71 65 5
85 76 11
77 69 8
74 68 9
76 69 9
78 70 5
77 70 9
76 71 11
74 66 11
74 69 8
75 68 12
75 68 11
74 67 10
75 69 9
64 58 6
81 73 9
71 66 10
71 64 9
93 118 0
91 116 0
87 113 0
92 118 0
88 114 0
89 115 0
88 113 0
87 114 0
89 114 0
87 113 0
91 118 0
90 116 0
84 110 0
90 116 0
88 114 0
88 113 0
90 116 0
87 111 0
87 113 0
86 110 0
91 116 0
88 114 0
85 110 0
88 114 0
91 116 0
86 111 0
85 109 0
83 108 0
88 114 0
84 108 0
88 112 0
86 111 0
86 110 0
83 107 0
87 110 0
84 108 0
81 105 0
83 107 0
85 109 0
87 111 0
86 110 0
85 109 0
84 108 0
86 110 0
86 111 0
84 108 0
86 110 0
83 108 0
84 109 0
86 111 0
83 107 0
83 107 0
82 104 0
82 105 0
81 105 0
82 105 0
84 109 0
88 113 0
80 104 0
82 105 0
82 106 0
80 103 0
83 106 0
80 102 0
78 100 0
75 97 0
76 99 0
82 105 0
71 92 0
74 96 0
74 96 0
80 102 0
73 95 0
74 96 0
77 99 0
74 96 0
78 100 0
76 98 0
75 98 0
71 92 0
72 94 0
71 92 0
74 96 0
71 91 0
77 99 0
71 92 0
67 87 0
73 95 0
74 95 0
67 86 0
67 86 0
71 93 0
73 91 0
71 90 0
61 81 0
71 92 0
60 78 0
53 69 0
67 86 0
68 87 0
57 73 0
58 76 0
62 80 0
54 71 0
57 75 0
57 75 0
57 73 0
53 70 0
56 73 0
58 74 0
51 66 0
56 73 0
51 65 0
48 63 0
53 68 0
52 66 0
47 61 0
41 54 0
52 67 0
47 61 0
48 63 0
47 61 0
48 63 0
52 66 0
54 68 0
49 63 0
44 57 0
40 52 0
43 55 0
76 96 0
95 121 0
88 114 0
95 121 0
92 118 0
84 108 0
86 112 0
92 118 0
85 109 0
80 104 0
91 116 0
82 105 0
87 114 0
75 97 0
89 114 0
82 108 0
82 107 0
78 102 0
78 102 0
80 105 0
76 99 0
82 107 0
72 96 0
84 110 0
80 103 0
83 109 0
72 94 0
72 97 0
72 94 0
71 94 0
73 96 0
81 105 0
72 96 0
69 91 0
73 96 0
62 83 0
62 83 0
25 40 11
8 22 22
9 23 21
8 21 19
9 22 21
9 24 28
9 22 22
10 27 34
9 24 28
9 23 24
10 25 31
11 29 33
9 25 26
10 26 25
10 25 30
10 27 30
11 28 34
10 25 25
10 25 29
10 27 31
11 28 40
10 26 25
11 28 39
10 26 29
10 26 26
10 27 35
10 25 28
11 28 34
11 27 30
11 27 38
9 24 33
10 27 31
11 27 31
11 27 34
10 26 23
10 25 31
10 25 31
11 28 38
10 25 26
10 26 29
10 27 33
10 25 26
11 27 38
11 27 31
9 23 20
10 27 26
11 28 43
10 26 33
10 27 29
10 27 35
10 26 32
10 25 29
11 27 37
11 28 31
11 28 37
9 24 31
10 25 32
9 23 27
10 24 21
9 23 28
9 23 17
9 24 22
9 23 18
9 23 19
7 19 15
8 19 17
7 18 16
28 40 8
71 92 0
74 93 0
64 84 0
65 81 0
79 101 0
79 100 0
69 87 0
71 90 0
75 94 0
63 80 0
84 103 0
81 101 0
80 99 0
79 98 0
79 100 0
78 94 0
65 80 0
70 85 0
79 97 0
79 100 0
77 95 0
81 98 0
77 97 0
79 97 0
85 104 0
77 95 0
86 103 0
87 106 0
81 99 0
75 90 0
86 104 0
81 96 0
77 91 0
83 100 0
84 100 0
89 108 0
69 77 0
40 38 1
34 30 2
28 25 1
27 25 0
36 32 1
32 29 1
38 34 1
31 28 0
23 22 0
32 29 0
33 31 1
37 33 1
36 32 0
35 31 0
42 39 0
37 34 1
36 32 0
35 33 0
42 39 1
43 41 1
35 32 0
37 34 1
49 45 0
44 41 1
52 49 0
46 41 0
48 43 1
55 51 1
56 52 0
50 45 0
48 44 2
56 50 0
52 47 1
52 48 1
57 53 1
53 48 0
54 49 1
56 52 2
55 52 0
61 56 1
62 57 1
63 56 2
55 50 2
69 63 2
66 60 3
65 60 4
65 61 2
67 63 2
64 59 1
57 52 3
60 55 2
72 65 5
67 62 2
72 64 3
76 70 3
72 65 5
76 70 5
69 64 5
69 64 4
66 61 3
71 67 5
76 70 4
65 61 2
77 71 4
71 65 4
68 64 4
72 67 4
76 69 6
69 65 2
78 72 5
80 75 5
74 68 5
76 70 3
83 76 8
69 65 5
71 66 5
79 72 5
76 69 9
77 72 4
81 74 7
83 75 6
70 65 3
71 66 4
75 70 4
80 73 6
71 65 5
86 79 7
76 69 5
84 77 7
72 66 5
79 72 8
70 63 7
89 81 9
87 80 8
73 67 3
77 70 10
77 70 6
76 70 7
79 72 8
76 69 10
77 70 7
75 68 6
78 69 11
80 72 7
78 71 7
65 59 7
74 67 7
79 72 10
80 72 11
73 67 7
77 71 9
81 75 11
78 71 8
71 65 7
70 65 7
73 66 8
69 64 5
72 65 7
66 62 8
83 75 10
59 54 7
69 64 9
60 54 6
80 72 11
83 75 14
76 69 11
82 75 10
69 63 10
66 62 6
90 116 0
89 114 0
86 111 0
91 117 0
89 115 0
93 118 0
87 111 0
89 113 0
87 111 0
90 116 0
90 115 0
93 119 0
86 111 0
91 117 0
89 114 0
88 113 0
87 113 0
89 114 0
89 114 0
88 113 0
88 114 0
88 113 0
85 110 0
86 110 0
92 118 0
88 114 0
84 108 0
87 111 0
87 113 0
84 108 0
89 112 0
83 107 0
86 110 0
87 111 0
86 112 0
87 112 0
88 113 0
86 112 0
80 104 0
89 113 0
89 114 0
81 105 0
81 105 0
83 107 0
86 110 0
82 104 0
87 111 0
83 106 0
84 107 0
83 106 0
80 103 0
81 104 0
83 106 0
82 105 0
79 102 0
80 103 0
83 107 0
87 111 0
82 105 0
84 108 0
77 99 0
85 109 0
78 102 0
80 102 0
82 105 0
74 96 0
76 98 0
80 102 0
78 101 0
77 99 0
81 104 0
73 95 0
77 99 0
76 98 0
72 93 0
70 91 0
75 96 0
76 97 0
75 96 0
75 97 0
72 92 0
67 86 0
68 90 0
73 94 0
72 93 0
70 91 0
68 88 0
71 92 0
66 85 0
67 87 0
61 79 0
69 88 0
65 85 0
71 91 0
62 82 0
63 80 0
69 88 0
61 78 0
62 80 0
66 84 0
72 91 0
55 72 0
57 73 0
59 76 0
65 83 0
52 68 0
61 78 0
48 63 0
59 75 0
56 72 0
51 67 0
42 56 0
54 70 0
48 62 0
46 60 0
48 61 0
44 57 0
41 54 0
44 57 0
45 58 0
41 55 0
46 59 0
46 59 0
45 59 0
48 62 0
52 65 0
34 44 0
38 49 0
72 92 0
86 110 0
89 114 0
89 112 0
89 114 0
79 101 0
83 107 0
85 109 0
91 118 0
85 109 0
85 110 0
84 108 0
77 100 0
88 112 0
91 116 0
87 112 0
83 107 0
73 96 0
81 103 0
78 102 0
72 96 0
75 98 0
82 107 0
74 97 0
75 98 0
74 97 0
74 97 0
73 96 0
73 97 0
81 105 0
69 91 0
58 79 0
75 99 0
74 97 0
67 89 0
76 100 0
55 75 0
68 90 0
64 84 0
36 53 5
7 19 8
8 21 13
8 21 21
8 22 23
8 22 16
9 22 21
9 23 24
10 26 30
9 23 27
10 25 28
9 24 19
10 27 26
9 24 28
9 23 26
10 27 30
11 27 36
11 28 34
11 28 34
10 25 29
10 27 27
10 26 33
10 27 28
10 27 30
10 26 28
9 24 24
10 27 28
11 29 38
11 29 39
10 26 37
10 26 26
11 27 34
11 29 37
11 28 49
12 30 40
10 26 26
11 27 30
11 28 35
10 27 26
10 25 30
10 25 28
11 28 31
11 27 33
9 24 28
11 28 36
10 27 29
10 26 25
10 26 28
9 24 19
10 27 23
11 27 32
9 23 23
10 25 31
10 25 33
9 22 19
9 23 31
10 24 23
9 24 29
9 23 30
9 22 20
8 21 20
9 22 16
9 23 25
8 21 22
7 18 15
36 49 3
58 74 0
67 88 0
60 80 0
64 80 0
57 73 0
62 78 0
75 94 0
66 84 0
67 84 0
70 87 0
68 86 0
73 91 0
76 94 0
78 95 0
71 88 0
61 76 0
79 99 0
72 86 0
78 98 0
61 74 0
76 92 0
72 84 0
79 94 0
77 94 0
69 84 0
84 97 0
81 97 0
76 91 0
91 110 0
77 92 0
83 99 0
82 94 0
81 97 0
82 101 0
81 97 0
63 77 0
71 85 0
79 91 0
67 76 0
31 30 1
35 31 2
31 28 1
28 26 0
31 26 0
26 23 0
28 25 0
28 25 0
32 29 0
25 23 0
33 30 0
34 31 0
30 27 0
27 23 0
34 31 0
45 41 0
42 38 0
35 32 0
35 31 0
42 39 0
44 39 0
44 40 1
46 43 0
46 43 1
49 43 0
48 45 0
55 51 0
41 38 0
59 54 0
47 43 1
52 48 0
55 50 1
51 47 0
50 48 0
57 53 0
70 64 1
52 48 1
56 52 1
56 52 2
55 51 2
52 49 1
61 57 2
61 55 2
61 55 3
66 60 3
73 67 2
58 52 1
64 61 1
65 60 1
62 55 1
65 61 1
64 59 2
70 65 5
68 62 4
73 66 4
66 61 3
76 70 3
72 67 5
71 66 3
77 70 3
74 69 5
72 66 3
76 68 7
75 69 6
66 60 2
67 63 1
77 71 2
80 73 6
64 60 2
75 69 2
68 62 4
73 66 3
69 64 4
77 70 7
74 66 6
71 65 4
73 67 5
78 71 7
78 72 6
65 59 3
76 71 2
79 71 9
84 78 7
75 67 8
84 77 6
73 67 6
68 62 5
75 69 5
78 73 3
75 70 7
79 72 6
63 56 5
74 68 7
74 68 6
75 69 4
74 68 7
80 74 7
70 63 5
83 76 11
72 67 6
79 72 9
73 67 7
77 70 5
80 71 8
67 61 2
77 69 7
64 59 7
71 65 4
76 68 10
66 60 6
77 71 8
72 65 8
82 75 11
73 67 7
73 66 9
76 70 6
68 63 5
62 58 3
74 68 9
75 69 8
67 62 10
86 79 13
87 79 10
80 73 9
77 70 8
71 65 8
75 68 9
74 68 9
91 117 0
89 115 0
90 116 0
89 114 0
90 116 0
88 114 0
91 116 0
88 114 0
90 114 0
92 118 0
88 115 0
88 113 0
86 112 0
87 111 0
92 118 0
87 112 0
88 113 0
85 110 0
90 116 0
88 113 0
85 110 0
87 110 0
87 113 0
87 111 0
86 111 0
88 112 0
88 113 0
91 116 0
85 110 0
88 114 0
90 115 0
86 110 0
86 109 0
85 109 0
89 114 0
85 109 0
89 113 0
85 108 0
89 113 0
86 110 0
75 98 0
83 107 0
83 108 0
83 107 0
85 109 0
81 104 0
85 108 0
88 112 0
81 104 0
84 107 0
79 102 0
75 99 0
83 108 0
85 108 0
82 105 0
88 111 0
81 105 0
81 104 0
76 98 0
76 99 0
73 95 0
82 104 0
80 104 0
79 101 0
79 101 0
81 102 0
81 103 0
75 95 0
77 99 0
80 103 0
73 94 0
78 100 0
72 92 0
75 96 0
79 102 0
72 93 0
70 91 0
68 89 0
71 91 0
73 94 0
67 86 0
73 94 0
70 90 0
79 101 0
72 93 0
69 90 0
67 87 0
71 92 0
58 77 0
71 90 0
60 79 0
70 90 0
64 82 0
59 77 0
70 91 0
64 83 0
59 76 0
59 77 0
63 80 0
66 86 0
68 87 0
57 74 0
62 79 0
57 73 0
57 73 0
59 74 0
50 65 0
60 76 0
55 71 0
56 72 0
54 70 0
59 75 0
51 66 0
43 55 0
46 60 0
46 59 0
46 60 0
43 55 0
48 62 0
48 61 0
48 61 0
43 56 0
37 49 0
46 59 0
34 45 0
37 47 0
38 49 0
71 90 0
82 105 0
85 108 0
77 99 0
78 101 0
84 107 0
78 100 0
84 109 0
91 116 0
76 97 0
71 91 0
80 102 0
72 94 0
87 111 0
95 120 0
82 107 0
70 92 0
72 96 0
78 101 0
69 90 0
81 105 0
73 96 0
69 90 0
60 80 0
73 97 0
78 102 0
72 94 0
65 87 0
72 93 0
80 103 0
68 89 0
67 90 0
65 86 0
73 95 0
69 89 0
67 89 0
48 67 0
69 90 0
59 78 0
65 86 0
54 73 0
33 49 3
15 28 17
8 22 16
9 22 18
8 22 20
9 24 24
8 22 14
9 24 19
10 25 25
9 22 23
10 26 31
10 25 28
9 23 26
10 26 34
11 27 29
12 29 34
9 24 21
10 26 26
10 26 30
9 25 25
10 26 29
8 22 24
10 25 28
9 24 23
10 26 34
11 27 40
10 26 30
10 26 31
11 28 35
9 24 31
10 26 29
10 26 31
9 25 21
10 25 25
11 28 35
9 24 31
10 26 33
10 26 29
10 25 28
10 26 29
10 26 27
10 25 31
10 25 27
10 25 35
11 27 38
10 26 30
9 24 30
10 25 28
8 22 16
10 27 27
10 26 28
10 25 33
10 26 31
10 26 29
10 25 26
8 22 19
8 22 24
10 24 21
8 19 19
8 21 10
8 19 14
8 20 20
9 21 11
35 47 1
55 72 0
52 66 0
61 78 0
49 64 0
62 78 0
62 77 0
66 85 0
66 81 0
64 81 0
69 87 0
67 83 0
67 83 0
64 82 0
69 87 0
80 98 0
65 82 0
70 85 0
65 80 0
72 90 0
64 77 0
77 94 0
79 97 0
75 90 0
69 83 0
71 87 0
72 89 0
63 77 0
73 86 0
86 104 0
70 85 0
81 98 0
81 96 0
82 97 0
85 98 0
82 96 0
79 93 0
72 84 0
80 93 0
83 98 0
77 88 0
73 84 2
30 28 1
25 22 0
32 28 0
30 27 0
36 32 0
30 26 0
37 33 1
28 25 0
29 26 0
26 24 0
32 29 0
19 17 0
33 29 0
33 28 0
34 31 0
30 27 0
38 35 0
39 35 0
49 46 0
38 34 0
48 45 0
41 38 0
50 46 0
45 42 0
37 33 0
49 45 0
44 39 0
51 47 0
42 39 0
48 44 0
51 47 0
57 52 0
53 48 1
53 50 0
59 55 1
56 52 0
52 47 1
45 41 2
54 50 1
59 53 1
60 56 1
57 52 2
59 54 1
61 56 1
62 56 3
63 58 3
64 59 1
57 51 0
62 57 2
69 64 3
72 67 3
59 55 2
73 65 4
70 65 5
60 56 2
66 60 3
64 60 4
67 61 3
66 58 4
64 60 3
73 65 3
69 64 4
80 73 6
70 64 4
72 66 4
71 64 3
82 75 6
71 64 4
72 67 2
69 63 3
70 66 3
72 67 4
74 68 3
68 62 3
80 72 6
73 67 4
67 62 4
77 70 5
79 72 6
74 67 6
79 72 5
72 66 2
72 66 6
80 73 5
67 62 3
63 58 5
72 66 6
74 68 5
79 72 8
77 69 5
81 74 9
71 67 6
82 75 9
74 68 3
74 67 8
75 70 7
74 69 4
71 65 6
75 68 8
71 65 7
76 69 6
76 69 7
73 67 7
70 64 9
67 61 6
87 79 10
69 63 6
76 69 8
80 73 8
71 64 8
73 65 9
81 74 6
79 72 9
73 68 8
76 69 8
78 72 7
72 65 10
70 64 7
67 60 8
76 70 11
68 61 8
72 66 5
68 62 7
71 64 10
70 63 9
74 66 8
77 71 9
89 115 0
87 112 0
89 115 0
91 117 0
91 117 0
94 120 0
92 117 0
89 113 0
90 115 0
88 113 0
91 117 0
88 113 0
91 117 0
90 115 0
88 113 0
90 115 0
90 114 0
85 109 0
88 112 0
86 111 0
89 115 0
88 112 0
86 110 0
87 112 0
88 113 0
87 112 0
86 110 0
83 107 0
85 110 0
89 113 0
83 107 0
87 112 0
84 108 0
84 108 0
85 109 0
82 106 0
86 111 0
86 111 0
84 108 0
82 104 0
82 105 0
83 108 0
84 107 0
82 104 0
83 107 0
79 102 0
83 106 0
84 107 0
76 98 0
86 109 0
79 102 0
84 108 0
83 106 0
83 107 0
81 104 0
80 103 0
82 104 0
76 99 0
77 100 0
86 110 0
77 99 0
79 101 0
81 103 0
79 102 0
78 98 0
78 99 0
76 97 0
83 106 0
73 95 0
75 96 0
74 95 0
72 93 0
76 98 0
76 99 0
76 98 0
76 98 0
74 95 0
76 97 0
71 91 0
79 101 0
71 91 0
69 88 0
70 90 0
69 89 0
77 99 0
72 92 0
61 79 0
59 78 0
72 93 0
67 86 0
65 85 0
70 91 0
64 81 0
63 82 0
65 84 0
62 81 0
62 80 0
59 76 0
66 85 0
60 76 0
53 70 0
59 75 0
60 77 0
51 66 0
59 76 0
56 72 0
62 78 0
51 66 0
47 62 0
48 62 0
51 66 0
67 84 0
44 58 0
45 58 0
51 66 0
48 62 0
42 55 0
51 65 0
48 61 0
40 52 0
47 60 0
46 58 0
39 51 0
46 60 0
38 49 0
49 62 0
79 100 0
84 106 0
82 104 0
91 115 0
76 97 0
72 92 0
84 106 0
73 94 0
79 101 0
77 100 0
78 100 0
77 99 0
79 102 0
74 95 0
76 98 0
71 92 0
69 90 0
82 105 0
69 90 0
70 91 0
73 96 0
74 97 0
68 88 0
71 92 0
66 89 0
79 102 0
63 83 0
73 95 0
78 101 0
71 93 0
54 72 0
64 85 0
64 85 0
70 90 0
55 73 0
62 83 0
72 93 0
61 81 0
55 74 0
52 70 0
42 58 0
51 69 0
55 73 0
47 64 2
16 30 21
8 22 19
9 23 24
9 25 30
8 22 24
9 23 17
9 23 26
8 22 21
10 27 33
10 25 24
9 23 28
9 24 30
9 24 20
9 24 28
8 21 12
11 28 42
9 24 19
9 24 26
10 25 25
9 23 31
10 25 30
9 24 16
10 25 28
10 24 33
10 25 24
10 26 29
10 26 35
10 26 30
10 26 35
9 24 34
10 25 23
10 25 26
10 25 26
10 25 30
11 28 35
10 25 19
10 26 29
10 25 33
9 24 28
12 30 49
10 26 26
9 24 25
9 24 29
9 24 24
10 25 29
9 24 30
10 25 25
9 22 21
8 22 21
9 23 25
9 23 21
9 23 20
8 20 20
9 23 20
9 24 22
8 20 23
8 21 18
8 19 15
7 18 12
24 37 12
42 56 0
51 66 0
58 73 0
55 68 0
72 89 0
58 74 0
67 81 0
61 77 0
62 76 0
62 76 0
63 81 0
59 75 0
57 71 0
60 74 0
61 74 0
69 84 0
65 82 0
67 82 0
72 87 0
62 76 0
68 84 0
76 95 0
64 77 0
66 82 0
60 71 0
73 87 0
67 79 0
80 93 0
71 84 0
66 77 0
77 93 0
77 90 0
69 83 0
75 87 0
72 86 0
76 86 0
71 84 0
75 89 0
71 82 0
79 92 0
84 96 0
79 90 0
71 84 0
64 74 0
40 42 1
17 15 0
28 26 0
24 22 0
38 32 1
29 26 1
30 26 0
31 28 0
29 26 0
38 35 0
29 25 0
29 27 0
36 33 0
38 34 0
39 37 0
37 33 0
39 34 0
42 38 0
38 36 0
46 42 0
37 33 0
49 44 0
45 41 0
43 38 0
36 33 0
44 40 0
48 45 0
47 43 0
48 43 1
57 50 2
43 40 0
54 49 0
52 47 1
57 52 0
50 47 0
49 45 1
53 48 1
59 55 0
70 64 3
55 51 1
58 54 0
69 63 0
65 59 2
60 55 2
69 63 2
54 51 0
64 58 1
65 59 1
57 53 2
65 59 2
65 59 2
70 64 1
68 61 3
68 62 2
67 61 3
70 65 2
69 64 3
68 63 3
72 65 5
79 72 4
66 61 2
68 62 3
71 63 6
73 67 3
76 70 5
66 60 3
71 65 4
59 55 4
72 65 5
73 67 5
70 64 6
74 66 6
74 68 3
78 70 7
63 58 3
79 72 4
77 73 3
71 65 2
79 72 6
68 64 4
72 67 4
65 59 4
69 63 5
64 59 4
70 64 3
73 67 6
73 65 5
75 69 5
68 63 5
73 68 7
73 68 8
71 65 5
87 79 9
70 64 6
76 71 5
69 65 5
75 70 8
74 67 8
78 71 6
73 67 9
73 67 5
80 73 9
82 75 9
70 63 7
73 67 5
72 65 4
73 69 6
75 69 6
68 62 6
74 67 9
73 66 11
70 64 8
72 67 8
75 67 7
72 65 8
73 68 6
73 68 4
70 63 6
72 65 6
71 64 9
73 68 7
67 61 6
77 70 9
69 63 5
68 62 5
62 57 5
92 116 0
93 118 0
85 110 0
88 114 0
91 117 0
89 115 0
88 114 0
89 113 0
87 112 0
90 115 0
85 109 0
87 112 0
84 109 0
86 111 0
83 108 0
91 116 0
89 113 0
88 114 0
87 113 0
88 113 0
87 112 0
88 113 0
91 116 0
85 110 0
81 103 0
87 113 0
81 105 0
86 111 0
83 106 0
81 104 0
86 111 0
74 96 0
83 106 0
83 106 0
84 107 0
85 109 0
82 106 0
84 107 0
83 107 0
85 108 0
85 109 0
83 107 0
81 104 0
83 108 0
85 108 0
77 100 0
82 106 0
81 103 0
81 104 0
83 106 0
80 103 0
81 104 0
74 95 0
79 102 0
78 100 0
79 101 0
78 100 0
84 106 0
74 96 0
79 102 0
76 98 0
76 99 0
74 96 0
79 101 0
77 99 0
75 97 0
78 100 0
79 102 0
74 93 0
70 90 0
77 99 0
68 89 0
69 89 0
73 94 0
79 102 0
72 93 0
73 93 0
70 90 0
77 98 0
67 86 0
70 91 0
71 90 0
64 83 0
70 89 0
63 81 0
68 87 0
63 82 0
71 92 0
73 91 0
63 79 0
66 83 0
58 75 0
67 86 0
63 82 0
63 80 0
66 84 0
64 83 0
66 84 0
58 74 0
58 77 0
57 74 0
62 79 0
59 77 0
61 78 0
54 70 0
52 66 0
60 75 0
58 75 0
55 70 0
52 67 0
44 57 0
47 60 0
48 62 0
39 50 0
45 58 0
50 64 0
42 54 0
45 58 0
50 64 0
39 50 0
43 54 0
44 56 0
39 49 0
32 41 0
61 78 0
87 109 0
84 107 0
87 108 0
63 82 0
77 97 0
68 87 0
71 91 0
77 98 0
81 103 0
64 83 0
78 100 0
70 90 0
80 103 0
74 94 0
76 98 0
75 97 0
80 102 0
72 93 0
73 94 0
75 98 0
71 92 0
71 92 0
75 96 0
67 88 0
69 91 0
67 88 0
66 87 0
61 81 0
61 80 0
59 79 0
65 85 0
68 89 0
65 85 0
57 75 0
63 82 0
53 72 0
66 86 0
50 68 0
50 68 0
59 78 0
56 73 0
57 76 0
44 59 0
52 69 0
49 65 0
55 73 0
30 44 11
8 20 18
8 20 11
8 22 21
9 22 21
10 26 25
9 23 16
8 21 19
9 23 23
10 26 26
10 25 25
9 23 20
10 25 25
9 24 26
9 24 24
9 23 25
9 23 29
10 26 25
10 25 26
10 27 31
10 27 29
10 26 28
10 26 23
11 28 38
10 26 29
10 25 26
10 25 20
9 24 29
9 24 29
9 23 20
10 25 29
8 23 17
10 26 27
9 23 24
10 26 31
10 27 29
10 26 27
9 24 23
10 25 29
9 23 24
10 25 25
10 24 23
10 25 24
10 26 31
10 26 33
9 24 23
8 20 16
9 23 29
9 23 27
9 23 28
8 21 20
7 20 19
8 22 21
8 21 20
8 21 19
7 18 16
9 21 18
30 44 10
42 54 0
50 65 0
38 49 0
62 77 0
49 62 0
61 76 0
44 57 0
57 73 0
60 75 0
50 65 0
54 68 0
51 64 0
54 67 0
55 71 0
65 82 0
61 74 0
69 86 0
64 80 0
65 80 0
48 62 0
60 73 0
64 79 0
58 70 0
70 86 0
73 86 0
69 83 0
68 81 0
63 77 0
61 71 0
64 76 0
64 74 0
70 82 0
75 87 0
71 85 0
71 85 0
76 87 0
63 74 0
68 77 0
68 79 0
66 76 0
67 77 0
71 82 0
70 82 0
73 83 0
69 80 0
80 90 0
50 53 1
29 27 2
30 26 1
28 24 0
30 25 1
29 26 0
32 28 0
24 22 0
27 24 0
37 33 0
30 27 0
30 27 0
31 28 0
37 34 0
39 35 0
33 30 0
42 37 0
40 37 0
45 40 0
34 30 0
36 33 0
42 38 0
38 32 0
42 38 0
43 39 0
50 46 0
47 43 0
54 50 0
52 49 0
42 37 0
41 38 0
54 50 1
56 50 0
50 47 0
58 52 0
55 52 0
57 49 0
51 47 0
61 56 0
54 51 0
56 50 1
58 54 0
60 55 1
52 46 1
53 50 0
60 55 1
60 56 1
65 59 2
70 64 2
65 59 1
63 58 2
70 63 2
66 62 2
62 59 0
61 55 1
64 58 0
74 68 1
63 58 1
67 61 2
68 63 1
66 61 2
64 59 4
68 63 3
74 67 4
69 63 3
69 64 2
74 68 3
68 61 6
70 65 3
80 73 4
74 67 6
69 62 6
70 63 2
75 69 4
71 64 3
70 64 4
71 65 6
74 67 4
77 71 5
71 64 6
79 71 9
64 60 4
77 71 4
71 66 1
75 68 9
69 62 3
81 73 9
69 63 4
74 67 5
73 67 7
70 64 6
80 75 8
73 66 6
72 66 5
75 67 7
72 66 5
77 70 5
76 69 9
67 61 6
67 62 4
79 72 8
66 61 6
77 71 5
84 77 11
70 65 6
76 68 9
72 66 6
67 60 10
74 66 6
63 57 4
65 60 5
62 57 4
72 65 8
73 65 13
76 69 9
66 62 6
75 67 10
69 64 7
71 65 9
61 56 7
65 60 9
64 60 6
69 63 8
77 70 11
64 58 5
91 117 0
90 115 0
91 116 0
90 116 0
87 112 0
89 115 0
92 117 0
87 112 0
89 114 0
86 111 0
86 110 0
89 114 0
86 110 0
85 109 0
86 110 0
87 111 0
84 109 0
84 109 0
87 112 0
87 111 0
85 110 0
87 111 0
88 114 0
85 110 0
86 110 0
86 110 0
87 112 0
87 112 0
85 109 0
90 115 0
86 109 0
86 111 0
84 109 0
85 110 0
83 105 0
85 109 0
83 107 0
80 104 0
81 105 0
84 108 0
83 106 0
83 107 0
82 105 0
82 106 0
79 102 0
83 105 0
83 106 0
80 104 0
78 101 0
83 106 0
80 104 0
83 105 0
71 92 0
85 108 0
82 105 0
76 98 0
83 106 0
82 105 0
73 95 0
75 95 0
83 105 0
74 95 0
77 98 0
82 105 0
71 93 0
82 106 0
74 96 0
76 97 0
80 102 0
66 85 0
73 92 0
73 94 0
65 83 0
76 98 0
75 97 0
70 91 0
74 94 0
63 81 0
75 96 0
73 93 0
67 86 0
68 88 0
66 84 0
73 92 0
70 89 0
67 86 0
66 84 0
66 84 0
68 87 0
72 92 0
57 74 0
68 87 0
68 87 0
59 75 0
70 89 0
60 78 0
66 83 0
60 77 0
50 66 0
58 74 0
62 79 0
56 71 0
56 71 0
58 75 0
56 70 0
51 65 0
54 68 0
55 69 0
56 71 0
48 61 0
54 68 0
53 67 0
52 67 0
53 67 0
48 61 0
49 61 0
46 58 0
47 60 0
49 61 0
34 45 0
35 44 0
35 45 0
40 51 0
69 87 0
75 94 0
72 90 0
76 95 0
73 92 0
72 92 0
71 91 0
76 96 0
66 84 0
74 93 0
74 94 0
68 87 0
79 100 0
71 91 0
68 88 0
70 90 0
59 78 0
81 102 0
65 85 0
69 89 0
69 88 0
73 94 0
65 85 0
66 87 0
69 89 0
61 81 0
72 93 0
69 91 0
62 82 0
61 81 0
61 80 0
64 85 0
73 95 0
53 69 0
56 74 0
67 88 0
60 80 0
62 81 0
60 79 0
61 80 0
57 76 0
51 68 0
50 68 0
42 58 0
43 59 0
50 68 0
46 62 0
40 53 0
42 56 0
32 45 0
13 25 7
7 19 19
8 20 16
9 23 17
8 21 23
8 21 13
8 22 23
8 22 20
10 25 30
8 22 24
9 24 30
9 23 26
9 23 26
9 24 24
10 25 20
10 25 30
10 25 26
9 24 19
9 24 34
9 24 25
9 24 30
8 21 17
10 25 28
10 27 29
9 24 29
10 25 23
9 22 26
10 26 37
9 24 30
10 25 30
9 24 33
9 24 24
9 23 24
9 24 26
8 21 21
10 26 34
10 25 23
9 23 25
9 23 24
10 26 30
9 23 20
8 21 20
8 21 23
7 19 15
10 26 24
9 22 26
8 21 23
8 21 20
8 20 23
9 22 22
7 18 20
6 16 16
6 17 8
21 34 17
38 48 6
40 50 0
34 44 0
45 56 0
43 56 0
50 63 0
48 62 0
52 65 0
60 77 0
44 56 0
47 60 0
51 67 0
56 71 0
72 88 0
54 69 0
49 60 0
59 72 0
54 67 0
64 79 0
60 76 0
61 75 0
61 73 0
60 73 0
63 79 0
67 83 0
61 73 0
65 76 0
66 80 0
50 60 0
65 80 0
67 79 0
74 90 0
61 73 0
71 81 0
72 83 0
71 84 0
74 88 0
69 81 0
70 81 0
63 72 0
72 80 0
58 65 0
73 85 0
67 75 0
69 78 0
67 77 0
68 78 0
71 79 0
73 78 0
66 72 1
34 30 2
23 20 1
28 24 1
34 31 0
39 33 0
20 18 0
28 25 0
31 28 0
29 24 0
39 33 0
31 26 0
25 22 0
31 28 0
32 29 0
36 32 0
39 33 0
34 30 0
41 37 0
41 37 0
42 37 0
46 40 0
43 39 0
44 40 0
48 43 0
42 39 0
48 44 0
48 43 0
48 45 0
45 41 0
50 45 0
46 42 0
54 50 0
56 51 1
57 50 1
52 48 1
53 48 0
53 48 0
60 54 1
54 48 0
51 45 1
62 56 1
62 55 2
50 45 2
64 58 1
67 61 1
55 51 1
51 46 0
51 46 1
71 64 3
65 61 2
66 60 2
66 60 2
68 61 4
63 58 1
65 60 1
71 67 2
64 59 1
66 60 0
60 54 2
64 59 2
68 60 3
61 57 2
68 61 2
65 60 1
72 66 4
66 61 2
64 57 1
74 66 3
65 59 3
73 66 4
71 66 3
67 62 4
74 66 3
64 58 3
70 65 5
79 73 7
68 63 2
65 59 4
64 58 5
71 65 6
64 59 3
71 64 5
72 65 8
72 65 5
69 63 6
78 70 7
79 72 5
73 68 3
73 67 4
70 64 6
75 70 7
69 62 5
71 64 6
72 64 7
68 62 3
69 63 5
72 65 6
73 67 7
66 60 6
53 49 2
68 63 5
76 71 8
68 62 6
69 64 5
64 59 5
82 74 7
71 65 8
70 64 8
67 60 8
76 69 7
72 67 8
75 69 7
64 58 5
68 62 7
64 57 6
65 60 7
74 67 9
66 60 6
66 61 6
64 58 8
81 74 12
68 61 8
63 58 5
92 117 0
88 113 0
90 115 0
90 116 0
89 115 0
93 118 0
89 114 0
90 115 0
90 115 0
90 116 0
88 112 0
87 111 0
87 110 0
90 115 0
85 109 0
88 112 0
84 108 0
88 114 0
87 112 0
83 106 0
90 114 0
85 110 0
89 114 0
84 107 0
89 113 0
87 111 0
85 109 0
86 110 0
87 111 0
82 106 0
84 108 0
87 111 0
86 111 0
81 103 0
86 109 0
84 107 0
84 107 0
82 104 0
83 106 0
85 108 0
78 101 0
83 105 0
82 105 0
85 108 0
81 104 0
80 101 0
81 103 0
81 103 0
84 107 0
83 106 0
80 102 0
83 105 0
83 106 0
72 93 0
78 100 0
78 101 0
76 97 0
75 96 0
81 104 0
77 99 0
79 102 0
76 97 0
76 99 0
82 104 0
79 100 0
82 103 0
74 94 0
74 94 0
75 96 0
77 99 0
73 94 0
74 95 0
77 97 0
77 100 0
76 97 0
74 95 0
73 93 0
71 90 0
71 91 0
62 80 0
66 84 0
62 80 0
69 89 0
70 89 0
68 86 0
68 87 0
68 87 0
70 90 0
60 77 0
64 81 0
57 74 0
66 85 0
59 77 0
71 89 0
64 82 0
69 87 0
67 84 0
58 75 0
56 72 0
54 68 0
63 80 0
70 89 0
58 74 0
55 71 0
56 71 0
55 70 0
56 71 0
43 56 0
55 70 0
50 65 0
51 64 0
50 63 0
40 52 0
36 48 0
51 64 0
42 54 0
47 59 0
38 49 0
37 48 0
37 48 0
34 43 0
56 69 0
74 92 0
73 91 0
74 92 0
74 93 0
64 80 0
68 85 0
66 85 0
68 87 0
61 79 0
69 88 0
55 72 0
55 71 0
69 88 0
67 86 0
64 82 0
59 77 0
68 88 0
60 78 0
70 89 0
63 81 0
57 75 0
67 87 0
75 96 0
60 79 0
61 78 0
57 75 0
63 83 0
63 81 0
61 79 0
62 81 0
69 91 0
65 85 0
65 84 0
63 83 0
68 89 0
58 75 0
64 84 0
59 77 0
60 80 0
49 67 0
61 80 0
50 66 0
53 71 0
52 69 0
41 56 0
43 58 0
52 68 0
49 65 0
47 62 0
37 50 0
46 61 0
36 50 0
34 48 3
11 22 10
6 18 11
8 20 17
7 19 19
8 22 20
8 21 15
8 21 20
8 21 21
8 22 29
10 27 30
7 19 14
8 21 14
9 24 28
9 23 24
10 27 34
10 25 26
9 23 24
10 26 29
10 25 30
9 24 29
10 24 26
10 25 30
10 26 29
9 23 25
9 24 25
10 26 26
9 24 26
9 23 23
10 26 33
9 23 24
9 23 29
9 23 21
8 22 15
9 24 28
9 22 24
9 23 29
8 22 26
10 26 33
9 22 28
8 20 19
9 23 25
10 25 24
9 22 24
9 23 26
8 20 8
9 23 19
8 21 15
8 21 21
7 18 14
12 23 14
29 40 5
29 37 0
48 62 0
36 44 0
37 48 0
41 52 0
47 59 0
45 57 0
48 60 0
45 56 0
50 63 0
44 56 0
52 64 0
50 62 0
49 62 0
53 66 0
61 78 0
56 69 0
64 79 0
59 71 0
52 67 0
65 78 0
64 77 0
51 63 0
53 66 0
70 83 0
63 76 0
61 76 0
59 71 0
61 73 0
65 79 0
64 77 0
74 89 0
65 75 0
63 76 0
68 80 0
64 76 0
65 79 0
61 69 0
58 65 0
56 60 0
61 69 0
70 78 0
63 71 0
57 63 0
70 80 0
63 70 0
69 80 0
68 74 0
60 69 0
70 78 0
60 65 0
69 73 0
46 46 0
26 22 1
30 27 1
32 27 1
20 17 0
25 22 0
27 24 0
34 30 0
35 30 0
38 34 0
34 30 0
40 34 0
32 28 0
36 32 0
40 36 0
37 32 0
36 32 0
33 30 1
46 41 0
38 33 0
43 39 0
37 33 0
42 38 0
44 39 0
47 44 0
39 37 0
38 34 0
47 43 0
48 43 0
48 43 0
46 40 0
49 44 0
51 46 0
45 42 0
53 48 0
52 47 0
55 49 1
61 54 1
60 54 0
55 50 1
55 51 0
59 54 0
51 47 0
59 55 1
54 49 0
51 48 0
54 47 1
62 56 2
60 56 1
68 61 1
70 63 2
63 58 0
61 57 3
65 57 3
60 55 2
67 62 2
58 53 2
63 56 2
65 60 3
63 57 3
65 60 4
66 60 2
75 68 6
64 58 1
70 64 4
70 63 2
73 67 3
63 57 1
77 70 5
70 65 2
63 56 3
74 65 6
63 58 2
74 69 4
70 64 3
68 62 3
66 58 3
61 55 4
67 61 3
67 61 4
69 64 4
73 67 4
72 66 4
64 59 4
74 69 5
70 65 3
65 59 4
71 66 5
60 55 4
66 60 3
71 65 6
63 58 5
73 67 6
70 63 6
64 58 3
74 66 4
68 60 5
65 61 5
63 59 3
67 60 9
82 76 10
70 64 6
61 57 3
71 64 9
71 64 8
70 64 8
70 64 8
70 62 8
68 62 6
58 53 7
64 59 6
66 61 6
64 57 7
70 63 7
71 65 7
63 58 5
68 62 7
71 65 8
67 62 8
56 51 4
74 68 6
62 56 7
89 114 0
89 114 0
88 112 0
90 115 0
89 113 0
89 113 0
87 113 0
93 119 0
90 114 0
89 113 0
87 112 0
84 108 0
87 111 0
88 112 0
84 108 0
84 108 0
83 107 0
83 105 0
86 109 0
81 105 0
86 110 0
85 109 0
83 107 0
89 113 0
87 112 0
84 109 0
84 108 0
82 105 0
86 110 0
86 110 0
86 111 0
83 107 0
88 113 0
85 108 0
82 105 0
80 102 0
83 105 0
82 106 0
79 101 0
85 109 0
82 104 0
81 104 0
82 105 0
76 99 0
84 106 0
81 102 0
79 101 0
82 105 0
81 103 0
79 100 0
79 100 0
78 100 0
81 103 0
80 103 0
77 99 0
80 101 0
75 95 0
77 98 0
76 98 0
82 105 0
83 105 0
76 98 0
73 93 0
76 96 0
79 101 0
78 101 0
76 97 0
71 92 0
68 86 0
69 88 0
68 87 0
75 95 0
67 85 0
77 99 0
71 91 0
71 89 0
72 91 0
70 90 0
73 93 0
69 87 0
73 92 0
71 90 0
72 92 0
67 86 0
68 86 0
68 87 0
59 77 0
66 85 0
71 91 0
68 86 0
61 79 0
64 82 0
63 81 0
63 80 0
62 79 0
58 75 0
58 75 0
58 74 0
63 81 0
57 74 0
57 73 0
60 77 0
56 72 0
55 70 0
55 71 0
56 71 0
50 63 0
52 67 0
44 57 0
50 64 0
42 54 0
42 54 0
45 58 0
38 48 0
41 53 0
32 41 0
36 46 0
43 54 0
34 43 0
32 41 0
70 87 0
66 82 0
79 98 0
65 82 0
66 83 0
76 96 0
68 85 0
66 83 0
62 79 0
73 91 0
62 78 0
59 76 0
60 76 0
69 86 0
54 70 0
68 87 0
61 80 0
63 81 0
60 78 0
74 94 0
65 83 0
71 91 0
59 78 0
56 75 0
61 80 0
68 89 0
55 73 0
58 76 0
57 75 0
62 81 0
58 76 0
61 80 0
66 85 0
54 70 0
56 74 0
48 66 0
62 81 0
54 70 0
56 74 0
54 71 0
59 78 0
48 66 0
57 74 0
45 61 0
47 63 0
49 66 0
35 48 0
43 59 0
52 69 0
44 59 0
41 55 0
47 62 0
33 44 0
28 39 0
40 53 0
39 52 1
23 35 6
14 26 8
6 17 11
8 22 19
7 18 19
7 20 15
7 19 21
8 22 23
8 21 15
9 22 12
8 21 15
7 19 14
8 22 19
9 23 26
9 24 24
9 22 26
9 23 21
9 24 23
8 22 24
9 24 30
9 24 19
9 23 24
10 25 20
9 24 26
9 23 24
9 22 17
9 24 21
9 22 24
8 22 21
8 21 14
8 22 20
8 21 20
9 23 23
8 21 11
8 21 16
8 22 16
8 20 23
8 22 16
9 23 29
7 20 24
9 24 25
8 22 19
7 18 18
7 17 14
8 20 20
7 18 25
8 17 10
20 28 2
36 47 0
49 61 0
41 51 0
48 59 0
43 53 0
43 55 0
27 35 0
48 59 0
42 52 0
49 62 0
48 60 0
46 59 0
38 48 0
46 58 0
45 56 0
53 65 0
53 66 0
54 65 0
53 66 0
52 64 0
47 59 0
64 77 0
54 69 0
51 64 0
55 68 0
57 70 0
57 66 0
62 75 0
54 66 0
56 69 0
60 73 0
57 67 0
50 58 0
62 73 0
63 75 0
64 74 0
57 68 0
59 68 0
57 68 0
58 70 0
59 65 0
61 68 0
62 69 0
58 64 0
68 79 0
57 62 0
66 77 0
60 64 0
62 67 0
61 68 0
61 63 0
60 67 0
64 70 0
70 75 0
60 63 0
48 52 0
24 23 0
26 23 0
34 28 1
28 24 0
27 23 1
25 22 0
27 23 0
29 26 0
36 32 0
31 27 0
32 28 0
35 30 0
34 30 0
38 34 0
37 34 0
44 39 0
42 37 0
31 27 0
41 37 0
44 38 0
45 38 0
41 39 0
40 37 0
45 41 0
41 36 0
44 39 0
53 47 0
48 45 0
57 51 0
51 45 0
52 48 0
47 43 0
52 47 0
49 46 0
54 48 1
58 52 0
45 39 0
64 58 0
56 52 0
57 49 1
60 53 1
53 49 1
60 54 1
63 58 1
61 56 1
54 49 1
62 57 1
63 55 1
61 56 1
56 52 0
62 55 3
62 57 1
66 59 2
56 50 1
58 52 3
69 63 3
62 57 1
67 61 2
66 62 2
62 57 2
69 63 5
64 57 1
75 70 3
65 59 2
66 60 4
66 60 4
65 61 1
55 51 1
58 53 1
61 55 2
67 62 2
67 60 4
69 62 4
70 64 2
69 64 2
64 57 2
70 65 4
80 73 7
69 63 5
74 68 6
70 63 4
72 66 2
70 64 4
71 63 6
57 52 2
72 67 5
71 65 4
69 64 5
65 61 6
76 68 8
72 66 3
62 56 3
70 62 7
66 59 6
71 66 5
62 56 5
70 64 6
69 65 4
66 60 5
61 56 3
73 64 5
72 65 7
68 61 4
74 67 7
73 66 7
68 62 5
70 64 6
69 63 7
71 65 6
62 55 6
76 69 9
69 63 7
68 62 5
67 61 8
71 65 6
73 66 5
65 60 3
74 66 8
68 61 7
71 65 6
87 112 0
85 110 0
88 113 0
90 115 0
88 112 0
87 111 0
88 113 0
86 110 0
88 112 0
90 116 0
90 115 0
87 111 0
87 112 0
88 112 0
88 112 0
90 114 0
84 108 0
84 107 0
83 107 0
86 110 0
88 111 0
86 110 0
88 112 0
86 110 0
87 111 0
90 115 0
85 108 0
87 111 0
81 104 0
85 109 0
86 110 0
85 107 0
82 104 0
80 103 0
85 109 0
82 104 0
85 107 0
83 107 0
79 102 0
82 105 0
87 111 0
81 102 0
82 105 0
80 102 0
83 106 0
79 102 0
86 110 0
81 104 0
77 100 0
84 106 0
77 98 0
81 105 0
84 107 0
77 99 0
80 103 0
81 103 0
79 101 0
82 104 0
81 103 0
80 101 0
78 99 0
77 98 0
76 97 0
78 98 0
77 100 0
73 94 0
77 100 0
78 100 0
73 93 0
75 96 0
74 94 0
73 93 0
74 93 0
68 87 0
69 89 0
74 93 0
78 98 0
66 85 0
69 87 0
70 89 0
75 96 0
71 89 0
69 86 0
68 87 0
67 85 0
68 87 0
63 80 0
60 77 0
69 87 0
62 79 0
56 71 0
61 77 0
63 81 0
60 77 0
58 73 0
63 80 0
59 76 0
57 73 0
53 68 0
50 65 0
58 73 0
61 78 0
54 69 0
53 67 0
48 61 0
44 58 0
51 64 0
53 67 0
45 57 0
42 55 0
46 59 0
49 62 0
47 59 0
43 54 0
30 39 0
42 52 0
35 45 0
38 47 0
41 52 0
60 75 0
76 95 0
64 81 0
62 79 0
58 74 0
69 86 0
60 77 0
69 86 0
63 79 0
67 85 0
64 81 0
64 81 0
65 83 0
59 76 0
59 76 0
60 77 0
60 78 0
64 84 0
64 81 0
67 85 0
69 89 0
58 76 0
63 80 0
56 74 0
63 81 0
56 74 0
61 79 0
61 81 0
62 81 0
66 84 0
52 68 0
66 87 0
60 78 0
68 87 0
52 69 0
55 72 0
51 68 0
50 68 0
55 72 0
50 66 0
58 76 0
54 72 0
50 67 0
47 62 0
45 60 0
56 73 0
50 67 0
41 55 0
36 49 0
51 66 0
48 61 0
37 50 0
44 58 0
29 40 0
39 52 0
31 43 0
32 44 0
29 39 0
23 32 0
21 32 8
12 23 10
7 19 12
8 20 15
9 22 21
7 20 10
7 19 11
8 21 10
8 21 16
7 19 15
9 23 25
8 20 17
8 22 16
8 22 15
8 20 20
9 24 21
9 22 21
8 22 21
9 23 21
9 22 20
9 23 26
8 21 20
8 21 24
9 23 21
8 20 16
8 21 23
9 23 23
7 19 21
8 21 23
9 22 21
8 21 17
8 20 23
8 20 17
9 23 20
8 21 14
8 20 17
8 21 13
7 19 10
8 20 22
6 16 10
7 18 18
7 18 7
12 21 10
19 28 5
30 38 0
30 38 0
30 39 0
34 44 0
34 42 0
40 50 0
33 43 0
43 53 0
32 40 0
45 54 0
45 56 0
45 56 0
38 49 0
50 63 0
48 60 0
57 72 0
52 64 0
63 75 0
52 64 0
48 60 0
57 70 0
49 61 0
60 73 0
45 55 0
57 71 0
52 64 0
53 64 0
48 57 0
59 72 0
46 59 0
59 72 0
59 73 0
58 70 0
58 67 0
64 75 0
53 62 0
56 66 0
62 73 0
61 73 0
66 79 0
56 61 0
53 62 0
67 79 0
67 75 0
58 66 0
49 56 0
63 74 0
55 62 0
61 70 0
54 62 0
56 60 0
49 55 0
51 54 0
55 58 0
56 61 0
65 73 0
53 57 0
56 58 0
61 65 0
37 36 0
24 19 1
29 23 0
30 24 0
27 23 0
28 24 0
33 29 0
27 23 0
30 26 0
34 28 0
37 33 0
30 25 0
33 29 0
39 35 0
40 35 0
36 31 0
44 37 0
38 34 0
42 37 0
46 41 0
40 35 0
50 44 0
43 39 0
42 37 0
45 43 0
49 43 0
44 39 0
50 45 0
46 42 0
46 40 0
51 46 0
51 46 0
50 47 0
48 42 0
59 54 1
49 46 0
55 51 0
53 46 1
50 46 1
55 49 1
50 44 0
51 46 0
52 48 1
61 56 0
57 52 0
52 47 0
61 56 1
58 53 0
60 55 1
57 54 1
59 54 1
57 52 0
58 54 0
61 55 2
68 60 1
53 49 1
67 63 3
66 60 3
69 63 4
58 53 1
61 56 1
72 66 2
71 64 2
64 57 2
62 57 2
63 57 2
68 62 3
75 67 2
67 61 3
64 59 3
64 58 2
68 62 4
65 59 3
68 62 4
62 57 1
66 61 3
63 56 6
76 71 5
67 61 3
63 57 6
66 59 2
64 58 2
68 63 2
62 57 3
72 66 5
62 55 4
64 60 1
67 60 4
66 60 4
59 54 1
73 67 3
76 70 4
69 62 8
67 62 6
65 60 4
55 50 5
70 64 5
72 65 7
73 66 7
62 55 4
67 61 6
72 65 8
71 64 6
64 57 6
70 64 5
64 58 6
66 62 4
69 62 7
74 68 7
71 65 7
62 57 5
72 64 7
73 67 7
79 72 9
66 60 6
58 52 6
63 57 5
63 57 4
58 53 5
91 115 0
88 112 0
90 115 0
88 112 0
87 111 0
87 111 0
89 114 0
90 116 0
90 116 0
87 111 0
88 111 0
91 117 0
87 111 0
90 116 0
85 110 0
88 113 0
85 110 0
86 110 0
90 115 0
88 112 0
84 108 0
88 112 0
85 110 0
83 107 0
86 110 0
83 106 0
83 105 0
81 103 0
84 108 0
86 110 0
86 110 0
79 101 0
86 110 0
81 104 0
82 104 0
84 108 0
81 103 0
81 103 0
85 108 0
78 100 0
85 107 0
82 106 0
79 100 0
87 110 0
85 107 0
81 102 0
82 104 0
87 110 0
78 100 0
77 99 0
80 103 0
73 94 0
77 99 0
85 107 0
82 105 0
77 98 0
80 101 0
84 105 0
74 95 0
80 101 0
77 98 0
76 98 0
77 98 0
78 99 0
77 99 0
74 92 0
72 92 0
72 92 0
70 89 0
70 90 0
71 91 0
71 92 0
67 86 0
71 92 0
73 92 0
74 95 0
72 91 0
72 91 0
67 86 0
70 90 0
68 87 0
70 88 0
66 84 0
73 92 0
66 84 0
63 81 0
63 81 0
65 83 0
65 82 0
59 75 0
67 85 0
62 79 0
62 79 0
55 70 0
60 76 0
63 79 0
55 71 0
64 81 0
54 69 0
58 75 0
47 60 0
60 76 0
57 72 0
50 64 0
56 70 0
48 61 0
44 56 0
46 58 0
43 54 0
51 65 0
48 60 0
52 66 0
33 43 0
44 54 0
30 39 0
31 39 0
37 46 0
54 66 0
58 72 0
63 79 0
60 76 0
60 75 0
65 80 0
59 73 0
65 81 0
65 81 0
64 81 0
64 82 0
56 71 0
62 79 0
58 75 0
59 76 0
60 77 0
69 86 0
63 80 0
64 82 0
54 69 0
55 71 0
54 71 0
61 80 0
53 69 0
59 77 0
60 78 0
63 81 0
69 88 0
58 76 0
64 83 0
57 76 0
65 84 0
62 80 0
59 77 0
57 75 0
59 78 0
49 66 0
58 77 0
52 69 0
50 67 0
50 64 0
50 67 0
48 63 0
50 66 0
60 79 0
49 66 0
50 66 0
55 72 0
48 64 0
49 65 0
44 58 0
35 48 0
39 53 0
46 61 0
38 50 0
31 42 0
38 49 0
36 46 0
36 48 0
24 34 0
25 33 0
22 30 0
21 28 0
22 31 2
10 18 5
5 14 7
6 16 12
7 19 12
7 19 12
8 20 20
8 21 20
8 22 24
9 23 21
9 24 25
8 22 23
7 20 12
7 20 15
7 19 16
8 20 16
8 22 23
9 23 25
8 22 20
8 21 15
7 19 16
9 24 30
9 22 28
9 24 29
8 21 19
7 20 11
7 20 16
8 19 21
8 22 22
8 22 17
7 19 15
8 21 21
7 19 14
7 18 15
7 18 16
7 18 12
7 18 14
7 18 17
14 22 5
21 29 5
23 30 0
24 30 0
33 43 0
30 39 0
32 39 0
28 37 0
41 51 0
38 46 0
35 44 0
34 44 0
43 55 0
58 73 0
37 48 0
37 49 0
36 47 0
49 63 0
41 51 0
52 64 0
44 53 0
57 70 0
47 58 0
56 71 0
47 58 0
54 65 0
55 67 0
61 74 0
44 56 0
57 70 0
57 69 0
47 57 0
55 68 0
65 78 0
56 69 0
55 68 0
53 63 0
61 73 0
54 65 0
59 72 0
50 59 0
66 78 0
58 66 0
56 63 0
49 58 0
61 71 0
53 59 0
59 67 0
58 64 0
62 71 0
46 52 0
52 59 0
57 64 0
53 59 0
48 52 0
56 61 0
50 55 0
50 54 0
46 51 0
52 56 0
56 61 0
49 51 0
51 52 0
53 55 0
45 45 0
31 28 0
23 19 1
28 24 0
29 26 0
25 21 0
29 24 0
28 24 0
35 31 0
34 30 1
35 31 0
29 24 0
36 33 0
30 26 0
38 33 0
32 27 0
41 36 0
30 26 0
39 34 0
36 33 0
36 31 0
40 36 0
49 42 0
39 34 0
55 49 0
50 42 0
42 37 0
50 45 0
44 38 0
43 39 0
50 46 0
50 46 0
57 52 0
56 49 0
54 49 0
59 54 0
54 51 0
61 54 0
48 43 0
51 46 0
54 49 1
58 52 0
57 51 0
54 48 1
54 47 0
63 58 0
57 53 1
54 48 1
60 54 0
55 50 0
56 51 0
56 51 1
59 55 0
67 62 2
60 55 1
65 60 1
65 59 2
70 64 0
68 60 3
60 55 2
55 50 1
64 57 3
72 64 5
62 57 3
57 51 1
68 62 4
57 52 1
64 58 3
69 62 3
70 63 3
61 54 1
67 61 2
64 57 3
66 60 3
68 60 4
60 54 4
68 62 3
58 53 4
68 63 5
68 62 6
71 65 5
69 63 5
73 66 2
68 62 6
72 66 5
68 61 6
74 68 4
63 58 3
69 62 5
67 60 3
66 60 5
73 65 6
73 65 7
55 51 3
72 65 4
76 69 7
72 65 5
60 56 5
63 58 2
68 61 5
60 55 2
72 65 5
68 61 6
71 64 6
60 55 6
66 59 7
68 60 7
69 62 8
67 60 6
67 62 5
60 53 7
67 59 7
70 64 7
68 60 7
56 52 3
67 61 6
74 67 5
58 51 6
91 116 0
85 109 0
85 110 0
90 116 0
86 110 0
86 111 0
87 111 0
86 112 0
89 113 0
87 111 0
85 109 0
85 109 0
85 108 0
83 108 0
90 115 0
87 110 0
91 116 0
84 109 0
85 108 0
87 112 0
87 111 0
84 107 0
88 111 0
83 106 0
88 112 0
86 110 0
86 107 0
83 106 0
79 101 0
87 111 0
84 108 0
85 108 0
80 103 0
76 97 0
84 107 0
80 102 0
78 101 0
86 109 0
84 105 0
81 104 0
82 104 0
79 101 0
84 107 0
79 100 0
85 107 0
82 105 0
80 101 0
82 104 0
80 101 0
77 100 0
76 97 0
80 102 0
75 96 0
82 104 0
86 109 0
79 99 0
75 95 0
78 100 0
77 99 0
75 95 0
72 92 0
73 93 0
76 97 0
74 93 0
71 91 0
70 89 0
76 97 0
78 99 0
71 89 0
74 94 0
71 91 0
71 90 0
78 98 0
73 93 0
72 92 0
69 87 0
69 88 0
69 88 0
67 85 0
68 86 0
67 85 0
70 88 0
69 86 0
64 81 0
62 79 0
68 87 0
64 81 0
66 83 0
65 82 0
61 77 0
61 79 0
64 81 0
65 83 0
62 78 0
55 70 0
54 69 0
60 75 0
49 62 0
55 69 0
55 70 0
48 60 0
55 69 0
40 52 0
54 67 0
54 67 0
57 71 0
41 53 0
46 58 0
48 60 0
41 51 0
43 55 0
39 49 0
29 37 0
29 36 0
25 32 0
54 66 0
57 71 0
55 69 0
59 73 0
54 68 0
48 61 0
54 68 0
50 64 0
52 67 0
65 82 0
52 66 0
52 67 0
54 69 0
51 66 0
65 81 0
51 65 0
57 74 0
52 68 0
56 73 0
69 87 0
54 69 0
59 76 0
58 75 0
61 79 0
65 83 0
60 77 0
65 84 0
54 72 0
59 77 0
56 73 0
51 67 0
54 71 0
54 73 0
52 70 0
52 69 0
50 66 0
50 67 0
51 67 0
59 79 0
46 62 0
61 79 0
47 63 0
59 77 0
51 68 0
47 63 0
52 68 0
56 73 0
40 54 0
44 59 0
44 58 0
50 66 0
42 57 0
46 61 0
41 55 0
48 63 0
36 49 0
32 43 0
43 56 0
28 37 0
31 43 0
31 41 0
27 36 0
15 22 0
30 39 0
25 33 0
20 27 0
20 28 0
28 36 1
12 20 1
11 20 5
7 19 14
7 18 15
7 18 16
6 17 15
6 17 16
8 21 16
7 19 16
7 19 16
7 19 16
7 18 14
7 19 16
7 19 14
8 20 21
7 20 14
7 19 19
8 20 8
8 20 17
8 20 11
8 22 24
7 20 13
9 22 28
9 23 24
7 19 19
6 17 10
9 23 16
7 19 19
7 20 12
8 21 24
6 17 7
8 18 8
12 21 8
9 16 6
21 27 1
18 22 0
24 31 0
22 27 0
27 35 0
24 31 0
28 35 0
23 30 0
42 53 0
33 40 0
27 35 0
24 29 0
31 40 0
40 49 0
47 58 0
44 54 0
39 48 0
47 58 0
44 54 0
45 57 0
38 48 0
31 39 0
38 47 0
41 51 0
51 62 0
48 59 0
56 67 0
54 67 0
60 73 0
56 69 0
57 71 0
49 60 0
59 73 0
54 67 0
65 79 0
53 65 0
55 65 0
53 63 0
50 63 0
56 67 0
61 73 0
60 70 0
50 59 0
54 65 0
64 74 0
56 66 0
59 71 0
55 62 0
51 57 0
48 57 0
51 59 0
53 60 0
49 56 0
62 70 0
52 57 0
41 45 0
53 60 0
61 68 0
47 49 0
61 64 0
54 58 0
49 51 0
46 47 0
58 61 0
49 49 0
56 55 0
45 44 0
44 43 0
26 23 0
30 24 1
31 27 1
25 21 0
34 29 0
29 24 0
28 23 0
29 25 0
25 21 0
28 25 0
37 33 0
33 27 0
36 31 0
33 27 0
32 27 0
41 35 0
46 42 0
32 28 0
42 37 0
43 38 0
46 40 0
40 35 0
43 37 0
49 42 0
42 38 0
50 45 0
45 38 0
44 39 0
45 39 0
43 39 0
48 43 0
46 41 0
59 53 0
47 43 0
54 49 0
49 43 0
53 49 0
53 47 1
42 38 0
64 56 1
55 48 0
58 52 0
65 60 1
61 55 1
67 60 2
56 51 0
64 59 1
64 57 3
57 51 1
50 45 0
60 55 1
57 50 1
59 53 2
58 54 0
58 52 1
63 56 4
52 46 0
61 55 2
60 53 2
66 57 2
61 57 0
61 56 2
67 60 3
66 61 5
66 59 4
71 63 6
68 61 2
68 60 4
59 53 3
60 54 1
60 54 3
62 57 3
68 60 4
64 59 4
67 62 3
56 51 2
67 61 3
63 57 5
66 59 4
68 61 5
68 62 4
66 60 4
63 57 3
67 61 6
66 60 6
61 56 3
64 59 2
66 60 5
63 57 5
66 59 5
71 63 5
70 63 5
75 68 8
65 59 4
68 61 5
69 62 6
66 60 5
68 60 6
63 57 7
68 62 5
67 61 4
70 63 7
68 61 5
64 59 4
63 57 4
64 59 3
55 49 4
61 56 5
72 65 8
57 51 4
69 63 7
63 57 4
53 48 4
60 55 7
71 63 9
86 111 0
84 108 0
87 111 0
89 114 0
90 114 0
90 113 0
89 112 0
84 108 0
83 106 0
87 110 0
90 114 0
92 117 0
89 113 0
87 110 0
86 110 0
85 109 0
88 113 0
84 108 0
84 105 0
85 109 0
79 101 0
85 108 0
83 106 0
88 111 0
86 109 0
83 106 0
81 104 0
81 104 0
84 106 0
84 107 0
86 110 0
83 105 0
82 105 0
86 110 0
82 104 0
81 103 0
83 104 0
85 108 0
82 104 0
78 100 0
80 104 0
85 107 0
87 110 0
84 106 0
81 103 0
80 102 0
78 100 0
73 95 0
80 101 0
82 104 0
78 99 0
71 91 0
76 96 0
75 96 0
78 99 0
78 99 0
78 100 0
79 101 0
72 92 0
77 97 0
77 97 0
81 102 0
77 98 0
71 91 0
73 93 0
66 84 0
72 91 0
69 87 0
71 90 0
70 89 0
71 89 0
75 94 0
60 77 0
70 89 0
70 88 0
67 85 0
62 80 0
67 85 0
64 81 0
71 90 0
65 84 0
67 85 0
61 77 0
63 79 0
63 80 0
54 69 0
70 87 0
66 82 0
55 70 0
62 78 0
65 82 0
59 75 0
56 72 0
57 71 0
55 70 0
57 72 0
65 82 0
52 66 0
51 65 0
54 67 0
52 66 0
50 63 0
51 63 0
53 67 0
50 63 0
41 52 0
51 64 0
46 59 0
32 40 0
34 44 0
35 44 0
34 43 0
26 33 0
40 50 0
47 58 0
49 61 0
51 62 0
61 75 0
56 70 0
60 74 0
49 61 0
55 69 0
63 79 0
62 78 0
53 67 0
53 67 0
61 77 0
55 71 0
61 76 0
54 70 0
53 67 0
56 71 0
56 72 0
58 74 0
54 71 0
46 59 0
47 60 0
57 74 0
44 60 0
61 80 0
54 71 0
69 87 0
60 78 0
61 80 0
58 75 0
63 82 0
51 66 0
58 76 0
51 68 0
54 72 0
59 77 0
60 79 0
59 77 0
58 77 0
50 66 0
48 65 0
63 81 0
48 63 0
61 79 0
49 64 0
44 59 0
45 62 0
53 71 0
47 62 0
45 61 0
49 64 0
36 50 0
35 49 0
49 65 0
45 59 0
45 60 0
39 53 0
31 42 0
41 54 0
30 42 0
26 35 0
27 37 0
28 38 0
25 34 0
26 36 0
26 34 0
24 32 0
23 30 0
21 30 0
23 30 0
15 21 1
16 23 6
9 16 7
7 15 8
6 16 11
5 13 7
6 16 14
7 18 11
6 17 14
7 18 15
6 18 10
6 15 15
6 17 17
7 18 14
7 18 11
7 18 15
6 18 11
7 19 23
7 19 14
7 18 14
7 17 12
7 19 17
7 19 12
6 17 17
7 18 8
8 18 11
10 18 11
9 17 8
11 16 3
9 12 0
10 14 0
22 28 0
17 22 0
22 29 0
38 47 0
26 32 0
31 39 0
20 27 0
20 27 0
33 42 0
29 37 0
39 49 0
28 35 0
22 29 0
38 47 0
41 52 0
43 54 0
37 49 0
41 51 0
47 59 0
44 57 0
46 58 0
41 52 0
44 56 0
42 53 0
40 50 0
44 56 0
49 61 0
59 75 0
43 54 0
50 61 0
52 63 0
56 70 0
55 68 0
58 71 0
48 61 0
56 66 0
56 69 0
54 64 0
51 63 0
55 65 0
52 62 0
57 68 0
55 64 0
56 64 0
53 62 0
61 72 0
61 70 0
56 65 0
56 66 0
45 53 0
50 58 0
58 63 0
45 50 0
52 57 0
49 56 0
49 55 0
45 49 0
49 53 0
57 63 0
42 45 0
39 41 0
47 49 0
49 51 0
45 49 0
46 49 0
39 39 0
47 46 0
48 50 0
37 35 0
38 37 0
26 24 0
26 21 1
31 26 0
25 20 0
33 28 0
27 24 0
29 22 0
34 30 0
28 23 0
37 30 0
34 28 0
37 31 0
35 31 0
40 36 0
33 27 0
38 32 0
36 31 0
37 32 0
42 36 0
40 35 0
40 35 0
42 37 0
40 34 0
37 33 0
40 35 0
52 45 0
49 41 0
51 45 0
43 37 0
57 49 0
45 39 0
47 43 0
54 49 1
51 44 0
55 50 0
51 45 0
49 42 0
58 51 0
46 41 0
49 41 0
56 50 1
53 48 1
61 55 2
53 49 0
62 54 0
54 50 0
57 52 1
51 44 0
54 48 0
67 60 2
59 54 0
69 61 4
60 54 0
59 52 2
65 58 3
56 50 1
59 54 1
68 61 1
62 56 2
64 58 1
64 57 3
61 57 1
59 53 1
64 58 2
67 59 2
67 61 3
61 54 2
71 63 1
64 58 1
57 49 4
51 46 2
55 50 2
73 66 4
70 62 2
72 66 3
68 62 5
63 56 5
72 64 3
60 54 4
65 61 3
63 57 3
61 55 3
64 58 4
59 53 4
62 57 4
66 60 4
68 62 3
68 62 4
69 61 5
65 58 3
66 59 5
61 56 4
74 68 8
66 60 3
65 60 3
58 52 5
59 54 3
63 57 6
62 56 6
61 54 5
64 56 3
58 53 3
64 59 7
58 52 6
58 51 5
61 54 7
46 41 4
66 59 4
65 60 8
64 57 7
64 58 8
59 54 5
76 69 7
63 56 5
82 104 0
88 113 0
87 111 0
88 112 0
88 114 0
89 113 0
86 109 0
86 111 0
86 110 0
84 109 0
90 113 0
85 108 0
82 105 0
87 111 0
83 107 0
88 113 0
87 111 0
88 112 0
85 109 0
87 110 0
87 111 0
83 106 0
85 107 0
81 103 0
82 104 0
90 113 0
83 105 0
82 105 0
83 106 0
83 105 0
81 102 0
78 100 0
84 106 0
83 105 0
80 102 0
86 108 0
84 106 0
82 103 0
83 104 0
81 103 0
80 102 0
82 103 0
84 107 0
81 102 0
76 97 0
80 101 0
82 103 0
78 100 0
78 99 0
76 97 0
81 102 0
77 99 0
79 99 0
79 100 0
75 95 0
78 99 0
79 99 0
73 93 0
74 94 0
72 92 0
83 104 0
71 89 0
75 94 0
81 101 0
73 91 0
74 94 0
78 99 0
69 86 0
72 91 0
75 94 0
70 89 0
72 90 0
68 85 0
71 90 0
73 92 0
70 89 0
69 88 0
66 84 0
68 85 0
59 75 0
67 84 0
68 86 0
58 74 0
67 85 0
66 84 0
63 79 0
60 76 0
63 79 0
63 79 0
60 75 0
61 77 0
60 76 0
53 67 0
62 79 0
47 59 0
57 71 0
61 78 0
50 64 0
53 67 0
57 71 0
55 68 0
45 58 0
46 58 0
46 58 0
49 60 0
43 54 0
40 51 0
43 54 0
33 43 0
32 40 0
26 32 0
33 41 0
51 62 0
46 58 0
43 54 0
50 63 0
46 58 0
47 59 0
45 57 0
47 59 0
55 67 0
52 66 0
48 60 0
45 58 0
46 60 0
58 73 0
60 76 0
62 78 0
60 76 0
57 74 0
48 62 0
60 78 0
45 59 0
56 73 0
50 65 0
52 68 0
48 64 0
55 72 0
64 83 0
65 82 0
63 82 0
46 61 0
67 85 0
59 78 0
59 77 0
51 66 0
56 74 0
55 71 0
63 83 0
55 73 0
56 75 0
49 66 0
70 90 0
50 67 0
55 72 0
54 71 0
46 63 0
47 62 0
52 70 0
48 64 0
51 67 0
48 64 0
53 69 0
40 55 0
37 51 0
41 56 0
49 64 0
44 59 0
39 53 0
39 51 0
44 58 0
32 44 0
36 48 0
37 50 0
35 47 0
24 34 0
31 43 0
38 50 0
25 34 0
27 35 0
23 32 0
22 30 0
24 32 0
19 26 0
19 25 0
15 21 0
20 26 0
15 21 0
14 20 0
16 21 0
7 11 1
9 14 1
7 13 5
5 13 7
7 16 7
8 17 8
5 13 10
5 14 15
6 16 14
6 17 14
7 17 15
6 15 12
5 15 10
5 15 6
7 16 12
7 16 16
4 11 12
4 10 6
9 15 3
5 9 2
16 21 0
15 18 0
13 17 0
17 22 0
17 20 0
20 25 0
22 28 0
22 27 0
17 23 0
26 32 0
24 32 0
32 41 0
15 22 0
34 42 0
29 37 0
38 48 0
27 34 0
37 46 0
36 45 0
40 49 0
35 43 0
39 49 0
41 50 0
41 51 0
42 52 0
35 45 0
34 42 0
54 66 0
43 53 0
49 61 0
41 51 0
45 52 0
54 65 0
47 57 0
50 61 0
59 72 0
55 69 0
44 53 0
45 55 0
62 75 0
53 63 0
48 59 0
44 55 0
50 61 0
52 61 0
42 51 0
54 63 0
50 62 0
58 68 0
49 58 0
54 65 0
56 67 0
50 57 0
51 60 0
55 66 0
53 61 0
48 55 0
49 52 0
45 52 0
58 64 0
55 62 0
54 58 0
53 58 0
53 60 0
46 49 0
60 66 0
47 53 0
58 63 0
45 50 0
49 52 0
36 37 0
47 47 0
49 51 0
43 45 0
53 53 0
44 43 0
43 43 0
45 44 0
29 26 1
24 19 0
22 17 0
20 16 0
24 20 0
30 25 0
26 20 0
30 26 0
32 26 0
35 30 0
37 32 0
30 25 0
32 27 0
35 30 0
35 31 0
46 40 0
33 26 0
47 41 0
30 26 0
34 29 0
39 34 0
48 41 0
40 37 0
41 34 0
52 45 0
42 35 0
47 42 0
49 43 0
55 50 0
40 35 0
36 32 0
47 41 0
56 49 0
46 42 0
56 50 0
54 49 0
53 48 0
52 44 0
56 52 1
51 45 0
52 47 0
61 54 2
62 54 0
46 42 0
64 58 1
63 57 1
60 53 1
57 52 0
61 54 1
57 52 1
54 45 0
59 53 2
60 54 3
57 51 1
60 55 2
62 55 1
60 55 2
62 57 1
56 50 0
67 61 2
61 56 1
64 56 1
64 58 4
69 64 3
53 46 3
63 56 1
70 63 3
73 66 4
63 58 3
61 54 1
64 57 1
66 61 3
62 56 5
60 54 2
68 60 6
65 58 6
66 60 2
55 49 3
67 61 3
64 58 3
68 62 3
59 53 3
57 50 3
61 55 4
66 58 4
68 62 4
60 55 2
54 50 2
62 55 4
64 59 5
68 61 5
64 59 6
60 54 5
59 54 3
69 64 7
52 47 2
70 62 6
67 61 8
63 56 5
69 62 5
57 51 3
57 51 6
65 58 6
72 66 8
65 57 8
62 55 5
64 56 5
66 58 8
64 58 7
54 50 3
53 48 6
67 62 7
81 104 0
79 102 0
79 102 0
85 108 0
86 110 0
90 114 0
90 115 0
86 109 0
83 106 0
88 113 0
87 111 0
87 110 0
86 109 0
92 115 0
87 110 0
87 112 0
82 106 0
84 107 0
84 107 0
87 110 0
87 110 0
87 112 0
83 107 0
83 105 0
84 107 0
82 105 0
82 105 0
83 104 0
85 107 0
79 99 0
81 102 0
80 102 0
82 105 0
80 102 0
85 108 0
82 104 0
83 105 0
83 105 0
84 105 0
81 102 0
82 104 0
81 102 0
78 99 0
78 99 0
81 103 0
76 97 0
82 103 0
74 93 0
79 100 0
75 95 0
78 99 0
75 96 0
77 98 0
80 100 0
77 96 0
76 97 0
76 97 0
72 90 0
70 88 0
72 91 0
72 92 0
68 86 0
77 97 0
73 91 0
73 93 0
77 97 0
72 91 0
69 87 0
72 91 0
70 88 0
73 91 0
70 88 0
68 85 0
70 89 0
73 91 0
74 92 0
72 90 0
64 80 0
65 82 0
63 80 0
61 76 0
65 82 0
60 75 0
64 80 0
66 82 0
70 88 0
56 71 0
61 77 0
67 83 0
58 73 0
52 66 0
57 71 0
60 75 0
52 65 0
58 73 0
45 58 0
52 65 0
50 62 0
53 66 0
52 65 0
46 59 0
42 53 0
47 59 0
44 55 0
41 51 0
42 52 0
30 37 0
37 46 0
29 36 0
27 34 0
37 45 0
45 55 0
49 61 0
44 55 0
41 52 0
49 61 0
49 62 0
53 66 0
45 56 0
50 62 0
53 66 0
56 70 0
48 62 0
59 74 0
47 61 0
58 73 0
62 79 0
49 62 0
51 66 0
60 76 0
57 73 0
55 70 0
51 65 0
59 76 0
54 70 0
51 67 0
63 81 0
60 77 0
54 71 0
50 66 0
58 75 0
55 72 0
54 70 0
64 82 0
54 71 0
60 79 0
64 83 0
69 89 0
55 73 0
49 66 0
47 62 0
56 74 0
56 74 0
55 74 0
60 79 0
51 67 0
61 79 0
53 70 0
43 58 0
54 72 0
33 47 0
58 76 0
54 70 0
42 57 0
38 52 0
55 72 0
40 55 0
53 68 0
43 57 0
48 63 0
32 43 0
34 46 0
33 44 0
38 49 0
29 39 0
27 37 0
38 49 0
25 35 0
16 24 0
28 38 0
20 29 0
25 34 0
23 32 0
23 31 0
18 26 0
15 21 0
20 27 0
13 19 0
20 26 0
16 21 0
12 16 0
12 17 0
17 22 0
11 15 0
8 11 0
7 11 0
15 20 0
7 10 0
16 21 1
12 15 0
17 22 0
6 10 1
17 22 0
8 12 0
5 8 0
13 18 0
13 17 0
13 17 0
22 27 0
15 21 0
17 22 0
19 25 0
18 24 0
16 21 0
18 23 0
20 26 0
17 22 0
15 22 0
27 35 0
32 41 0
26 33 0
23 29 0
28 34 0
38 48 0
34 41 0
30 39 0
23 31 0
36 44 0
38 48 0
43 53 0
34 42 0
41 49 0
39 50 0
48 58 0
40 52 0
49 61 0
38 48 0
42 55 0
41 52 0
46 57 0
45 54 0
42 54 0
56 70 0
36 47 0
51 63 0
41 50 0
53 66 0
46 56 0
56 70 0
65 75 0
63 77 0
58 72 0
53 65 0
43 54 0
57 70 0
56 68 0
52 64 0
55 65 0
46 53 0
49 57 0
57 68 0
52 62 0
46 54 0
50 58 0
57 66 0
45 52 0
55 63 0
52 58 0
47 51 0
62 69 0
49 57 0
55 63 0
52 60 0
47 51 0
45 49 0
44 47 0
44 51 0
45 46 0
48 49 0
46 46 0
42 42 0
44 44 0
37 38 0
51 51 0
32 28 0
39 39 0
37 38 0
41 39 0
34 32 0
34 31 0
28 24 0
20 15 0
27 22 1
29 25 0
31 26 0
27 23 0
25 21 0
29 24 0
36 30 0
33 27 0
31 25 0
38 32 0
29 24 0
32 27 0
50 42 0
45 39 0
40 35 0
34 30 0
39 34 0
38 32 0
45 38 0
42 36 0
41 35 0
44 40 0
35 31 0
43 36 0
48 41 0
46 41 0
39 33 0
43 39 0
53 45 0
52 46 0
47 42 0
43 37 0
57 50 0
55 49 0
50 44 1
55 49 0
53 47 0
51 44 0
56 50 1
62 55 1
56 48 1
51 43 0
53 47 1
55 50 1
57 50 1
63 56 0
49 45 1
61 54 1
52 47 0
64 59 1
57 50 0
49 44 0
68 62 3
58 50 1
60 53 1
57 51 2
62 56 2
62 56 1
69 63 2
61 55 2
60 53 3
68 62 3
59 52 3
60 55 2
58 52 3
59 53 1
61 55 3
66 58 2
59 52 5
59 53 2
61 55 4
57 52 2
66 60 3
69 63 4
66 60 4
66 59 4
65 60 3
57 51 2
61 55 3
61 55 2
61 56 4
69 62 5
63 57 2
62 56 1
62 56 3
65 59 4
59 53 4
60 54 5
54 48 3
60 55 3
57 52 4
61 56 4
59 54 4
71 64 5
61 55 4
59 53 4
58 51 3
56 50 4
58 53 4
68 62 6
57 51 4
53 48 4
68 62 6
62 55 5
52 46 4
63 57 5
60 53 8
60 55 4
81 103 0
78 99 0
81 104 0
83 107 0
81 104 0
82 104 0
87 112 0
88 112 0
87 110 0
87 110 0
85 108 0
87 110 0
82 106 0
87 112 0
89 112 0
82 103 0
82 104 0
86 109 0
89 114 0
84 106 0
86 109 0
87 110 0
82 105 0
83 105 0
83 105 0
86 109 0
80 101 0
82 103 0
81 102 0
81 103 0
82 104 0
88 109 0
79 99 0
78 99 0
78 100 0
84 106 0
84 106 0
87 108 0
80 101 0
82 104 0
85 107 0
79 100 0
77 96 0
73 93 0
80 102 0
81 102 0
80 101 0
77 98 0
78 98 0
80 100 0
76 95 0
78 98 0
77 97 0
74 93 0
73 91 0
78 97 0
72 90 0
74 94 0
76 95 0
76 95 0
77 95 0
75 94 0
72 92 0
77 97 0
68 86 0
72 90 0
72 91 0
73 92 0
68 84 0
70 88 0
66 84 0
74 93 0
60 76 0
63 80 0
70 88 0
69 87 0
67 84 0
61 77 0
58 74 0
68 85 0
61 77 0
66 82 0
60 77 0
64 80 0
64 82 0
58 73 0
57 73 0
60 75 0
60 76 0
58 73 0
58 73 0
55 68 0
54 68 0
53 66 0
52 65 0
50 63 0
52 65 0
52 65 0
48 61 0
50 62 0
41 52 0
48 60 0
35 45 0
30 38 0
29 36 0
23 30 0
31 39 0
34 42 0
36 45 0
43 53 0
47 57 0
47 58 0
40 50 0
46 56 0
47 58 0
50 62 0
55 68 0
49 61 0
59 74 0
58 72 0
60 73 0
47 60 0
52 66 0
50 63 0
52 66 0
55 70 0
61 77 0
42 55 0
63 79 0
60 76 0
60 76 0
55 70 0
57 74 0
68 86 0
54 71 0
61 78 0
63 80 0
55 72 0
51 66 0
54 70 0
58 75 0
57 74 0
59 77 0
61 79 0
58 76 0
57 75 0
55 74 0
67 87 0
62 81 0
62 81 0
55 71 0
62 82 0
49 65 0
55 72 0
54 72 0
54 71 0
47 63 0
52 69 0
46 62 0
52 68 0
49 65 0
53 70 0
57 75 0
51 68 0
38 52 0
38 52 0
38 51 0
39 53 0
54 70 0
45 59 0
36 50 0
34 46 0
30 41 0
37 50 0
30 42 0
27 38 0
27 37 0
35 46 0
35 46 0
29 39 0
37 47 0
22 30 0
23 32 0
31 41 0
22 30 0
34 44 0
27 36 0
15 21 0
21 29 0
17 23 0
21 28 0
24 31 0
20 28 0
9 14 0
15 20 0
14 20 0
11 15 0
12 16 0
8 12 0
20 25 0
18 25 0
18 24 0
7 10 0
14 19 0
16 22 0
28 35 0
15 20 0
20 26 0
10 14 0
24 31 0
14 19 0
25 33 0
21 27 0
22 28 0
20 26 0
24 31 0
24 32 0
14 21 0
31 41 0
33 43 0
26 33 0
30 38 0
26 33 0
31 40 0
31 40 0
28 37 0
29 37 0
29 38 0
36 44 0
42 52 0
37 47 0
51 62 0
42 52 0
42 53 0
48 60 0
36 48 0
54 66 0
37 47 0
54 67 0
53 66 0
45 54 0
50 61 0
46 57 0
56 68 0
59 73 0
54 67 0
56 67 0
47 55 0
47 56 0
50 63 0
61 74 0
50 60 0
68 82 0
54 65 0
55 65 0
60 71 0
55 68 0
51 61 0
45 54 0
55 66 0
49 58 0
56 66 0
51 63 0
56 65 0
50 60 0
62 70 0
55 63 0
47 52 0
43 48 0
49 58 0
53 60 0
44 50 0
52 57 0
43 46 0
63 71 0
52 56 0
44 48 0
43 47 0
39 42 0
44 46 0
46 48 0
39 42 0
36 36 0
49 52 0
50 50 0
42 42 0
35 37 0
38 35 0
43 42 0
40 39 0
29 29 0
26 25 0
38 36 0
16 12 0
29 23 0
28 21 0
23 19 0
31 25 0
28 22 0
34 27 0
30 26 0
41 35 0
28 24 0
33 29 0
29 24 0
35 28 0
39 32 0
35 29 0
35 30 0
35 30 0
40 34 0
36 32 0
37 32 0
39 34 0
37 32 0
41 34 0
39 34 0
52 45 0
41 37 0
41 36 0
40 37 0
46 39 0
40 33 0
54 46 0
47 40 0
47 42 1
42 38 0
46 41 0
48 42 0
52 44 0
56 50 0
56 50 1
64 57 1
52 46 0
46 41 0
59 52 0
55 49 1
56 51 1
52 48 0
59 53 0
56 49 2
60 53 2
47 41 1
58 53 1
55 50 1
57 51 3
59 51 2
63 56 2
61 55 2
62 55 3
68 62 3
55 47 2
68 59 3
66 59 3
64 58 2
72 65 3
55 49 2
63 55 4
61 55 4
63 58 2
62 57 4
53 49 1
73 65 5
66 60 3
64 58 4
53 48 1
57 50 4
55 50 1
58 52 2
61 54 2
54 47 3
65 58 4
66 60 6
66 60 6
53 49 1
63 56 5
65 57 7
61 55 3
68 61 4
71 64 5
63 57 6
62 57 4
64 58 3
65 60 5
57 50 8
61 55 5
61 54 4
56 50 4
68 60 7
65 59 7
54 48 3
58 52 7
54 49 3
53 47 5
63 56 6
56 50 5
57 50 6
51 47 4
56 50 6
57 52 6
76 96 0
75 96 0
79 100 0
78 100 0
79 100 0
82 105 0
84 107 0
78 100 0
87 110 0
81 104 0
85 108 0
84 107 0
83 107 0
88 112 0
82 104 0
83 105 0
84 107 0
80 102 0
84 107 0
85 107 0
86 110 0
86 110 0
74 95 0
82 104 0
80 102 0
84 106 0
82 105 0
83 105 0
84 106 0
81 101 0
82 103 0
83 106 0
80 101 0
83 104 0
78 99 0
83 104 0
79 100 0
73 92 0
80 101 0
75 95 0
79 100 0
76 96 0
76 96 0
81 101 0
78 98 0
71 90 0
76 96 0
80 101 0
76 96 0
74 94 0
78 98 0
77 96 0
72 91 0
72 91 0
79 99 0
72 92 0
72 92 0
72 90 0
76 96 0
73 93 0
73 92 0
72 92 0
75 95 0
66 83 0
68 87 0
65 82 0
72 91 0
73 91 0
74 93 0
70 87 0
66 83 0
75 94 0
73 91 0
69 87 0
63 79 0
67 84 0
67 84 0
63 79 0
68 85 0
62 78 0
69 87 0
61 77 0
64 80 0
60 76 0
58 73 0
50 64 0
57 71 0
56 71 0
53 66 0
63 79 0
53 67 0
57 71 0
51 64 0
52 65 0
42 52 0
50 61 0
46 56 0
49 60 0
47 59 0
49 60 0
34 43 0
28 35 0
28 35 0
27 34 0
30 37 0
32 39 0
31 38 0
39 47 0
38 48 0
40 50 0
41 51 0
42 52 0
50 62 0
45 56 0
53 66 0
60 75 0
46 57 0
51 65 0
47 59 0
48 61 0
48 61 0
57 70 0
47 59 0
61 76 0
48 62 0
58 72 0
50 64 0
59 75 0
62 78 0
57 72 0
55 72 0
57 73 0
47 61 0
54 71 0
64 81 0
59 75 0
62 79 0
59 76 0
57 74 0
50 65 0
62 80 0
61 79 0
64 82 0
58 76 0
60 78 0
60 78 0
52 69 0
58 76 0
51 67 0
62 80 0
54 71 0
65 84 0
63 83 0
49 66 0
54 71 0
55 73 0
61 80 0
48 64 0
66 84 0
40 55 0
39 53 0
48 64 0
42 57 0
47 62 0
46 61 0
46 62 0
43 58 0
49 66 0
47 62 0
40 54 0
38 53 0
39 52 0
36 50 0
32 43 0
24 35 0
32 44 0
32 43 0
27 38 0
37 49 0
31 42 0
33 45 0
30 41 0
29 40 0
25 35 0
33 44 0
33 43 0
25 33 0
26 36 0
22 29 0
23 31 0
26 34 0
16 24 0
27 35 0
16 22 0
21 27 0
13 20 0
27 35 0
15 21 0
27 35 0
17 24 0
13 18 0
11 16 0
26 34 0
23 30 0
18 23 0
13 18 0
19 26 0
21 27 0
21 28 0
18 24 0
20 27 0
17 23 0
25 32 0
24 32 0
24 32 0
29 39 0
30 40 0
20 28 0
28 37 0
35 46 0
32 40 0
31 38 0
36 45 0
28 37 0
30 40 0
27 35 0
29 39 0
40 49 0
29 40 0
37 47 0
41 52 0
43 54 0
48 59 0
33 44 0
46 60 0
49 60 0
46 58 0
43 54 0
43 56 0
48 60 0
51 62 0
51 65 0
55 68 0
59 73 0
48 60 0
54 66 0
62 77 0
62 75 0
52 64 0
59 72 0
45 54 0
57 72 0
55 68 0
49 61 0
41 52 0
50 61 0
55 65 0
48 55 0
47 55 0
44 54 0
63 72 0
57 67 0
46 57 0
54 65 0
61 72 0
60 68 0
61 70 0
51 55 0
55 61 0
54 63 0
47 54 0
42 46 0
53 61 0
52 60 0
51 58 0
52 57 0
52 58 0
53 55 0
55 59 0
38 41 0
49 52 0
45 47 0
42 45 0
45 47 0
40 40 0
37 37 0
41 40 0
40 40 0
41 43 0
33 31 0
31 29 0
35 32 0
30 27 0
37 33 0
31 27 0
18 16 0
16 12 0
24 20 0
18 15 0
25 20 0
25 21 0
26 21 0
29 24 0
31 25 0
32 27 0
36 30 0
30 25 0
42 35 0
37 30 0
34 28 0
42 35 0
36 31 0
36 30 0
32 28 0
40 34 0
37 31 0
41 35 0
39 33 0
54 46 0
48 42 0
37 32 0
52 45 0
48 42 0
54 48 1
46 41 0
49 42 0
44 39 0
50 43 0
47 42 0
49 42 1
47 42 0
53 47 0
53 46 0
49 43 0
58 52 1
48 42 0
57 49 0
55 49 1
56 49 2
48 43 0
55 49 0
52 46 1
51 45 1
65 58 1
57 51 1
56 48 1
53 45 1
50 44 1
60 53 1
62 56 2
52 47 1
51 45 0
60 54 3
52 47 1
61 53 3
58 52 2
63 55 1
66 58 1
61 55 3
53 48 3
51 46 1
59 54 3
56 51 1
63 56 3
62 57 3
58 51 3
50 46 1
45 41 2
59 53 2
67 61 4
60 55 5
51 46 3
60 53 6
54 49 2
60 54 4
68 60 6
58 53 2
51 46 3
59 53 3
62 55 3
52 47 2
62 55 4
56 50 6
63 57 4
70 61 6
59 53 4
70 61 6
61 56 4
60 53 4
55 50 4
63 56 6
63 57 6
60 54 4
57 50 3
61 55 5
62 56 5
65 56 6
57 50 4
52 46 4
54 49 6
72 92 0
70 89 0
69 87 0
72 91 0
75 96 0
75 96 0
80 103 0
80 102 0
79 100 0
78 98 0
84 108 0
83 106 0
79 101 0
85 107 0
85 107 0
87 109 0
81 103 0
84 106 0
81 103 0
86 109 0
81 104 0
79 99 0
86 110 0
82 102 0
85 107 0
87 109 0
83 105 0
82 103 0
80 101 0
84 104 0
86 108 0
82 104 0
82 104 0
78 98 0
82 103 0
81 102 0
81 103 0
80 101 0
75 96 0
78 98 0
81 102 0
80 100 0
79 100 0
75 94 0
78 98 0
79 98 0
75 95 0
82 102 0
81 101 0
80 101 0
72 91 0
74 94 0
78 99 0
71 90 0
73 92 0
72 91 0
74 93 0
71 90 0
71 90 0
72 90 0
73 92 0
68 86 0
66 83 0
80 99 0
66 83 0
74 93 0
63 80 0
70 87 0
72 89 0
66 82 0
68 85 0
65 82 0
70 87 0
58 73 0
63 79 0
69 86 0
66 82 0
61 77 0
66 83 0
65 81 0
63 79 0
61 77 0
58 73 0
61 76 0
55 69 0
55 68 0
57 72 0
56 69 0
51 64 0
50 63 0
53 66 0
51 64 0
41 52 0
49 61 0
48 59 0
50 62 0
39 49 0
42 52 0
37 46 0
33 41 0
21 26 0
25 30 0
27 34 0
33 41 0
35 43 0
37 45 0
36 44 0
40 49 0
38 47 0
39 49 0
42 52 0
50 62 0
43 53 0
51 64 0
46 58 0
47 60 0
60 74 0
47 59 0
48 61 0
53 68 0
60 75 0
53 66 0
47 60 0
50 64 0
55 70 0
63 80 0
57 73 0
62 77 0
58 74 0
52 66 0
49 63 0
57 74 0
56 72 0
54 71 0
57 73 0
55 72 0
56 73 0
48 65 0
56 74 0
62 81 0
57 75 0
70 90 0
57 75 0
50 66 0
61 80 0
45 60 0
55 72 0
59 76 0
47 63 0
53 69 0
53 70 0
67 86 0
54 70 0
46 62 0
53 70 0
52 70 0
69 87 0
55 73 0
55 72 0
57 74 0
51 66 0
56 73 0
53 70 0
41 55 0
59 76 0
49 64 0
35 47 0
49 65 0
46 61 0
43 57 0
36 49 0
57 74 0
45 60 0
37 50 0
40 54 0
35 48 0
32 44 0
41 55 0
41 55 0
27 38 0
34 45 0
22 31 0
40 52 0
26 35 0
30 40 0
28 39 0
31 41 0
32 43 0
25 34 0
20 28 0
30 40 0
25 34 0
27 36 0
29 38 0
20 27 0
18 25 0
17 24 0
22 29 0
21 29 0
16 23 0
17 24 0
17 24 0
10 15 0
23 32 0
18 24 0
26 34 0
23 29 0
19 25 0
27 34 0
21 28 0
20 27 0
24 32 0
26 33 0
32 40 0
17 23 0
22 30 0
31 41 0
30 39 0
22 30 0
28 39 0
34 45 0
32 44 0
35 46 0
33 44 0
35 46 0
34 44 0
45 55 0
48 59 0
36 47 0
40 52 0
35 45 0
25 33 0
53 66 0
47 60 0
46 59 0
56 71 0
50 64 0
49 61 0
47 60 0
49 60 0
48 60 0
45 56 0
62 75 0
55 68 0
50 63 0
60 75 0
56 70 0
49 63 0
55 68 0
63 77 0
52 64 0
54 66 0
42 53 0
54 66 0
46 57 0
53 64 0
61 72 0
51 62 0
51 59 0
59 74 0
59 72 0
49 60 0
55 67 0
57 66 0
47 54 0
59 69 0
50 57 0
58 68 0
47 54 0
49 61 0
48 54 0
55 62 0
50 55 0
46 53 0
50 56 0
45 49 0
49 52 0
47 51 0
42 44 0
46 50 0
49 51 0
40 42 0
50 51 0
42 43 0
46 50 0
39 41 0
32 30 0
36 35 0
35 34 0
43 41 0
40 37 0
33 31 0
30 26 0
33 31 0
35 31 0
27 27 0
19 17 0
22 18 0
19 16 0
24 20 0
23 18 0
25 19 0
25 18 0
32 25 0
33 28 0
28 22 0
34 27 0
31 26 0
35 29 0
36 30 0
35 29 0
30 25 0
32 26 0
46 38 0
34 28 0
33 28 0
53 43 0
40 33 0
39 33 0
44 37 0
46 41 0
46 40 0
42 38 0
34 29 0
44 37 0
42 35 0
52 45 0
49 43 0
48 40 0
49 42 0
53 46 1
52 47 0
51 43 0
47 42 0
50 45 1
54 48 0
52 45 1
37 32 0
60 54 0
53 46 2
54 47 0
52 45 0
62 55 2
56 49 0
52 47 0
49 44 1
54 47 1
57 51 2
51 45 1
54 49 1
59 54 2
66 58 2
48 43 1
55 48 2
54 48 1
58 51 2
59 52 3
55 48 2
50 45 1
60 54 1
61 56 1
55 50 2
65 58 3
60 53 1
60 53 2
62 55 3
56 50 3
70 63 5
59 52 4
58 52 1
64 58 3
64 58 4
62 56 3
58 52 5
55 50 4
59 53 3
56 51 4
71 65 6
55 49 3
60 54 4
64 57 4
68 61 4
54 49 2
55 48 4
57 51 6
60 53 4
64 58 6
55 49 4
55 48 3
58 53 5
53 46 3
59 52 5
64 58 7
53 47 4
69 62 6
60 54 6
66 60 8
58 52 5
50 45 5
49 44 4
71 91 2
49 63 0
64 82 0
57 73 0
62 79 0
70 88 0
72 91 0
72 93 0
79 101 0
82 105 0
79 101 0
81 103 0
81 103 0
84 105 0
83 105 0
85 107 0
82 105 0
85 108 0
84 107 0
81 103 0
86 108 0
84 105 0
84 106 0
85 106 0
82 105 0
85 106 0
76 96 0
80 102 0
77 97 0
86 109 0
82 103 0
82 102 0
80 102 0
75 95 0
77 97 0
83 103 0
74 93 0
81 101 0
77 97 0
70 89 0
75 94 0
82 103 0
73 92 0
75 94 0
78 99 0
78 98 0
78 98 0
76 96 0
75 94 0
72 90 0
77 96 0
76 95 0
75 94 0
76 97 0
68 86 0
74 93 0
70 86 0
69 86 0
72 89 0
76 94 0
63 81 0
70 88 0
73 91 0
68 85 0
69 86 0
68 85 0
69 86 0
66 82 0
72 89 0
64 82 0
69 86 0
61 76 0
64 79 0
69 86 0
66 82 0
59 74 0
61 76 0
54 67 0
64 79 0
58 72 0
60 74 0
54 67 0
58 73 0
59 73 0
58 72 0
57 71 0
54 67 0
51 64 0
54 67 0
60 74 0
52 64 0
50 61 0
56 68 0
43 54 0
51 63 0
34 43 0
26 32 0
33 41 0
31 37 0
25 31 0
26 31 0
34 41 0
33 41 0
36 44 0
35 44 0
36 45 0
46 56 0
43 54 0
44 54 0
44 54 0
45 56 0
46 58 0
55 68 0
49 61 0
46 58 0
54 67 0
44 57 0
52 65 0
53 67 0
55 69 0
52 66 0
61 76 0
62 77 0
54 69 0
65 82 0
54 68 0
55 71 0
56 72 0
54 70 0
59 76 0
57 74 0
64 82 0
57 75 0
58 74 0
59 78 0
60 78 0
56 73 0
65 85 0
62 80 0
53 70 0
50 67 0
63 83 0
55 73 0
65 84 0
65 85 0
53 69 0
58 75 0
52 69 0
68 87 0
51 68 0
50 66 0
54 71 0
50 67 0
56 73 0
50 67 0
42 58 0
53 71 0
66 85 0
59 78 0
48 63 0
55 73 0
58 76 0
54 70 0
42 58 0
49 65 0
41 57 0
52 70 0
51 68 0
51 67 0
48 65 0
44 59 0
44 59 0
36 49 0
54 70 0
48 62 0
43 58 0
33 45 0
43 57 0
38 51 0
39 52 0
34 46 0
34 45 0
31 41 0
32 44 0
32 43 0
29 39 0
22 31 0
22 31 0
18 26 0
27 36 0
25 34 0
28 37 0
29 40 0
23 31 0
25 34 0
31 40 0
26 34 0
34 44 0
26 34 0
23 31 0
21 29 0
22 30 0
18 25 0
32 42 0
20 27 0
24 31 0
35 44 0
23 30 0
20 28 0
24 34 0
15 22 0
28 37 0
22 31 0
45 56 0
24 32 0
36 47 0
31 42 0
34 44 0
28 38 0
33 44 0
31 41 0
31 40 0
26 35 0
34 43 0
32 39 0
47 60 0
28 38 0
36 47 0
36 47 0
36 46 0
38 49 0
46 60 0
56 68 0
46 57 0
46 58 0
59 75 0
41 52 0
44 57 0
41 53 0
44 56 0
56 71 0
45 56 0
51 64 0
59 71 0
59 73 0
50 64 0
51 64 0
55 68 0
64 79 0
51 63 0
48 62 0
47 59 0
55 69 0
49 61 0
57 69 0
59 71 0
62 76 0
61 71 0
54 66 0
64 76 0
49 58 0
44 50 0
56 67 0
47 55 0
48 54 0
60 70 0
54 62 0
52 61 0
50 58 0
51 58 0
53 62 0
56 64 0
59 66 0
50 56 0
48 55 0
43 49 0
57 65 0
45 49 0
45 49 0
48 52 0
48 52 0
48 52 0
41 45 0
44 45 0
50 54 0
41 42 0
43 45 0
35 35 0
41 42 0
39 40 0
39 36 0
37 36 0
28 25 0
35 30 0
28 24 0
31 29 0
23 22 0
32 30 0
28 23 0
26 21 0
19 15 0
23 17 0
28 21 0
26 21 0
27 22 0
32 26 0
34 29 0
33 27 0
29 24 0
37 30 0
34 27 0
42 35 0
43 35 0
43 36 0
30 25 0
41 34 0
45 37 0
46 38 0
34 29 0
49 44 0
39 33 0
40 31 0
44 37 0
37 30 0
42 35 0
47 41 0
54 47 0
45 40 0
48 42 0
51 43 0
47 40 0
49 43 0
50 44 0
43 37 0
65 58 1
47 40 0
55 48 0
47 41 0
48 41 0
51 44 1
48 42 1
53 47 0
54 49 0
63 57 1
53 47 0
48 40 1
53 48 1
55 48 0
58 51 1
49 44 1
52 46 0
54 49 3
62 54 2
57 50 0
52 47 1
52 46 4
52 46 0
63 55 3
54 48 1
54 48 2
54 47 1
53 46 2
59 52 4
56 51 2
57 50 3
50 44 2
60 53 5
59 53 4
54 49 2
56 49 3
65 57 3
62 56 3
65 57 4
52 45 5
61 52 6
50 45 1
54 48 2
53 48 3
50 45 3
61 54 6
59 52 1
52 46 2
62 55 4
65 57 5
63 55 5
59 52 5
53 47 3
64 56 5
60 52 4
56 49 3
48 42 4
50 45 4
53 48 6
50 45 4
63 57 7
53 47 4
55 49 6
68 60 7
50 45 4
69 70 4
114 147 0
105 134 0
73 93 0
59 75 0
57 73 0
61 77 0
59 75 0
65 81 0
67 85 0
70 88 0
68 88 0
74 95 0
79 101 0
77 96 0
75 94 0
82 104 0
78 98 0
83 104 0
82 104 0
84 106 0
85 107 0
76 96 0
86 108 0
83 104 0
82 103 0
86 108 0
82 103 0
78 99 0
78 98 0
80 101 0
80 100 0
84 106 0
81 101 0
77 97 0
81 102 0
79 100 0
82 102 0
73 92 0
77 97 0
73 91 0
76 96 0
77 98 0
74 92 0
74 94 0
75 94 0
79 99 0
77 95 0
78 97 0
77 95 0
79 99 0
71 89 0
68 86 0
71 89 0
77 95 0
78 97 0
71 90 0
74 93 0
72 90 0
71 89 0
73 92 0
71 89 0
71 89 0
67 85 0
64 80 0
68 84 0
65 81 0
72 90 0
58 73 0
64 79 0
67 84 0
63 78 0
61 77 0
68 84 0
66 82 0
67 83 0
60 75 0
64 79 0
65 80 0
51 63 0
61 76 0
57 71 0
58 71 0
51 64 0
51 65 0
51 64 0
53 65 0
57 69 0
54 68 0
54 66 0
45 56 0
45 55 0
42 53 0
40 49 0
32 41 0
36 45 0
31 38 0
24 29 0
20 25 0
36 43 0
28 35 0
39 47 0
47 57 0
33 40 0
36 45 0
36 45 0
47 57 0
47 59 0
47 58 0
45 55 0
44 55 0
50 62 0
45 57 0
41 52 0
55 70 0
52 67 0
43 55 0
56 71 0
51 64 0
58 73 0
52 67 0
53 68 0
62 78 0
62 79 0
55 71 0
60 76 0
63 80 0
64 81 0
50 66 0
61 78 0
58 75 0
65 83 0
54 69 0
64 83 0
63 81 0
55 73 0
54 72 0
53 69 0
66 87 0
55 71 0
65 84 0
60 77 0
61 80 0
69 89 0
61 80 0
62 81 0
55 73 0
60 80 0
54 72 0
54 70 0
50 67 0
54 72 0
53 71 0
57 75 0
54 72 0
45 60 0
57 75 0
46 62 0
46 62 0
47 63 0
47 64 0
49 66 0
58 75 0
52 69 0
52 69 0
52 69 0
42 56 0
40 54 0
53 69 0
44 61 0
40 55 0
38 51 0
54 71 0
46 60 0
43 58 0
40 54 0
36 49 0
41 54 0
34 47 0
47 62 0
41 54 0
32 44 0
43 57 0
42 56 0
34 45 0
33 45 0
29 39 0
36 49 0
38 50 0
27 36 0
28 38 0
27 37 0
27 38 0
30 40 0
27 37 0
35 46 0
33 45 0
27 36 0
24 32 0
18 26 0
24 34 0
27 36 0
26 35 0
25 34 0
35 46 0
25 34 0
35 47 0
28 38 0
30 40 0
24 32 0
35 45 0
30 41 0
34 44 0
31 42 0
41 51 0
30 39 0
37 49 0
29 38 0
39 50 0
42 54 0
45 58 0
29 38 0
36 46 0
30 40 0
29 39 0
36 49 0
41 53 0
39 48 0
36 47 0
39 50 0
41 52 0
44 57 0
40 52 0
43 54 0
46 58 0
42 53 0
42 57 0
55 68 0
42 52 0
52 67 0
49 59 0
47 60 0
50 62 0
54 66 0
53 66 0
55 69 0
53 65 0
48 60 0
46 58 0
49 60 0
56 69 0
55 67 0
51 63 0
54 66 0
61 76 0
61 75 0
52 63 0
51 64 0
52 63 0
64 78 0
53 65 0
55 66 0
61 73 0
62 74 0
60 75 0
54 63 0
62 73 0
55 67 0
59 70 0
59 70 0
54 64 0
53 60 0
49 58 0
56 64 0
59 68 0
56 63 0
53 59 0
58 65 0
53 60 0
51 53 0
45 49 0
43 48 0
61 66 0
57 63 0
43 46 0
49 53 0
44 47 0
54 56 0
56 56 0
42 41 0
36 38 0
41 41 0
37 36 0
41 40 0
44 43 0
36 33 0
35 33 0
23 24 0
30 27 0
32 30 0
27 24 0
24 18 0
21 20 0
21 18 0
18 13 0
15 12 0
34 26 0
23 19 0
27 21 0
26 21 0
23 18 0
38 32 0
37 28 0
29 23 0
41 35 0
33 27 0
35 28 0
36 29 0
33 26 0
32 27 0
45 36 0
35 29 0
41 34 0
46 38 0
31 26 0
34 29 0
49 43 0
51 45 0
48 42 0
40 35 0
46 39 0
46 39 0
47 40 0
51 44 1
53 44 1
51 44 1
45 40 0
46 40 0
47 40 1
41 36 0
41 35 0
55 49 1
47 42 0
45 40 1
51 44 1
47 42 1
49 43 0
55 49 1
49 43 2
55 49 2
56 48 2
52 46 2
53 48 1
49 42 1
56 48 1
60 54 2
51 44 2
50 42 1
50 43 0
58 51 3
50 44 1
55 47 2
56 50 4
64 57 2
51 44 2
57 49 2
51 43 2
55 48 2
70 63 2
50 44 1
53 47 2
55 48 3
46 41 3
67 59 5
60 53 4
64 57 6
58 50 4
56 49 4
59 54 3
53 47 5
54 49 2
56 50 5
60 55 4
49 43 2
57 50 5
44 40 3
66 58 8
55 48 5
58 52 4
55 49 5
50 44 4
47 43 4
52 46 5
54 48 5
43 39 4
50 44 3
49 43 7
54 54 3
82 93 2
106 128 2
114 144 0
115 147 0
109 140 0
113 145 0
111 141 0
93 118 0
84 109 0
59 75 0
53 68 0
58 73 0
55 70 0
57 72 0
63 79 0
67 85 0
76 96 0
71 89 0
79 99 0
72 91 0
72 91 0
72 92 0
74 94 0
84 104 0
75 95 0
80 100 0
80 101 0
81 102 0
84 106 0
80 100 0
83 104 0
77 97 0
78 97 0
82 104 0
83 104 0
80 100 0
77 96 0
78 98 0
72 90 0
81 102 0
78 98 0
78 98 0
81 101 0
75 95 0
80 98 0
72 90 0
78 97 0
74 94 0
74 93 0
69 85 0
74 91 0
76 95 0
73 92 0
80 99 0
70 88 0
71 89 0
74 93 0
76 95 0
78 95 0
67 84 0
71 89 0
68 85 0
70 88 0
67 84 0
70 88 0
69 86 0
71 89 0
67 84 0
69 85 0
68 84 0
66 81 0
68 85 0
63 78 0
54 67 0
63 78 0
63 78 0
57 71 0
58 72 0
62 78 0
54 68 0
62 77 0
56 70 0
61 75 0
58 72 0
58 73 0
49 62 0
49 60 0
51 63 0
52 65 0
48 60 0
42 53 0
42 52 0
37 45 0
36 44 0
39 47 0
32 40 0
22 27 0
27 33 0
28 34 0
25 30 0
29 36 0
35 43 0
34 41 0
31 38 0
39 48 0
38 48 0
36 45 0
42 52 0
41 50 0
41 52 0
47 59 0
52 65 0
49 61 0
52 65 0
43 55 0
54 67 0
49 62 0
45 58 0
51 65 0
65 82 0
51 65 0
57 71 0
66 81 0
48 61 0
63 80 0
61 78 0
53 68 0
62 79 0
63 79 0
66 85 0
53 69 0
51 67 0
54 70 0
65 83 0
48 64 0
70 90 0
59 76 0
62 80 0
51 68 0
63 82 0
57 74 0
56 74 0
64 82 0
55 74 0
67 89 0
65 83 0
64 83 0
62 81 0
58 76 0
61 79 0
51 68 0
58 77 0
67 88 0
64 82 0
57 77 0
58 76 0
60 79 0
60 78 0
53 70 0
48 65 0
54 71 0
61 80 0
52 69 0
50 68 0
52 68 0
42 57 0
44 59 0
47 63 0
50 66 0
50 66 0
45 60 0
56 74 0
44 59 0
46 61 0
49 65 0
46 61 0
45 60 0
45 60 0
33 46 0
45 61 0
38 52 0
36 49 0
36 49 0
35 48 0
39 53 0
38 52 0
36 50 0
31 43 0
36 48 0
34 46 0
36 48 0
28 40 0
32 42 0
34 46 0
40 54 0
35 47 0
38 49 0
24 35 0
34 46 0
27 37 0
32 43 0
24 33 0
29 39 0
26 36 0
31 41 0
29 41 0
38 49 0
28 39 0
33 44 0
29 39 0
29 38 0
24 32 0
42 54 0
34 43 0
31 40 0
41 55 0
36 48 0
32 41 0
28 39 0
23 32 0
40 52 0
37 49 0
36 46 0
43 55 0
38 51 0
27 38 0
40 54 0
31 41 0
48 62 0
43 57 0
37 48 0
44 56 0
44 58 0
42 53 0
47 61 0
40 51 0
27 36 0
52 66 0
46 60 0
48 60 0
52 68 0
46 59 0
40 51 0
55 68 0
60 76 0
55 68 0
44 57 0
61 77 0
64 77 0
73 89 0
56 69 0
55 64 0
55 70 0
55 68 0
52 65 0
61 77 0
60 72 0
62 75 0
68 81 0
54 68 0
51 64 0
59 71 0
54 67 0
50 60 0
54 68 0
61 75 0
56 65 0
52 62 0
54 64 0
59 70 0
52 64 0
56 68 0
53 63 0
53 63 0
54 64 0
59 67 0
55 62 0
53 58 0
46 53 0
51 58 0
54 61 0
54 62 0
54 61 0
44 47 0
45 48 0
56 62 0
51 56 0
57 61 0
48 52 0
39 41 0
46 47 0
42 42 0
40 38 0
33 33 0
45 44 0
43 41 0
35 33 0
39 38 0
39 37 0
36 35 0
36 35 0
32 29 0
30 25 0
34 30 0
28 25 0
29 26 0
20 16 0
23 21 0
22 17 0
14 10 0
20 14 0
23 18 0
30 24 0
29 23 0
25 21 0
22 17 0
33 25 0
25 20 0
35 29 0
35 29 0
30 24 0
39 32 0
39 32 0
36 30 0
41 34 0
31 26 0
40 33 0
38 31 0
38 33 0
38 31 0
41 34 0
41 33 0
42 36 0
41 33 0
47 40 0
43 36 0
39 33 0
43 37 1
46 40 0
38 32 0
39 35 0
58 50 1
43 38 0
47 41 0
46 41 0
50 46 0
44 39 1
41 35 1
64 56 3
45 38 0
51 43 0
49 41 2
51 46 0
48 42 1
49 42 0
54 48 1
55 50 2
51 46 0
56 50 1
44 38 1
51 46 3
53 46 1
49 44 2
60 52 2
53 46 1
59 53 4
53 46 3
59 53 3
60 55 2
59 53 2
48 41 2
59 52 2
43 37 2
55 49 2
46 40 2
47 42 2
43 38 1
60 54 3
53 48 2
57 51 5
48 41 4
49 44 1
46 42 3
53 47 3
55 49 3
55 51 3
56 48 4
54 48 4
54 49 6
44 39 3
44 37 3
58 52 5
52 45 4
42 37 4
59 53 5
49 44 5
57 57 3
78 87 4
99 123 1
111 141 0
111 139 0
110 136 0
110 137 0
114 147 0
113 144 0
115 146 0
114 146 0
113 146 0
109 141 0
110 141 0
97 125 0
85 110 0
66 84 0
58 74 0
58 73 0
55 70 0
63 79 0
72 91 0
68 85 0
66 82 0
68 85 0
70 88 0
68 85 0
76 95 0
76 96 0
77 95 0
78 98 0
80 100 0
70 89 0
80 101 0
79 99 0
78 98 0
81 101 0
83 104 0
79 99 0
80 100 0
81 101 0
77 96 0
78 97 0
77 96 0
75 93 0
77 96 0
76 95 0
76 94 0
71 89 0
78 97 0
69 86 0
70 88 0
70 87 0
75 93 0
76 93 0
80 99 0
73 92 0
66 83 0
67 84 0
69 86 0
66 83 0
68 85 0
71 88 0
72 89 0
73 91 0
64 80 0
67 82 0
69 86 0
67 83 0
60 74 0
63 78 0
62 76 0
69 86 0
69 85 0
69 86 0
69 85 0
61 76 0
63 78 0
61 76 0
63 78 0
61 75 0
66 81 0
61 75 0
59 73 0
60 73 0
53 65 0
48 60 0
55 68 0
49 60 0
43 52 0
44 55 0
41 51 0
38 46 0
36 44 0
39 48 0
32 39 0
38 47 0
21 26 0
34 41 0
30 36 0
22 27 0
38 46 0
37 45 0
32 40 0
33 40 0
32 40 0
45 56 0
35 43 0
44 54 0
48 59 0
40 51 0
49 60 0
44 54 0
56 70 0
52 64 0
56 69 0
50 62 0
56 71 0
58 73 0
44 57 0
52 65 0
56 71 0
52 66 0
49 62 0
47 60 0
61 77 0
57 73 0
59 75 0
67 84 0
59 77 0
61 77 0
55 71 0
67 85 0
51 67 0
63 80 0
59 76 0
60 76 0
65 83 0
60 77 0
63 80 0
59 77 0
61 79 0
60 77 0
70 90 0
69 89 0
71 91 0
55 72 0
60 80 0
63 81 0
62 80 0
68 87 0
72 92 0
64 84 0
65 85 0
63 84 0
63 83 0
52 70 0
59 78 0
54 70 0
55 73 0
57 76 0
60 78 0
53 70 0
60 78 0
44 61 0
62 82 0
50 68 0
43 59 0
50 67 0
56 74 0
57 77 0
59 78 0
58 77 0
53 69 0
50 66 0
48 64 0
47 63 0
56 73 0
43 58 0
53 70 0
43 58 0
45 60 0
38 52 0
44 58 0
42 57 0
45 60 0
43 57 0
40 54 0
37 50 0
36 50 0
36 50 0
40 53 0
32 44 0
40 52 0
37 50 0
33 45 0
36 49 0
39 53 0
36 49 0
38 51 0
37 50 0
42 56 0
27 38 0
36 47 0
29 42 0
35 48 0
33 44 0
32 44 0
33 45 0
33 43 0
33 45 0
39 51 0
33 44 0
40 53 0
44 56 0
38 51 0
36 48 0
43 55 0
39 51 0
39 51 0
34 44 0
37 49 0
39 50 0
37 50 0
40 52 0
36 48 0
36 49 0
34 44 0
51 66 0
41 55 0
40 53 0
41 53 0
45 58 0
45 57 0
46 59 0
50 66 0
37 50 0
38 50 0
40 52 0
44 57 0
57 69 0
44 59 0
46 61 0
56 71 0
59 73 0
51 66 0
52 65 0
50 64 0
56 68 0
55 70 0
53 65 0
52 66 0
52 66 0
48 59 0
44 57 0
52 67 0
60 76 0
55 67 0
62 77 0
53 67 0
58 71 0
64 78 0
57 71 0
50 64 0
69 84 0
59 75 0
50 60 0
70 85 0
65 78 0
60 73 0
56 66 0
71 84 0
63 73 0
50 58 0
59 70 0
60 71 0
51 63 0
47 56 0
60 70 0
48 57 0
56 61 0
56 65 0
55 64 0
57 65 0
58 65 0
59 67 0
56 61 0
48 55 0
55 65 0
49 54 0
53 61 0
51 55 0
47 49 0
46 50 0
42 45 0
53 56 0
37 38 0
44 45 0
44 45 0
44 44 0
37 36 0
40 39 0
44 45 0
50 51 0
48 49 0
38 36 0
30 26 0
37 36 0
33 32 0
17 14 0
28 24 0
28 26 0
27 24 0
26 24 0
18 14 0
18 14 0
19 16 0
30 23 0
24 19 0
28 22 0
25 19 0
34 26 0
29 22 0
26 20 0
30 24 0
30 24 0
33 27 0
27 24 0
30 23 0
41 34 0
40 33 0
37 30 0
41 34 0
40 34 0
43 36 0
27 23 0
44 38 1
39 33 0
37 31 0
43 36 0
43 37 0
39 33 0
44 38 1
37 30 0
42 36 1
40 34 0
48 42 0
39 34 1
37 33 0
43 36 1
47 39 0
57 49 2
55 47 0
46 40 0
53 44 1
50 44 1
50 43 1
50 42 0
52 46 1
47 42 1
48 43 3
44 38 0
54 47 5
45 39 2
47 40 2
53 46 1
48 41 2
53 47 1
44 40 1
49 43 0
49 43 2
48 43 1
50 44 2
65 57 2
54 48 2
54 47 3
49 42 3
50 45 1
44 38 1
49 43 3
57 50 3
47 41 2
44 38 3
50 43 3
53 47 2
49 45 1
53 47 3
51 44 5
54 46 3
47 41 4
58 52 6
55 49 3
52 46 4
55 47 4
40 34 3
55 49 5
44 40 5
50 49 1
70 81 0
102 123 0
111 138 0
113 141 0
110 136 0
107 135 0
115 143 0
110 138 0
115 144 0
113 145 0
116 148 0
115 146 0
113 145 0
112 145 0
112 145 0
111 144 0
110 141 0
111 141 0
108 137 0
102 131 0
89 113 0
78 101 0
60 76 0
49 63 0
55 70 0
58 73 0
65 81 0
66 84 0
62 78 0
71 89 0
72 90 0
67 84 0
70 89 0
72 90 0
75 94 0
76 95 0
76 95 0
78 98 0
72 90 0
76 95 0
72 90 0
72 91 0
73 92 0
81 101 0
76 96 0
80 100 0
77 96 0
73 91 0
77 96 0
72 89 0
75 93 0
69 86 0
75 93 0
74 93 0
75 92 0
73 91 0
75 93 0
69 87 0
70 87 0
70 87 0
69 87 0
74 92 0
65 81 0
65 81 0
71 88 0
71 88 0
70 87 0
69 86 0
70 87 0
67 82 0
70 87 0
69 86 0
65 80 0
67 82 0
64 79 0
60 75 0
56 70 0
55 68 0
61 77 0
61 75 0
58 71 0
57 70 0
61 75 0
53 65 0
53 64 0
48 58 0
53 65 0
41 51 0
45 56 0
41 51 0
38 47 0
36 44 0
39 47 0
37 45 0
29 36 0
27 33 0
21 25 0
28 34 0
33 40 0
25 30 0
38 46 0
41 49 0
37 44 0
36 44 0
40 49 0
40 48 0
52 63 0
55 66 0
48 59 0
54 67 0
45 57 0
51 64 0
51 64 0
58 71 0
43 55 0
52 65 0
61 75 0
48 61 0
54 69 0
56 70 0
56 70 0
51 64 0
58 73 0
56 70 0
59 75 0
58 73 0
71 89 0
61 78 0
69 86 0
57 73 0
65 81 0
62 80 0
65 83 0
64 83 0
63 81 0
60 77 0
74 95 0
53 70 0
70 88 0
68 87 0
59 77 0
65 84 0
59 77 0
66 85 0
58 75 0
66 85 0
56 73 0
53 69 0
65 84 0
67 87 0
68 87 0
65 83 0
60 78 0
55 73 0
70 92 0
64 84 0
62 82 0
67 87 0
68 88 0
54 72 0
63 82 0
56 75 0
58 76 0
57 74 0
58 76 0
45 60 0
56 75 0
52 69 0
45 62 0
63 83 0
57 75 0
54 71 0
59 79 0
51 68 0
56 73 0
57 76 0
47 64 0
50 67 0
60 79 0
46 63 0
45 59 0
34 47 0
45 61 0
47 63 0
49 65 0
41 55 0
35 49 0
51 65 0
42 55 0
39 54 0
40 54 0
38 52 0
48 65 0
38 51 0
34 48 0
32 46 0
37 51 0
43 58 0
49 66 0
41 55 0
35 48 0
37 50 0
42 54 0
32 45 0
33 45 0
38 51 0
41 54 0
46 59 0
38 51 0
42 56 0
36 49 0
36 48 0
32 43 0
28 38 0
43 54 0
34 44 0
31 43 0
38 50 0
37 50 0
38 50 0
46 60 0
29 40 0
44 58 0
45 59 0
37 50 0
38 50 0
53 67 0
35 45 0
45 58 0
36 46 0
48 62 0
46 59 0
34 44 0
50 65 0
33 45 0
46 60 0
46 59 0
50 63 0
43 55 0
44 56 0
50 63 0
54 70 0
54 68 0
56 71 0
54 67 0
50 64 0
48 60 0
51 67 0
46 60 0
56 73 0
45 57 0
56 73 0
56 71 0
66 82 0
53 68 0
56 67 0
60 75 0
57 70 0
61 77 0
66 81 0
43 54 0
53 67 0
66 82 0
62 76 0
58 72 0
56 71 0
70 83 0
59 70 0
56 68 0
63 77 0
46 57 0
58 68 0
51 62 0
51 63 0
56 67 0
66 80 0
55 66 0
52 61 0
61 69 0
57 68 0
75 89 0
59 67 0
54 63 0
59 68 0
58 68 0
56 66 0
59 69 0
51 57 0
50 57 0
50 57 0
53 55 0
56 60 0
54 60 0
48 55 0
47 53 0
50 53 0
52 54 0
52 55 0
50 54 0
52 55 0
64 65 0
55 59 0
43 45 0
39 42 0
38 38 0
49 49 0
47 46 0
45 44 0
39 35 0
41 38 0
38 34 0
33 30 0
42 40 0
30 26 0
29 26 0
29 26 0
30 26 0
37 36 0
26 24 0
20 15 0
20 16 0
23 16 0
16 12 0
18 13 0
28 22 0
20 16 0
29 22 0
32 26 0
29 23 0
24 20 0
29 22 0
35 28 0
41 34 0
32 26 0
43 36 0
25 20 0
32 27 0
39 32 0
33 26 0
37 32 0
39 33 0
44 36 0
40 34 0
51 43 0
42 36 0
39 31 0
39 34 0
29 24 0
51 44 0
46 40 0
44 38 0
43 36 1
42 35 2
47 41 0
35 29 0
44 36 0
46 40 1
46 40 1
44 38 1
51 45 1
57 51 1
45 39 1
49 43 3
51 45 3
61 53 1
60 52 2
46 40 1
57 49 3
56 50 2
53 46 2
54 47 2
45 40 1
47 41 1
55 47 1
47 41 1
49 42 1
48 42 2
47 42 1
41 37 1
49 44 1
50 44 2
51 45 3
54 48 4
50 44 3
55 48 4
42 36 2
52 45 6
51 44 3
52 46 3
48 42 3
54 47 3
51 45 2
53 47 2
51 45 4
40 35 3
47 44 2
64 65 3
89 101 2
97 114 1
104 126 0
103 127 0
112 139 0
107 132 0
108 134 0
111 135 0
111 138 0
110 137 0
109 132 0
110 137 0
116 148 0
110 141 0
110 140 0
110 140 0
112 142 0
110 141 0
112 144 0
112 144 0
111 141 0
104 133 0
109 141 0
109 139 0
108 138 0
115 146 0
97 124 0
95 120 0
77 98 0
59 75 0
60 76 0
54 68 0
59 75 0
62 78 0
65 82 0
59 74 0
67 85 0
57 71 0
69 86 0
64 81 0
68 86 0
65 81 0
70 87 0
66 84 0
68 85 0
76 95 0
68 85 0
69 85 0
74 91 0
67 84 0
67 84 0
75 93 0
68 85 0
73 91 0
63 79 0
65 81 0
64 79 0
70 87 0
72 89 0
76 94 0
68 85 0
71 88 0
69 87 0
68 85 0
73 90 0
72 90 0
71 87 0
65 80 0
65 81 0
68 84 0
66 81 0
61 75 0
72 87 0
61 75 0
59 73 0
60 74 0
60 74 0
60 74 0
58 71 0
53 66 0
57 71 0
58 72 0
60 73 0
54 66 0
51 63 0
42 52 0
39 47 0
39 48 0
44 55 0
40 49 0
41 50 0
31 39 0
32 39 0
25 31 0
29 35 0
36 43 0
26 32 0
28 34 0
35 42 0
36 43 0
35 42 0
41 50 0
42 51 0
35 43 0
42 51 0
44 53 0
41 50 0
44 54 0
42 52 0
49 59 0
42 52 0
52 64 0
51 63 0
56 70 0
56 69 0
50 62 0
56 69 0
47 59 0
48 60 0
61 76 0
54 68 0
56 71 0
46 58 0
57 71 0
54 69 0
68 84 0
58 73 0
51 66 0
67 86 0
59 76 0
59 77 0
61 78 0
60 78 0
62 80 0
70 89 0
63 80 0
58 75 0
63 80 0
64 82 0
61 79 0
64 82 0
69 89 0
67 85 0
58 76 0
73 95 0
63 81 0
63 83 0
61 81 0
69 89 0
65 84 0
62 80 0
61 81 0
62 82 0
66 86 0
62 81 0
53 71 0
79 102 0
61 81 0
71 91 0
59 80 0
60 80 0
61 81 0
58 78 0
53 71 0
65 85 0
61 80 0
48 65 0
57 76 0
53 72 0
56 75 0
62 82 0
59 79 0
58 78 0
60 78 0
48 65 0
65 85 0
51 70 0
52 71 0
45 61 0
56 75 0
54 73 0
47 63 0
57 75 0
46 61 0
50 66 0
62 81 0
43 59 0
41 56 0
40 55 0
49 65 0
41 56 0
45 62 0
40 54 0
51 67 0
48 64 0
38 52 0
46 61 0
48 63 0
44 59 0
43 58 0
37 52 0
44 60 0
37 51 0
41 54 0
40 54 0
33 44 0
44 59 0
48 64 0
35 48 0
30 41 0
34 46 0
39 52 0
36 47 0
38 50 0
43 57 0
36 49 0
36 47 0
44 58 0
36 48 0
47 61 0
38 48 0
36 48 0
44 56 0
31 41 0
34 46 0
41 55 0
49 65 0
45 57 0
45 59 0
41 54 0
33 45 0
42 56 0
48 62 0
43 57 0
44 56 0
45 59 0
49 62 0
43 56 0
51 67 0
47 62 0
48 61 0
44 57 0
53 67 0
55 71 0
43 55 0
54 71 0
38 50 0
67 85 0
49 64 0
60 76 0
59 74 0
49 62 0
49 62 0
55 70 0
58 72 0
60 78 0
54 69 0
63 81 0
51 64 0
57 73 0
62 77 0
59 74 0
58 73 0
51 62 0
53 67 0
52 65 0
65 80 0
58 70 0
64 80 0
66 78 0
53 66 0
58 71 0
52 63 0
65 78 0
52 62 0
70 87 0
49 60 0
56 68 0
73 87 0
65 77 0
72 85 0
51 59 0
60 70 0
52 61 0
57 67 0
59 73 0
55 62 0
66 73 0
48 56 0
50 57 0
58 65 0
49 54 0
61 70 0
62 69 0
44 48 0
60 66 0
65 73 0
54 59 0
58 64 0
53 56 0
58 63 0
47 51 0
50 52 0
47 47 0
57 59 0
54 56 0
38 36 0
46 49 0
42 42 0
48 50 0
50 51 0
43 43 0
40 39 0
45 44 0
43 42 0
38 37 0
30 29 0
38 36 0
40 36 0
32 28 0
27 23 0
38 36 0
28 24 0
27 22 0
30 27 0
20 16 0
25 20 0
26 21 0
20 16 0
20 15 0
30 21 0
23 17 0
29 23 0
29 23 0
36 28 0
32 25 0
37 30 0
31 25 0
39 33 0
37 30 0
37 30 0
39 31 0
35 27 1
44 35 1
37 28 0
42 35 1
51 44 0
42 35 0
46 40 0
46 39 1
36 28 1
41 35 0
49 41 1
50 42 1
38 30 0
39 33 1
37 32 0
51 44 1
49 42 0
41 35 0
47 39 1
51 43 1
52 44 3
47 39 0
52 45 1
47 41 2
40 35 1
39 33 1
45 40 1
49 41 2
45 37 1
51 43 1
45 39 0
51 44 2
51 45 1
41 35 0
44 37 3
50 44 1
52 46 3
42 36 0
50 44 3
55 49 3
39 32 0
40 35 2
58 52 3
51 44 4
54 47 1
43 39 1
48 42 2
46 41 2
44 40 0
59 51 6
50 44 2
48 43 2
59 58 3
65 71 3
73 85 1
91 109 0
108 129 0
109 133 0
111 133 0
114 138 0
105 127 0
106 129 0
112 138 0
109 134 0
106 129 0
110 135 0
107 129 0
104 127 0
111 136 0
109 135 0
115 146 0
111 142 0
109 140 0
111 141 0
112 143 0
113 144 0
112 143 0
108 138 0
108 138 0
108 137 0
106 136 0
109 139 0
107 136 0
107 137 0
112 143 0
107 136 0
111 143 0
111 140 0
103 132 0
90 114 0
84 108 0
74 94 0
58 73 0
55 70 0
59 75 0
57 72 0
52 66 0
61 76 0
59 75 0
62 78 0
64 79 0
60 75 0
73 91 0
59 74 0
63 79 0
67 83 0
66 82 0
72 89 0
67 83 0
68 85 0
67 83 0
60 74 0
63 79 0
66 81 0
66 82 0
64 80 0
68 85 0
67 83 0
62 77 0
68 85 0
67 83 0
64 79 0
62 76 0
66 82 0
65 80 0
67 82 0
60 74 0
62 77 0
64 80 0
61 75 0
56 69 0
62 76 0
47 59 0
56 69 0
51 62 0
50 61 0
51 62 0
55 67 0
44 54 0
50 62 0
47 57 0
37 46 0
41 50 0
40 50 0
38 47 0
41 50 0
33 40 0
31 37 0
25 30 0
31 37 0
37 44 0
25 30 0
46 54 0
42 50 0
37 45 0
37 44 0
41 50 0
41 49 0
47 56 0
43 52 0
36 44 0
40 49 0
43 53 0
49 59 0
46 57 0
41 51 0
58 70 0
49 61 0
61 75 0
51 62 0
49 61 0
51 64 0
55 69 0
61 76 0
54 66 0
56 70 0
54 67 0
55 69 0
59 76 0
65 82 0
60 76 0
61 78 0
77 96 0
62 79 0
55 70 0
66 84 0
53 68 0
62 79 0
57 74 0
57 74 0
54 70 0
62 80 0
59 77 0
62 80 0
62 80 0
68 86 0
58 76 0
66 86 0
66 85 0
66 86 0
62 80 0
71 91 0
63 81 0
63 83 0
63 83 0
59 78 0
65 86 0
74 96 0
71 92 0
58 76 0
64 85 0
72 93 0
49 67 0
59 77 0
58 76 0
58 75 0
61 80 0
66 86 0
61 80 0
58 79 0
70 91 0
58 78 0
73 94 0
54 72 0
69 90 0
59 78 0
60 80 0
53 72 0
60 79 0
53 72 0
61 81 0
65 86 0
57 74 0
59 77 0
44 61 0
60 81 0
66 85 0
58 77 0
42 57 0
50 66 0
57 75 0
54 71 0
44 60 0
46 61 0
53 72 0
47 64 0
52 70 0
54 73 0
40 55 0
42 57 0
49 65 0
40 55 0
49 65 0
44 60 0
46 61 0
43 57 0
45 63 0
43 57 0
35 50 0
38 51 0
46 61 0
45 60 0
44 58 0
54 71 0
41 56 0
36 49 0
47 62 0
36 50 0
39 53 0
40 55 0
36 49 0
52 69 0
44 59 0
44 59 0
44 59 0
45 60 0
39 52 0
36 50 0
42 55 0
43 56 0
36 48 0
29 41 0
37 49 0
41 53 0
50 64 0
47 64 0
46 61 0
40 53 0
44 59 0
41 57 0
56 73 0
45 60 0
40 54 0
47 61 0
32 44 0
42 56 0
52 67 0
48 63 0
46 60 0
56 70 0
43 57 0
53 68 0
53 67 0
55 70 0
47 62 0
55 73 0
53 67 0
51 66 0
55 71 0
48 62 0
65 82 0
58 72 0
64 82 0
66 82 0
56 71 0
58 74 0
64 79 0
59 73 0
56 69 0
65 80 0
59 75 0
68 83 0
51 64 0
62 79 0
51 64 0
57 73 0
60 76 0
61 75 0
56 68 0
57 70 0
61 74 0
56 67 0
62 77 0
65 77 0
63 76 0
57 71 0
53 62 0
62 73 0
61 74 0
63 74 0
59 68 0
57 69 0
66 80 0
61 72 0
55 66 0
54 63 0
53 60 0
52 59 0
49 57 0
63 77 0
53 63 0
48 53 0
63 70 0
63 69 0
55 62 0
65 72 0
59 66 0
49 53 0
53 60 0
57 62 0
52 56 0
44 47 0
59 65 0
52 54 0
46 51 0
50 50 0
53 53 0
39 40 0
44 44 0
50 53 0
49 49 0
42 41 0
45 44 0
51 47 0
38 36 0
41 35 0
49 48 0
33 29 0
39 36 0
32 29 0
39 35 0
31 26 0
28 23 0
36 31 0
34 29 0
36 32 0
33 28 0
28 26 0
26 21 0
23 19 0
25 18 0
32 24 0
27 20 0
28 21 0
24 18 0
28 22 0
38 31 0
32 26 0
31 25 0
31 25 0
37 29 0
43 34 1
35 28 0
32 25 0
37 30 1
40 33 0
45 37 1
45 38 1
41 34 1
32 28 0
45 39 1
39 31 0
38 31 0
47 39 0
41 35 0
46 38 1
40 35 1
41 34 1
46 37 1
44 37 1
40 34 1
41 33 0
48 40 1
40 33 0
41 35 0
47 40 1
42 36 0
50 43 1
48 40 1
45 38 1
44 37 0
45 40 1
52 46 3
46 40 1
52 44 2
51 44 3
45 39 1
42 36 0
50 43 2
46 40 4
42 36 2
40 34 1
41 35 2
42 35 2
41 35 2
49 43 2
39 34 3
52 51 2
54 53 3
64 67 3
91 107 0
92 108 0
100 119 0
109 131 0
99 119 0
99 118 0
108 130 0
105 129 0
97 119 0
102 123 0
106 128 0
107 127 0
109 135 0
107 133 0
113 137 0
108 132 0
107 132 0
113 141 0
104 127 0
104 131 0
111 141 0
110 140 0
109 138 0
108 140 0
111 141 0
110 141 0
110 141 0
107 136 0
114 145 0
109 138 0
110 139 0
109 138 0
108 136 0
110 139 0
109 139 0
109 138 0
107 136 0
112 142 0
109 136 0
106 133 0
106 134 0
109 139 0
105 133 0
103 129 0
90 114 0
78 98 0
70 87 0
66 83 0
60 76 0
56 70 0
53 66 0
56 69 0
55 69 0
48 60 0
54 67 0
56 70 0
57 70 0
55 67 0
63 77 0
59 73 0
64 79 0
61 75 0
63 78 0
59 74 0
64 79 0
55 68 0
58 72 0
58 72 0
55 67 0
60 73 0
57 70 0
52 65 0
60 74 0
56 68 0
54 66 0
49 60 0
55 68 0
53 64 0
54 66 0
54 66 0
55 68 0
49 60 0
49 60 0
50 61 0
43 52 0
47 57 0
45 55 0
42 51 0
34 41 0
34 41 0
31 38 0
33 39 0
41 49 0
29 35 0
30 37 0
33 40 0
38 46 0
44 52 0
36 43 0
40 47 0
46 54 0
42 51 0
47 56 0
36 44 0
42 50 0
49 59 0
53 63 0
53 64 0
50 60 0
45 55 0
50 61 0
46 56 0
46 57 0
50 61 0
49 59 0
59 72 0
56 69 0
58 71 0
58 73 0
50 63 0
58 72 0
60 74 0
51 64 0
58 73 0
60 75 0
60 76 0
58 73 0
67 84 0
60 76 0
62 79 0
62 79 0
71 89 0
54 69 0
72 91 0
65 81 0
69 87 0
63 80 0
61 77 0
63 80 0
66 85 0
62 79 0
61 79 0
72 92 0
70 89 0
63 81 0
68 87 0
73 93 0
65 84 0
70 91 0
64 83 0
70 90 0
66 85 0
63 81 0
60 78 0
62 81 0
71 91 0
69 89 0
66 87 0
70 91 0
57 76 0
69 91 0
61 80 0
58 77 0
61 80 0
69 90 0
67 88 0
70 91 0
55 74 0
56 75 0
63 83 0
60 79 0
57 75 0
58 78 0
69 90 0
57 77 0
57 76 0
53 72 0
52 69 0
58 77 0
54 72 0
60 79 0
64 85 0
62 82 0
57 76 0
54 74 0
60 78 0
62 83 0
55 73 0
52 70 0
57 76 0
60 81 0
35 51 0
45 61 0
48 64 0
43 61 0
48 65 0
58 78 0
45 60 0
52 71 0
49 67 0
50 67 0
42 57 0
39 54 0
44 60 0
45 61 0
42 57 0
52 70 0
51 68 0
35 48 0
35 48 0
46 62 0
50 66 0
42 58 0
44 59 0
53 69 0
44 59 0
44 58 0
53 70 0
43 57 0
44 60 0
44 59 0
39 52 0
38 52 0
42 55 0
49 65 0
53 71 0
46 61 0
41 54 0
47 64 0
45 60 0
42 53 0
48 65 0
54 70 0
54 70 0
45 59 0
52 66 0
45 62 0
41 56 0
37 50 0
35 47 0
46 62 0
48 64 0
49 65 0
50 66 0
40 52 0
54 69 0
52 66 0
37 50 0
50 66 0
53 68 0
47 59 0
48 61 0
50 63 0
62 79 0
56 72 0
46 60 0
45 59 0
56 71 0
61 76 0
45 57 0
57 71 0
53 68 0
53 68 0
61 79 0
52 66 0
57 74 0
76 94 0
60 74 0
54 69 0
46 58 0
61 77 0
65 83 0
61 75 0
64 81 0
71 87 0
54 67 0
65 82 0
51 64 0
57 72 0
62 80 0
54 67 0
50 63 0
64 80 0
62 78 0
54 67 0
66 80 0
52 64 0
62 74 0
51 62 0
68 83 0
60 70 0
62 72 0
50 59 0
53 62 0
56 66 0
46 53 0
56 68 0
57 67 0
65 74 0
58 64 0
58 68 0
57 66 0
65 73 0
55 65 0
54 61 0
63 71 0
51 57 0
51 56 0
60 65 0
51 57 0
47 52 0
57 64 0
60 62 0
56 60 0
50 56 0
52 53 0
56 60 0
56 56 0
47 49 0
46 46 0
41 44 0
46 46 0
41 40 0
45 45 0
44 45 0
44 43 0
49 48 0
56 56 0
45 44 0
37 33 0
39 36 0
40 38 0
36 33 0
32 29 0
42 40 0
41 39 0
44 38 0
38 35 0
35 30 0
35 31 0
29 25 0
30 27 0
34 29 0
35 33 0
33 27 0
36 27 0
25 18 0
28 20 0
29 23 0
27 21 0
38 28 0
26 21 1
30 24 0
32 25 0
33 25 0
41 34 0
34 28 0
35 27 1
35 29 1
43 37 1
36 29 0
39 32 0
39 33 0
38 31 1
43 36 0
38 31 1
44 35 1
40 33 0
39 32 0
42 36 1
45 38 1
43 36 1
37 31 1
43 36 0
38 32 1
43 37 1
44 36 2
49 42 1
41 36 1
39 33 1
52 45 3
43 36 1
38 30 1
41 35 0
51 44 1
40 34 1
48 41 4
42 36 2
42 36 3
43 38 3
45 38 4
50 46 3
63 62 2
69 73 0
63 68 1
87 99 0
89 103 0
94 109 0
88 101 0
102 123 0
95 114 0
106 126 0
98 117 0
99 120 0
99 119 0
108 131 0
98 118 0
98 115 0
102 122 0
105 129 0
102 124 0
103 122 0
101 121 0
110 133 0
103 125 0
110 137 0
112 136 0
105 129 0
108 133 0
107 134 0
112 144 0
109 139 0
109 139 0
108 137 0
113 144 0
109 139 0
107 136 0
109 137 0
111 142 0
107 135 0
111 142 0
109 138 0
108 137 0
110 139 0
103 132 0
111 140 0
108 136 0
106 133 0
104 131 0
112 140 0
106 135 0
106 133 0
100 126 0
103 129 0
102 127 0
103 130 0
104 130 0
100 127 0
102 127 0
100 126 0
95 119 0
86 108 0
79 99 0
67 84 0
64 80 0
58 73 0
52 63 0
55 68 0
52 64 0
51 63 0
39 49 0
47 58 0
40 50 0
54 66 0
56 69 0
53 65 0
48 59 0
54 67 0
48 60 0
49 59 0
43 52 0
42 52 0
40 49 0
38 47 0
45 56 0
44 53 0
38 46 0
38 46 0
42 51 0
43 52 0
41 50 0
39 48 0
38 46 0
39 47 0
38 46 0
43 52 0
40 49 0
45 54 0
42 50 0
42 51 0
36 43 0
46 55 0
49 59 0
39 47 0
41 50 0
42 50 0
46 55 0
46 54 0
48 58 0
45 55 0
45 54 0
46 56 0
51 62 0
44 53 0
47 56 0
45 54 0
48 59 0
42 52 0
50 61 0
60 73 0
45 56 0
54 66 0
49 61 0
54 66 0
53 65 0
55 68 0
65 79 0
56 70 0
60 75 0
63 78 0
64 80 0
61 76 0
54 67 0
56 70 0
63 80 0
63 80 0
56 71 0
61 78 0
61 78 0
67 83 0
61 78 0
74 92 0
59 77 0
76 95 0
62 79 0
65 83 0
77 98 0
62 79 0
57 74 0
73 93 0
61 78 0
63 81 0
70 90 0
74 95 0
71 89 0
59 77 0
65 85 0
68 87 0
62 79 0
58 76 0
60 78 0
65 84 0
62 81 0
80 101 0
56 74 0
70 91 0
58 76 0
64 86 0
66 87 0
71 93 0
72 93 0
64 84 0
66 86 0
63 84 0
61 80 0
65 86 0
65 85 0
75 99 0
65 86 0
73 97 0
70 92 0
63 83 0
73 95 0
64 84 0
62 81 0
55 75 0
55 74 0
57 76 0
65 85 0
60 80 0
66 87 0
61 81 0
57 76 0
55 74 0
54 73 0
56 75 0
54 73 0
47 64 0
58 76 0
72 93 0
59 77 0
67 88 0
60 77 0
54 72 0
44 60 0
49 66 0
46 63 0
47 64 0
59 77 0
50 66 0
51 70 0
46 61 0
53 71 0
48 65 0
44 59 0
47 63 0
44 60 0
46 62 0
53 69 0
55 72 0
56 74 0
44 58 0
46 62 0
49 65 0
48 64 0
47 63 0
65 84 0
39 52 0
47 61 0
50 67 0
35 49 0
54 69 0
52 68 0
46 62 0
47 63 0
46 62 0
50 66 0
46 62 0
39 51 0
41 55 0
45 61 0
35 48 0
62 78 0
47 63 0
53 68 0
55 72 0
52 69 0
52 68 0
53 69 0
52 68 0
57 75 0
58 74 0
52 69 0
55 70 0
55 72 0
47 61 0
47 61 0
59 77 0
60 76 0
63 80 0
57 72 0
54 71 0
56 73 0
56 73 0
48 63 0
57 74 0
67 83 0
59 76 0
63 79 0
63 81 0
61 80 0
51 65 0
53 68 0
57 73 0
68 85 0
57 72 0
66 83 0
61 79 0
61 77 0
59 76 0
66 82 0
62 79 0
64 82 0
64 79 0
69 85 0
61 75 0
61 77 0
54 67 0
71 87 0
65 81 0
67 83 0
62 76 0
61 72 0
62 77 0
58 72 0
70 85 0
67 82 0
62 74 0
62 74 0
59 72 0
63 74 0
61 75 0
69 81 0
65 76 0
55 66 0
66 78 0
65 78 0
60 72 0
58 66 0
59 69 0
61 73 0
63 73 0
65 73 0
50 60 0
52 56 0
57 65 0
43 45 0
59 64 0
59 67 0
59 67 0
59 63 0
59 65 0
61 69 0
55 60 0
56 62 0
56 58 0
56 60 0
56 60 0
57 61 0
52 53 0
48 48 0
48 48 0
49 50 0
50 53 0
51 51 0
47 46 0
39 37 0
50 52 0
42 41 0
35 35 0
43 40 0
41 40 0
37 36 0
41 38 0
45 44 0
42 39 0
36 33 0
35 32 0
40 36 0
39 36 0
43 40 0
47 45 0
37 33 0
38 34 0
29 24 0
36 33 0
32 27 0
38 32 0
36 31 0
41 39 0
32 27 0
31 25 0
34 28 0
29 25 0
28 24 0
31 25 0
41 33 0
32 25 0
38 30 0
31 25 1
28 22 0
36 30 0
31 24 1
30 24 1
38 33 1
39 30 1
30 25 0
38 31 1
42 35 0
30 25 0
41 33 2
50 44 2
44 36 2
36 29 0
40 34 1
41 35 1
46 38 3
38 32 1
48 40 3
33 27 1
41 34 1
42 37 3
45 38 2
53 47 4
43 40 1
61 57 1
56 54 0
80 84 1
82 90 1
80 85 1
94 106 0
91 103 0
87 101 0
92 107 0
102 118 0
101 117 0
98 110 0
100 115 0
99 116 0
99 115 0
94 109 0
99 119 0
101 117 0
101 121 0
100 120 0
102 122 0
105 124 0
103 124 0
97 111 0
112 135 0
103 121 0
102 123 0
106 126 0
105 128 0
107 128 0
107 127 0
98 121 0
109 133 0
110 135 0
107 131 0
110 141 0
111 142 0
106 135 0
111 141 0
109 139 0
110 141 0
111 140 0
111 141 0
105 134 0
107 136 0
107 135 0
107 135 0
108 136 0
104 130 0
102 129 0
103 131 0
109 136 0
111 139 0
109 138 0
104 130 0
109 137 0
105 133 0
107 134 0
102 129 0
107 134 0
100 125 0
98 123 0
96 120 0
97 122 0
97 122 0
102 126 0
97 120 0
104 130 0
92 115 0
96 120 0
96 120 0
94 117 0
93 114 0
98 121 0
86 107 0
76 94 0
79 97 0
70 87 0
78 96 0
70 87 0
66 82 0
57 70 0
66 81 0
66 79 0
65 79 0
71 86 0
61 74 0
51 62 0
61 74 0
54 66 0
61 74 0
57 70 0
55 66 0
59 72 0
59 71 0
57 70 0
66 79 0
52 63 0
63 75 0
48 57 0
53 64 0
54 64 0
41 50 0
51 62 0
45 55 0
50 60 0
50 60 0
48 58 0
56 67 0
51 61 0
44 54 0
44 53 0
44 54 0
52 62 0
52 62 0
58 70 0
49 60 0
60 72 0
54 66 0
43 53 0
55 67 0
53 65 0
58 71 0
51 62 0
53 65 0
58 72 0
61 75 0
63 77 0
67 83 0
57 72 0
61 75 0
57 71 0
62 78 0
56 70 0
69 85 0
60 75 0
59 75 0
59 75 0
75 94 0
63 79 0
68 85 0
59 75 0
67 85 0
69 88 0
69 88 0
71 90 0
75 95 0
57 74 0
67 85 0
72 91 0
66 86 0
64 82 0
66 85 0
64 83 0
75 96 0
66 85 0
70 91 0
67 87 0
64 83 0
69 90 0
67 86 0
70 92 0
67 87 0
59 78 0
69 89 0
74 97 0
67 87 0
66 85 0
67 88 0
65 85 0
64 84 0
72 94 0
71 92 0
78 101 0
60 79 0
66 86 0
73 96 0
74 96 0
46 63 0
60 81 0
64 84 0
62 83 0
69 89 0
63 84 0
65 86 0
74 97 0
64 83 0
75 97 0
58 79 0
67 87 0
63 84 0
58 77 0
60 79 0
67 87 0
53 71 0
65 85 0
68 90 0
64 86 0
62 81 0
63 83 0
64 85 0
50 67 0
60 80 0
54 73 0
62 82 0
53 71 0
56 76 0
59 80 0
65 86 0
52 68 0
48 66 0
37 53 0
55 73 0
47 63 0
44 61 0
54 72 0
57 75 0
56 74 0
46 62 0
58 76 0
42 57 0
62 81 0
51 70 0
58 77 0
47 63 0
45 60 0
51 68 0
48 66 0
39 53 0
59 77 0
51 68 0
44 60 0
59 78 0
46 62 0
48 65 0
54 71 0
48 66 0
48 64 0
40 52 0
49 65 0
56 72 0
48 65 0
46 61 0
57 72 0
46 61 0
55 73 0
44 60 0
64 82 0
48 65 0
47 60 0
52 70 0
44 58 0
53 67 0
57 75 0
64 81 0
48 61 0
53 70 0
57 73 0
49 65 0
57 75 0
51 66 0
60 78 0
42 56 0
50 67 0
53 67 0
54 70 0
39 52 0
59 76 0
47 61 0
56 72 0
56 73 0
55 71 0
57 74 0
60 75 0
59 77 0
54 70 0
65 83 0
46 59 0
61 77 0
63 81 0
60 75 0
65 82 0
65 82 0
70 89 0
54 69 0
63 79 0
68 85 0
66 83 0
56 71 0
65 82 0
58 72 0
69 85 0
59 75 0
75 92 0
73 89 0
64 79 0
69 82 0
63 80 0
70 85 0
78 93 0
67 81 0
62 76 0
55 69 0
68 82 0
62 72 0
62 73 0
62 75 0
57 67 0
61 73 0
67 79 0
63 75 0
60 70 0
65 75 0
61 73 0
67 79 0
71 83 0
63 74 0
63 71 0
49 56 0
59 65 0
58 66 0
59 64 0
70 77 0
62 70 0
55 63 0
55 60 0
59 66 0
63 69 0
59 65 0
57 63 0
64 69 0
54 59 0
53 57 0
68 69 0
47 50 0
50 51 0
56 56 0
57 60 0
54 57 0
49 48 0
46 47 0
52 56 0
46 44 0
47 50 0
46 49 0
39 38 0
49 47 0
43 41 0
41 41 0
47 46 0
47 44 0
47 45 0
48 45 0
43 38 0
47 44 0
40 39 0
39 36 0
38 32 0
38 34 0
47 45 0
36 31 0
31 28 0
45 41 0
46 41 0
42 39 0
44 39 0
45 40 0
52 50 0
39 32 0
51 50 0
40 34 0
52 49 0
44 39 0
58 57 0
48 44 0
42 38 0
52 51 0
61 57 0
53 47 0
60 55 1
55 52 0
56 52 0
49 45 0
61 60 0
46 43 0
52 49 0
51 51 0
50 47 0
58 56 0
63 62 0
57 59 0
70 70 0
59 58 1
72 76 0
80 85 0
80 89 0
78 86 0
88 92 0
84 90 0
93 103 0
83 91 0
93 106 0
88 98 0
91 100 0
89 97 0
93 105 0
93 104 0
92 104 0
98 108 0
96 109 0
90 104 0
96 112 0
96 110 0
95 110 0
102 116 0
93 109 0
96 115 0
99 117 0
101 118 0
97 114 0
95 111 0
105 128 0
104 125 0
105 128 0
103 123 0
103 122 0
99 118 0
99 117 0
111 135 0
103 125 0
103 124 0
107 133 0
101 122 0
107 131 0
102 122 0
111 140 0
114 144 0
104 133 0
109 138 0
106 135 0
107 137 0
108 138 0
108 137 0
107 134 0
107 135 0
106 134 0
111 140 0
106 133 0
101 128 0
105 132 0
109 137 0
105 134 0
107 135 0
107 136 0
106 133 0
99 124 0
105 132 0
106 134 0
108 135 0
103 128 0
100 125 0
100 127 0
98 122 0
98 122 0
97 120 0
107 133 0
106 131 0
96 119 0
95 117 0
100 123 0
94 117 0
97 120 0
84 104 0
85 106 0
89 109 0
96 118 0
88 108 0
87 108 0
77 95 0
80 99 0
86 105 0
83 101 0
78 95 0
78 95 0
76 93 0
77 94 0
72 88 0
75 92 0
74 90 0
69 84 0
75 91 0
74 89 0
69 83 0
65 79 0
72 87 0
69 83 0
69 83 0
62 74 0
53 64 0
62 74 0
59 71 0
55 66 0
63 75 0
54 66 0
47 57 0
47 57 0
56 67 0
60 71 0
56 67 0
58 71 0
54 66 0
51 62 0
53 64 0
57 69 0
57 69 0
54 66 0
54 66 0
56 69 0
57 71 0
57 69 0
56 70 0
60 73 0
63 77 0
55 68 0
59 73 0
62 76 0
61 75 0
69 85 0
57 71 0
69 85 0
72 88 0
60 75 0
60 75 0
63 78 0
59 75 0
67 83 0
61 76 0
62 78 0
60 76 0
62 78 0
69 87 0
75 95 0
74 94 0
75 95 0
54 70 0
59 76 0
69 87 0
69 86 0
68 87 0
63 82 0
65 84 0
64 83 0
61 79 0
76 97 0
71 91 0
67 86 0
62 80 0
65 84 0
75 96 0
66 85 0
66 85 0
67 86 0
66 86 0
78 100 0
67 87 0
67 88 0
53 71 0
68 87 0
71 93 0
67 88 0
68 89 0
66 88 0
72 94 0
69 90 0
70 91 0
63 82 0
71 93 0
69 91 0
68 90 0
60 80 0
60 79 0
46 63 0
62 83 0
78 102 0
64 83 0
72 94 0
78 102 0
71 93 0
66 87 0
69 90 0
58 77 0
66 88 0
60 80 0
62 82 0
71 93 0
49 67 0
63 84 0
50 69 0
63 84 0
70 92 0
58 78 0
68 90 0
54 72 0
58 79 0
65 85 0
66 86 0
55 73 0
45 63 0
60 79 0
51 69 0
62 82 0
59 80 0
56 76 0
50 67 0
44 59 0
48 65 0
63 83 0
54 72 0
52 70 0
48 65 0
56 74 0
59 79 0
49 66 0
54 71 0
42 56 0
56 74 0
60 79 0
47 65 0
51 68 0
56 73 0
54 72 0
50 66 0
45 61 0
52 68 0
46 61 0
52 70 0
57 77 0
48 65 0
50 67 0
60 77 0
46 63 0
51 68 0
58 77 0
54 71 0
56 74 0
51 67 0
55 70 0
58 76 0
60 78 0
56 75 0
67 86 0
51 70 0
60 80 0
60 77 0
63 83 0
50 65 0
64 85 0
50 66 0
63 81 0
50 67 0
54 69 0
57 73 0
57 74 0
45 61 0
61 82 0
56 73 0
61 81 0
58 74 0
50 66 0
56 73 0
51 64 0
68 85 0
50 64 0
59 76 0
53 69 0
60 77 0
59 74 0
62 78 0
64 82 0
72 91 0
51 64 0
72 90 0
58 73 0
62 77 0
64 81 0
63 77 0
62 80 0
69 88 0
67 88 0
53 66 0
60 75 0
64 80 0
75 92 0
71 88 0
64 80 0
70 85 0
61 78 0
58 71 0
64 79 0
61 77 0
72 90 0
56 69 0
66 81 0
59 72 0
73 90 0
74 89 0
67 82 0
59 71 0
65 78 0
66 79 0
62 73 0
55 68 0
58 69 0
65 73 0
63 73 0
61 71 0
62 70 0
60 72 0
69 80 0
55 66 0
59 69 0
56 66 0
76 87 0
66 73 0
57 63 0
55 61 0
61 69 0
57 64 0
53 60 0
67 73 0
62 68 0
58 64 0
67 72 0
55 62 0
64 72 0
64 71 0
65 69 0
51 53 0
55 58 0
54 57 0
58 60 0
59 64 0
63 66 0
56 60 0
58 58 0
51 51 0
53 53 0
45 46 0
42 40 0
46 46 0
49 48 0
58 57 0
47 44 0
45 41 0
52 53 0
42 37 0
43 40 0
42 37 0
47 42 0
45 37 0
52 46 0
47 44 0
41 40 0
41 38 0
47 47 0
50 49 0
47 45 0
41 35 0
50 45 0
49 44 0
50 48 0
53 49 0
55 54 0
44 41 0
47 46 0
45 39 0
60 56 0
55 52 0
53 49 0
50 48 0
60 60 0
60 58 0
67 67 0
70 69 0
62 59 0
63 61 0
66 65 0
67 68 0
75 78 0
72 74 0
79 84 0
69 72 0
73 74 0
79 82 0
84 89 0
85 92 0
78 84 0
84 92 0
84 92 0
80 87 0
90 96 0
87 95 0
92 103 0
85 93 0
90 100 0
92 101 0
89 96 0
98 111 0
83 91 0
89 99 0
101 115 0
86 99 0
94 107 0
95 111 0
95 109 0
104 120 0
98 115 0
98 116 0
102 124 0
97 112 0
97 113 0
97 111 0
103 123 0
95 113 0
96 115 0
107 126 0
108 131 0
103 123 0
97 117 0
106 126 0
106 124 0
98 120 0
97 117 0
100 124 0
110 133 0
110 139 0
109 138 0
105 133 0
108 137 0
109 138 0
111 141 0
106 135 0
105 132 0
105 133 0
104 131 0
104 132 0
111 139 0
110 138 0
103 130 0
106 134 0
106 134 0
104 130 0
104 133 0
100 126 0
104 130 0
104 131 0
101 126 0
101 127 0
102 127 0
98 122 0
97 122 0
102 127 0
103 127 0
98 121 0
98 123 0
98 122 0
92 114 0
91 113 0
94 114 0
90 112 0
93 114 0
96 119 0
93 115 0
90 111 0
84 104 0
87 108 0
86 105 0
83 100 0
89 109 0
83 102 0
84 103 0
75 92 0
86 104 0
71 88 0
82 98 0
72 88 0
74 91 0
75 90 0
79 95 0
72 86 0
73 88 0
75 91 0
67 81 0
60 73 0
69 84 0
56 69 0
67 81 0
62 75 0
65 78 0
63 76 0
52 63 0
62 75 0
66 79 0
60 72 0
57 69 0
52 64 0
63 76 0
65 79 0
57 68 0
62 75 0
62 76 0
66 80 0
62 75 0
53 65 0
61 75 0
58 70 0
57 70 0
64 79 0
55 67 0
60 74 0
57 71 0
68 84 0
71 86 0
57 70 0
69 85 0
60 74 0
61 75 0
66 81 0
66 82 0
64 80 0
70 87 0
67 85 0
55 69 0
71 89 0
64 80 0
74 93 0
74 93 0
64 80 0
64 80 0
61 77 0
63 80 0
74 93 0
69 87 0
66 85 0
56 71 0
65 84 0
68 88 0
67 86 0
65 83 0
67 85 0
64 83 0
71 90 0
61 79 0
67 88 0
77 98 0
62 80 0
80 102 0
63 82 0
69 89 0
67 88 0
80 102 0
77 100 0
79 102 0
73 95 0
73 95 0
78 101 0
65 86 0
67 88 0
62 81 0
62 81 0
58 77 0
73 96 0
81 105 0
66 88 0
60 78 0
61 80 0
62 81 0
75 98 0
77 102 0
71 94 0
64 84 0
67 88 0
64 85 0
69 91 0
68 90 0
64 85 0
66 87 0
72 94 0
61 80 0
61 81 0
67 90 0
65 86 0
66 86 0
63 85 0
64 85 0
60 80 0
67 89 0
53 73 0
67 88 0
66 87 0
62 83 0
66 87 0
62 82 0
68 90 0
67 89 0
61 82 0
63 84 0
56 74 0
52 70 0
60 79 0
48 67 0
60 79 0
57 76 0
60 78 0
58 78 0
62 82 0
58 77 0
57 77 0
46 62 0
53 72 0
58 78 0
47 66 0
43 60 0
56 76 0
48 65 0
59 79 0
59 80 0
46 62 0
49 66 0
59 78 0
54 72 0
43 59 0
53 72 0
50 66 0
67 88 0
53 71 0
54 72 0
64 83 0
54 70 0
61 78 0
53 71 0
44 60 0
56 73 0
57 74 0
56 72 0
56 73 0
52 68 0
56 73 0
62 81 0
58 76 0
50 68 0
53 71 0
47 63 0
58 75 0
58 76 0
52 68 0
54 71 0
49 65 0
58 73 0
50 67 0
50 67 0
61 80 0
54 71 0
50 63 0
50 66 0
63 80 0
60 76 0
60 75 0
64 83 0
59 78 0
48 65 0
60 77 0
63 80 0
61 80 0
66 85 0
55 70 0
71 88 0
64 83 0
69 87 0
57 74 0
66 88 0
61 77 0
66 84 0
51 65 0
71 89 0
63 79 0
65 84 0
55 69 0
67 85 0
65 81 0
70 90 0
73 91 0
60 79 0
66 82 0
67 80 0
61 78 0
68 86 0
64 80 0
68 84 0
66 80 0
72 87 0
53 64 0
72 86 0
69 85 0
69 86 0
64 76 0
63 78 0
82 98 0
66 81 0
62 75 0
59 71 0
58 72 0
64 77 0
59 70 0
67 80 0
57 70 0
72 80 0
63 72 0
66 74 0
75 91 0
62 71 0
52 60 0
63 70 0
67 76 0
64 72 0
59 67 0
65 77 0
63 70 0
63 69 0
58 62 0
63 70 0
58 64 0
52 57 0
55 59 0
50 51 0
48 52 0
66 73 0
51 54 0
57 61 0
51 57 0
66 69 0
64 68 0
56 58 0
53 54 0
55 58 0
54 54 0
54 54 0
43 42 0
49 47 0
50 48 0
55 53 0
52 51 0
44 42 0
62 64 0
49 47 0
51 50 0
48 48 0
57 55 0
49 48 0
51 48 0
49 47 0
51 48 0
52 49 0
46 41 0
51 48 0
50 48 0
50 50 0
50 49 0
50 46 0
53 50 0
57 56 0
47 41 0
51 49 0
60 58 0
46 44 0
55 51 0
54 51 0
59 54 0
61 55 0
76 75 0
56 53 0
48 45 0
60 58 0
75 79 0
68 69 0
64 63 0
63 64 0
69 70 0
73 75 0
71 71 0
70 72 0
78 82 0
75 78 0
75 78 0
83 91 0
86 93 0
83 90 0
78 82 0
69 70 0
78 82 0
90 97 0
84 88 0
84 91 0
88 94 0
94 104 0
84 91 0
95 106 0
92 99 0
97 111 0
96 111 0
94 105 0
105 119 0
94 107 0
100 113 0
92 108 0
90 103 0
94 107 0
103 118 0
98 112 0
94 111 0
101 116 0
97 112 0
93 106 0
102 120 0
102 122 0
103 120 0
104 123 0
103 123 0
103 123 0
107 128 0
107 129 0
107 125 0
105 123 0
101 121 0
100 121 0
114 144 0
106 135 0
110 140 0
108 138 0
102 130 0
104 133 0
102 129 0
110 139 0
103 129 0
110 138 0
108 136 0
105 132 0
98 123 0
108 135 0
106 133 0
107 133 0
105 131 0
101 126 0
99 125 0
104 129 0
100 126 0
103 129 0
95 119 0
103 129 0
105 130 0
96 120 0
102 127 0
103 129 0
91 113 0
96 118 0
94 116 0
99 122 0
101 124 0
97 119 0
91 112 0
88 108 0
85 105 0
93 115 0
85 104 0
80 98 0
86 105 0
81 99 0
77 95 0
84 102 0
89 108 0
80 98 0
83 102 0
83 100 0
81 98 0
71 87 0
72 87 0
68 83 0
83 99 0
67 81 0
65 80 0
72 87 0
69 84 0
63 76 0
68 82 0
68 82 0
60 73 0
58 71 0
71 86 0
61 74 0
61 73 0
63 76 0
66 79 0
60 72 0
54 66 0
62 76 0
69 84 0
56 68 0
55 67 0
58 71 0
61 74 0
61 74 0
58 70 0
63 76 0
68 83 0
68 83 0
75 91 0
63 78 0
72 89 0
68 83 0
68 83 0
70 86 0
64 79 0
71 87 0
71 87 0
74 92 0
65 80 0
64 79 0
70 87 0
68 85 0
70 87 0
61 77 0
59 75 0
70 88 0
61 77 0
61 79 0
66 84 0
61 78 0
70 88 0
76 96 0
60 78 0
66 84 0
64 81 0
64 80 0
72 93 0
70 91 0
70 88 0
67 85 0
71 89 0
67 86 0
67 86 0
64 82 0
78 99 0
72 93 0
67 88 0
75 97 0
75 96 0
70 90 0
74 96 0
78 102 0
69 90 0
78 100 0
69 90 0
76 99 0
64 83 0
76 99 0
64 84 0
73 96 0
72 93 0
70 93 0
73 96 0
67 88 0
70 91 0
83 107 0
74 97 0
62 83 0
79 102 0
65 86 0
53 72 0
67 87 0
66 88 0
66 88 0
70 93 0
75 99 0
61 82 0
72 94 0
74 96 0
62 83 0
72 95 0
65 86 0
62 82 0
68 91 0
71 94 0
58 78 0
72 93 0
68 91 0
60 80 0
63 83 0
48 66 0
61 81 0
62 83 0
54 73 0
61 82 0
54 72 0
55 74 0
65 86 0
63 83 0
62 83 0
53 72 0
47 65 0
62 82 0
51 69 0
63 84 0
56 77 0
47 66 0
62 81 0
48 65 0
50 68 0
66 86 0
46 63 0
53 71 0
65 84 0
61 80 0
48 65 0
58 76 0
57 77 0
54 74 0
46 62 0
48 65 0
48 65 0
55 74 0
51 70 0
60 80 0
57 75 0
61 80 0
49 67 0
51 69 0
53 71 0
63 83 0
52 68 0
53 71 0
52 70 0
54 71 0
58 75 0
53 70 0
59 75 0
60 79 0
55 74 0
54 70 0
45 61 0
64 83 0
58 75 0
58 75 0
57 75 0
54 72 0
55 72 0
58 76 0
55 72 0
62 80 0
64 84 0
66 87 0
64 81 0
65 85 0
65 83 0
61 77 0
60 77 0
48 64 0
58 78 0
57 74 0
78 100 0
64 83 0
51 69 0
51 68 0
62 81 0
55 71 0
63 83 0
61 78 0
57 73 0
60 77 0
68 84 0
62 79 0
61 77 0
57 71 0
67 84 0
62 82 0
73 94 0
63 80 0
78 99 0
74 93 0
80 99 0
64 81 0
68 86 0
73 93 0
71 89 0
54 67 0
69 87 0
73 93 0
69 86 0
83 102 0
76 92 0
67 85 0
60 75 0
63 78 0
57 70 0
64 77 0
75 93 0
67 81 0
66 83 0
58 71 0
66 82 0
71 85 0
64 77 0
75 92 0
66 80 0
67 80 0
61 71 0
64 78 0
59 70 0
75 89 0
71 84 0
61 70 0
63 74 0
58 68 0
68 79 0
62 73 0
72 84 0
74 85 0
53 61 0
57 67 0
62 69 0
67 76 0
64 69 0
52 59 0
59 67 0
73 82 0
57 63 0
61 62 0
54 59 0
58 64 0
60 62 0
54 55 0
65 70 0
67 70 0
64 65 0
62 66 0
61 66 0
65 63 0
60 63 0
59 64 0
48 49 0
63 66 0
51 51 0
57 56 0
43 41 0
50 50 0
52 53 0
58 58 0
57 55 0
49 47 0
54 53 0
53 52 0
44 41 0
54 51 0
47 46 0
49 46 0
48 46 0
57 54 0
41 37 0
55 53 0
45 42 0
47 46 0
55 52 0
48 44 0
45 41 0
52 48 0
48 47 0
65 64 0
54 51 0
61 58 0
53 52 0
57 54 0
66 66 0
51 51 0
65 68 0
70 70 0
64 62 0
71 73 0
73 74 0
63 64 0
70 70 0
61 59 0
76 79 0
84 90 0
71 76 0
68 72 0
80 82 0
78 81 0
80 84 0
88 98 0
83 91 0
82 91 0
77 81 0
75 79 0
90 99 0
87 99 0
91 99 0
83 93 0
91 98 0
87 96 0
84 93 0
92 102 0
85 93 0
86 95 0
94 104 0
95 108 0
91 103 0
89 101 0
99 115 0
100 114 0
98 112 0
100 114 0
93 107 0
97 109 0
100 116 0
102 117 0
106 123 0
91 111 0
104 123 0
105 125 0
104 125 0
107 129 0
107 125 0
110 126 0
103 123 0
102 120 0
102 119 0
108 137 0
109 136 0
110 139 0
106 135 0
109 139 0
106 133 0
106 134 0
109 137 0
109 137 0
111 140 0
109 136 0
101 127 0
102 129 0
106 132 0
104 131 0
102 129 0
98 123 0
97 121 0
100 125 0
99 123 0
101 126 0
104 129 0
100 124 0
99 123 0
94 116 0
97 120 0
101 124 0
95 116 0
95 118 0
92 114 0
102 126 0
89 110 0
94 115 0
92 113 0
94 116 0
100 122 0
89 110 0
87 106 0
83 102 0
80 98 0
93 113 0
81 100 0
82 100 0
81 98 0
81 98 0
75 90 0
76 93 0
80 96 0
84 102 0
82 99 0
70 85 0
78 95 0
82 100 0
70 85 0
72 88 0
68 84 0
74 89 0
70 85 0
80 96 0
65 79 0
70 85 0
72 88 0
61 74 0
63 76 0
56 67 0
64 77 0
61 76 0
69 84 0
59 73 0
68 82 0
71 86 0
61 73 0
52 63 0
71 86 0
65 80 0
71 87 0
72 87 0
69 85 0
67 82 0
67 84 0
65 79 0
63 78 0
65 80 0
77 94 0
55 70 0
73 89 0
66 82 0
68 85 0
67 84 0
67 84 0
77 97 0
64 82 0
76 94 0
78 97 0
76 94 0
72 91 0
74 92 0
73 93 0
72 91 0
79 98 0
55 72 0
68 88 0
64 82 0
67 85 0
70 89 0
70 88 0
72 91 0
75 94 0
65 84 0
74 94 0
80 102 0
74 96 0
71 91 0
69 88 0
64 83 0
72 92 0
72 93 0
70 90 0
63 82 0
71 91 0
70 91 0
70 90 0
69 89 0
70 93 0
68 89 0
74 95 0
68 89 0
77 100 0
71 92 0
73 94 0
78 101 0
64 84 0
75 96 0
76 99 0
72 94 0
74 97 0
63 83 0
80 105 0
65 86 0
65 86 0
73 95 0
65 88 0
75 98 0
72 95 0
72 95 0
83 107 0
69 91 0
67 89 0
67 89 0
80 104 0
63 82 0
68 89 0
74 97 0
64 86 0
66 88 0
59 79 0
65 87 0
87 113 0
58 78 0
64 84 0
64 85 0
60 80 0
63 84 0
62 83 0
69 91 0
66 89 0
56 75 0
63 85 0
66 86 0
59 79 0
61 82 0
67 88 0
55 72 0
74 97 0
56 76 0
62 83 0
66 86 0
55 74 0
58 78 0
48 66 0
56 75 0
53 73 0
57 76 0
61 81 0
57 78 0
58 78 0
54 74 0
59 78 0
66 88 0
66 85 0
61 81 0
61 81 0
67 89 0
47 64 0
64 84 0
64 84 0
58 77 0
58 76 0
59 78 0
55 72 0
54 72 0
55 75 0
55 74 0
52 71 0
60 80 0
64 84 0
51 70 0
58 75 0
56 74 0
66 87 0
61 79 0
61 79 0
64 84 0
57 75 0
63 84 0
61 79 0
56 76 0
55 73 0
55 72 0
61 79 0
54 70 0
55 73 0
55 73 0
71 90 0
47 62 0
55 73 0
60 78 0
69 91 0
56 74 0
56 73 0
64 83 0
62 81 0
58 77 0
65 84 0
69 89 0
67 85 0
55 70 0
62 79 0
58 75 0
64 82 0
79 99 0
64 81 0
70 91 0
68 88 0
63 80 0
71 91 0
69 89 0
62 80 0
63 81 0
68 88 0
69 87 0
69 85 0
61 76 0
68 83 0
73 91 0
64 81 0
62 79 0
74 92 0
65 81 0
64 78 0
71 91 0
66 83 0
63 79 0
63 80 0
74 93 0
63 79 0
62 77 0
73 88 0
67 82 0
70 85 0
73 91 0
70 88 0
70 87 0
56 70 0
78 95 0
65 76 0
67 79 0
73 86 0
72 87 0
61 75 0
64 79 0
63 74 0
67 79 0
70 85 0
70 85 0
58 67 0
62 71 0
63 71 0
53 62 0
66 75 0
71 79 0
61 70 0
65 76 0
60 71 0
63 70 0
68 77 0
74 83 0
61 68 0
77 86 0
70 76 0
56 64 0
66 72 0
62 69 0
62 66 0
64 69 0
56 62 0
52 58 0
61 66 0
55 58 0
66 69 0
57 56 0
58 64 0
59 61 0
63 63 0
61 61 0
55 56 0
56 58 0
60 61 0
57 58 0
58 61 0
65 65 0
61 63 0
56 54 0
58 59 0
52 50 0
58 54 0
57 55 0
57 54 0
54 53 0
48 46 0
54 52 0
49 47 0
60 59 0
51 47 0
58 55 0
53 51 0
62 61 0
49 47 0
53 51 0
56 54 0
55 54 0
63 63 0
58 58 0
60 62 0
61 62 0
64 61 0
56 54 0
61 59 0
62 62 0
66 65 0
57 60 0
64 63 0
63 65 0
71 74 0
73 73 0
64 65 0
76 78 0
69 73 0
68 67 0
72 77 0
70 75 0
85 91 0
80 81 0
86 91 0
71 76 0
75 78 0
87 95 0
87 94 0
82 87 0
76 83 0
83 90 0
91 100 0
84 91 0
86 95 0
90 101 0
90 97 0
96 106 0
83 89 0
95 109 0
94 108 0
86 97 0
96 109 0
85 94 0
95 109 0
104 119 0
93 108 0
98 112 0
99 116 0
96 109 0
96 112 0
94 111 0
94 109 0
98 115 0
98 117 0
103 123 0
101 123 0
103 120 0
100 117 0
97 115 0
98 117 0
108 136 0
109 137 0
102 130 0
109 139 0
109 137 0
108 136 0
108 135 0
106 133 0
110 138 0
103 130 0
101 126 0
113 140 0
104 131 0
103 129 0
99 124 0
111 140 0
99 123 0
103 128 0
98 123 0
98 123 0
99 124 0
93 116 0
103 127 0
101 125 0
99 123 0
100 124 0
97 121 0
90 111 0
95 118 0
89 110 0
95 117 0
89 109 0
92 115 0
88 107 0
91 111 0
96 117 0
87 106 0
92 113 0
85 105 0
83 102 0
83 101 0
82 100 0
77 95 0
85 103 0
88 107 0
79 97 0
76 93 0
71 87 0
75 92 0
77 94 0
78 96 0
72 88 0
72 87 0
71 88 0
70 85 0
69 85 0
70 85 0
76 92 0
65 79 0
66 80 0
73 88 0
72 88 0
79 94 0
57 70 0
62 75 0
67 82 0
78 95 0
69 84 0
66 81 0
68 84 0
68 83 0
74 89 0
72 87 0
68 84 0
77 93 0
64 78 0
65 80 0
57 71 0
73 90 0
72 88 0
67 84 0
76 93 0
65 81 0
71 87 0
75 93 0
62 78 0
67 83 0
70 88 0
68 86 0
70 87 0
72 89 0
75 93 0
70 88 0
79 98 0
70 86 0
77 96 0
71 89 0
71 89 0
70 88 0
65 84 0
73 93 0
66 84 0
73 94 0
68 87 0
68 85 0
62 81 0
68 87 0
71 90 0
82 105 0
80 101 0
68 88 0
66 87 0
67 86 0
67 87 0
65 86 0
76 98 0
74 95 0
77 98 0
72 93 0
80 103 0
69 90 0
71 92 0
78 101 0
66 87 0
77 98 0
72 94 0
76 97 0
79 102 0
74 97 0
65 86 0
66 87 0
69 90 0
69 91 0
71 93 0
73 96 0
81 104 0
79 104 0
78 103 0
66 86 0
66 88 0
71 93 0
60 80 0
80 104 0
77 102 0
63 83 0
81 106 0
62 81 0
70 93 0
67 91 0
67 90 0
67 91 0
67 89 0
66 88 0
63 82 0
63 84 0
67 88 0
66 86 0
71 94 0
72 94 0
66 88 0
63 85 0
66 88 0
59 81 0
65 86 0
75 99 0
65 88 0
65 87 0
67 89 0
71 93 0
61 82 0
60 81 0
47 65 0
66 88 0
59 80 0
58 78 0
62 83 0
62 82 0
60 81 0
54 71 0
62 82 0
62 83 0
61 82 0
62 83 0
70 92 0
54 72 0
61 82 0
65 85 0
53 70 0
66 88 0
56 77 0
55 73 0
56 76 0
61 81 0
61 81 0
63 82 0
57 76 0
54 71 0
58 79 0
60 80 0
60 79 0
55 74 0
61 81 0
57 75 0
66 87 0
57 75 0
69 89 0
58 79 0
63 82 0
50 67 0
58 78 0
60 80 0
63 82 0
61 80 0
63 83 0
63 83 0
54 72 0
51 67 0
58 78 0
58 77 0
64 85 0
55 75 0
51 68 0
49 66 0
67 87 0
55 71 0
55 73 0
67 88 0
61 80 0
53 71 0
60 78 0
65 86 0
58 74 0
62 80 0
59 76 0
62 83 0
67 85 0
59 76 0
63 82 0
58 76 0
74 94 0
54 70 0
65 84 0
72 91 0
65 83 0
61 79 0
68 86 0
61 79 0
69 85 0
65 82 0
64 82 0
64 81 0
68 87 0
64 82 0
66 83 0
69 87 0
76 96 0
61 77 0
76 94 0
83 103 0
65 78 0
65 81 0
65 79 0
71 88 0
69 87 0
68 82 0
62 78 0
66 81 0
69 82 0
69 87 0
68 85 0
75 90 0
70 87 0
67 81 0
72 90 0
65 77 0
63 80 0
74 89 0
64 79 0
60 72 0
61 71 0
78 94 0
68 82 0
70 84 0
54 62 0
64 78 0
70 84 0
78 91 0
72 90 0
68 80 0
68 80 0
67 78 0
57 63 0
54 63 0
72 85 0
66 76 0
75 87 0
65 77 0
69 79 0
68 77 0
69 79 0
65 74 0
66 73 0
58 63 0
70 77 0
67 71 0
65 75 0
55 61 0
71 78 0
54 60 0
51 54 0
71 76 0
61 66 0
66 71 0
62 65 0
67 70 0
60 62 0
46 45 0
62 63 0
60 63 0
51 52 0
54 53 0
58 58 0
49 50 0
60 60 0
68 73 0
60 61 0
57 58 0
58 57 0
57 52 0
55 55 0
66 69 0
54 51 0
57 56 0
58 57 0
59 61 0
50 48 0
48 44 0
53 51 0
53 53 0
53 49 0
62 59 0
60 58 0
70 72 0
69 70 0
59 56 0
65 66 0
60 58 0
63 65 0
59 59 0
63 62 0
61 59 0
67 69 0
68 68 0
74 75 0
55 54 0
73 78 0
60 61 0
74 77 0
75 80 0
82 87 0
73 73 0
82 83 0
78 83 0
81 83 0
81 85 0
80 88 0
85 89 0
85 91 0
80 82 0
78 84 0
89 93 0
86 95 0
88 94 0
83 91 0
82 91 0
88 97 0
97 109 0
96 112 0
81 89 0
87 97 0
90 99 0
90 102 0
94 107 0
95 109 0
96 114 0
96 110 0
96 112 0
102 122 0
98 115 0
100 116 0
102 117 0
97 112 0
97 109 0
93 107 0
106 125 0
97 112 0
105 125 0
100 116 0
101 121 0
106 125 0
109 137 0
107 136 0
109 138 0
108 134 0
105 132 0
109 137 0
102 128 0
104 131 0
105 132 0
102 129 0
103 129 0
102 127 0
107 133 0
103 127 0
102 126 0
104 129 0
104 131 0
99 124 0
100 125 0
102 127 0
95 117 0
100 124 0
101 126 0
98 121 0
95 119 0
100 124 0
101 125 0
101 124 0
100 122 0
89 109 0
84 103 0
84 103 0
95 116 0
90 111 0
85 104 0
92 114 0
89 108 0
85 104 0
82 101 0
89 109 0
80 99 0
81 99 0
83 102 0
76 93 0
80 99 0
78 94 0
85 103 0
70 85 0
73 89 0
78 95 0
66 81 0
87 105 0
81 97 0
73 89 0
73 88 0
73 89 0
73 88 0
64 78 0
65 80 0
78 95 0
72 88 0
69 84 0
71 86 0
73 89 0
77 92 0
65 79 0
76 93 0
76 93 0
72 88 0
65 82 0
74 90 0
72 87 0
62 77 0
71 87 0
71 88 0
75 92 0
68 84 0
68 84 0
75 92 0
71 88 0
69 87 0
77 95 0
66 82 0
70 87 0
73 91 0
70 87 0
74 92 0
66 84 0
70 88 0
67 83 0
70 87 0
72 89 0
76 96 0
71 90 0
65 82 0
80 101 0
69 87 0
77 97 0
72 90 0
72 93 0
78 98 0
73 93 0
70 89 0
74 93 0
77 99 0
68 88 0
79 100 0
77 100 0
74 95 0
70 90 0
68 88 0
79 100 0
68 88 0
75 98 0
77 99 0
68 90 0
72 95 0
70 91 0
76 97 0
80 102 0
73 95 0
76 98 0
79 102 0
74 96 0
71 91 0
75 98 0
73 94 0
72 95 0
67 87 0
79 104 0
78 101 0
71 93 0
86 112 0
75 95 0
70 91 0
68 91 0
73 95 0
75 99 0
76 99 0
79 102 0
69 91 0
72 95 0
80 104 0
65 87 0
64 85 0
65 85 0
69 93 0
67 88 0
70 93 0
80 103 0
56 74 0
63 85 0
70 92 0
77 101 0
72 96 0
86 110 0
74 97 0
71 93 0
71 93 0
61 83 0
70 92 0
66 88 0
70 92 0
58 77 0
70 93 0
63 84 0
60 80 0
68 89 0
64 85 0
62 83 0
73 95 0
67 89 0
63 84 0
53 73 0
60 81 0
69 93 0
62 82 0
80 103 0
66 88 0
57 76 0
54 73 0
60 80 0
65 87 0
57 77 0
65 87 0
68 89 0
57 74 0
56 76 0
69 91 0
56 74 0
65 87 0
59 76 0
60 78 0
63 84 0
72 94 0
60 79 0
66 86 0
61 82 0
59 78 0
60 79 0
60 79 0
60 80 0
53 72 0
57 75 0
67 89 0
62 82 0
62 84 0
59 78 0
67 88 0
64 85 0
62 81 0
63 83 0
68 90 0
61 80 0
67 85 0
61 80 0
67 88 0
61 80 0
54 71 0
71 92 0
45 62 0
57 73 0
67 88 0
67 87 0
66 85 0
60 79 0
70 92 0
68 88 0
53 69 0
62 81 0
75 97 0
61 79 0
65 84 0
64 84 0
68 86 0
63 84 0
63 81 0
70 88 0
66 84 0
60 77 0
72 92 0
72 91 0
59 75 0
66 83 0
60 76 0
61 78 0
63 83 0
74 95 0
70 89 0
66 84 0
70 90 0
72 93 0
56 71 0
75 94 0
67 87 0
59 76 0
85 105 0
67 85 0
71 91 0
64 80 0
74 90 0
64 81 0
67 80 0
56 69 0
75 91 0
69 83 0
77 93 0
79 98 0
66 82 0
71 83 0
80 100 0
68 83 0
70 87 0
68 83 0
70 86 0
64 80 0
69 84 0
78 92 0
66 81 0
66 81 0
67 79 0
82 97 0
74 89 0
72 88 0
70 86 0
70 83 0
64 78 0
60 71 0
68 83 0
69 81 0
67 80 0
74 87 0
59 69 0
62 74 0
72 83 0
64 73 0
71 83 0
59 67 0
65 76 0
72 80 0
73 82 0
69 77 0
65 72 0
71 81 0
67 75 0
65 74 0
66 74 0
55 61 0
61 65 0
66 71 0
62 65 0
57 62 0
65 69 0
65 72 0
62 65 0
62 66 0
65 69 0
59 63 0
63 64 0
52 53 0
66 72 0
65 67 0
55 57 0
54 55 0
68 69 0
67 71 0
66 66 0
64 65 0
59 60 0
67 71 0
65 66 0
54 53 0
63 64 0
64 64 0
68 69 0
63 63 0
56 56 0
66 67 0
68 68 0
65 64 0
60 59 0
52 50 0
62 61 0
66 64 0
59 58 0
72 75 0
73 72 0
74 78 0
67 67 0
71 72 0
66 64 0
73 72 0
68 69 0
70 68 0
71 69 0
66 65 0
68 70 0
79 81 0
81 84 0
81 87 0
73 76 0
80 83 0
77 83 0
84 88 0
70 73 0
72 77 0
75 82 0
80 88 0
86 96 0
76 79 0
77 81 0
72 75 0
83 90 0
94 105 0
86 94 0
88 93 0
82 88 0
87 96 0
89 100 0
89 100 0
92 101 0
88 100 0
92 106 0
98 111 0
96 108 0
101 116 0
94 109 0
95 108 0
95 110 0
98 112 0
93 106 0
93 106 0
97 115 0
99 114 0
94 107 0
100 118 0
103 119 0
97 113 0
96 111 0
102 121 0
105 133 0
106 133 0
108 135 0
109 137 0
103 130 0
104 132 0
103 131 0
105 132 0
103 130 0
105 131 0
109 136 0
106 132 0
107 135 0
105 131 0
102 129 0
101 125 0
96 119 0
102 126 0
98 123 0
98 122 0
93 115 0
92 115 0
98 121 0
98 121 0
94 118 0
93 116 0
98 122 0
94 116 0
90 111 0
87 107 0
97 120 0
90 110 0
88 108 0
87 106 0
89 109 0
94 115 0
87 107 0
88 109 0
84 103 0
78 96 0
81 99 0
85 103 0
88 108 0
81 99 0
84 102 0
81 99 0
68 84 0
73 90 0
81 99 0
78 94 0
77 93 0
72 89 0
71 88 0
79 95 0
76 92 0
72 88 0
73 89 0
75 91 0
75 92 0
64 78 0
78 93 0
70 87 0
80 98 0
80 97 0
71 86 0
79 96 0
75 92 0
72 89 0
69 85 0
77 95 0
75 92 0
69 85 0
68 84 0
73 90 0
76 94 0
65 82 0
70 87 0
75 93 0
66 83 0
70 86 0
75 94 0
75 93 0
81 100 0
82 103 0
77 96 0
69 87 0
70 88 0
70 87 0
66 84 0
87 108 0
80 100 0
72 91 0
76 94 0
78 99 0
68 86 0
74 93 0
78 97 0
71 90 0
73 93 0
72 91 0
69 90 0
72 92 0
75 94 0
73 94 0
78 99 0
72 91 0
72 92 0
74 94 0
80 103 0
72 94 0
81 104 0
76 99 0
73 93 0
73 94 0
81 105 0
77 100 0
64 83 0
77 100 0
70 91 0
63 83 0
86 109 0
77 100 0
71 93 0
67 87 0
79 102 0
74 96 0
78 101 0
70 91 0
74 98 0
74 96 0
78 101 0
73 97 0
76 99 0
67 88 0
69 92 0
74 96 0
66 88 0
75 100 0
73 95 0
74 98 0
63 84 0
73 94 0
65 86 0
67 89 0
70 93 0
78 103 0
73 96 0
73 96 0
77 99 0
70 93 0
79 105 0
70 93 0
70 93 0
70 93 0
75 99 0
75 99 0
76 99 0
69 92 0
74 98 0
68 91 0
75 97 0
69 92 0
75 98 0
63 84 0
66 88 0
58 78 0
70 93 0
63 84 0
62 81 0
67 90 0
68 91 0
67 88 0
67 89 0
58 78 0
67 89 0
64 85 0
55 74 0
65 87 0
59 79 0
58 77 0
57 76 0
64 84 0
63 83 0
67 89 0
53 72 0
57 77 0
63 82 0
58 80 0
62 82 0
66 87 0
55 74 0
69 91 0
67 88 0
64 86 0
60 80 0
62 81 0
58 78 0
55 71 0
60 77 0
72 94 0
67 88 0
70 93 0
56 76 0
59 78 0
69 92 0
60 81 0
69 90 0
59 79 0
59 80 0
58 77 0
62 83 0
57 75 0
64 85 0
59 75 0
68 89 0
58 78 0
59 77 0
72 91 0
59 78 0
63 83 0
61 82 0
62 81 0
63 84 0
67 88 0
66 88 0
59 77 0
57 74 0
61 80 0
60 78 0
63 83 0
68 87 0
71 91 0
66 86 0
64 81 0
64 83 0
62 81 0
74 96 0
62 81 0
57 75 0
57 73 0
66 83 0
71 92 0
66 85 0
71 91 0
67 86 0
68 86 0
67 86 0
66 83 0
69 91 0
74 94 0
74 93 0
71 89 0
69 88 0
70 89 0
74 92 0
65 83 0
80 102 0
70 87 0
64 82 0
73 92 0
69 88 0
72 89 0
71 90 0
75 92 0
68 87 0
66 85 0
68 80 0
69 88 0
77 95 0
76 96 0
77 96 0
68 84 0
77 94 0
69 86 0
73 88 0
67 85 0
76 92 0
67 82 0
66 80 0
72 88 0
58 68 0
75 91 0
67 80 0
65 74 0
63 75 0
68 83 0
64 78 0
65 76 0
67 83 0
69 80 0
74 89 0
68 80 0
68 81 0
79 92 0
78 91 0
69 80 0
76 88 0
77 87 0
62 71 0
73 86 0
77 89 0
75 84 0
63 70 0
69 78 0
71 81 0
67 75 0
56 62 0
66 76 0
77 83 0
82 92 0
62 69 0
69 77 0
54 57 0
65 74 0
64 72 0
65 68 0
52 55 0
64 68 0
61 65 0
63 68 0
53 56 0
66 70 0
61 65 0
72 75 0
64 70 0
59 63 0
57 59 0
66 70 0
67 70 0
65 67 0
63 62 0
64 63 0
66 69 0
64 67 0
58 60 0
71 71 0
64 63 0
64 65 0
55 54 0
61 63 0
68 69 0
55 54 0
66 66 0
63 63 0
61 58 0
64 67 0
75 75 0
69 67 0
55 54 0
73 76 0
66 66 0
75 76 0
70 72 0
70 69 0
68 67 0
69 70 0
69 70 0
74 76 0
77 80 0
72 75 0
84 89 0
77 80 0
73 74 0
83 89 0
86 89 0
73 78 0
75 79 0
82 89 0
72 80 0
79 82 0
78 85 0
88 100 0
81 84 0
82 90 0
84 91 0
92 105 0
93 104 0
85 94 0
84 90 0
86 97 0
100 115 0
85 95 0
92 105 0
89 101 0
92 105 0
91 100 0
99 113 0
97 113 0
94 107 0
91 106 0
95 105 0
93 107 0
105 123 0
103 117 0
94 108 0
95 114 0
102 115 0
100 120 0
99 116 0
103 121 0
106 134 0
102 128 0
106 133 0
101 127 0
109 137 0
106 133 0
104 132 0
99 125 0
100 124 0
105 131 0
106 131 0
104 131 0
101 126 0
105 132 0
100 125 0
97 121 0
101 125 0
98 122 0
97 121 0
102 126 0
99 124 0
98 121 0
92 115 0
93 115 0
93 116 0
99 122 0
92 113 0
92 114 0
98 120 0
85 105 0
95 118 0
92 114 0
89 108 0
89 109 0
88 108 0
88 107 0
81 101 0
91 111 0
90 111 0
82 102 0
77 95 0
80 99 0
84 102 0
80 97 0
88 107 0
83 103 0
83 102 0
81 100 0
72 88 0
80 98 0
77 95 0
89 109 0
80 98 0
77 95 0
79 97 0
75 92 0
72 88 0
75 92 0
80 99 0
74 91 0
79 97 0
74 91 0
74 91 0
71 88 0
72 88 0
81 99 0
72 89 0
74 90 0
75 93 0
73 90 0
66 82 0
75 92 0
74 91 0
73 91 0
72 90 0
69 86 0
76 94 0
77 95 0
71 89 0
75 93 0
67 84 0
74 92 0
79 100 0
79 99 0
68 86 0
76 95 0
79 98 0
80 101 0
74 93 0
79 98 0
73 93 0
86 107 0
72 91 0
74 93 0
73 94 0
73 93 0
75 96 0
74 94 0
73 94 0
65 83 0
90 112 0
83 105 0
77 99 0
70 90 0
65 84 0
76 97 0
73 93 0
72 93 0
84 108 0
77 100 0
80 103 0
66 86 0
74 96 0
72 92 0
79 100 0
80 103 0
72 94 0
74 98 0
80 102 0
69 90 0
80 104 0
85 109 0
78 100 0
78 102 0
69 89 0
78 101 0
78 100 0
72 94 0
75 99 0
72 94 0
80 103 0
76 99 0
75 96 0
77 101 0
72 95 0
63 84 0
77 101 0
79 104 0
73 96 0
83 109 0
70 93 0
75 98 0
55 74 0
72 94 0
79 104 0
73 96 0
71 95 0
69 91 0
70 93 0
67 89 0
80 104 0
69 91 0
76 99 0
69 90 0
71 93 0
70 94 0
63 85 0
66 88 0
70 93 0
76 100 0
70 94 0
66 88 0
69 91 0
70 92 0
67 89 0
66 89 0
68 89 0
65 87 0
68 89 0
64 85 0
64 86 0
56 77 0
68 89 0
73 98 0
66 89 0
67 88 0
64 84 0
63 83 0
62 84 0
64 87 0
67 89 0
67 88 0
62 83 0
70 95 0
62 82 0
66 88 0
60 80 0
61 83 0
58 78 0
66 88 0
63 84 0
63 84 0
59 80 0
61 83 0
64 86 0
55 73 0
58 78 0
65 86 0
62 83 0
62 83 0
73 95 0
57 77 0
66 87 0
57 77 0
74 96 0
62 81 0
70 92 0
53 72 0
64 85 0
60 79 0
62 84 0
71 93 0
68 92 0
57 77 0
58 78 0
66 87 0
70 89 0
66 86 0
57 75 0
66 86 0
61 81 0
70 91 0
61 80 0
70 91 0
62 82 0
65 84 0
59 76 0
72 93 0
64 83 0
56 74 0
69 88 0
70 92 0
71 89 0
61 81 0
80 101 0
69 89 0
62 82 0
59 79 0
66 82 0
81 103 0
69 88 0
72 93 0
66 83 0
74 95 0
69 90 0
70 91 0
73 94 0
73 94 0
74 93 0
72 92 0
75 97 0
67 86 0
72 92 0
67 85 0
65 82 0
77 98 0
63 81 0
80 99 0
79 100 0
76 97 0
62 78 0
66 83 0
68 86 0
69 87 0
67 85 0
74 93 0
77 95 0
75 93 0
78 98 0
72 90 0
73 93 0
74 91 0
69 89 0
64 82 0
71 87 0
67 80 0
69 86 0
66 81 0
66 81 0
72 87 0
82 101 0
73 88 0
73 89 0
75 91 0
57 71 0
67 80 0
82 101 0
77 93 0
71 86 0
75 88 0
76 89 0
70 84 0
65 75 0
72 87 0
71 84 0
69 80 0
69 83 0
78 89 0
68 78 0
76 88 0
71 82 0
75 84 0
59 67 0
70 79 0
77 87 0
73 84 0
64 75 0
62 72 0
70 78 0
63 68 0
70 74 0
66 73 0
73 80 0
80 90 0
73 81 0
79 87 0
64 72 0
64 71 0
58 62 0
64 71 0
66 72 0
70 77 0
66 72 0
65 66 0
68 70 0
64 70 0
67 71 0
68 70 0
68 71 0
62 65 0
71 74 0
66 68 0
58 58 0
59 63 0
63 67 0
65 64 0
65 64 0
66 68 0
70 69 0
63 64 0
59 59 0
73 75 0
69 72 0
62 63 0
65 67 0
70 71 0
64 66 0
65 65 0
78 79 0
65 64 0
72 72 0
71 70 0
70 70 0
74 77 0
75 80 0
65 68 0
69 69 0
64 66 0
72 74 0
82 85 0
69 70 0
76 78 0
74 76 0
88 95 0
84 89 0
84 88 0
69 73 0
78 80 0
76 82 0
84 91 0
78 82 0
82 82 0
80 87 0
87 94 0
85 91 0
73 80 0
84 93 0
80 86 0
90 98 0
80 88 0
85 91 0
82 91 0
90 102 0
99 109 0
96 106 0
87 99 0
95 105 0
91 101 0
91 103 0
93 106 0
93 105 0
93 105 0
96 111 0
96 113 0
96 112 0
96 113 0
100 115 0
100 116 0
97 115 0
103 121 0
104 131 0
100 125 0
102 129 0
108 135 0
102 129 0
103 128 0
105 131 0
99 124 0
101 126 0
100 125 0
104 130 0
94 118 0
104 132 0
102 128 0
99 122 0
102 127 0
103 126 0
97 121 0
94 118 0
98 121 0
98 122 0
95 117 0
93 115 0
94 116 0
91 113 0
95 118 0
93 116 0
96 119 0
94 118 0
86 106 0
94 116 0
89 109 0
80 100 0
87 107 0
94 115 0
84 103 0
75 93 0
88 108 0
74 92 0
84 103 0
82 101 0
88 107 0
84 102 0
82 101 0
80 98 0
86 105 0
78 95 0
78 95 0
86 106 0
73 90 0
78 96 0
87 107 0
77 95 0
80 98 0
77 95 0
79 96 0
76 94 0
80 98 0
85 104 0
86 104 0
82 100 0
77 95 0
76 93 0
70 87 0
75 92 0
79 96 0
84 103 0
80 99 0
72 89 0
76 94 0
70 87 0
71 89 0
73 90 0
82 102 0
74 92 0
78 97 0
81 101 0
76 97 0
76 95 0
76 95 0
68 86 0
76 95 0
77 97 0
76 96 0
70 89 0
84 104 0
75 94 0
84 105 0
74 94 0
77 97 0
69 89 0
81 102 0
78 99 0
75 95 0
71 90 0
77 98 0
76 97 0
78 99 0
84 107 0
72 92 0
79 102 0
74 94 0
73 94 0
78 100 0
77 99 0
76 99 0
78 99 0
72 92 0
77 98 0
79 101 0
75 98 0
83 106 0
84 108 0
70 92 0
69 89 0
69 92 0
78 101 0
74 98 0
80 104 0
78 101 0
78 101 0
77 101 0
82 106 0
74 96 0
88 113 0
82 106 0
80 104 0
70 93 0
71 94 0
76 100 0
77 102 0
73 97 0
84 108 0
73 95 0
79 103 0
73 97 0
79 103 0
72 95 0
77 101 0
77 100 0
83 107 0
75 99 0
68 91 0
65 87 0
70 91 0
69 91 0
73 97 0
73 97 0
78 102 0
73 98 0
71 95 0
81 106 0
73 97 0
79 105 0
70 92 0
67 91 0
70 94 0
71 94 0
72 94 0
66 87 0
72 96 0
69 92 0
78 103 0
63 85 0
66 89 0
64 86 0
70 92 0
71 92 0
58 79 0
68 89 0
63 85 0
67 90 0
79 103 0
72 96 0
62 83 0
76 101 0
68 90 0
57 78 0
68 90 0
76 100 0
69 91 0
66 87 0
65 86 0
64 84 0
61 84 0
62 83 0
60 81 0
64 86 0
66 87 0
65 87 0
60 79 0
57 76 0
63 84 0
69 92 0
75 97 0
65 86 0
59 80 0
72 95 0
70 90 0
58 79 0
52 71 0
54 73 0
69 91 0
62 81 0
71 93 0
59 79 0
58 78 0
62 82 0
62 81 0
61 80 0
58 78 0
60 80 0
62 83 0
52 71 0
71 93 0
74 96 0
69 89 0
67 90 0
72 95 0
64 85 0
80 102 0
67 85 0
61 80 0
72 92 0
65 86 0
69 91 0
75 97 0
76 96 0
70 90 0
66 86 0
67 89 0
76 98 0
57 76 0
73 93 0
74 96 0
67 87 0
70 91 0
64 84 0
62 80 0
69 87 0
74 95 0
71 89 0
71 91 0
65 85 0
74 94 0
64 83 0
63 81 0
70 90 0
78 100 0
66 83 0
78 98 0
69 88 0
80 102 0
76 96 0
78 98 0
75 96 0
71 87 0
58 74 0
69 88 0
77 96 0
68 86 0
74 93 0
67 85 0
62 80 0
62 79 0
73 90 0
79 96 0
72 86 0
69 85 0
72 91 0
69 87 0
72 91 0
75 94 0
79 97 0
71 86 0
75 94 0
67 83 0
70 88 0
71 89 0
63 79 0
77 96 0
81 100 0
62 76 0
75 92 0
80 97 0
75 93 0
78 94 0
64 79 0
76 90 0
70 81 0
77 92 0
67 81 0
72 84 0
68 80 0
68 81 0
69 81 0
68 79 0
82 95 0
69 80 0
78 94 0
72 82 0
70 80 0
63 72 0
71 81 0
73 84 0
73 81 0
67 74 0
67 77 0
73 82 0
69 79 0
75 84 0
65 71 0
73 80 0
74 85 0
69 79 0
70 77 0
70 79 0
64 69 0
69 78 0
71 78 0
58 63 0
65 71 0
69 75 0
75 81 0
65 68 0
64 70 0
64 69 0
64 68 0
71 73 0
73 79 0
66 70 0
65 67 0
60 62 0
64 70 0
71 73 0
71 74 0
78 83 0
65 65 0
69 73 0
69 71 0
62 63 0
70 71 0
65 66 0
66 67 0
68 69 0
73 74 0
63 66 0
66 68 0
69 74 0
74 75 0
65 70 0
69 74 0
70 70 0
65 65 0
65 69 0
65 67 0
75 75 0
69 71 0
75 77 0
73 75 0
61 64 0
70 75 0
78 79 0
69 72 0
76 77 0
76 79 0
69 72 0
77 83 0
77 78 0
78 84 0
80 85 0
78 85 0
85 91 0
80 84 0
89 98 0
86 91 0
77 82 0
89 97 0
91 99 0
81 87 0
85 95 0
96 107 0
82 91 0
87 98 0
89 99 0
93 104 0
86 94 0
94 103 0
98 112 0
97 108 0
98 114 0
99 114 0
90 104 0
100 118 0
104 123 0
93 105 0
104 121 0
97 111 0
94 107 0
103 120 0
104 132 0
105 131 0
106 132 0
100 127 0
104 129 0
104 131 0
101 126 0
102 128 0
103 128 0
97 121 0
102 129 0
100 126 0
95 119 0
103 127 0
100 124 0
102 127 0
101 125 0
96 119 0
95 117 0
89 112 0
91 113 0
92 115 0
101 125 0
100 122 0
90 111 0
94 116 0
85 106 0
84 105 0
87 108 0
89 110 0
99 122 0
86 106 0
97 120 0
91 113 0
82 102 0
82 101 0
78 98 0
87 108 0
85 104 0
99 121 0
82 101 0
81 99 0
73 91 0
91 113 0
84 103 0
90 110 0
85 104 0
78 95 0
83 101 0
82 100 0
76 94 0
74 92 0
79 98 0
85 105 0
77 95 0
86 105 0
79 97 0
74 91 0
76 94 0
81 100 0
77 95 0
79 98 0
79 98 0
81 99 0
80 99 0
81 101 0
78 96 0
80 99 0
80 99 0
72 89 0
71 89 0
79 99 0
80 100 0
75 92 0
75 94 0
66 82 0
80 99 0
69 86 0
78 97 0
76 93 0
72 92 0
84 104 0
76 96 0
82 104 0
74 94 0
62 79 0
74 93 0
81 102 0
83 106 0
81 103 0
82 105 0
76 96 0
76 97 0
70 89 0
76 96 0
80 101 0
73 94 0
72 92 0
72 93 0
74 96 0
75 96 0
84 108 0
81 104 0
80 103 0
69 89 0
81 103 0
68 89 0
79 102 0
75 98 0
80 103 0
75 96 0
76 98 0
69 92 0
76 98 0
78 101 0
68 89 0
65 87 0
78 101 0
81 105 0
78 103 0
77 101 0
78 101 0
74 97 0
73 97 0
75 100 0
77 101 0
72 94 0
83 107 0
71 93 0
72 95 0
74 97 0
78 101 0
76 100 0
73 96 0
66 87 0
69 93 0
66 89 0
82 109 0
64 86 0
75 100 0
83 108 0
79 104 0
67 89 0
89 115 0
74 98 0
79 103 0
79 104 0
58 79 0
77 101 0
88 115 0
66 88 0
69 92 0
77 100 0
78 103 0
68 90 0
81 107 0
67 89 0
79 103 0
70 94 0
63 86 0
79 101 0
66 89 0
77 101 0
66 89 0
75 98 0
73 96 0
65 87 0
74 99 0
66 89 0
75 99 0
65 87 0
69 91 0
76 100 0
68 91 0
58 79 0
77 102 0
63 83 0
68 90 0
63 84 0
70 94 0
63 85 0
67 90 0
66 89 0
64 85 0
61 82 0
64 85 0
62 84 0
65 86 0
60 79 0
56 78 0
67 89 0
55 74 0
62 83 0
64 85 0
66 87 0
73 96 0
71 93 0
59 79 0
62 82 0
61 82 0
63 83 0
58 79 0
73 95 0
61 83 0
63 84 0
64 84 0
60 80 0
61 84 0
61 82 0
65 86 0
59 77 0
67 87 0
56 74 0
61 82 0
62 81 0
61 83 0
69 90 0
62 81 0
72 95 0
60 82 0
73 96 0
55 74 0
62 79 0
66 87 0
66 83 0
70 91 0
70 91 0
65 86 0
71 94 0
72 93 0
75 96 0
66 86 0
77 98 0
74 96 0
71 91 0
73 95 0
69 87 0
67 87 0
73 94 0
72 91 0
74 94 0
66 86 0
73 92 0
70 91 0
61 77 0
76 96 0
76 98 0
63 82 0
81 102 0
81 103 0
68 87 0
61 81 0
75 97 0
76 97 0
82 103 0
73 94 0
74 93 0
80 101 0
73 92 0
70 88 0
74 91 0
72 92 0
77 95 0
76 96 0
68 86 0
82 102 0
76 95 0
78 98 0
71 88 0
68 87 0
74 92 0
83 101 0
71 84 0
66 81 0
74 92 0
81 105 0
87 109 0
77 94 0
64 81 0
69 83 0
78 94 0
75 91 0
68 83 0
60 73 0
75 91 0
76 92 0
77 94 0
73 86 0
77 97 0
80 96 0
69 82 0
66 83 0
78 90 0
75 92 0
75 89 0
70 83 0
72 82 0
69 85 0
76 89 0
64 73 0
69 82 0
71 82 0
67 76 0
64 74 0
72 81 0
80 91 0
73 85 0
75 86 0
76 86 0
70 77 0
75 84 0
74 83 0
72 81 0
67 75 0
63 71 0
73 85 0
76 84 0
85 95 0
75 82 0
63 70 0
68 73 0
71 77 0
77 86 0
62 68 0
66 71 0
50 51 0
58 62 0
57 61 0
71 76 0
63 69 0
72 77 0
67 68 0
65 70 0
76 83 0
75 83 0
69 74 0
72 77 0
68 71 0
63 65 0
71 73 0
75 79 0
70 71 0
74 77 0
76 79 0
78 82 0
70 76 0
51 53 0
72 77 0
67 71 0
70 71 0
71 73 0
66 68 0
81 87 0
75 81 0
71 76 0
79 82 0
73 75 0
75 80 0
80 87 0
69 72 0
71 73 0
75 79 0
70 71 0
72 72 0
78 85 0
76 81 0
82 87 0
84 90 0
76 80 0
86 91 0
79 84 0
81 89 0
82 84 0
82 88 0
90 100 0
85 93 0
87 95 0
82 92 0
79 84 0
89 96 0
95 109 0
88 98 0
91 102 0
85 99 0
89 98 0
96 107 0
92 104 0
88 96 0
85 97 0
90 103 0
95 109 0
86 96 0
93 106 0
100 116 0
96 108 0
101 117 0
101 121 0
95 108 0
102 119 0
97 114 0
102 129 0
99 125 0
107 134 0
102 127 0
101 127 0
106 132 0
97 121 0
102 128 0
99 124 0
102 127 0
98 123 0
100 126 0
101 126 0
96 119 0
101 125 0
101 126 0
100 125 0
94 116 0
94 116 0
86 107 0
94 117 0
96 119 0
90 112 0
84 104 0
95 118 0
92 113 0
87 108 0
86 105 0
88 108 0
85 104 0
90 112 0
87 109 0
84 103 0
98 121 0
91 112 0
91 110 0
81 100 0
84 104 0
87 107 0
81 100 0
90 111 0
82 101 0
78 96 0
86 106 0
86 105 0
82 101 0
80 99 0
80 98 0
86 105 0
87 107 0
86 105 0
85 105 0
83 103 0
73 91 0
85 105 0
80 99 0
72 90 0
78 96 0
79 99 0
84 103 0
79 98 0
81 99 0
78 96 0
73 91 0
78 97 0
78 97 0
75 93 0
75 94 0
75 94 0
74 93 0
80 99 0
74 93 0
76 95 0
80 100 0
85 105 0
82 102 0
77 95 0
95 117 0
72 91 0
82 102 0
77 97 0
81 102 0
87 108 0
73 93 0
78 99 0
81 102 0
73 94 0
71 90 0
78 98 0
82 104 0
79 100 0
78 99 0
77 98 0
78 100 0
77 97 0
79 101 0
81 103 0
75 96 0
76 98 0
74 95 0
83 105 0
77 99 0
77 98 0
83 106 0
75 96 0
81 104 0
77 100 0
86 111 0
77 102 0
75 95 0
79 103 0
82 107 0
85 109 0
78 101 0
73 94 0
78 103 0
75 97 0
74 96 0
66 87 0
77 100 0
73 96 0
77 100 0
77 102 0
80 105 0
74 97 0
78 101 0
83 108 0
71 94 0
84 110 0
79 104 0
83 109 0
79 103 0
74 97 0
79 103 0
70 93 0
79 103 0
73 97 0
79 103 0
79 103 0
76 99 0
73 95 0
81 105 0
78 103 0
75 99 0
66 88 0
73 97 0
80 106 0
71 92 0
73 97 0
71 94 0
78 102 0
78 103 0
68 90 0
67 89 0
82 107 0
75 98 0
64 85 0
66 89 0
81 106 0
73 97 0
72 96 0
68 91 0
66 87 0
76 100 0
72 94 0
70 92 0
67 89 0
65 86 0
69 93 0
67 89 0
77 103 0
69 92 0
74 98 0
78 103 0
69 91 0
66 88 0
62 83 0
69 91 0
69 92 0
67 89 0
70 93 0
67 89 0
58 79 0
69 91 0
61 82 0
59 80 0
68 89 0
61 81 0
66 87 0
60 79 0
67 88 0
58 79 0
76 99 0
70 93 0
70 92 0
76 99 0
75 99 0
80 105 0
68 90 0
65 88 0
70 91 0
74 96 0
72 93 0
69 90 0
71 93 0
67 88 0
66 90 0
58 78 0
69 89 0
71 92 0
67 88 0
56 77 0
64 85 0
54 73 0
86 112 0
67 89 0
75 97 0
69 92 0
71 94 0
71 94 0
64 83 0
63 83 0
64 86 0
75 98 0
58 77 0
61 82 0
61 81 0
64 84 0
75 96 0
70 90 0
66 85 0
69 89 0
65 84 0
65 86 0
70 89 0
74 96 0
84 106 0
79 101 0
70 90 0
72 93 0
67 88 0
63 84 0
70 92 0
72 92 0
67 86 0
68 86 0
70 91 0
74 96 0
64 81 0
68 86 0
67 85 0
71 90 0
78 100 0
78 99 0
71 90 0
81 102 0
79 102 0
74 91 0
72 90 0
70 89 0
90 111 0
69 88 0
69 87 0
71 90 0
68 86 0
72 90 0
74 92 0
75 94 0
73 90 0
78 98 0
71 90 0
79 98 0
84 102 0
77 96 0
78 96 0
73 91 0
65 83 0
88 109 0
72 89 0
73 89 0
78 98 0
73 89 0
74 88 0
73 88 0
77 97 0
77 95 0
85 103 0
78 97 0
73 88 0
67 81 0
80 98 0
81 95 0
78 95 0
71 85 0
70 81 0
72 84 0
74 88 0
79 92 0
71 84 0
61 74 0
76 91 0
72 84 0
79 93 0
70 80 0
74 85 0
73 83 0
68 78 0
77 87 0
69 83 0
68 78 0
73 84 0
72 82 0
75 84 0
80 89 0
71 81 0
69 74 0
65 73 0
73 82 0
75 81 0
72 80 0
70 78 0
67 75 0
69 73 0
78 87 0
74 83 0
69 76 0
68 72 0
75 84 0
66 72 0
79 85 0
72 74 0
76 84 0
74 81 0
78 82 0
74 80 0
72 82 0
68 70 0
68 71 0
81 86 0
73 76 0
69 72 0
73 81 0
62 63 0
81 88 0
67 69 0
67 70 0
74 77 0
79 83 0
74 77 0
68 72 0
72 77 0
77 84 0
68 71 0
73 75 0
81 88 0
80 84 0
72 76 0
71 70 0
73 77 0
75 80 0
68 70 0
74 76 0
78 81 0
72 78 0
82 86 0
80 85 0
79 85 0
80 85 0
82 88 0
77 81 0
83 89 0
87 92 0
90 98 0
78 84 0
99 111 0
86 95 0
87 95 0
84 94 0
84 92 0
86 95 0
84 90 0
93 101 0
92 103 0
85 94 0
93 107 0
92 103 0
90 98 0
81 88 0
85 94 0
92 105 0
92 102 0
97 112 0
91 101 0
92 105 0
94 106 0
103 117 0
97 114 0
87 99 0
99 113 0
96 113 0
108 135 0
107 133 0
101 126 0
107 133 0
100 125 0
100 125 0
103 129 0
93 117 0
101 126 0
102 126 0
100 126 0
100 124 0
104 128 0
95 118 0
104 130 0
97 120 0
98 122 0
95 118 0
99 122 0
95 118 0
91 112 0
98 120 0
95 117 0
93 114 0
90 113 0
97 119 0
100 122 0
93 114 0
93 114 0
93 114 0
93 114 0
87 108 0
91 113 0
82 102 0
92 113 0
93 114 0
81 100 0
96 117 0
87 107 0
90 110 0
89 108 0
85 105 0
80 99 0
81 100 0
79 98 0
85 105 0
89 108 0
84 103 0
81 100 0
81 101 0
80 99 0
83 101 0
81 100 0
85 106 0
83 103 0
88 109 0
78 97 0
79 98 0
84 103 0
82 101 0
83 103 0
83 104 0
78 96 0
76 94 0
87 108 0
89 110 0
78 97 0
78 98 0
82 101 0
80 100 0
83 105 0
75 94 0
80 100 0
81 102 0
81 100 0
72 91 0
84 106 0
76 96 0
80 101 0
77 98 0
74 94 0
86 108 0
74 95 0
75 95 0
76 97 0
82 104 0
78 98 0
82 104 0
78 99 0
76 97 0
82 103 0
75 97 0
84 107 0
78 101 0
84 107 0
71 92 0
85 109 0
79 102 0
78 101 0
82 105 0
80 102 0
80 102 0
74 94 0
72 93 0
84 110 0
71 92 0
72 93 0
74 96 0
86 111 0
87 111 0
76 98 0
74 96 0
83 108 0
80 103 0
79 102 0
82 107 0
74 97 0
74 96 0
71 93 0
72 94 0
79 103 0
93 120 0
75 98 0
84 109 0
75 99 0
79 103 0
74 96 0
75 100 0
73 95 0
75 99 0
75 99 0
77 100 0
79 103 0
79 103 0
73 94 0
77 102 0
78 102 0
80 105 0
69 92 0
80 105 0
76 100 0
83 108 0
78 103 0
76 98 0
89 115 0
69 92 0
82 107 0
79 104 0
68 91 0
73 96 0
74 98 0
66 89 0
68 91 0
73 96 0
68 90 0
74 99 0
79 105 0
69 91 0
66 88 0
79 105 0
71 94 0
78 102 0
56 78 0
68 91 0
71 94 0
63 82 0
74 98 0
69 92 0
68 90 0
77 101 0
65 87 0
69 93 0
71 94 0
72 95 0
73 97 0
72 96 0
74 99 0
55 75 0
66 88 0
72 94 0
74 98 0
72 94 0
66 89 0
68 90 0
63 85 0
85 111 0
66 87 0
62 83 0
74 97 0
63 84 0
68 91 0
67 89 0
75 98 0
55 77 0
63 82 0
74 97 0
71 95 0
75 98 0
63 84 0
70 93 0
68 91 0
65 87 0
75 96 0
66 86 0
64 85 0
65 86 0
66 89 0
64 86 0
71 93 0
62 82 0
57 78 0
67 88 0
69 92 0
72 93 0
62 81 0
64 85 0
64 85 0
72 94 0
62 82 0
70 93 0
65 85 0
60 82 0
70 93 0
61 80 0
72 93 0
74 96 0
73 95 0
70 92 0
75 98 0
67 88 0
73 94 0
72 94 0
70 91 0
60 81 0
82 105 0
75 98 0
75 96 0
69 92 0
60 78 0
78 101 0
59 77 0
69 87 0
63 81 0
71 93 0
75 96 0
67 86 0
71 91 0
66 85 0
69 89 0
72 95 0
76 96 0
88 111 0
73 94 0
71 88 0
64 83 0
72 92 0
77 99 0
71 89 0
67 88 0
77 98 0
69 90 0
77 98 0
65 83 0
74 94 0
71 92 0
76 98 0
78 100 0
80 101 0
72 91 0
74 92 0
75 94 0
71 90 0
75 93 0
81 101 0
68 86 0
74 94 0
78 98 0
71 90 0
76 95 0
67 83 0
71 88 0
79 99 0
72 90 0
58 72 0
68 83 0
77 94 0
75 93 0
67 83 0
68 81 0
76 93 0
63 75 0
74 89 0
68 81 0
81 95 0
75 93 0
84 99 0
74 88 0
69 86 0
85 101 0
84 98 0
69 81 0
77 91 0
69 86 0
64 75 0
71 84 0
73 87 0
72 83 0
70 79 0
72 83 0
69 80 0
78 88 0
78 92 0
74 83 0
77 87 0
82 94 0
72 82 0
69 78 0
74 82 0
72 82 0
77 88 0
74 84 0
72 82 0
64 68 0
65 73 0
77 86 0
74 81 0
82 93 0
59 66 0
78 89 0
82 90 0
69 76 0
75 84 0
72 76 0
68 76 0
68 72 0
68 71 0
75 80 0
79 86 0
77 82 0
75 77 0
74 78 0
67 70 0
72 75 0
74 81 0
74 80 0
67 71 0
73 77 0
74 75 0
83 87 0
68 70 0
72 76 0
70 76 0
68 70 0
71 72 0
82 90 0
71 73 0
76 83 0
68 70 0
75 79 0
65 66 0
87 92 0
80 85 0
72 76 0
86 94 0
77 82 0
80 84 0
75 79 0
82 86 0
75 79 0
80 86 0
82 89 0
87 94 0
76 83 0
77 83 0
92 103 0
101 111 0
92 104 0
80 88 0
90 98 0
90 100 0
91 104 0
89 98 0
84 93 0
86 96 0
88 95 0
88 98 0
85 95 0
95 108 0
94 106 0
85 94 0
92 106 0
92 105 0
97 110 0
90 102 0
95 107 0
95 112 0
92 102 0
93 111 0
104 119 0
99 117 0
103 129 0
106 130 0
103 130 0
102 127 0
100 126 0
96 119 0
102 126 0
104 130 0
100 124 0
104 129 0
103 129 0
98 122 0
97 122 0
100 124 0
95 117 0
91 114 0
102 126 0
93 116 0
97 120 0
95 118 0
95 118 0
95 117 0
97 121 0
95 117 0
96 118 0
95 118 0
91 113 0
88 108 0
88 108 0
92 113 0
83 102 0
87 108 0
93 116 0
85 105 0
85 105 0
87 108 0
88 109 0
86 106 0
89 109 0
79 97 0
94 115 0
86 106 0
87 106 0
81 100 0
85 106 0
92 113 0
82 103 0
84 104 0
86 108 0
81 101 0
79 98 0
83 103 0
74 91 0
86 106 0
80 99 0
76 95 0
78 96 0
86 108 0
79 98 0
84 104 0
78 97 0
79 99 0
79 99 0
82 102 0
84 104 0
80 101 0
77 97 0
83 103 0
81 101 0
85 104 0
78 99 0
83 104 0
90 112 0
71 91 0
76 97 0
86 107 0
82 103 0
73 92 0
81 103 0
83 105 0
82 104 0
79 100 0
87 109 0
81 104 0
86 108 0
82 104 0
80 102 0
84 107 0
78 100 0
82 105 0
77 99 0
77 98 0
79 102 0
80 102 0
88 111 0
79 103 0
87 112 0
75 98 0
83 107 0
80 104 0
77 98 0
86 111 0
84 107 0
84 107 0
82 105 0
90 115 0
79 103 0
71 92 0
77 100 0
79 103 0
83 108 0
73 97 0
77 101 0
70 92 0
77 99 0
84 110 0
77 100 0
82 106 0
76 99 0
89 114 0
77 102 0
87 111 0
74 99 0
77 101 0
76 100 0
80 104 0
87 112 0
80 105 0
88 113 0
80 105 0
77 101 0
81 106 0
80 104 0
78 101 0
92 117 0
78 103 0
71 96 0
80 106 0
80 105 0
78 103 0
71 93 0
67 90 0
69 90 0
76 99 0
78 104 0
75 98 0
81 104 0
76 101 0
66 87 0
82 108 0
79 105 0
71 95 0
81 106 0
76 99 0
78 102 0
72 96 0
67 88 0
75 97 0
77 102 0
78 102 0
72 96 0
72 95 0
70 94 0
66 88 0
87 114 0
76 100 0
59 81 0
65 87 0
66 89 0
58 79 0
64 88 0
66 88 0
67 88 0
73 97 0
72 95 0
76 100 0
67 90 0
72 95 0
65 88 0
62 83 0
69 92 0
69 91 0
75 100 0
70 92 0
66 87 0
70 93 0
73 95 0
59 78 0
69 92 0
79 104 0
66 89 0
72 95 0
61 81 0
73 96 0
73 96 0
71 93 0
71 94 0
71 94 0
70 92 0
70 93 0
75 99 0
73 96 0
74 96 0
63 82 0
62 83 0
67 88 0
72 95 0
74 98 0
72 95 0
69 92 0
70 92 0
62 82 0
69 92 0
67 89 0
73 94 0
78 101 0
56 74 0
66 87 0
75 98 0
70 92 0
79 102 0
76 98 0
70 91 0
69 90 0
68 91 0
82 105 0
72 95 0
68 87 0
78 100 0
81 104 0
66 86 0
68 90 0
69 89 0
75 96 0
73 95 0
78 99 0
75 96 0
69 90 0
77 98 0
66 87 0
77 99 0
80 101 0
76 98 0
67 85 0
72 93 0
77 98 0
71 91 0
77 99 0
74 94 0
79 101 0
69 88 0
78 99 0
73 95 0
70 88 0
72 92 0
77 98 0
71 89 0
74 94 0
76 97 0
88 110 0
82 105 0
73 94 0
83 103 0
66 85 0
77 98 0
74 98 0
80 101 0
76 97 0
77 96 0
70 89 0
76 95 0
78 96 0
80 101 0
66 83 0
77 98 0
63 79 0
73 89 0
74 94 0
74 94 0
80 96 0
71 89 0
80 98 0
73 88 0
78 94 0
82 101 0
68 82 0
74 90 0
75 92 0
83 102 0
83 101 0
75 92 0
69 83 0
69 83 0
83 102 0
70 80 0
76 91 0
82 98 0
81 97 0
78 91 0
69 81 0
74 86 0
79 93 0
61 70 0
69 83 0
70 80 0
73 83 0
77 89 0
69 81 0
74 87 0
75 89 0
78 92 0
76 86 0
80 94 0
72 81 0
78 93 0
81 95 0
87 100 0
64 73 0
68 74 0
76 87 0
77 85 0
64 72 0
70 79 0
71 79 0
76 83 0
75 86 0
80 91 0
82 91 0
69 76 0
80 88 0
72 80 0
79 89 0
68 73 0
64 68 0
73 78 0
79 85 0
71 76 0
80 86 0
82 91 0
69 74 0
73 79 0
78 82 0
65 70 0
80 87 0
65 69 0
68 73 0
73 76 0
72 78 0
80 85 0
73 75 0
75 78 0
73 78 0
77 83 0
81 88 0
80 86 0
79 86 0
69 71 0
81 89 0
80 87 0
76 79 0
70 70 0
77 83 0
69 72 0
79 83 0
68 73 0
88 95 0
74 78 0
83 91 0
76 80 0
86 91 0
79 85 0
75 81 0
79 82 0
81 85 0
93 98 0
87 91 0
84 94 0
85 92 0
85 93 0
80 83 0
91 100 0
91 101 0
88 97 0
84 91 0
82 90 0
85 93 0
90 99 0
96 111 0
91 102 0
92 104 0
90 102 0
93 104 0
97 110 0
88 102 0
91 106 0
95 108 0
93 106 0
98 113 0
91 103 0
98 112 0
109 136 0
102 127 0
107 134 0
99 123 0
101 127 0
99 123 0
101 126 0
104 131 0
103 129 0
94 118 0
104 129 0
95 118 0
101 126 0
92 114 0
98 122 0
94 117 0
99 123 0
98 122 0
91 112 0
95 117 0
91 112 0
93 115 0
93 116 0
98 121 0
92 114 0
93 115 0
91 114 0
94 116 0
87 108 0
89 110 0
88 109 0
91 113 0
81 100 0
91 112 0
88 110 0
87 107 0
88 109 0
80 100 0
83 104 0
91 112 0
86 106 0
86 106 0
88 110 0
82 102 0
90 111 0
89 108 0
78 97 0
82 101 0
80 99 0
75 94 0
79 96 0
80 100 0
88 109 0
92 116 0
83 102 0
92 114 0
76 94 0
89 110 0
85 105 0
77 96 0
82 102 0
85 105 0
78 97 0
81 99 0
76 96 0
84 106 0
82 102 0
84 105 0
77 98 0
81 102 0
80 101 0
68 85 0
82 103 0
87 108 0
84 105 0
78 99 0
73 94 0
72 91 0
83 105 0
81 103 0
86 108 0
83 104 0
84 107 0
88 112 0
77 98 0
84 106 0
80 101 0
77 99 0
81 104 0
75 97 0
81 105 0
86 110 0
87 111 0
75 97 0
76 97 0
74 94 0
79 102 0
82 105 0
79 102 0
72 94 0
80 102 0
81 104 0
85 108 0
79 102 0
83 107 0
79 100 0
78 101 0
84 107 0
85 109 0
87 112 0
84 108 0
79 101 0
84 109 0
79 102 0
77 101 0
90 115 0
83 108 0
79 104 0
81 106 0
80 104 0
81 106 0
85 111 0
73 97 0
75 98 0
79 104 0
89 115 0
77 102 0
75 99 0
86 112 0
71 93 0
74 95 0
72 96 0
76 99 0
78 102 0
82 108 0
74 99 0
83 108 0
83 108 0
80 104 0
71 94 0
80 103 0
75 97 0
78 104 0
91 119 0
77 102 0
80 105 0
74 97 0
78 103 0
82 107 0
77 100 0
77 101 0
78 103 0
80 105 0
75 99 0
69 92 0
71 95 0
74 97 0
72 96 0
74 98 0
76 97 0
65 87 0
65 86 0
79 103 0
73 96 0
65 88 0
72 95 0
68 91 0
76 100 0
72 96 0
71 93 0
69 91 0
68 89 0
78 103 0
66 89 0
67 90 0
76 101 0
74 98 0
76 99 0
65 88 0
73 96 0
76 100 0
67 89 0
75 99 0
70 93 0
67 89 0
69 93 0
74 98 0
68 89 0
63 85 0
71 94 0
72 94 0
79 104 0
79 103 0
68 91 0
71 94 0
63 85 0
63 84 0
70 94 0
59 81 0
53 73 0
72 94 0
73 95 0
72 95 0
72 94 0
60 80 0
64 85 0
73 94 0
71 93 0
72 94 0
70 92 0
73 96 0
73 97 0
71 93 0
75 99 0
75 98 0
73 96 0
73 97 0
61 81 0
74 95 0
69 92 0
69 91 0
64 85 0
67 89 0
70 93 0
74 100 0
74 95 0
68 88 0
61 80 0
70 92 0
78 102 0
78 101 0
65 84 0
72 96 0
74 97 0
68 90 0
68 87 0
77 102 0
74 95 0
72 93 0
64 85 0
77 100 0
69 89 0
70 93 0
76 99 0
80 106 0
72 94 0
74 95 0
77 97 0
75 97 0
77 99 0
68 87 0
70 89 0
72 91 0
83 106 0
72 93 0
76 99 0
80 101 0
76 96 0
72 93 0
75 96 0
82 102 0
74 94 0
70 87 0
71 91 0
77 96 0
72 95 0
80 99 0
74 89 0
80 101 0
67 87 0
69 89 0
77 96 0
81 101 0
86 107 0
72 90 0
84 105 0
78 98 0
84 104 0
78 97 0
75 93 0
69 89 0
81 100 0
77 95 0
80 97 0
76 93 0
67 83 0
70 85 0
80 98 0
78 96 0
69 84 0
65 78 0
70 85 0
80 97 0
88 109 0
76 93 0
85 104 0
70 85 0
83 101 0
73 86 0
68 81 0
78 95 0
71 83 0
68 82 0
81 94 0
83 98 0
67 78 0
84 99 0
79 95 0
77 93 0
80 93 0
75 88 0
81 96 0
78 92 0
72 85 0
72 85 0
74 87 0
76 88 0
68 78 0
78 90 0
78 89 0
76 87 0
83 96 0
71 82 0
71 79 0
75 88 0
73 81 0
74 83 0
81 91 0
77 85 0
67 71 0
78 87 0
78 87 0
72 79 0
78 86 0
66 72 0
75 82 0
65 71 0
72 80 0
63 71 0
72 78 0
77 82 0
83 92 0
70 74 0
71 76 0
77 82 0
85 90 0
74 81 0
73 81 0
85 92 0
77 86 0
79 85 0
68 73 0
71 76 0
80 89 0
84 91 0
69 72 0
80 89 0
80 86 0
79 88 0
79 87 0
76 83 0
80 86 0
70 77 0
81 89 0
77 81 0
79 88 0
84 89 0
69 71 0
79 85 0
81 85 0
83 89 0
88 97 0
85 92 0
77 84 0
91 102 0
86 91 0
84 90 0
92 102 0
83 90 0
87 92 0
81 91 0
92 99 0
87 94 0
93 104 0
84 93 0
92 104 0
86 95 0
92 101 0
90 98 0
92 103 0
90 103 0
87 94 0
95 109 0
87 99 0
101 116 0
98 108 0
95 110 0
92 107 0
93 103 0
98 116 0
99 125 0
102 129 0
102 128 0
101 127 0
103 129 0
99 124 0
98 123 0
100 125 0
104 131 0
96 120 0
97 123 0
98 123 0
97 122 0
97 121 0
97 121 0
93 117 0
90 112 0
95 118 0
91 114 0
92 115 0
95 117 0
92 115 0
90 111 0
97 121 0
98 123 0
93 114 0
92 114 0
92 113 0
93 116 0
93 115 0
94 116 0
91 114 0
88 110 0
94 115 0
91 112 0
88 109 0
91 112 0
80 99 0
84 104 0
88 109 0
90 110 0
91 111 0
84 104 0
92 114 0
83 102 0
89 110 0
90 111 0
87 110 0
85 104 0
85 105 0
82 103 0
76 94 0
88 109 0
91 113 0
76 94 0
83 103 0
87 108 0
83 102 0
83 104 0
81 101 0
96 120 0
84 105 0
83 104 0
84 105 0
76 95 0
86 106 0
83 104 0
87 108 0
82 102 0
88 111 0
77 99 0
86 106 0
77 96 0
79 99 0
82 104 0
82 104 0
91 113 0
81 102 0
87 109 0
85 108 0
81 103 0
81 104 0
80 103 0
85 106 0
83 106 0
78 99 0
91 115 0
75 97 0
76 97 0
87 111 0
83 107 0
89 112 0
82 106 0
85 109 0
82 105 0
87 111 0
79 104 0
75 97 0
83 107 0
77 99 0
79 101 0
81 106 0
81 104 0
84 109 0
77 101 0
84 108 0
78 101 0
76 98 0
86 111 0
81 104 0
85 109 0
71 95 0
85 110 0
81 106 0
75 99 0
84 109 0
82 107 0
76 100 0
80 105 0
89 113 0
86 111 0
74 98 0
80 103 0
91 116 0
84 110 0
75 99 0
87 113 0
82 108 0
86 111 0
68 90 0
74 97 0
82 107 0
75 100 0
79 104 0
77 100 0
78 102 0
85 111 0
77 101 0
78 104 0
73 97 0
77 100 0
74 96 0
83 108 0
75 100 0
75 99 0
73 96 0
83 109 0
77 102 0
81 106 0
80 105 0
74 96 0
80 106 0
79 104 0
67 90 0
74 98 0
73 98 0
72 96 0
79 103 0
74 98 0
72 95 0
83 108 0
70 94 0
74 97 0
73 97 0
79 103 0
76 99 0
75 100 0
84 111 0
65 87 0
80 104 0
87 114 0
69 92 0
76 101 0
77 100 0
64 86 0
81 106 0
78 103 0
69 90 0
76 101 0
70 93 0
71 93 0
75 98 0
75 100 0
72 94 0
68 91 0
75 99 0
74 96 0
69 92 0
67 89 0
76 98 0
70 93 0
71 94 0
73 94 0
70 93 0
77 100 0
75 99 0
67 90 0
76 100 0
74 99 0
78 102 0
65 86 0
67 90 0
70 92 0
59 80 0
61 81 0
70 94 0
75 98 0
68 91 0
65 86 0
58 78 0
68 90 0
83 109 0
68 88 0
70 93 0
78 102 0
68 90 0
63 84 0
71 93 0
75 97 0
76 98 0
71 94 0
78 100 0
76 98 0
78 100 0
65 86 0
73 97 0
74 95 0
73 93 0
70 91 0
65 85 0
77 100 0
64 84 0
76 99 0
72 94 0
68 87 0
81 105 0
72 95 0
73 95 0
69 89 0
71 95 0
73 93 0
74 95 0
79 101 0
68 89 0
76 97 0
74 95 0
73 94 0
76 99 0
69 89 0
79 102 0
75 95 0
77 100 0
74 93 0
86 109 0
84 107 0
78 101 0
71 89 0
83 106 0
74 94 0
73 94 0
78 98 0
76 95 0
76 98 0
87 109 0
73 92 0
78 101 0
71 91 0
69 88 0
75 95 0
71 90 0
78 97 0
73 94 0
79 99 0
79 98 0
83 103 0
78 99 0
66 83 0
79 100 0
85 106 0
89 109 0
80 99 0
70 85 0
80 100 0
80 102 0
79 97 0
95 117 0
80 100 0
81 100 0
80 98 0
82 100 0
81 97 0
81 102 0
70 85 0
80 95 0
77 92 0
71 85 0
74 88 0
81 97 0
71 84 0
84 102 0
78 92 0
78 96 0
85 104 0
73 87 0
73 88 0
68 78 0
77 90 0
74 87 0
76 88 0
80 93 0
79 90 0
79 90 0
79 92 0
70 80 0
74 86 0
67 78 0
82 98 0
83 98 0
78 88 0
78 88 0
76 87 0
74 85 0
75 86 0
74 80 0
76 88 0
69 79 0
71 80 0
79 89 0
83 93 0
79 90 0
74 83 0
77 89 0
83 92 0
78 86 0
83 92 0
72 78 0
77 86 0
78 87 0
76 85 0
85 92 0
81 90 0
63 66 0
81 86 0
68 73 0
76 83 0
85 93 0
80 88 0
76 83 0
76 85 0
78 84 0
74 80 0
81 87 0
72 78 0
74 80 0
76 84 0
79 88 0
77 85 0
71 74 0
74 81 0
81 87 0
83 92 0
76 79 0
83 90 0
80 87 0
73 78 0
80 85 0
75 78 0
86 94 0
77 83 0
86 92 0
79 85 0
86 98 0
82 89 0
75 80 0
92 101 0
94 103 0
85 92 0
83 94 0
89 97 0
86 94 0
82 89 0
92 101 0
86 95 0
94 105 0
76 85 0
90 102 0
81 88 0
87 97 0
92 102 0
92 102 0
95 110 0
95 104 0
100 114 0
95 112 0
90 103 0
84 95 0
85 94 0
92 103 0
94 110 0
100 116 0
100 125 0
103 130 0
93 117 0
97 124 0
92 115 0
107 132 0
102 126 0
97 121 0
98 123 0
95 119 0
99 124 0
103 127 0
99 122 0
96 118 0
93 116 0
97 120 0
90 112 0
101 126 0
96 119 0
99 123 0
93 117 0
95 118 0
96 119 0
98 121 0
91 113 0
92 115 0
99 122 0
91 113 0
95 117 0
86 107 0
99 122 0
91 114 0
88 109 0
96 119 0
89 111 0
90 111 0
88 109 0
87 107 0
92 113 0
88 109 0
76 96 0
82 101 0
84 104 0
91 112 0
91 113 0
87 107 0
83 104 0
84 103 0
89 110 0
92 115 0
85 106 0
88 111 0
80 100 0
90 112 0
85 108 0
83 103 0
94 117 0
86 107 0
81 102 0
79 99 0
85 107 0
91 114 0
76 94 0
75 94 0
78 98 0
82 103 0
84 105 0
75 95 0
87 110 0
81 102 0
87 109 0
78 97 0
80 101 0
79 99 0
86 109 0
81 102 0
82 103 0
75 96 0
80 102 0
79 100 0
88 111 0
82 106 0
84 108 0
83 107 0
76 97 0
88 113 0
86 111 0
86 109 0
82 105 0
83 106 0
78 101 0
79 100 0
82 105 0
78 100 0
83 107 0
87 111 0
86 109 0
85 110 0
89 113 0
85 108 0
73 95 0
80 103 0
83 106 0
82 106 0
82 106 0
81 106 0
83 108 0
85 110 0
86 110 0
76 98 0
79 101 0
83 106 0
83 107 0
73 96 0
78 100 0
82 107 0
85 110 0
80 104 0
79 102 0
87 114 0
80 104 0
84 110 0
80 104 0
83 108 0
81 106 0
80 104 0
68 90 0
78 102 0
85 111 0
79 104 0
85 111 0
74 96 0
85 113 0
84 111 0
84 111 0
81 106 0
77 101 0
79 104 0
87 114 0
73 97 0
69 92 0
66 87 0
69 92 0
75 99 0
74 97 0
73 97 0
69 93 0
83 109 0
86 112 0
74 99 0
73 95 0
85 112 0
75 99 0
73 96 0
79 104 0
78 102 0
74 97 0
80 106 0
76 101 0
79 103 0
72 95 0
80 104 0
63 86 0
77 103 0
71 94 0
70 95 0
71 96 0
82 108 0
76 101 0
78 102 0
69 92 0
76 99 0
70 94 0
67 90 0
71 93 0
75 98 0
80 104 0
73 96 0
71 95 0
82 107 0
65 88 0
75 101 0
68 91 0
64 85 0
76 100 0
69 91 0
70 93 0
70 95 0
66 89 0
79 104 0
73 98 0
67 91 0
68 90 0
73 96 0
73 96 0
62 83 0
74 98 0
73 96 0
81 107 0
69 91 0
65 86 0
74 97 0
66 85 0
81 107 0
71 93 0
76 100 0
75 100 0
72 95 0
77 102 0
71 95 0
72 96 0
76 100 0
62 84 0
71 93 0
77 100 0
79 102 0
78 102 0
70 92 0
80 106 0
75 98 0
70 93 0
71 93 0
74 97 0
79 103 0
74 96 0
65 87 0
74 97 0
82 105 0
71 94 0
76 97 0
71 93 0
81 105 0
68 91 0
77 100 0
76 99 0
79 103 0
74 96 0
78 102 0
77 98 0
82 106 0
63 81 0
77 100 0
72 96 0
75 98 0
78 99 0
85 110 0
82 108 0
74 94 0
80 103 0
82 105 0
66 86 0
80 104 0
89 115 0
72 93 0
75 97 0
72 90 0
69 89 0
82 102 0
80 101 0
66 84 0
72 92 0
82 102 0
67 87 0
81 101 0
78 99 0
81 103 0
79 98 0
78 98 0
82 102 0
77 99 0
68 85 0
71 89 0
82 104 0
81 98 0
77 97 0
79 99 0
82 101 0
79 100 0
68 86 0
77 96 0
77 97 0
84 103 0
78 96 0
74 88 0
73 90 0
81 102 0
72 87 0
74 94 0
74 91 0
72 86 0
88 109 0
77 95 0
65 77 0
85 103 0
87 106 0
80 97 0
78 93 0
76 94 0
81 101 0
67 83 0
69 82 0
78 93 0
93 115 0
68 82 0
69 81 0
77 93 0
79 94 0
79 90 0
69 81 0
80 92 0
80 94 0
74 90 0
84 101 0
76 87 0
73 85 0
75 88 0
75 87 0
87 104 0
78 92 0
78 90 0
72 83 0
71 80 0
79 92 0
70 80 0
73 81 0
85 97 0
80 93 0
80 92 0
79 91 0
75 86 0
68 78 0
83 94 0
74 83 0
75 86 0
71 78 0
78 87 0
87 97 0
71 81 0
89 98 0
77 85 0
78 88 0
80 90 0
78 85 0
78 85 0
70 78 0
82 91 0
68 75 0
73 79 0
85 94 0
80 85 0
83 90 0
84 92 0
79 87 0
85 94 0
80 88 0
90 95 0
82 91 0
74 80 0
86 95 0
74 83 0
80 87 0
76 82 0
86 94 0
82 90 0
84 89 0
86 91 0
80 87 0
88 95 0
78 86 0
78 85 0
81 88 0
87 93 0
67 71 0
80 87 0
83 90 0
77 83 0
80 89 0
88 98 0
82 89 0
84 92 0
77 81 0
88 97 0
91 103 0
93 101 0
89 99 0
88 97 0
85 96 0
80 87 0
90 102 0
88 95 0
91 102 0
99 111 0
89 98 0
88 97 0
96 109 0
84 93 0
89 103 0
91 103 0
88 99 0
99 114 0
104 131 0
101 126 0
97 121 0
102 127 0
101 125 0
99 124 0
98 122 0
92 115 0
99 123 0
95 118 0
102 128 0
95 119 0
96 119 0
95 118 0
99 123 0
97 120 0
96 119 0
88 110 0
92 115 0
97 120 0
93 115 0
91 113 0
87 108 0
97 120 0
94 118 0
96 120 0
95 118 0
90 111 0
97 121 0
95 117 0
91 114 0
90 113 0
92 114 0
90 111 0
87 110 0
90 111 0
88 109 0
95 118 0
90 112 0
90 112 0
91 113 0
89 110 0
98 122 0
93 114 0
92 113 0
90 112 0
92 114 0
85 107 0
91 112 0
92 114 0
88 109 0
86 108 0
90 112 0
81 102 0
88 109 0
81 100 0
86 108 0
87 109 0
85 106 0
92 115 0
78 100 0
78 98 0
82 104 0
83 104 0
79 99 0
93 117 0
83 103 0
87 110 0
82 104 0
80 102 0
88 111 0
88 110 0
83 105 0
82 104 0
90 114 0
76 98 0
83 104 0
79 101 0
76 98 0
75 95 0
89 112 0
86 110 0
76 97 0
82 106 0
83 107 0
80 102 0
86 109 0
85 109 0
71 93 0
82 105 0
92 116 0
82 106 0
83 108 0
79 102 0
85 109 0
87 113 0
81 104 0
82 105 0
82 106 0
81 107 0
82 106 0
81 105 0
75 98 0
83 107 0
87 111 0
81 105 0
75 98 0
92 117 0
90 115 0
84 109 0
85 109 0
76 100 0
78 102 0
82 108 0
78 101 0
82 107 0
78 102 0
81 106 0
86 111 0
80 104 0
76 100 0
82 107 0
88 115 0
69 92 0
84 109 0
78 103 0
77 100 0
72 96 0
78 103 0
76 101 0
83 108 0
81 106 0
84 109 0
79 103 0
84 110 0
90 118 0
76 100 0
83 108 0
79 105 0
79 104 0
70 94 0
81 105 0
81 106 0
83 110 0
81 107 0
78 103 0
86 112 0
81 106 0
76 100 0
73 98 0
76 99 0
84 109 0
65 86 0
70 94 0
81 108 0
73 97 0
70 93 0
89 115 0
84 110 0
78 101 0
74 98 0
76 100 0
74 98 0
74 100 0
69 93 0
81 107 0
81 106 0
82 106 0
75 99 0
80 104 0
80 105 0
67 89 0
79 102 0
75 100 0
70 93 0
75 99 0
69 91 0
72 95 0
80 106 0
74 97 0
71 95 0
82 106 0
75 99 0
68 91 0
83 107 0
71 93 0
64 85 0
77 102 0
60 81 0
74 99 0
71 95 0
67 90 0
74 98 0
63 86 0
72 96 0
87 112 0
75 97 0
65 86 0
76 100 0
67 89 0
77 102 0
73 95 0
83 107 0
72 96 0
63 84 0
80 104 0
78 102 0
67 90 0
74 97 0
80 104 0
78 102 0
75 99 0
77 102 0
84 107 0
79 103 0
71 94 0
67 89 0
61 81 0
73 97 0
71 92 0
80 103 0
66 89 0
68 91 0
69 91 0
72 94 0
68 91 0
80 104 0
62 82 0
67 89 0
77 101 0
73 94 0
70 91 0
76 98 0
83 104 0
76 100 0
66 86 0
82 106 0
73 93 0
71 93 0
81 104 0
75 99 0
70 90 0
75 99 0
80 102 0
72 92 0
77 100 0
71 89 0
76 99 0
80 101 0
79 102 0
72 94 0
85 110 0
72 93 0
75 98 0
77 99 0
70 91 0
67 85 0
83 104 0
81 101 0
77 99 0
77 98 0
89 115 0
73 91 0
77 98 0
83 103 0
71 92 0
81 103 0
80 102 0
75 94 0
75 93 0
75 97 0
76 98 0
76 96 0
78 101 0
71 90 0
86 108 0
81 103 0
80 100 0
85 105 0
82 105 0
77 94 0
80 99 0
75 95 0
74 92 0
79 99 0
66 84 0
74 93 0
75 91 0
79 98 0
81 99 0
69 85 0
78 96 0
74 88 0
85 102 0
79 97 0
82 102 0
80 99 0
85 104 0
84 102 0
77 94 0
89 109 0
78 95 0
85 101 0
72 89 0
81 99 0
83 100 0
72 89 0
80 94 0
75 88 0
76 91 0
83 100 0
75 85 0
73 88 0
77 90 0
84 101 0
80 92 0
84 99 0
83 96 0
78 92 0
79 94 0
79 93 0
84 99 0
79 95 0
72 82 0
78 90 0
81 94 0
77 87 0
80 90 0
75 87 0
74 80 0
76 87 0
82 95 0
82 92 0
68 78 0
70 75 0
80 89 0
73 83 0
76 82 0
84 95 0
76 82 0
80 91 0
77 88 0
78 86 0
78 89 0
81 86 0
75 84 0
83 92 0
80 91 0
69 77 0
84 94 0
82 94 0
82 91 0
73 77 0
78 83 0
75 83 0
88 98 0
90 99 0
83 92 0
77 84 0
75 80 0
71 76 0
79 87 0
84 95 0
78 88 0
79 85 0
78 85 0
73 77 0
85 93 0
82 87 0
81 89 0
83 89 0
82 90 0
75 82 0
83 92 0
92 103 0
84 93 0
93 107 0
79 84 0
81 89 0
92 100 0
91 102 0
83 86 0
85 95 0
87 95 0
88 98 0
95 107 0
88 96 0
87 96 0
88 97 0
93 105 0
92 101 0
89 98 0
85 96 0
91 102 0
87 98 0
85 95 0
83 94 0
96 112 0
96 110 0
96 112 0
103 128 0
97 121 0
104 131 0
105 132 0
99 123 0
98 123 0
97 121 0
102 126 0
96 118 0
96 120 0
91 115 0
99 123 0
94 116 0
91 115 0
99 123 0
102 126 0
97 120 0
103 127 0
93 116 0
94 117 0
98 121 0
92 114 0
95 116 0
94 117 0
90 112 0
91 113 0
92 114 0
92 114 0
97 120 0
85 105 0
96 121 0
91 113 0
89 110 0
98 122 0
92 115 0
87 108 0
89 112 0
88 110 0
91 113 0
90 111 0
90 114 0
89 111 0
88 109 0
87 109 0
87 108 0
93 116 0
92 114 0
87 110 0
88 110 0
91 114 0
90 112 0
91 113 0
84 105 0
84 105 0
90 113 0
87 109 0
85 107 0
82 103 0
82 103 0
89 111 0
79 100 0
85 107 0
83 104 0
90 114 0
82 104 0
94 118 0
95 117 0
79 100 0
81 104 0
80 103 0
86 110 0
86 108 0
90 113 0
89 112 0
83 105 0
78 100 0
80 104 0
83 106 0
82 104 0
88 111 0
81 104 0
86 110 0
85 108 0
87 111 0
84 107 0
87 111 0
77 99 0
82 106 0
85 109 0
80 103 0
74 97 0
81 104 0
78 101 0
87 113 0
76 99 0
82 107 0
91 116 0
87 112 0
85 111 0
85 109 0
79 103 0
85 109 0
77 100 0
88 114 0
86 111 0
86 112 0
75 98 0
83 108 0
82 107 0
86 110 0
82 108 0
85 112 0
77 101 0
83 107 0
85 110 0
78 101 0
77 99 0
72 95 0
86 112 0
80 104 0
83 108 0
84 111 0
82 109 0
81 104 0
81 105 0
78 104 0
84 110 0
83 108 0
84 109 0
78 104 0
84 111 0
73 98 0
73 97 0
73 95 0
80 105 0
85 111 0
82 108 0
81 107 0
74 99 0
85 111 0
77 101 0
82 107 0
72 95 0
76 101 0
78 104 0
74 99 0
75 100 0
76 101 0
87 114 0
77 100 0
80 106 0
61 83 0
77 102 0
78 103 0
69 91 0
83 109 0
71 94 0
74 98 0
73 97 0
78 103 0
75 98 0
74 98 0
77 104 0
81 105 0
76 101 0
74 100 0
74 99 0
82 108 0
70 93 0
81 107 0
72 95 0
69 92 0
72 95 0
63 83 0
81 105 0
76 98 0
69 93 0
75 100 0
68 91 0
71 94 0
85 112 0
66 90 0
71 93 0
61 81 0
76 100 0
81 108 0
72 95 0
71 96 0
75 100 0
70 93 0
72 96 0
78 102 0
70 95 0
74 98 0
75 98 0
66 87 0
77 102 0
76 100 0
73 96 0
72 94 0
73 97 0
65 85 0
73 96 0
70 93 0
65 86 0
86 108 0
79 102 0
71 91 0
72 95 0
73 95 0
85 109 0
71 94 0
69 92 0
71 93 0
69 90 0
80 104 0
78 102 0
70 93 0
74 96 0
71 94 0
84 109 0
77 101 0
73 96 0
69 93 0
69 91 0
73 95 0
70 93 0
78 101 0
74 96 0
79 102 0
72 96 0
73 95 0
68 88 0
76 98 0
73 95 0
71 92 0
72 93 0
70 92 0
70 90 0
75 98 0
79 101 0
72 94 0
73 95 0
64 85 0
77 101 0
82 103 0
76 98 0
83 107 0
88 115 0
77 100 0
83 108 0
77 99 0
78 100 0
83 105 0
82 105 0
75 97 0
70 92 0
87 108 0
75 95 0
77 98 0
82 103 0
71 92 0
83 103 0
75 97 0
87 109 0
66 85 0
74 95 0
73 93 0
84 108 0
73 93 0
73 95 0
72 92 0
74 96 0
76 95 0
81 102 0
85 105 0
81 100 0
83 104 0
88 111 0
80 101 0
86 109 0
80 102 0
79 98 0
77 97 0
83 105 0
73 91 0
70 85 0
75 91 0
75 93 0
68 85 0
71 91 0
87 105 0
76 90 0
72 90 0
78 98 0
75 91 0
83 103 0
77 96 0
87 106 0
84 104 0
75 94 0
88 107 0
84 103 0
84 103 0
70 84 0
78 97 0
86 103 0
87 103 0
74 90 0
80 97 0
65 77 0
79 94 0
85 102 0
77 91 0
76 93 0
81 94 0
82 97 0
74 90 0
83 100 0
80 95 0
78 89 0
84 98 0
85 97 0
78 90 0
66 77 0
76 90 0
74 85 0
73 83 0
75 86 0
85 99 0
75 85 0
84 91 0
77 89 0
77 84 0
81 90 0
82 91 0
81 94 0
92 106 0
84 95 0
80 90 0
77 85 0
78 84 0
81 92 0
75 84 0
79 87 0
73 80 0
71 78 0
76 84 0
80 89 0
76 84 0
80 85 0
82 90 0
84 95 0
72 81 0
77 82 0
81 89 0
73 84 0
84 89 0
84 94 0
88 97 0
78 87 0
86 97 0
84 92 0
79 86 0
82 89 0
83 89 0
84 90 0
92 105 0
81 86 0
85 94 0
78 85 0
82 88 0
89 100 0
78 83 0
84 92 0
83 91 0
88 95 0
87 98 0
85 92 0
85 92 0
82 91 0
86 94 0
77 82 0
96 109 0
87 98 0
87 96 0
89 100 0
99 115 0
87 94 0
87 98 0
86 97 0
95 110 0
97 110 0
92 103 0
96 110 0
86 98 0
80 91 0
88 98 0
85 98 0
91 104 0
100 126 0
100 125 0
96 120 0
100 124 0
101 126 0
100 125 0
99 123 0
102 128 0
93 116 0
93 115 0
100 124 0
98 122 0
97 120 0
103 129 0
95 119 0
100 123 0
89 111 0
97 120 0
95 118 0
95 116 0
96 120 0
94 117 0
91 114 0
97 120 0
93 116 0
88 110 0
94 115 0
91 113 0
85 105 0
93 116 0
100 124 0
81 101 0
89 112 0
89 111 0
90 112 0
94 118 0
84 105 0
93 115 0
85 107 0
83 103 0
84 106 0
80 101 0
89 111 0
93 116 0
90 113 0
78 98 0
83 103 0
98 121 0
80 100 0
89 111 0
85 107 0
95 118 0
94 119 0
83 106 0
90 113 0
89 112 0
95 119 0
89 112 0
92 116 0
91 115 0
86 108 0
78 98 0
81 104 0
95 119 0
88 112 0
85 107 0
80 101 0
85 107 0
85 106 0
80 102 0
82 105 0
87 111 0
89 111 0
77 99 0
84 107 0
82 104 0
87 110 0
86 110 0
81 103 0
90 113 0
87 111 0
86 108 0
88 112 0
85 109 0
95 122 0
86 112 0
81 107 0
87 112 0
87 110 0
86 111 0
84 108 0
82 105 0
95 122 0
79 101 0
79 103 0
88 113 0
82 106 0
93 121 0
86 110 0
92 118 0
86 111 0
80 103 0
81 105 0
90 117 0
88 111 0
88 113 0
88 115 0
82 106 0
80 105 0
87 113 0
83 107 0
82 108 0
83 108 0
76 101 0
84 109 0
79 103 0
90 117 0
87 112 0
77 101 0
88 115 0
73 97 0
86 113 0
78 103 0
82 107 0
92 119 0
89 116 0
78 103 0
76 98 0
82 109 0
84 111 0
81 107 0
75 100 0
81 106 0
83 109 0
80 104 0
85 112 0
86 114 0
81 106 0
72 95 0
87 114 0
87 113 0
71 92 0
81 107 0
68 91 0
76 101 0
78 104 0
79 105 0
84 112 0
83 109 0
74 98 0
76 100 0
74 98 0
81 107 0
80 106 0
77 104 0
63 84 0
74 98 0
83 107 0
80 105 0
84 110 0
72 95 0
87 113 0
77 100 0
86 111 0
79 103 0
84 110 0
86 112 0
75 98 0
66 89 0
66 88 0
78 103 0
78 102 0
76 100 0
81 107 0
70 94 0
68 91 0
74 97 0
78 102 0
76 103 0
73 97 0
72 93 0
74 98 0
69 94 0
83 109 0
73 96 0
73 99 0
76 101 0
71 96 0
71 95 0
75 99 0
77 101 0
72 96 0
71 94 0
76 100 0
72 95 0
70 94 0
69 92 0
71 96 0
71 93 0
70 93 0
72 95 0
72 97 0
65 88 0
68 91 0
83 108 0
87 114 0
77 103 0
84 106 0
77 99 0
75 99 0
75 100 0
84 108 0
76 98 0
77 102 0
85 111 0
76 100 0
74 96 0
69 91 0
69 92 0
74 98 0
62 85 0
66 86 0
75 99 0
73 93 0
71 94 0
76 98 0
79 100 0
80 105 0
74 97 0
74 98 0
61 81 0
71 92 0
71 94 0
72 94 0
75 97 0
76 98 0
73 95 0
82 106 0
70 89 0
78 101 0
85 111 0
71 92 0
87 112 0
73 92 0
80 104 0
80 101 0
86 109 0
78 98 0
79 102 0
65 84 0
72 95 0
79 103 0
70 91 0
72 93 0
84 106 0
80 104 0
68 87 0
73 92 0
84 106 0
75 97 0
72 89 0
79 103 0
87 110 0
76 97 0
83 105 0
81 103 0
79 100 0
83 106 0
81 104 0
73 93 0
78 99 0
69 88 0
84 106 0
85 108 0
75 95 0
93 117 0
80 102 0
83 103 0
73 91 0
66 85 0
75 95 0
85 105 0
72 92 0
80 100 0
78 96 0
90 112 0
77 97 0
88 109 0
80 97 0
76 94 0
86 104 0
82 102 0
72 91 0
80 98 0
77 96 0
69 87 0
82 101 0
79 92 0
77 96 0
71 88 0
85 104 0
88 108 0
74 87 0
71 88 0
78 95 0
75 93 0
85 102 0
82 100 0
69 81 0
80 97 0
84 102 0
76 91 0
89 102 0
77 93 0
78 93 0
77 91 0
77 90 0
85 103 0
82 97 0
78 92 0
87 103 0
74 89 0
83 94 0
85 102 0
82 96 0
76 90 0
79 87 0
77 91 0
79 90 0
76 87 0
86 99 0
87 101 0
78 88 0
82 94 0
77 91 0
74 83 0
75 87 0
75 87 0
84 96 0
81 92 0
83 95 0
78 85 0
85 100 0
84 97 0
76 89 0
78 86 0
74 84 0
73 80 0
83 90 0
79 89 0
75 81 0
77 88 0
73 81 0
79 88 0
81 91 0
85 96 0
73 81 0
84 93 0
80 89 0
84 94 0
87 99 0
87 93 0
85 93 0
82 89 0
91 100 0
74 81 0
84 93 0
81 89 0
80 88 0
92 104 0
80 85 0
81 91 0
80 89 0
86 97 0
87 95 0
84 94 0
86 96 0
90 100 0
93 105 0
92 102 0
85 96 0
79 90 0
90 101 0
90 100 0
87 95 0
89 101 0
90 98 0
92 103 0
93 106 0
87 98 0
93 104 0
86 95 0
90 102 0
89 101 0
96 111 0
85 95 0
94 106 0
93 106 0
85 94 0
91 103 0
100 123 0
100 125 0
98 122 0
98 121 0
98 123 0
103 130 0
93 116 0
101 124 0
97 122 0
99 123 0
95 118 0
94 118 0
101 125 0
98 122 0
94 117 0
100 126 0
101 126 0
98 122 0
90 113 0
92 114 0
90 112 0
102 126 0
96 119 0
93 116 0
96 120 0
93 117 0
96 119 0
86 106 0
88 109 0
96 119 0
86 108 0
96 120 0
86 108 0
90 113 0
94 116 0
92 114 0
93 115 0
92 115 0
97 121 0
87 109 0
86 108 0
91 113 0
92 115 0
93 116 0
90 113 0
91 112 0
84 105 0
91 115 0
89 112 0
83 106 0
87 109 0
93 115 0
87 109 0
89 112 0
81 103 0
83 104 0
89 112 0
83 107 0
94 117 0
86 108 0
89 112 0
92 116 0
87 111 0
83 105 0
90 115 0
83 104 0
85 109 0
78 100 0
87 108 0
84 107 0
87 111 0
81 104 0
85 109 0
81 104 0
79 102 0
81 103 0
85 108 0
87 111 0
88 111 0
85 108 0
87 111 0
84 107 0
81 105 0
85 110 0
88 111 0
84 107 0
73 95 0
89 112 0
85 109 0
87 113 0
79 102 0
81 105 0
93 119 0
84 108 0
83 107 0
86 110 0
85 109 0
88 113 0
81 104 0
93 120 0
85 109 0
88 113 0
87 112 0
86 112 0
87 111 0
82 108 0
80 105 0
80 102 0
79 103 0
81 107 0
85 110 0
83 109 0
81 106 0
88 113 0
83 107 0
83 110 0
76 100 0
79 103 0
84 110 0
87 114 0
88 115 0
86 112 0
78 103 0
90 116 0
83 109 0
86 113 0
71 92 0
85 112 0
85 112 0
82 106 0
80 104 0
82 107 0
80 105 0
86 112 0
81 106 0
82 107 0
86 112 0
76 102 0
79 104 0
76 100 0
79 105 0
78 105 0
75 99 0
82 107 0
86 113 0
88 114 0
85 112 0
83 108 0
81 105 0
74 98 0
78 103 0
76 101 0
83 109 0
83 109 0
77 101 0
86 112 0
75 99 0
68 91 0
84 109 0
86 111 0
87 114 0
83 110 0
75 100 0
82 109 0
79 104 0
71 95 0
70 93 0
82 107 0
74 99 0
80 106 0
68 91 0
70 93 0
76 100 0
70 94 0
84 111 0
76 102 0
73 97 0
68 91 0
81 107 0
68 92 0
83 110 0
70 93 0
78 103 0
75 100 0
72 96 0
77 103 0
83 109 0
70 92 0
69 91 0
77 101 0
74 98 0
72 97 0
72 97 0
78 102 0
80 106 0
74 97 0
79 104 0
79 104 0
77 101 0
65 85 0
75 99 0
77 102 0
69 92 0
75 101 0
77 102 0
68 92 0
82 106 0
73 97 0
71 92 0
75 101 0
69 93 0
67 89 0
85 110 0
59 80 0
75 96 0
68 91 0
69 92 0
71 93 0
72 95 0
73 95 0
77 101 0
70 92 0
78 101 0
69 90 0
73 98 0
71 94 0
85 109 0
75 97 0
73 95 0
77 101 0
77 99 0
81 104 0
84 109 0
73 97 0
78 101 0
74 97 0
72 93 0
82 107 0
81 105 0
76 99 0
78 99 0
83 107 0
78 102 0
69 92 0
83 106 0
85 108 0
80 103 0
84 108 0
76 99 0
76 101 0
83 107 0
79 100 0
83 108 0
84 107 0
77 101 0
70 92 0
88 112 0
80 100 0
87 112 0
79 101 0
80 104 0
87 110 0
74 95 0
85 110 0
89 112 0
77 99 0
84 104 0
75 97 0
78 98 0
84 109 0
73 91 0
81 102 0
86 110 0
75 96 0
80 101 0
86 107 0
75 94 0
85 108 0
75 93 0
82 100 0
82 106 0
85 105 0
77 97 0
71 90 0
84 105 0
84 105 0
84 106 0
76 94 0
79 99 0
82 101 0
89 106 0
80 96 0
75 96 0
72 89 0
84 104 0
84 107 0
81 98 0
84 103 0
70 85 0
82 102 0
87 106 0
74 89 0
80 98 0
74 90 0
84 102 0
75 93 0
73 89 0
81 99 0
82 99 0
83 101 0
90 106 0
79 94 0
82 96 0
84 102 0
83 101 0
80 96 0
80 98 0
83 101 0
79 93 0
88 101 0
78 88 0
82 95 0
76 88 0
88 104 0
79 91 0
84 99 0
77 91 0
92 109 0
74 82 0
76 87 0
72 82 0
85 97 0
78 90 0
77 85 0
76 90 0
86 101 0
76 88 0
82 97 0
74 80 0
87 99 0
88 99 0
81 92 0
85 99 0
82 94 0
87 104 0
87 99 0
76 85 0
81 91 0
79 89 0
77 87 0
80 89 0
91 103 0
72 80 0
82 91 0
85 92 0
81 90 0
87 96 0
87 102 0
82 91 0
82 93 0
84 91 0
84 94 0
86 96 0
80 88 0
87 96 0
83 93 0
93 100 0
83 89 0
90 102 0
82 93 0
89 101 0
82 93 0
82 91 0
82 93 0
84 92 0
91 99 0
89 96 0
84 90 0
83 94 0
85 97 0
87 98 0
86 95 0
91 104 0
85 93 0
86 95 0
91 101 0
91 101 0
88 99 0
96 109 0
88 99 0
95 104 0
90 100 0
87 97 0
85 93 0
99 115 0
84 95 0
101 111 0
97 110 0
92 103 0
94 110 0
100 126 0
103 129 0
99 124 0
99 124 0
95 119 0
102 128 0
94 117 0
106 132 0
101 127 0
103 128 0
99 123 0
101 127 0
98 122 0
92 116 0
99 124 0
99 124 0
94 118 0
95 118 0
97 120 0
94 117 0
94 117 0
94 119 0
95 118 0
98 122 0
87 110 0
93 117 0
92 116 0
90 113 0
90 112 0
92 115 0
91 113 0
98 122 0
96 120 0
88 110 0
90 112 0
94 118 0
94 118 0
94 117 0
90 114 0
91 113 0
90 113 0
96 120 0
90 113 0
87 110 0
82 104 0
93 118 0
96 120 0
91 114 0
92 115 0
89 113 0
84 106 0
92 116 0
88 111 0
93 116 0
89 113 0
80 101 0
93 117 0
90 113 0
89 113 0
84 106 0
93 116 0
85 108 0
87 111 0
86 109 0
79 100 0
90 113 0
88 111 0
84 107 0
82 105 0
91 115 0
89 114 0
85 110 0
82 104 0
82 105 0
84 106 0
82 107 0
75 97 0
75 98 0
88 112 0
91 117 0
78 100 0
81 103 0
87 111 0
91 115 0
85 109 0
92 118 0
87 112 0
80 104 0
84 107 0
91 116 0
84 107 0
87 111 0
88 114 0
79 103 0
91 118 0
86 111 0
70 92 0
89 114 0
83 108 0
82 108 0
75 98 0
80 105 0
90 116 0
79 102 0
84 108 0
88 115 0
88 114 0
85 111 0
86 112 0
82 107 0
88 115 0
84 112 0
84 110 0
83 108 0
81 105 0
82 106 0
80 104 0
86 111 0
86 114 0
81 107 0
87 114 0
88 115 0
76 101 0
80 105 0
87 112 0
85 110 0
79 105 0
83 110 0
75 99 0
85 111 0
86 113 0
83 109 0
82 106 0
83 110 0
80 105 0
81 105 0
81 105 0
78 102 0
88 115 0
82 107 0
80 106 0
75 100 0
80 105 0
79 105 0
81 107 0
82 108 0
79 104 0
83 108 0
81 109 0
87 114 0
74 99 0
72 96 0
83 108 0
79 103 0
75 100 0
77 103 0
88 114 0
78 102 0
80 106 0
90 117 0
79 103 0
72 97 0
72 97 0
79 104 0
78 103 0
81 108 0
76 103 0
82 107 0
85 110 0
75 100 0
76 101 0
74 97 0
75 99 0
74 98 0
77 103 0
77 101 0
79 103 0
76 99 0
80 104 0
74 98 0
70 93 0
74 98 0
76 101 0
74 99 0
77 102 0
69 92 0
68 91 0
83 107 0
72 97 0
81 107 0
87 113 0
65 88 0
71 95 0
79 104 0
86 112 0
70 92 0
66 87 0
77 104 0
82 107 0
76 101 0
84 108 0
80 102 0
82 107 0
77 103 0
75 100 0
81 107 0
77 101 0
81 107 0
72 93 0
73 96 0
72 95 0
76 101 0
79 104 0
75 98 0
79 103 0
76 98 0
70 93 0
91 118 0
71 95 0
74 96 0
80 104 0
80 106 0
79 101 0
76 101 0
79 103 0
68 90 0
75 97 0
72 96 0
79 101 0
75 98 0
80 105 0
73 96 0
78 101 0
79 103 0
77 99 0
69 90 0
70 89 0
81 106 0
86 112 0
78 100 0
81 103 0
73 98 0
75 96 0
77 100 0
79 101 0
72 95 0
84 108 0
77 100 0
83 107 0
86 111 0
78 101 0
79 104 0
79 99 0
88 109 0
85 108 0
81 105 0
75 96 0
81 105 0
91 115 0
72 92 0
84 107 0
85 108 0
80 102 0
80 102 0
80 102 0
84 105 0
84 106 0
75 96 0
72 91 0
85 106 0
77 99 0
78 100 0
85 108 0
79 99 0
79 102 0
77 96 0
75 93 0
89 109 0
76 94 0
86 106 0
86 106 0
79 98 0
83 103 0
75 93 0
72 91 0
80 100 0
87 108 0
82 99 0
85 106 0
85 107 0
84 104 0
89 111 0
84 102 0
80 97 0
84 107 0
90 110 0
77 97 0
87 110 0
83 101 0
89 111 0
79 97 0
92 114 0
74 91 0
83 100 0
82 102 0
84 101 0
87 107 0
84 100 0
81 94 0
84 102 0
69 84 0
89 106 0
77 92 0
88 106 0
86 105 0
81 98 0
82 98 0
79 96 0
80 94 0
77 93 0
81 95 0
90 105 0
84 101 0
78 91 0
80 95 0
77 88 0
89 107 0
84 97 0
81 93 0
76 90 0
72 86 0
77 91 0
80 94 0
91 105 0
86 98 0
87 102 0
81 93 0
77 84 0
77 89 0
82 94 0
78 94 0
81 90 0
73 81 0
82 96 0
82 91 0
79 92 0
78 89 0
77 86 0
79 87 0
76 86 0
87 97 0
83 94 0
87 97 0
78 90 0
73 79 0
76 87 0
78 86 0
84 96 0
78 89 0
89 102 0
84 92 0
72 82 0
84 94 0
79 88 0
81 86 0
76 84 0
87 97 0
86 99 0
94 107 0
90 97 0
81 91 0
91 103 0
87 100 0
80 88 0
88 98 0
86 95 0
86 96 0
100 110 0
94 106 0
98 113 0
86 98 0
90 102 0
96 106 0
82 91 0
81 91 0
85 95 0
94 107 0
84 93 0
85 96 0
90 100 0
91 98 0
94 106 0
91 105 0
99 109 0
98 113 0
92 101 0
93 106 0
90 101 0
91 103 0
95 106 0
104 131 0
101 127 0
94 117 0
99 123 0
95 119 0
106 132 0
99 125 0
102 127 0
97 121 0
99 123 0
92 117 0
98 124 0
95 119 0
95 118 0
96 120 0
96 120 0
95 118 0
95 119 0
99 124 0
93 115 0
90 113 0
92 115 0
97 121 0
100 123 0
95 118 0
91 113 0
95 118 0
91 114 0
90 112 0
90 112 0
95 118 0
92 115 0
91 113 0
84 105 0
87 109 0
88 111 0
95 119 0
94 116 0
86 107 0
97 122 0
93 117 0
91 113 0
93 116 0
90 112 0
85 107 0
90 113 0
96 121 0
90 113 0
86 108 0
83 103 0
76 96 0
87 109 0
93 115 0
90 113 0
92 116 0
93 118 0
80 102 0
88 113 0
86 108 0
91 116 0
88 111 0
89 113 0
90 115 0
85 108 0
89 112 0
85 109 0
91 114 0
75 97 0
87 110 0
86 110 0
87 112 0
84 108 0
86 109 0
90 115 0
92 117 0
94 119 0
83 106 0
81 104 0
91 114 0
81 105 0
88 112 0
87 112 0
88 112 0
87 111 0
90 116 0
82 104 0
90 116 0
89 114 0
93 120 0
92 117 0
83 106 0
86 112 0
81 106 0
96 122 0
87 112 0
83 107 0
92 118 0
83 107 0
87 112 0
83 107 0
84 108 0
90 116 0
81 106 0
92 120 0
82 108 0
82 107 0
84 109 0
79 104 0
86 111 0
78 103 0
95 122 0
90 116 0
90 116 0
78 104 0
76 100 0
89 117 0
77 101 0
81 106 0
84 110 0
82 109 0
86 114 0
79 103 0
94 121 0
82 109 0
86 112 0
93 123 0
83 108 0
91 118 0
84 111 0
91 118 0
79 105 0
87 113 0
81 106 0
86 113 0
93 122 0
81 107 0
86 114 0
87 115 0
81 107 0
76 102 0
79 105 0
84 111 0
86 113 0
81 107 0
82 109 0
77 103 0
76 101 0
80 106 0
73 100 0
80 106 0
77 101 0
81 106 0
72 97 0
79 105 0
90 119 0
76 101 0
76 100 0
89 115 0
86 112 0
65 87 0
88 115 0
79 106 0
78 105 0
79 105 0
66 90 0
84 111 0
80 105 0
77 102 0
78 104 0
77 102 0
87 114 0
75 99 0
71 95 0
78 102 0
83 108 0
79 104 0
76 101 0
81 107 0
70 93 0
73 98 0
72 97 0
76 100 0
60 83 0
71 95 0
76 101 0
70 94 0
73 97 0
72 97 0
78 103 0
72 97 0
69 93 0
84 110 0
74 98 0
80 103 0
80 104 0
66 87 0
70 94 0
80 105 0
77 101 0
79 104 0
79 103 0
78 103 0
83 108 0
72 97 0
73 99 0
81 106 0
79 104 0
74 97 0
76 100 0
81 108 0
83 107 0
71 93 0
84 111 0
73 98 0
74 97 0
80 105 0
80 107 0
76 101 0
80 103 0
68 90 0
85 110 0
71 94 0
80 103 0
72 93 0
85 109 0
88 112 0
73 95 0
81 104 0
74 97 0
76 99 0
85 109 0
77 101 0
75 98 0
83 108 0
87 112 0
77 100 0
86 111 0
78 99 0
79 101 0
73 93 0
84 107 0
70 91 0
76 98 0
77 99 0
68 90 0
80 105 0
82 107 0
78 101 0
83 107 0
65 85 0
78 101 0
91 117 0
79 103 0
83 106 0
84 106 0
78 100 0
84 107 0
90 114 0
76 98 0
89 112 0
75 94 0
84 104 0
80 103 0
79 101 0
77 99 0
75 98 0
79 99 0
71 91 0
87 113 0
82 104 0
90 113 0
80 100 0
76 95 0
78 99 0
81 104 0
85 108 0
78 100 0
76 97 0
89 111 0
83 105 0
76 96 0
81 102 0
76 96 0
81 99 0
77 96 0
76 94 0
73 93 0
76 95 0
80 101 0
78 97 0
72 89 0
76 97 0
74 93 0
79 96 0
79 97 0
82 104 0
76 93 0
77 95 0
72 88 0
90 111 0
92 111 0
81 99 0
85 106 0
88 107 0
83 101 0
78 94 0
84 102 0
74 92 0
86 105 0
87 104 0
80 96 0
87 105 0
88 112 0
79 97 0
75 92 0
82 97 0
86 102 0
88 106 0
76 91 0
83 102 0
84 100 0
78 91 0
86 102 0
84 102 0
86 102 0
81 97 0
87 104 0
80 99 0
77 86 0
84 99 0
84 100 0
76 87 0
92 110 0
79 93 0
85 97 0
82 98 0
76 88 0
77 89 0
77 91 0
79 90 0
78 89 0
85 96 0
79 94 0
83 95 0
87 98 0
77 87 0
81 95 0
85 102 0
87 98 0
83 94 0
88 102 0
85 98 0
81 92 0
78 91 0
93 107 0
93 110 0
81 91 0
88 100 0
84 94 0
78 86 0
83 93 0
85 93 0
77 90 0
80 92 0
88 97 0
82 93 0
87 97 0
93 107 0
87 100 0
90 100 0
86 97 0
78 88 0
85 95 0
87 98 0
90 100 0
92 99 0
83 93 0
89 101 0
97 107 0
93 106 0
79 90 0
80 93 0
90 102 0
84 96 0
90 103 0
88 100 0
92 101 0
94 101 0
95 106 0
84 96 0
99 113 0
84 95 0
87 97 0
90 102 0
92 103 0
87 95 0
98 110 0
96 112 0
92 106 0
92 106 0
101 126 0
99 124 0
95 118 0
101 127 0
94 117 0
103 127 0
97 120 0
100 124 0
100 125 0
93 117 0
95 119 0
100 124 0
101 126 0
97 121 0
99 124 0
93 117 0
94 118 0
91 115 0
100 125 0
96 121 0
93 116 0
93 115 0
90 112 0
93 115 0
94 118 0
96 119 0
96 120 0
93 116 0
99 124 0
92 115 0
100 124 0
88 111 0
87 108 0
89 111 0
91 113 0
95 119 0
93 116 0
96 120 0
91 115 0
91 114 0
91 114 0
93 117 0
95 118 0
95 121 0
83 106 0
88 109 0
82 104 0
87 109 0
87 110 0
90 115 0
86 108 0
87 110 0
85 107 0
92 118 0
87 109 0
90 113 0
93 119 0
91 115 0
88 111 0
87 110 0
94 119 0
90 113 0
90 114 0
87 110 0
94 118 0
91 116 0
82 104 0
83 105 0
84 107 0
90 115 0
97 124 0
90 115 0
93 118 0
90 115 0
89 114 0
92 117 0
83 106 0
84 107 0
92 116 0
87 112 0
85 110 0
85 110 0
83 108 0
91 117 0
85 108 0
86 111 0
85 109 0
86 111 0
84 109 0
86 112 0
81 105 0
89 114 0
86 111 0
85 108 0
81 106 0
84 111 0
85 110 0
84 110 0
92 118 0
75 98 0
86 111 0
84 109 0
90 116 0
91 118 0
77 100 0
83 108 0
84 110 0
93 121 0
78 103 0
86 112 0
84 109 0
81 105 0
77 101 0
85 112 0
80 105 0
84 109 0
84 110 0
86 112 0
79 102 0
79 104 0
91 120 0
81 104 0
77 102 0
86 113 0
75 101 0
71 95 0
73 98 0
78 104 0
82 107 0
83 107 0
78 103 0
85 112 0
89 118 0
89 116 0
81 108 0
82 108 0
82 108 0
84 109 0
87 113 0
82 108 0
78 102 0
79 103 0
81 106 0
84 109 0
82 107 0
87 115 0
83 108 0
83 110 0
87 114 0
83 110 0
75 100 0
81 108 0
79 104 0
85 111 0
78 103 0
80 105 0
77 101 0
83 109 0
79 105 0
77 102 0
76 102 0
83 109 0
91 120 0
76 100 0
86 112 0
87 114 0
88 117 0
84 110 0
75 99 0
81 107 0
74 99 0
76 100 0
70 92 0
76 102 0
77 100 0
84 113 0
76 101 0
82 106 0
77 101 0
73 96 0
76 99 0
77 102 0
76 99 0
83 108 0
84 108 0
78 103 0
80 106 0
79 105 0
84 111 0
76 101 0
78 103 0
78 103 0
76 100 0
80 107 0
75 99 0
72 96 0
80 104 0
72 95 0
70 96 0
69 92 0
85 111 0
69 92 0
78 103 0
72 96 0
82 107 0
71 93 0
84 109 0
86 112 0
89 115 0
69 94 0
81 105 0
71 94 0
84 110 0
72 96 0
80 104 0
81 105 0
81 105 0
94 122 0
60 83 0
81 107 0
77 101 0
82 109 0
84 106 0
71 94 0
67 88 0
77 99 0
83 107 0
75 98 0
68 88 0
75 98 0
75 98 0
80 106 0
87 113 0
77 103 0
80 102 0
73 95 0
67 90 0
78 102 0
69 86 0
77 101 0
80 104 0
81 104 0
83 105 0
86 110 0
72 93 0
75 99 0
75 97 0
80 104 0
87 108 0
78 103 0
88 112 0
82 107 0
70 91 0
82 106 0
82 104 0
85 108 0
76 99 0
84 105 0
82 107 0
75 96 0
77 100 0
91 117 0
77 98 0
85 110 0
71 91 0
76 96 0
83 104 0
90 114 0
75 97 0
84 107 0
84 106 0
83 105 0
78 99 0
92 115 0
78 97 0
77 98 0
83 106 0
83 105 0
78 96 0
82 104 0
76 97 0
82 106 0
74 93 0
85 107 0
85 109 0
81 103 0
75 95 0
79 98 0
90 114 0
87 109 0
82 102 0
73 90 0
90 112 0
68 84 0
78 96 0
86 108 0
79 96 0
75 94 0
86 107 0
94 117 0
78 98 0
86 106 0
92 115 0
88 110 0
85 103 0
82 100 0
80 98 0
80 102 0
82 101 0
74 87 0
65 79 0
76 95 0
88 111 0
80 99 0
86 103 0
80 97 0
85 102 0
81 95 0
79 95 0
75 90 0
83 102 0
89 108 0
85 101 0
80 99 0
87 105 0
82 98 0
80 95 0
87 102 0
79 98 0
88 99 0
85 102 0
88 100 0
85 99 0
77 92 0
85 97 0
75 86 0
88 103 0
78 92 0
84 99 0
83 98 0
95 112 0
86 99 0
83 95 0
89 106 0
84 96 0
84 101 0
87 103 0
76 87 0
83 93 0
80 90 0
84 96 0
84 94 0
89 100 0
93 107 0
84 100 0
82 87 0
77 87 0
84 91 0
88 98 0
82 97 0
80 91 0
83 94 0
84 94 0
87 101 0
84 94 0
86 96 0
80 90 0
82 95 0
74 83 0
77 89 0
88 100 0
86 100 0
87 98 0
84 94 0
79 90 0
77 85 0
87 96 0
89 99 0
87 98 0
94 107 0
80 91 0
83 94 0
89 100 0
85 94 0
85 94 0
94 104 0
86 94 0
84 94 0
93 102 0
85 97 0
92 104 0
94 106 0
98 112 0
87 97 0
88 99 0
96 109 0
89 100 0
87 100 0
97 111 0
91 105 0
102 128 0
101 126 0
102 127 0
103 129 0
97 121 0
98 122 0
96 122 0
94 118 0
100 125 0
96 121 0
97 121 0
101 126 0
101 125 0
100 123 0
92 116 0
99 123 0
95 120 0
91 114 0
95 120 0
93 117 0
91 115 0
100 124 0
92 115 0
91 114 0
98 123 0
94 117 0
94 119 0
95 119 0
92 116 0
94 117 0
92 115 0
95 120 0
96 121 0
92 115 0
93 118 0
90 112 0
91 114 0
99 124 0
87 109 0
96 121 0
91 113 0
90 113 0
94 118 0
82 103 0
88 111 0
95 120 0
98 124 0
87 110 0
95 120 0
94 119 0
94 118 0
95 120 0
86 109 0
95 121 0
89 113 0
91 116 0
87 111 0
88 112 0
97 123 0
84 107 0
86 111 0
90 114 0
95 122 0
95 121 0
94 119 0
92 117 0
85 109 0
91 116 0
92 116 0
85 110 0
90 115 0
86 109 0
87 111 0
82 105 0
78 99 0
90 114 0
86 111 0
90 113 0
88 114 0
88 112 0
84 108 0
90 115 0
91 117 0
87 112 0
88 111 0
90 116 0
90 115 0
90 116 0
80 104 0
86 111 0
83 107 0
88 114 0
90 116 0
84 108 0
81 104 0
83 108 0
84 110 0
90 116 0
90 116 0
86 111 0
85 109 0
91 117 0
90 117 0
83 109 0
88 114 0
81 105 0
85 109 0
88 115 0
80 105 0
83 110 0
91 117 0
82 107 0
80 105 0
88 115 0
89 116 0
84 110 0
82 108 0
76 101 0
91 118 0
87 113 0
83 110 0
92 120 0
94 122 0
86 112 0
79 104 0
93 121 0
91 118 0
90 119 0
81 106 0
79 104 0
83 109 0
84 111 0
79 105 0
82 109 0
86 112 0
91 118 0
85 111 0
82 108 0
91 119 0
86 112 0
82 107 0
90 119 0
82 106 0
84 111 0
83 107 0
76 102 0
79 104 0
78 103 0
80 105 0
92 120 0
87 114 0
83 108 0
78 103 0
73 98 0
87 113 0
81 107 0
74 99 0
83 109 0
83 108 0
84 111 0
82 108 0
81 107 0
70 93 0
69 92 0
75 100 0
85 112 0
83 107 0
75 99 0
77 101 0
86 113 0
81 107 0
80 106 0
73 97 0
72 95 0
68 91 0
84 112 0
87 114 0
84 111 0
79 103 0
70 94 0
78 102 0
78 101 0
84 111 0
79 104 0
83 109 0
78 101 0
64 87 0
76 101 0
75 96 0
68 92 0
79 105 0
81 107 0
82 106 0
74 97 0
82 109 0
79 105 0
78 102 0
76 101 0
80 106 0
73 96 0
77 101 0
81 107 0
82 107 0
71 96 0
74 97 0
81 104 0
82 107 0
72 95 0
75 100 0
84 109 0
84 110 0
91 117 0
79 103 0
73 94 0
76 100 0
85 108 0
80 104 0
79 104 0
85 110 0
80 104 0
74 98 0
81 108 0
69 93 0
73 96 0
78 104 0
86 109 0
79 105 0
76 101 0
79 103 0
78 101 0
80 104 0
75 98 0
82 106 0
76 101 0
76 99 0
86 111 0
86 111 0
82 105 0
73 98 0
84 106 0
79 103 0
77 100 0
84 106 0
77 103 0
83 110 0
73 96 0
69 92 0
80 102 0
76 98 0
83 106 0
75 100 0
81 105 0
82 104 0
75 98 0
81 105 0
78 101 0
81 103 0
83 108 0
82 107 0
78 100 0
77 99 0
84 107 0
82 106 0
83 106 0
72 94 0
84 109 0
81 103 0
91 115 0
89 110 0
80 103 0
80 103 0
79 100 0
90 114 0
79 100 0
79 101 0
81 102 0
83 108 0
81 103 0
80 101 0
71 91 0
86 108 0
77 97 0
75 95 0
92 116 0
89 112 0
88 112 0
81 103 0
79 98 0
80 100 0
87 109 0
80 101 0
87 106 0
86 107 0
86 105 0
85 106 0
85 108 0
76 94 0
80 101 0
85 106 0
85 105 0
83 101 0
81 100 0
87 107 0
90 108 0
79 99 0
83 100 0
82 102 0
81 99 0
85 104 0
84 101 0
84 104 0
75 91 0
83 99 0
87 104 0
87 108 0
84 102 0
91 110 0
81 96 0
83 98 0
76 92 0
86 105 0
81 99 0
83 99 0
82 100 0
87 102 0
87 105 0
84 101 0
81 99 0
78 93 0
83 100 0
79 95 0
81 99 0
79 94 0
81 96 0
81 97 0
84 101 0
81 97 0
95 110 0
83 98 0
93 109 0
85 100 0
81 96 0
80 91 0
92 109 0
86 99 0
89 105 0
81 95 0
89 102 0
90 104 0
77 88 0
87 101 0
79 89 0
88 102 0
83 95 0
93 108 0
81 93 0
79 88 0
82 97 0
85 97 0
92 104 0
79 91 0
87 100 0
85 97 0
81 94 0
85 97 0
84 95 0
77 84 0
82 92 0
86 98 0
83 94 0
89 100 0
73 77 0
88 99 0
91 102 0
93 108 0
82 89 0
88 101 0
89 101 0
81 92 0
86 98 0
91 104 0
88 97 0
86 100 0
92 103 0
83 94 0
97 111 0
95 109 0
95 106 0
90 100 0
88 101 0
88 102 0
91 103 0
90 101 0
93 105 0
91 106 0
103 118 0
89 100 0
92 107 0
91 104 0
89 97 0
102 130 0
102 127 0
103 128 0
96 120 0
98 122 0
101 126 0
99 124 0
97 121 0
94 117 0
101 126 0
96 121 0
99 124 0
101 126 0
91 116 0
94 118 0
99 122 0
99 123 0
100 126 0
97 121 0
94 118 0
93 117 0
96 120 0
96 120 0
98 122 0
102 127 0
98 123 0
97 122 0
96 120 0
100 124 0
87 110 0
90 114 0
94 117 0
93 116 0
86 109 0
91 113 0
95 120 0
100 125 0
95 119 0
85 110 0
93 116 0
91 115 0
99 123 0
86 109 0
92 116 0
92 115 0
99 124 0
88 113 0
85 108 0
87 109 0
96 121 0
87 110 0
94 120 0
92 116 0
89 114 0
93 118 0
92 116 0
87 110 0
88 111 0
89 114 0
88 112 0
90 114 0
84 110 0
86 109 0
92 118 0
85 109 0
90 115 0
91 116 0
86 108 0
93 118 0
85 109 0
93 118 0
86 110 0
91 115 0
86 110 0
88 111 0
87 111 0
90 115 0
82 105 0
95 122 0
85 112 0
88 115 0
81 105 0
91 117 0
94 120 0
87 112 0
85 110 0
97 124 0
86 111 0
88 114 0
95 121 0
94 120 0
91 116 0
88 113 0
88 113 0
89 114 0
89 115 0
85 109 0
86 113 0
89 116 0
88 114 0
90 118 0
83 108 0
88 116 0
88 114 0
83 107 0
88 113 0
92 120 0
90 118 0
86 111 0
85 113 0
80 105 0
78 102 0
80 106 0
82 106 0
90 117 0
89 115 0
90 116 0
79 104 0
81 107 0
89 115 0
83 108 0
80 106 0
85 112 0
87 112 0
85 110 0
82 108 0
90 119 0
89 115 0
87 113 0
81 104 0
80 106 0
85 111 0
89 116 0
87 114 0
88 113 0
86 113 0
79 107 0
88 116 0
81 106 0
72 96 0
75 101 0
83 109 0
81 107 0
86 111 0
77 102 0
77 103 0
89 116 0
80 106 0
85 112 0
85 113 0
79 104 0
87 114 0
71 94 0
80 107 0
74 99 0
87 115 0
82 109 0
75 100 0
75 100 0
80 106 0
83 110 0
70 93 0
84 110 0
79 105 0
78 104 0
84 111 0
86 114 0
79 104 0
84 111 0
79 104 0
81 106 0
83 107 0
74 98 0
85 114 0
72 96 0
86 112 0
78 103 0
88 113 0
87 113 0
78 103 0
75 100 0
83 110 0
75 100 0
76 102 0
67 89 0
81 107 0
91 116 0
73 99 0
73 98 0
74 98 0
81 105 0
87 114 0
80 104 0
70 94 0
79 103 0
75 101 0
76 100 0
77 103 0
81 107 0
67 90 0
87 114 0
66 89 0
67 91 0
78 105 0
73 96 0
73 96 0
74 97 0
88 115 0
77 102 0
71 95 0
76 101 0
72 94 0
80 105 0
83 110 0
87 114 0
78 102 0
78 105 0
83 105 0
71 94 0
84 110 0
70 92 0
75 98 0
77 101 0
84 109 0
74 100 0
72 94 0
85 111 0
74 96 0
65 86 0
80 105 0
75 99 0
76 98 0
85 112 0
78 102 0
84 112 0
80 106 0
83 109 0
70 92 0
76 98 0
79 103 0
90 115 0
81 104 0
78 100 0
84 109 0
78 100 0
80 101 0
69 91 0
74 97 0
78 100 0
85 109 0
80 104 0
76 100 0
88 112 0
84 108 0
87 111 0
83 107 0
79 100 0
76 98 0
87 108 0
83 106 0
82 108 0
77 99 0
91 116 0
84 109 0
81 102 0
89 114 0
83 105 0
78 101 0
85 109 0
63 81 0
81 104 0
77 99 0
80 102 0
84 106 0
74 94 0
90 116 0
86 108 0
97 120 0
83 104 0
80 102 0
87 112 0
83 105 0
80 104 0
80 100 0
80 101 0
79 99 0
91 112 0
82 105 0
94 119 0
75 90 0
83 105 0
81 98 0
86 107 0
86 107 0
88 108 0
76 95 0
82 102 0
78 94 0
85 106 0
69 86 0
79 99 0
91 112 0
78 99 0
78 98 0
91 111 0
78 97 0
89 110 0
82 101 0
91 114 0
87 107 0
86 105 0
79 95 0
91 110 0
85 104 0
74 90 0
84 99 0
77 93 0
90 111 0
74 90 0
84 104 0
86 102 0
86 105 0
81 103 0
91 109 0
85 103 0
86 105 0
82 97 0
86 98 0
82 99 0
93 109 0
84 101 0
94 112 0
81 95 0
85 102 0
82 97 0
83 97 0
80 93 0
78 91 0
85 101 0
83 98 0
86 100 0
80 95 0
74 89 0
86 99 0
87 101 0
92 107 0
85 98 0
81 93 0
73 82 0
93 109 0
85 99 0
72 83 0
77 89 0
86 97 0
81 94 0
80 92 0
83 97 0
79 92 0
88 103 0
85 98 0
87 99 0
89 98 0
87 97 0
91 105 0
72 81 0
85 99 0
91 105 0
86 95 0
88 102 0
93 103 0
86 98 0
84 93 0
85 93 0
89 103 0
89 102 0
90 101 0
93 107 0
90 103 0
84 98 0
89 99 0
79 89 0
78 89 0
101 115 0
87 101 0
80 87 0
89 97 0
87 98 0
82 92 0
95 110 0
91 102 0
90 106 0
80 90 0
91 104 0
86 94 0
87 97 0
91 107 0
101 115 0
89 98 0
90 104 0
89 98 0
98 123 0
95 121 0
96 120 0
103 129 0
104 130 0
96 120 0
93 116 0
98 121 0
95 119 0
97 122 0
91 113 0
94 119 0
93 116 0
95 120 0
102 127 0
94 119 0
101 125 0
100 126 0
88 111 0
100 124 0
92 117 0
99 123 0
97 121 0
96 119 0
94 118 0
99 125 0
93 118 0
95 120 0
96 119 0
99 125 0
99 124 0
95 120 0
92 114 0
95 120 0
96 121 0
93 117 0
95 119 0
89 112 0
94 119 0
94 118 0
95 120 0
92 116 0
98 123 0
85 108 0
101 128 0
90 114 0
81 102 0
92 115 0
88 112 0
87 111 0
95 121 0
91 116 0
91 116 0
88 112 0
86 110 0
94 119 0
92 117 0
85 109 0
88 112 0
86 111 0
88 112 0
98 125 0
101 129 0
92 117 0
87 111 0
90 115 0
96 120 0
91 115 0
93 117 0
95 121 0
76 100 0
85 110 0
87 111 0
83 107 0
91 117 0
91 117 0
91 116 0
84 109 0
91 117 0
88 113 0
91 117 0
95 121 0
77 101 0
88 114 0
82 106 0
87 114 0
84 108 0
91 117 0
92 118 0
83 107 0
93 120 0
86 111 0
90 116 0
92 117 0
88 114 0
93 120 0
88 113 0
95 122 0
82 107 0
90 116 0
90 117 0
77 100 0
85 111 0
83 109 0
94 121 0
84 110 0
82 106 0
88 115 0
87 115 0
81 106 0
82 109 0
93 122 0
86 112 0
92 118 0
87 112 0
78 102 0
85 111 0
86 111 0
99 128 0
88 114 0
89 117 0
86 112 0
76 102 0
84 110 0
81 107 0
86 112 0
86 112 0
84 111 0
74 100 0
86 113 0
88 115 0
85 111 0
84 111 0
82 107 0
81 108 0
84 110 0
89 117 0
81 108 0
83 111 0
83 109 0
77 100 0
83 109 0
88 114 0
85 112 0
88 116 0
84 110 0
80 105 0
79 105 0
83 110 0
75 98 0
86 113 0
85 113 0
87 114 0
78 102 0
76 101 0
84 111 0
77 103 0
83 110 0
81 108 0
93 121 0
78 102 0
77 102 0
81 107 0
75 98 0
84 111 0
74 99 0
85 111 0
78 104 0
90 118 0
74 100 0
81 107 0
75 100 0
80 104 0
87 115 0
75 100 0
75 101 0
73 97 0
82 108 0
73 97 0
83 109 0
88 116 0
89 117 0
80 105 0
81 106 0
77 103 0
79 105 0
77 103 0
84 111 0
83 108 0
81 107 0
79 104 0
85 111 0
79 105 0
80 105 0
82 107 0
86 113 0
79 102 0
74 98 0
79 104 0
83 108 0
80 106 0
83 106 0
83 108 0
67 87 0
80 102 0
87 114 0
81 107 0
80 105 0
77 103 0
77 101 0
82 107 0
82 106 0
79 104 0
78 105 0
80 105 0
77 101 0
88 114 0
80 104 0
79 102 0
83 107 0
81 104 0
77 102 0
75 102 0
83 109 0
89 116 0
89 114 0
79 102 0
86 112 0
85 110 0
80 104 0
82 106 0
72 95 0
84 107 0
81 106 0
88 114 0
83 109 0
87 113 0
90 116 0
75 99 0
85 112 0
90 116 0
76 100 0
76 100 0
86 110 0
79 104 0
72 93 0
70 92 0
90 115 0
79 104 0
90 116 0
85 109 0
80 103 0
84 109 0
88 113 0
76 100 0
77 97 0
81 104 0
83 105 0
76 98 0
75 97 0
82 105 0
81 103 0
79 101 0
81 104 0
84 107 0
78 100 0
80 102 0
85 108 0
73 94 0
82 104 0
89 113 0
76 98 0
83 106 0
82 106 0
82 105 0
89 111 0
82 106 0
82 107 0
77 97 0
83 106 0
81 102 0
79 101 0
90 112 0
86 107 0
80 102 0
82 105 0
87 109 0
84 106 0
86 109 0
92 116 0
78 97 0
80 100 0
83 105 0
85 104 0
75 90 0
93 117 0
79 100 0
84 104 0
86 108 0
82 101 0
82 104 0
85 106 0
87 108 0
85 104 0
91 114 0
76 91 0
90 113 0
92 113 0
87 108 0
88 109 0
80 98 0
81 99 0
82 100 0
90 108 0
80 95 0
71 87 0
78 95 0
83 100 0
79 95 0
88 107 0
84 103 0
72 86 0
79 92 0
88 103 0
89 107 0
82 99 0
90 106 0
85 101 0
86 105 0
83 98 0
86 105 0
82 98 0
83 102 0
83 97 0
88 104 0
90 105 0
91 110 0
88 103 0
93 110 0
76 87 0
74 87 0
73 85 0
85 99 0
83 95 0
83 98 0
81 95 0
85 96 0
84 98 0
82 97 0
88 102 0
84 97 0
86 98 0
85 100 0
81 94 0
86 98 0
83 96 0
92 105 0
94 110 0
88 102 0
87 101 0
88 97 0
85 96 0
83 92 0
94 110 0
86 99 0
84 96 0
92 108 0
87 98 0
93 108 0
84 95 0
87 97 0
91 105 0
93 105 0
86 99 0
86 98 0
91 105 0
91 107 0
87 98 0
87 102 0
81 91 0
91 104 0
92 105 0
87 99 0
94 105 0
87 98 0
89 102 0
96 108 0
84 93 0
82 90 0
94 107 0
89 100 0
97 111 0
90 103 0
96 110 0
94 105 0
92 103 0
95 111 0
94 111 0
92 107 0
95 109 0
94 119 0
99 125 0
90 115 0
97 123 0
100 124 0
90 112 0
100 125 0
98 122 0
93 117 0
94 117 0
95 118 0
96 121 0
100 125 0
97 122 0
99 124 0
90 114 0
106 133 0
98 122 0
88 111 0
88 111 0
95 119 0
89 113 0
96 122 0
84 106 0
96 120 0
97 122 0
95 119 0
97 121 0
93 117 0
97 120 0
93 117 0
96 121 0
94 120 0
95 119 0
93 117 0
94 116 0
101 128 0
90 113 0
92 115 0
97 123 0
88 112 0
90 114 0
101 127 0
89 113 0
92 118 0
98 124 0
93 119 0
93 118 0
92 117 0
90 113 0
86 110 0
88 113 0
90 115 0
92 116 0
83 106 0
84 108 0
82 105 0
89 113 0
82 106 0
88 113 0
79 101 0
92 118 0
86 109 0
92 119 0
91 117 0
98 126 0
95 121 0
87 111 0
95 123 0
93 119 0
85 110 0
83 107 0
86 111 0
88 114 0
91 117 0
87 112 0
86 112 0
85 109 0
88 112 0
84 109 0
91 117 0
93 119 0
81 106 0
85 110 0
83 107 0
88 113 0
82 106 0
94 121 0
93 121 0
92 118 0
91 117 0
81 106 0
91 117 0
84 110 0
80 104 0
88 114 0
85 112 0
85 111 0
91 116 0
87 114 0
89 117 0
85 110 0
84 111 0
89 116 0
88 115 0
91 116 0
85 111 0
89 116 0
87 113 0
86 113 0
83 107 0
93 120 0
89 116 0
92 120 0
90 117 0
85 111 0
86 112 0
80 104 0
83 110 0
96 124 0
92 120 0
86 111 0
94 122 0
88 114 0
80 106 0
89 117 0
89 116 0
88 116 0
82 106 0
93 122 0
80 106 0
81 106 0
83 109 0
88 114 0
94 123 0
77 102 0
79 106 0
81 107 0
90 118 0
82 108 0
87 113 0
83 110 0
92 120 0
78 102 0
84 111 0
86 114 0
78 102 0
84 111 0
89 116 0
87 115 0
93 122 0
78 103 0
84 111 0
75 100 0
88 116 0
75 99 0
85 113 0
73 97 0
80 106 0
77 102 0
81 107 0
87 114 0
87 114 0
83 111 0
81 107 0
81 108 0
76 100 0
76 99 0
73 97 0
77 103 0
80 107 0
82 107 0
77 103 0
72 97 0
83 109 0
78 103 0
80 104 0
80 105 0
77 102 0
82 106 0
81 106 0
74 96 0
76 102 0
82 108 0
84 110 0
87 113 0
80 106 0
80 105 0
75 99 0
78 104 0
84 111 0
83 107 0
79 105 0
74 97 0
85 113 0
78 103 0
93 120 0
83 111 0
83 108 0
77 102 0
75 98 0
76 100 0
84 110 0
89 115 0
82 108 0
82 106 0
78 104 0
78 102 0
75 100 0
89 114 0
85 110 0
85 108 0
80 105 0
89 115 0
75 101 0
79 104 0
76 99 0
76 101 0
92 118 0
92 119 0
71 94 0
81 106 0
74 97 0
84 108 0
86 111 0
80 103 0
77 99 0
75 99 0
78 102 0
82 108 0
72 94 0
83 110 0
89 115 0
78 101 0
70 92 0
81 106 0
81 105 0
84 109 0
82 107 0
78 101 0
79 102 0
81 105 0
69 91 0
85 112 0
80 100 0
83 106 0
84 109 0
81 104 0
77 101 0
86 111 0
78 102 0
85 112 0
84 108 0
72 94 0
80 105 0
80 103 0
92 117 0
85 107 0
85 111 0
88 113 0
88 113 0
87 111 0
90 116 0
84 109 0
87 112 0
92 117 0
84 106 0
82 104 0
91 116 0
80 101 0
83 109 0
84 106 0
84 107 0
87 112 0
87 111 0
86 110 0
83 105 0
98 122 0
78 100 0
74 96 0
75 95 0
87 111 0
78 99 0
89 112 0
85 107 0
85 108 0
86 107 0
81 102 0
84 106 0
88 110 0
88 107 0
80 100 0
93 114 0
83 105 0
85 105 0
75 93 0
87 108 0
94 114 0
90 111 0
76 97 0
84 102 0
82 103 0
89 109 0
77 96 0
85 103 0
76 92 0
78 93 0
83 105 0
88 106 0
80 99 0
77 93 0
87 107 0
80 98 0
83 105 0
79 98 0
84 104 0
83 103 0
83 99 0
84 100 0
90 109 0
88 109 0
91 111 0
82 99 0
83 99 0
86 105 0
89 106 0
84 100 0
89 107 0
89 105 0
95 114 0
95 115 0
77 88 0
86 102 0
88 107 0
87 103 0
87 102 0
85 99 0
89 106 0
84 101 0
86 102 0
80 98 0
88 106 0
80 89 0
82 97 0
86 102 0
86 98 0
83 99 0
82 98 0
85 100 0
85 104 0
82 96 0
81 94 0
84 95 0
89 105 0
86 99 0
98 112 0
87 97 0
88 101 0
87 100 0
89 104 0
91 107 0
92 105 0
83 97 0
83 98 0
87 100 0
76 87 0
89 103 0
84 98 0
93 105 0
80 90 0
90 101 0
84 97 0
83 92 0
87 102 0
90 100 0
88 102 0
89 99 0
95 112 0
86 102 0
90 104 0
93 106 0
89 100 0
94 107 0
89 100 0
92 103 0
90 101 0
92 104 0
86 98 0
95 112 0
87 97 0
90 101 0
75 85 0
89 104 0
87 100 0
92 105 0
92 105 0
83 90 0
87 100 0
86 95 0
89 100 0
101 128 0
91 114 0
102 127 0
90 114 0
104 131 0
103 130 0
94 119 0
102 128 0
96 121 0
94 120 0
101 127 0
99 124 0
98 122 0
99 124 0
97 123 0
94 117 0
96 121 0
94 118 0
100 126 0
101 127 0
92 116 0
89 113 0
89 112 0
97 122 0
90 114 0
100 126 0
106 131 0
96 123 0
96 121 0
93 117 0
96 121 0
96 122 0
90 115 0
93 117 0
91 116 0
89 112 0
95 122 0
91 115 0
96 119 0
86 109 0
94 119 0
89 113 0
89 112 0
97 124 0
93 117 0
80 101 0
94 119 0
95 121 0
89 114 0
91 114 0
88 111 0
89 113 0
88 112 0
97 124 0
92 117 0
86 110 0
94 119 0
94 120 0
88 113 0
83 107 0
94 119 0
91 116 0
89 115 0
86 110 0
94 121 0
86 111 0
90 115 0
98 125 0
85 109 0
87 112 0
87 112 0
94 120 0
97 123 0
89 114 0
93 119 0
89 115 0
93 119 0
97 123 0
89 116 0
85 111 0
81 106 0
83 107 0
84 108 0
84 110 0
86 112 0
93 120 0
80 103 0
88 113 0
87 112 0
85 110 0
87 111 0
92 119 0
88 115 0
89 114 0
94 120 0
88 115 0
86 112 0
80 105 0
98 126 0
95 122 0
95 123 0
90 114 0
86 113 0
86 111 0
91 120 0
91 118 0
82 107 0
90 118 0
90 117 0
91 119 0
89 115 0
82 108 0
88 117 0
81 106 0
81 105 0
90 117 0
83 109 0
79 101 0
88 115 0
81 107 0
87 113 0
88 113 0
86 111 0
87 112 0
88 117 0
88 116 0
90 117 0
88 115 0
74 98 0
92 120 0
88 115 0
72 95 0
82 107 0
77 102 0
83 110 0
82 107 0
90 117 0
86 110 0
83 108 0
92 120 0
88 115 0
85 111 0
74 98 0
73 96 0
84 109 0
82 108 0
87 115 0
78 103 0
98 127 0
79 105 0
72 98 0
77 103 0
86 113 0
95 123 0
81 105 0
79 102 0
89 117 0
90 117 0
86 113 0
79 104 0
80 106 0
76 102 0
85 112 0
77 102 0
87 114 0
76 100 0
78 104 0
76 99 0
76 100 0
80 106 0
77 103 0
79 104 0
84 110 0
88 115 0
91 119 0
76 102 0
74 96 0
83 109 0
74 99 0
83 109 0
85 111 0
82 108 0
79 105 0
78 105 0
79 105 0
83 109 0
87 114 0
91 120 0
80 104 0
70 93 0
92 122 0
71 95 0
78 102 0
77 102 0
86 110 0
85 111 0
85 110 0
81 107 0
89 116 0
76 99 0
73 96 0
94 122 0
88 114 0
91 118 0
76 100 0
73 98 0
85 112 0
81 107 0
83 109 0
76 100 0
78 104 0
89 115 0
80 107 0
92 118 0
83 109 0
80 106 0
79 104 0
82 107 0
76 101 0
90 116 0
74 98 0
81 105 0
72 96 0
89 116 0
80 104 0
88 114 0
82 106 0
70 92 0
77 101 0
82 109 0
79 103 0
89 116 0
86 113 0
78 100 0
83 105 0
82 108 0
82 107 0
84 111 0
87 112 0
87 113 0
77 100 0
94 122 0
77 103 0
77 99 0
93 118 0
80 104 0
85 110 0
87 110 0
85 111 0
87 112 0
93 119 0
78 102 0
79 101 0
88 113 0
81 106 0
88 114 0
79 103 0
82 104 0
83 106 0
86 111 0
83 105 0
84 106 0
84 108 0
83 106 0
86 108 0
84 106 0
87 112 0
89 113 0
80 102 0
76 100 0
80 102 0
83 104 0
82 106 0
82 101 0
86 112 0
84 109 0
88 111 0
85 107 0
80 101 0
81 103 0
87 111 0
79 101 0
87 109 0
81 100 0
87 108 0
92 117 0
91 114 0
75 96 0
85 110 0
74 92 0
83 105 0
82 102 0
84 107 0
86 110 0
85 108 0
81 102 0
79 100 0
83 105 0
89 112 0
88 111 0
82 101 0
74 92 0
82 101 0
76 95 0
89 113 0
87 109 0
85 107 0
85 106 0
85 107 0
82 101 0
91 112 0
88 106 0
86 107 0
89 109 0
81 100 0
82 100 0
86 107 0
85 106 0
84 98 0
88 109 0
83 100 0
80 98 0
76 91 0
89 110 0
84 101 0
80 97 0
89 109 0
91 113 0
90 109 0
84 101 0
92 112 0
87 104 0
93 116 0
87 104 0
91 109 0
84 103 0
86 104 0
79 92 0
90 105 0
88 108 0
89 108 0
88 106 0
87 102 0
87 102 0
79 92 0
89 104 0
83 99 0
83 98 0
89 104 0
82 93 0
84 99 0
85 101 0
92 111 0
83 96 0
89 108 0
88 105 0
89 106 0
89 102 0
77 88 0
83 98 0
88 103 0
87 102 0
81 97 0
86 102 0
89 102 0
80 93 0
91 106 0
83 94 0
90 104 0
90 101 0
85 97 0
92 105 0
83 94 0
89 101 0
83 95 0
90 101 0
87 98 0
105 125 0
95 108 0
91 105 0
87 98 0
94 110 0
79 94 0
85 98 0
92 103 0
90 102 0
94 107 0
90 104 0
91 106 0
88 101 0
92 104 0
88 103 0
90 102 0
88 100 0
94 102 0
98 113 0
89 103 0
91 105 0
89 105 0
93 108 0
99 123 0
104 130 0
103 130 0
102 129 0
100 126 0
102 126 0
92 118 0
90 114 0
99 125 0
93 118 0
98 124 0
92 117 0
102 127 0
98 121 0
101 128 0
91 114 0
95 119 0
102 127 0
96 120 0
96 122 0
94 118 0
91 115 0
98 123 0
101 125 0
90 116 0
93 117 0
94 118 0
96 120 0
96 122 0
93 117 0
95 120 0
94 118 0
95 120 0
86 110 0
93 117 0
93 118 0
99 125 0
87 110 0
98 124 0
100 127 0
92 118 0
91 117 0
90 114 0
97 122 0
84 107 0
93 118 0
95 120 0
93 118 0
95 121 0
92 117 0
93 118 0
87 112 0
93 117 0
90 115 0
83 107 0
84 109 0
94 119 0
90 116 0
100 126 0
85 111 0
87 112 0
91 115 0
89 114 0
87 113 0
96 123 0
92 117 0
94 121 0
85 110 0
88 113 0
95 121 0
88 114 0
95 121 0
91 116 0
98 125 0
93 120 0
93 118 0
88 113 0
82 107 0
92 120 0
92 119 0
99 128 0
91 119 0
91 118 0
92 119 0
83 108 0
93 120 0
90 117 0
87 114 0
89 115 0
84 109 0
83 109 0
88 113 0
91 119 0
88 113 0
86 113 0
93 120 0
82 106 0
95 123 0
79 104 0
76 100 0
87 114 0
84 110 0
82 104 0
84 109 0
91 118 0
89 115 0
87 113 0
91 118 0
85 111 0
83 109 0
85 113 0
90 116 0
83 110 0
86 112 0
88 115 0
88 115 0
89 116 0
77 102 0
89 116 0
84 111 0
91 119 0
85 111 0
91 120 0
81 106 0
84 110 0
84 110 0
84 111 0
84 111 0
79 104 0
89 116 0
75 100 0
87 113 0
89 116 0
83 108 0
85 113 0
92 120 0
88 115 0
76 100 0
72 96 0
93 122 0
88 115 0
76 100 0
84 111 0
87 114 0
87 115 0
86 115 0
84 111 0
76 100 0
73 97 0
85 112 0
81 107 0
85 113 0
83 110 0
90 117 0
93 121 0
75 101 0
91 120 0
88 115 0
85 111 0
75 99 0
82 108 0
77 103 0
84 109 0
80 107 0
77 101 0
85 113 0
99 129 0
77 103 0
86 112 0
84 111 0
78 103 0
83 109 0
79 104 0
91 118 0
88 114 0
78 104 0
80 106 0
83 111 0
76 101 0
84 110 0
79 103 0
74 98 0
80 107 0
74 97 0
82 109 0
81 107 0
82 108 0
87 115 0
84 112 0
91 119 0
90 116 0
79 104 0
79 103 0
85 110 0
67 90 0
76 101 0
79 103 0
76 101 0
77 103 0
79 105 0
92 121 0
80 104 0
90 118 0
78 105 0
77 101 0
77 102 0
79 103 0
80 106 0
86 114 0
76 102 0
78 102 0
82 109 0
82 107 0
80 105 0
82 108 0
86 113 0
81 107 0
81 106 0
79 103 0
86 112 0
71 96 0
78 103 0
84 109 0
68 91 0
80 106 0
75 99 0
82 106 0
90 117 0
79 104 0
79 104 0
78 103 0
87 114 0
80 105 0
81 105 0
84 110 0
79 104 0
81 104 0
71 92 0
88 114 0
73 94 0
85 111 0
80 103 0
80 105 0
89 110 0
74 97 0
82 107 0
83 108 0
81 107 0
87 111 0
78 99 0
86 112 0
93 120 0
86 110 0
79 101 0
81 102 0
78 99 0
84 108 0
86 111 0
78 101 0
82 104 0
85 109 0
92 118 0
86 109 0
81 105 0
80 103 0
82 105 0
87 111 0
82 105 0
86 110 0
84 106 0
79 102 0
82 107 0
87 109 0
79 101 0
78 100 0
79 102 0
94 120 0
74 97 0
84 107 0
76 95 0
84 107 0
86 110 0
89 113 0
83 102 0
89 111 0
88 112 0
88 112 0
83 106 0
91 114 0
96 122 0
83 104 0
89 115 0
81 101 0
91 114 0
85 107 0
89 107 0
90 114 0
83 105 0
85 106 0
90 113 0
79 99 0
89 110 0
95 116 0
85 106 0
86 107 0
82 104 0
82 102 0
97 119 0
79 97 0
84 107 0
83 101 0
84 104 0
85 106 0
79 98 0
81 100 0
82 97 0
84 101 0
91 114 0
96 117 0
80 99 0
97 120 0
86 105 0
81 97 0
94 114 0
88 110 0
85 104 0
83 98 0
86 107 0
93 113 0
81 95 0
86 103 0
82 97 0
83 100 0
88 105 0
78 93 0
95 113 0
75 89 0
92 109 0
75 91 0
89 107 0
76 92 0
88 103 0
84 100 0
86 103 0
82 98 0
84 99 0
83 102 0
91 109 0
84 100 0
89 103 0
94 113 0
84 98 0
93 107 0
75 88 0
78 93 0
86 100 0
79 94 0
78 90 0
85 98 0
84 97 0
83 98 0
75 87 0
90 105 0
91 103 0
92 103 0
88 99 0
88 102 0
95 108 0
83 94 0
82 95 0
95 110 0
97 111 0
76 86 0
94 108 0
82 94 0
91 105 0
84 96 0
86 101 0
77 85 0
80 93 0
89 104 0
85 98 0
91 107 0
96 111 0
87 102 0
89 100 0
88 99 0
90 103 0
86 100 0
91 105 0
91 102 0
86 98 0
92 104 0
85 97 0
98 116 0
89 103 0
92 106 0
94 105 0
95 109 0
94 107 0
106 133 0
95 121 0
99 124 0
97 122 0
97 123 0
95 122 0
97 125 0
99 125 0
100 124 0
101 126 0
100 124 0
92 116 0
97 123 0
94 119 0
97 121 0
99 124 0
99 125 0
94 118 0
91 116 0
97 121 0
97 123 0
95 119 0
95 119 0
96 122 0
98 122 0
87 111 0
94 119 0
93 117 0
96 121 0
91 116 0
91 116 0
97 121 0
98 124 0
94 119 0
88 112 0
92 115 0
92 118 0
96 121 0
87 112 0
92 117 0
92 116 0
99 124 0
97 123 0
95 122 0
94 120 0
92 117 0
85 109 0
95 122 0
97 124 0
87 111 0
92 117 0
91 118 0
94 120 0
97 123 0
90 115 0
86 109 0
100 126 0
82 105 0
97 123 0
89 112 0
95 120 0
93 120 0
94 120 0
92 118 0
88 111 0
87 113 0
88 113 0
89 114 0
88 115 0
97 123 0
90 115 0
106 134 0
88 115 0
92 119 0
88 113 0
87 112 0
86 111 0
84 110 0
89 115 0
93 119 0
85 110 0
83 107 0
86 112 0
97 123 0
87 114 0
89 116 0
90 118 0
88 113 0
93 121 0
93 121 0
86 112 0
94 123 0
89 116 0
94 120 0
90 117 0
84 110 0
88 114 0
91 118 0
87 114 0
91 117 0
79 104 0
93 121 0
88 115 0
79 104 0
87 113 0
92 119 0
85 110 0
93 119 0
85 110 0
92 118 0
85 112 0
88 114 0
85 111 0
92 119 0
84 110 0
86 112 0
86 112 0
92 119 0
91 120 0
90 119 0
82 107 0
92 120 0
88 114 0
91 118 0
85 113 0
87 114 0
84 111 0
88 115 0
85 112 0
80 107 0
93 121 0
88 115 0
80 106 0
84 111 0
83 110 0
88 114 0
89 116 0
98 126 0
80 105 0
78 103 0
85 112 0
88 115 0
83 110 0
74 98 0
89 115 0
75 100 0
86 114 0
84 110 0
79 105 0
80 105 0
92 120 0
74 99 0
87 113 0
79 105 0
76 102 0
88 115 0
90 118 0
87 116 0
95 124 0
84 110 0
91 117 0
83 107 0
86 112 0
83 111 0
87 114 0
82 107 0
78 101 0
90 117 0
82 108 0
92 121 0
85 111 0
87 113 0
89 118 0
85 111 0
89 118 0
82 110 0
81 106 0
73 96 0
83 110 0
84 111 0
87 114 0
82 108 0
84 109 0
81 108 0
79 105 0
82 108 0
88 114 0
84 110 0
78 102 0
74 99 0
81 107 0
93 122 0
75 101 0
82 108 0
83 107 0
80 106 0
90 119 0
79 103 0
76 101 0
92 119 0
75 99 0
73 96 0
79 102 0
84 110 0
84 109 0
88 115 0
90 118 0
79 103 0
78 103 0
70 95 0
72 95 0
80 106 0
86 111 0
84 108 0
89 115 0
72 96 0
81 106 0
79 103 0
74 99 0
87 115 0
87 114 0
76 101 0
80 106 0
80 104 0
83 110 0
85 111 0
80 107 0
81 106 0
79 102 0
82 106 0
82 107 0
85 109 0
84 109 0
83 106 0
83 109 0
86 110 0
81 105 0
80 105 0
83 107 0
85 112 0
79 103 0
94 120 0
82 107 0
85 110 0
70 92 0
84 108 0
87 111 0
86 109 0
82 106 0
74 96 0
72 96 0
85 109 0
83 108 0
86 111 0
82 107 0
91 118 0
94 118 0
82 106 0
76 97 0
80 100 0
86 110 0
85 110 0
86 111 0
76 100 0
80 104 0
78 100 0
89 114 0
90 114 0
86 109 0
82 106 0
88 112 0
80 101 0
86 111 0
77 97 0
80 102 0
80 104 0
89 115 0
81 104 0
85 105 0
82 107 0
83 107 0
82 103 0
86 111 0
76 98 0
83 107 0
92 117 0
88 113 0
87 111 0
83 106 0
79 100 0
88 112 0
84 108 0
94 121 0
87 108 0
89 112 0
79 99 0
88 110 0
80 99 0
86 107 0
80 102 0
85 103 0
90 114 0
80 100 0
72 91 0
69 85 0
89 110 0
82 102 0
95 119 0
90 113 0
86 108 0
77 98 0
83 103 0
86 105 0
93 117 0
84 107 0
89 109 0
83 101 0
88 110 0
93 115 0
85 105 0
83 100 0
80 99 0
89 111 0
83 103 0
86 105 0
82 104 0
81 99 0
93 114 0
79 95 0
82 100 0
88 103 0
79 98 0
84 99 0
84 101 0
85 99 0
78 93 0
83 101 0
75 88 0
80 94 0
82 102 0
91 110 0
79 96 0
89 106 0
91 111 0
80 95 0
87 104 0
90 107 0
94 111 0
87 104 0
88 106 0
77 89 0
91 108 0
76 88 0
86 102 0
89 104 0
85 101 0
83 99 0
85 99 0
89 106 0
96 113 0
86 100 0
90 106 0
93 108 0
91 110 0
87 102 0
83 98 0
81 93 0
89 101 0
85 98 0
90 105 0
81 96 0
88 102 0
85 95 0
86 99 0
87 98 0
87 101 0
80 95 0
83 94 0
89 104 0
94 107 0
90 104 0
89 101 0
82 95 0
90 105 0
86 98 0
96 112 0
89 103 0
90 105 0
95 111 0
96 111 0
87 101 0
89 103 0
91 103 0
93 110 0
86 95 0
88 104 0
90 102 0
98 118 0
95 111 0
92 107 0
100 126 0
93 117 0
104 131 0
97 124 0
101 127 0
103 129 0
104 130 0
102 129 0
100 125 0
99 125 0
98 124 0
99 125 0
97 121 0
93 118 0
102 128 0
90 113 0
99 124 0
92 117 0
97 122 0
96 120 0
99 124 0
100 127 0
97 122 0
95 121 0
91 116 0
94 119 0
92 116 0
95 119 0
99 125 0
94 119 0
96 122 0
97 123 0
98 125 0
95 120 0
98 124 0
94 119 0
100 124 0
97 124 0
96 123 0
94 120 0
96 122 0
91 117 0
92 117 0
95 120 0
90 115 0
80 102 0
96 121 0
94 120 0
85 109 0
99 127 0
98 124 0
91 117 0
96 123 0
91 117 0
94 119 0
91 116 0
88 115 0
92 117 0
92 119 0
83 108 0
87 113 0
95 121 0
90 114 0
90 116 0
99 124 0
82 107 0
89 115 0
89 114 0
91 117 0
86 112 0
90 117 0
92 118 0
90 116 0
94 119 0
89 116 0
90 115 0
87 111 0
94 121 0
84 109 0
92 117 0
83 107 0
89 116 0
85 109 0
87 114 0
93 121 0
80 106 0
89 116 0
98 126 0
93 119 0
92 118 0
88 113 0
88 113 0
86 111 0
86 111 0
87 113 0
87 113 0
85 111 0
84 111 0
88 115 0
90 118 0
86 112 0
91 118 0
84 109 0
80 106 0
86 113 0
90 117 0
84 110 0
82 109 0
87 113 0
93 120 0
86 114 0
85 111 0
87 114 0
90 118 0
87 115 0
89 116 0
88 114 0
90 119 0
81 107 0
91 118 0
90 117 0
91 116 0
92 118 0
91 119 0
90 119 0
83 110 0
89 117 0
82 108 0
89 114 0
80 107 0
85 112 0
84 109 0
79 104 0
89 117 0
89 117 0
85 113 0
86 111 0
86 114 0
73 98 0
88 116 0
88 116 0
89 117 0
83 109 0
85 110 0
83 109 0
79 103 0
79 104 0
85 113 0
84 111 0
83 110 0
87 113 0
79 105 0
91 119 0
84 111 0
88 113 0
86 115 0
80 106 0
86 113 0
89 116 0
86 113 0
76 101 0
79 105 0
92 119 0
91 120 0
82 109 0
82 108 0
82 109 0
89 116 0
86 113 0
85 113 0
79 106 0
83 108 0
89 117 0
86 113 0
71 93 0
92 119 0
86 112 0
90 119 0
73 99 0
78 105 0
93 121 0
85 111 0
82 106 0
83 109 0
84 111 0
93 121 0
80 106 0
80 106 0
79 105 0
80 106 0
84 112 0
83 108 0
78 102 0
85 112 0
88 115 0
85 111 0
83 111 0
72 96 0
85 113 0
79 102 0
77 102 0
80 106 0
81 106 0
83 111 0
79 104 0
83 110 0
84 110 0
88 115 0
84 110 0
77 100 0
81 107 0
75 97 0
88 114 0
84 110 0
79 105 0
80 104 0
81 107 0
80 105 0
77 99 0
86 112 0
84 110 0
83 107 0
79 104 0
81 107 0
82 105 0
89 114 0
88 115 0
94 119 0
87 113 0
85 111 0
76 100 0
77 102 0
86 111 0
82 108 0
83 107 0
81 105 0
79 105 0
87 114 0
89 115 0
86 113 0
88 116 0
82 107 0
90 115 0
79 103 0
87 114 0
83 105 0
78 102 0
93 118 0
77 102 0
83 107 0
85 112 0
91 119 0
97 123 0
87 111 0
84 108 0
87 111 0
87 113 0
93 120 0
93 120 0
84 109 0
82 105 0
85 110 0
76 99 0
83 106 0
87 110 0
85 108 0
88 112 0
90 114 0
80 102 0
85 110 0
89 116 0
80 103 0
85 108 0
85 109 0
93 118 0
87 113 0
86 107 0
90 113 0
80 102 0
78 101 0
83 106 0
88 112 0
80 103 0
86 108 0
82 105 0
91 114 0
77 99 0
85 108 0
87 109 0
81 102 0
85 105 0
82 104 0
88 112 0
80 101 0
79 98 0
82 106 0
81 102 0
72 92 0
83 106 0
94 117 0
88 110 0
91 113 0
87 113 0
82 105 0
85 103 0
96 118 0
85 108 0
79 98 0
88 109 0
88 108 0
92 115 0
90 108 0
81 98 0
79 96 0
95 119 0
77 97 0
95 114 0
94 116 0
85 105 0
87 109 0
81 98 0
86 105 0
90 112 0
95 114 0
82 102 0
89 109 0
89 106 0
80 97 0
90 111 0
91 111 0
89 109 0
84 102 0
81 99 0
91 104 0
79 93 0
76 92 0
92 111 0
92 112 0
90 111 0
89 111 0
91 106 0
91 108 0
95 115 0
88 107 0
83 100 0
88 105 0
93 110 0
94 108 0
92 112 0
85 100 0
89 102 0
87 100 0
86 101 0
87 101 0
85 99 0
84 99 0
82 97 0
89 105 0
78 91 0
88 103 0
90 107 0
86 100 0
88 100 0
78 90 0
87 100 0
91 109 0
88 104 0
89 104 0
93 110 0
92 104 0
94 111 0
93 108 0
90 100 0
88 101 0
82 92 0
91 106 0
91 105 0
94 109 0
86 101 0
82 97 0
95 111 0
84 96 0
87 99 0
93 106 0
96 113 0
92 106 0
98 114 0
96 111 0
84 94 0
86 96 0
92 103 0
95 109 0
88 101 0
102 117 0
89 105 0
95 109 0
91 105 0
98 112 0
95 109 0
92 106 0
100 125 0
104 131 0
97 124 0
99 125 0
99 125 0
105 131 0
94 119 0
95 119 0
100 125 0
98 124 0
90 114 0
96 122 0
97 121 0
99 124 0
95 121 0
100 126 0
98 126 0
101 126 0
102 127 0
97 123 0
96 121 0
104 131 0
98 123 0
93 118 0
100 126 0
89 113 0
91 116 0
99 125 0
97 122 0
89 113 0
100 126 0
93 117 0
94 119 0
92 117 0
86 110 0
100 127 0
104 131 0
95 121 0
99 125 0
94 120 0
87 111 0
88 111 0
93 118 0
99 126 0
92 117 0
97 123 0
95 120 0
94 120 0
95 119 0
89 113 0
93 118 0
94 120 0
91 117 0
101 127 0
93 119 0
89 114 0
92 117 0
90 116 0
88 113 0
100 127 0
91 118 0
94 121 0
92 118 0
89 114 0
86 113 0
93 119 0
86 113 0
89 115 0
90 118 0
91 117 0
88 114 0
84 109 0
86 112 0
98 125 0
95 122 0
97 123 0
86 111 0
93 119 0
91 117 0
93 120 0
88 113 0
97 126 0
85 109 0
94 121 0
87 114 0
80 104 0
82 107 0
89 116 0
85 111 0
88 115 0
87 113 0
89 115 0
81 106 0
83 107 0
81 105 0
89 117 0
96 124 0
94 121 0
86 112 0
93 122 0
81 106 0
91 118 0
94 122 0
87 113 0
84 109 0
88 113 0
85 110 0
91 119 0
96 124 0
86 112 0
81 107 0
87 113 0
87 113 0
85 111 0
94 122 0
91 120 0
91 118 0
90 118 0
91 118 0
88 116 0
82 107 0
87 113 0
86 112 0
88 115 0
89 116 0
88 116 0
77 102 0
79 103 0
86 112 0
83 109 0
82 108 0
98 126 0
81 107 0
86 115 0
92 121 0
87 115 0
88 116 0
76 102 0
78 104 0
84 110 0
86 115 0
84 111 0
87 113 0
85 113 0
81 106 0
86 114 0
87 114 0
76 100 0
95 124 0
80 105 0
82 108 0
81 108 0
92 121 0
84 110 0
88 113 0
77 101 0
80 107 0
96 126 0
78 104 0
82 108 0
83 108 0
86 113 0
84 111 0
86 112 0
84 111 0
80 105 0
86 115 0
84 110 0
86 114 0
84 110 0
83 109 0
80 106 0
81 107 0
81 106 0
82 108 0
88 115 0
77 102 0
74 98 0
93 121 0
86 113 0
81 106 0
80 103 0
76 103 0
90 116 0
86 115 0
79 103 0
83 109 0
79 105 0
89 116 0
84 111 0
80 105 0
73 98 0
83 108 0
82 109 0
83 110 0
75 99 0
79 102 0
83 111 0
88 114 0
78 104 0
80 106 0
77 103 0
87 113 0
78 104 0
83 108 0
91 120 0
81 106 0
81 107 0
77 100 0
78 104 0
82 107 0
85 111 0
83 109 0
90 115 0
81 108 0
87 113 0
83 107 0
79 105 0
85 112 0
80 104 0
74 98 0
86 112 0
83 108 0
87 112 0
81 105 0
83 109 0
97 126 0
92 120 0
76 101 0
88 115 0
95 122 0
90 117 0
89 116 0
82 106 0
85 113 0
88 116 0
84 111 0
84 108 0
75 99 0
82 105 0
84 109 0
88 114 0
88 116 0
85 110 0
93 119 0
84 108 0
73 95 0
86 112 0
86 112 0
88 113 0
94 119 0
81 106 0
80 103 0
94 120 0
77 100 0
86 110 0
94 122 0
85 110 0
87 110 0
82 107 0
87 113 0
93 118 0
83 111 0
77 101 0
87 112 0
85 107 0
86 109 0
80 103 0
89 114 0
77 101 0
90 112 0
88 110 0
85 107 0
83 106 0
88 113 0
81 103 0
93 119 0
79 100 0
90 115 0
83 109 0
87 112 0
87 111 0
80 102 0
82 105 0
80 101 0
89 112 0
85 107 0
81 103 0
91 115 0
80 102 0
90 114 0
75 97 0
80 102 0
84 107 0
86 105 0
92 117 0
77 100 0
91 114 0
88 110 0
95 117 0
95 121 0
88 111 0
86 106 0
89 111 0
90 110 0
89 112 0
91 113 0
84 106 0
85 105 0
85 106 0
85 105 0
85 106 0
87 111 0
95 119 0
89 109 0
94 115 0
87 107 0
89 109 0
84 102 0
91 112 0
81 97 0
84 105 0
86 106 0
95 116 0
83 101 0
84 97 0
87 108 0
79 100 0
91 110 0
84 104 0
94 117 0
85 102 0
82 98 0
91 111 0
88 107 0
81 99 0
90 108 0
86 104 0
97 118 0
81 98 0
90 108 0
93 113 0
82 98 0
79 91 0
93 112 0
82 100 0
84 101 0
92 109 0
90 105 0
81 98 0
88 106 0
96 112 0
90 102 0
83 98 0
85 100 0
97 118 0
84 100 0
94 111 0
88 106 0
86 99 0
88 101 0
94 111 0
82 96 0
92 110 0
89 107 0
93 111 0
94 109 0
82 96 0
85 100 0
84 98 0
96 115 0
96 116 0
93 109 0
90 102 0
93 110 0
96 112 0
94 114 0
88 103 0
96 115 0
88 104 0
86 99 0
100 116 0
91 108 0
90 100 0
97 112 0
87 102 0
86 100 0
84 99 0
90 104 0
95 109 0
95 112 0
90 104 0
89 105 0
92 108 0
96 110 0
93 109 0
88 100 0
88 101 0
89 103 0
93 107 0
96 121 0
98 124 0
101 127 0
99 126 0
101 128 0
102 128 0
95 120 0
101 127 0
96 122 0
95 120 0
94 118 0
96 121 0
93 118 0
89 114 0
100 124 0
93 120 0
94 117 0
94 119 0
93 118 0
95 121 0
95 120 0
98 124 0
98 126 0
95 120 0
97 123 0
101 127 0
98 124 0
90 114 0
95 121 0
92 117 0
94 118 0
94 118 0
94 119 0
91 115 0
94 120 0
98 125 0
98 123 0
93 120 0
100 127 0
88 113 0
93 118 0
88 112 0
93 118 0
98 126 0
87 111 0
91 116 0
92 117 0
94 120 0
94 119 0
92 117 0
96 122 0
96 123 0
88 113 0
92 117 0
91 117 0
99 127 0
94 121 0
91 118 0
90 115 0
94 120 0
95 122 0
87 112 0
97 124 0
96 122 0
87 112 0
87 112 0
98 124 0
92 118 0
89 114 0
94 121 0
98 126 0
94 120 0
85 112 0
88 114 0
91 118 0
88 115 0
95 122 0
89 116 0
89 114 0
89 116 0
87 115 0
81 106 0
86 111 0
87 113 0
90 117 0
92 118 0
85 110 0
79 105 0
89 114 0
86 111 0
88 114 0
88 114 0
86 111 0
90 115 0
87 113 0
92 119 0
86 113 0
90 118 0
90 117 0
93 121 0
92 119 0
90 117 0
86 111 0
81 107 0
83 108 0
88 115 0
73 99 0
87 114 0
86 113 0
89 115 0
81 107 0
90 117 0
89 115 0
88 114 0
81 107 0
85 112 0
87 114 0
79 104 0
89 115 0
82 108 0
88 115 0
88 116 0
88 115 0
85 112 0
87 114 0
89 117 0
93 121 0
89 118 0
81 106 0
87 115 0
84 112 0
90 119 0
84 109 0
97 127 0
86 112 0
90 118 0
86 114 0
84 110 0
84 110 0
87 113 0
87 114 0
93 120 0
77 102 0
83 111 0
82 108 0
89 118 0
85 112 0
94 120 0
81 108 0
80 107 0
81 108 0
82 107 0
89 116 0
90 118 0
85 111 0
90 117 0
83 111 0
84 111 0
88 114 0
84 112 0
86 113 0
80 107 0
86 113 0
82 108 0
84 110 0
86 115 0
87 114 0
90 117 0
87 114 0
89 117 0
87 116 0
87 116 0
81 106 0
92 120 0
84 110 0
88 116 0
81 106 0
89 115 0
81 107 0
78 103 0
91 118 0
82 109 0
80 105 0
83 107 0
86 114 0
85 112 0
91 118 0
89 115 0
88 115 0
92 118 0
89 115 0
75 98 0
81 106 0
82 109 0
86 112 0
91 120 0
83 110 0
74 99 0
89 115 0
86 110 0
84 112 0
74 98 0
79 103 0
87 113 0
79 105 0
81 107 0
92 120 0
86 114 0
84 112 0
91 118 0
82 106 0
83 107 0
91 118 0
83 109 0
80 106 0
87 112 0
72 94 0
86 112 0
92 120 0
90 117 0
89 114 0
95 122 0
92 120 0
80 105 0
90 117 0
83 107 0
78 102 0
74 96 0
85 112 0
82 105 0
91 117 0
81 107 0
82 106 0
81 106 0
79 104 0
79 103 0
87 115 0
88 116 0
83 108 0
87 113 0
74 97 0
91 116 0
88 111 0
90 116 0
83 109 0
88 113 0
83 109 0
86 111 0
87 110 0
83 106 0
82 103 0
84 107 0
90 117 0
78 101 0
80 103 0
76 101 0
88 112 0
89 109 0
85 110 0
93 119 0
84 109 0
84 107 0
74 95 0
83 107 0
90 117 0
85 108 0
81 105 0
91 116 0
84 108 0
87 109 0
92 117 0
84 108 0
89 114 0
85 109 0
94 115 0
84 107 0
87 110 0
83 105 0
82 105 0
88 113 0
83 108 0
82 106 0
91 114 0
87 109 0
95 119 0
85 108 0
87 114 0
88 111 0
90 114 0
90 112 0
82 105 0
90 111 0
86 111 0
94 116 0
88 111 0
85 111 0
85 108 0
80 102 0
83 104 0
90 112 0
84 104 0
90 108 0
84 104 0
88 112 0
81 101 0
84 106 0
88 111 0
90 110 0
94 119 0
79 98 0
86 108 0
94 118 0
89 111 0
93 115 0
90 113 0
88 108 0
79 97 0
88 109 0
96 120 0
85 104 0
80 98 0
91 113 0
92 114 0
89 110 0
86 106 0
87 109 0
87 107 0
82 101 0
94 116 0
79 99 0
77 96 0
87 106 0
87 105 0
82 102 0
83 102 0
87 108 0
91 112 0
89 108 0
87 105 0
88 107 0
96 114 0
81 97 0
88 109 0
85 103 0
90 108 0
80 98 0
91 110 0
85 102 0
92 111 0
83 101 0
95 113 0
85 102 0
96 115 0
90 109 0
97 116 0
88 104 0
91 107 0
89 105 0
81 95 0
91 106 0
83 94 0
91 105 0
84 95 0
94 112 0
90 106 0
80 94 0
92 108 0
96 115 0
91 108 0
82 98 0
89 108 0
91 104 0
82 95 0
95 115 0
90 105 0
87 102 0
83 94 0
80 93 0
101 113 0
94 111 0
96 113 0
90 108 0
93 109 0
92 108 0
82 92 0
94 113 0
96 114 0
97 115 0
97 114 0
89 104 0
84 101 0
98 112 0
89 103 0
84 94 0
90 106 0
94 110 0
98 113 0
90 104 0
95 110 0
93 108 0
94 119 0
100 128 0
97 122 0
96 122 0
97 124 0
102 130 0
99 125 0
94 119 0
100 126 0
97 124 0
98 123 0
100 127 0
98 124 0
105 132 0
100 126 0
96 122 0
100 127 0
99 124 0
91 117 0
99 126 0
96 124 0
91 117 0
97 123 0
100 127 0
96 121 0
95 119 0
101 129 0
98 124 0
98 124 0
98 123 0
89 113 0
97 123 0
93 117 0
93 119 0
93 119 0
93 117 0
93 118 0
91 115 0
103 132 0
93 117 0
95 122 0
93 120 0
96 123 0
95 122 0
92 117 0
99 126 0
93 120 0
97 123 0
95 120 0
97 123 0
92 118 0
101 129 0
92 118 0
87 113 0
98 125 0
90 115 0
92 120 0
99 128 0
87 112 0
95 121 0
87 111 0
91 116 0
89 115 0
92 118 0
84 110 0
102 129 0
98 127 0
96 124 0
96 123 0
86 110 0
93 120 0
90 118 0
90 116 0
95 121 0
97 124 0
98 127 0
85 110 0
87 112 0
95 123 0
86 112 0
88 115 0
88 115 0
98 125 0
93 121 0
93 121 0
87 111 0
95 124 0
90 117 0
92 118 0
93 120 0
92 119 0
94 122 0
91 117 0
84 109 0
83 109 0
92 120 0
87 115 0
86 113 0
93 120 0
97 126 0
91 120 0
90 117 0
88 115 0
92 118 0
83 110 0
92 119 0
89 116 0
88 116 0
88 114 0
89 117 0
99 129 0
85 111 0
88 113 0
94 122 0
91 117 0
88 116 0
89 117 0
92 118 0
90 117 0
87 115 0
95 124 0
89 118 0
88 115 0
84 111 0
86 113 0
79 104 0
94 123 0
90 119 0
85 111 0
89 116 0
92 119 0
86 112 0
84 111 0
89 117 0
79 106 0
78 105 0
91 119 0
89 116 0
90 118 0
88 116 0
85 112 0
83 110 0
87 114 0
79 104 0
95 123 0
90 119 0
86 112 0
86 111 0
88 114 0
89 117 0
92 120 0
85 113 0
84 109 0
93 122 0
91 119 0
80 107 0
80 107 0
81 107 0
88 114 0
83 109 0
81 107 0
82 108 0
78 103 0
89 115 0
83 111 0
88 116 0
90 116 0
77 104 0
86 113 0
84 111 0
93 119 0
88 115 0
81 106 0
85 113 0
85 113 0
87 115 0
85 110 0
85 113 0
84 109 0
87 113 0
85 113 0
82 109 0
77 102 0
83 110 0
74 100 0
86 113 0
83 110 0
82 109 0
81 107 0
96 124 0
75 99 0
86 112 0
98 129 0
82 106 0
89 116 0
78 104 0
82 107 0
81 108 0
70 93 0
87 115 0
82 109 0
79 105 0
84 111 0
81 106 0
74 98 0
83 111 0
83 111 0
80 105 0
78 103 0
81 106 0
88 115 0
81 106 0
77 101 0
87 114 0
82 107 0
79 103 0
90 117 0
86 110 0
75 99 0
82 107 0
80 106 0
86 111 0
75 100 0
64 87 0
77 101 0
82 109 0
83 109 0
82 107 0
84 110 0
91 119 0
77 99 0
85 110 0
88 113 0
83 108 0
76 100 0
92 118 0
96 123 0
86 111 0
77 100 0
83 108 0
88 114 0
81 108 0
83 107 0
81 106 0
84 108 0
87 113 0
80 104 0
76 97 0
80 105 0
74 96 0
85 109 0
87 113 0
82 106 0
80 105 0
91 117 0
75 96 0
85 110 0
82 107 0
89 114 0
79 102 0
92 117 0
91 115 0
90 117 0
83 105 0
88 114 0
90 117 0
89 115 0
90 114 0
85 108 0
84 107 0
91 118 0
83 107 0
84 108 0
88 113 0
93 118 0
84 107 0
84 109 0
79 98 0
89 113 0
82 104 0
87 110 0
79 99 0
84 108 0
85 106 0
88 112 0
92 117 0
96 123 0
88 110 0
78 100 0
86 110 0
87 109 0
88 111 0
84 107 0
84 105 0
85 109 0
92 117 0
82 103 0
76 94 0
88 112 0
84 102 0
81 103 0
87 109 0
93 118 0
85 105 0
83 104 0
93 115 0
92 116 0
85 108 0
85 108 0
88 111 0
84 106 0
79 98 0
90 111 0
91 114 0
88 107 0
86 106 0
91 111 0
79 100 0
85 106 0
93 116 0
97 120 0
80 100 0
94 119 0
84 106 0
75 91 0
95 116 0
79 97 0
93 114 0
91 114 0
88 108 0
84 103 0
91 113 0
90 106 0
90 110 0
84 101 0
86 105 0
92 111 0
93 112 0
90 108 0
77 94 0
85 104 0
84 99 0
87 105 0
91 112 0
87 106 0
93 112 0
80 99 0
95 117 0
93 113 0
91 109 0
95 115 0
81 96 0
88 109 0
83 102 0
83 101 0
78 93 0
87 102 0
96 117 0
88 106 0
80 95 0
90 104 0
93 110 0
95 114 0
98 116 0
92 110 0
95 111 0
91 108 0
94 110 0
94 112 0
86 103 0
96 114 0
96 111 0
90 107 0
93 110 0
89 105 0
95 113 0
91 105 0
94 112 0
87 103 0
90 104 0
94 109 0
89 103 0
84 97 0
91 103 0
90 104 0
87 103 0
96 113 0
94 110 0
88 100 0
99 115 0
95 111 0
97 116 0
93 110 0
89 104 0
94 107 0
89 98 0
92 106 0
92 106 0
94 109 0
100 115 0
94 119 0
94 119 0
102 130 0
95 119 0
102 128 0
101 126 0
96 122 0
91 116 0
95 121 0
101 127 0
105 132 0
102 128 0
94 118 0
94 118 0
94 118 0
88 111 0
95 120 0
94 119 0
105 133 0
98 124 0
92 118 0
93 119 0
101 127 0
90 113 0
95 121 0
95 119 0
94 119 0
101 128 0
106 133 0
100 127 0
90 115 0
88 113 0
103 131 0
97 124 0
94 121 0
99 126 0
96 123 0
94 121 0
94 119 0
94 120 0
94 121 0
88 111 0
95 121 0
104 130 0
95 120 0
92 118 0
99 125 0
93 120 0
90 116 0
96 123 0
93 119 0
93 121 0
90 115 0
85 110 0
90 116 0
96 122 0
90 116 0
95 121 0
89 114 0
98 124 0
91 118 0
85 110 0
98 125 0
99 127 0
91 117 0
90 118 0
93 120 0
93 120 0
97 126 0
85 109 0
92 118 0
94 121 0
93 121 0
90 116 0
101 129 0
93 121 0
88 116 0
90 117 0
83 110 0
96 123 0
102 129 0
90 115 0
81 107 0
96 122 0
92 119 0
87 115 0
89 117 0
90 117 0
87 113 0
88 114 0
93 120 0
94 122 0
93 120 0
86 112 0
83 109 0
87 114 0
93 122 0
81 107 0
90 117 0
92 120 0
90 117 0
79 103 0
85 112 0
91 119 0
81 105 0
90 118 0
95 122 0
85 111 0
93 120 0
94 121 0
104 134 0
95 123 0
78 104 0
78 101 0
99 128 0
89 116 0
86 113 0
92 118 0
89 116 0
98 128 0
89 117 0
84 109 0
92 119 0
84 109 0
89 115 0
83 110 0
90 118 0
83 110 0
84 108 0
86 113 0
82 108 0
88 116 0
90 118 0
83 109 0
81 106 0
91 119 0
89 116 0
92 121 0
89 116 0
85 112 0
85 112 0
88 116 0
89 118 0
87 114 0
86 113 0
92 119 0
88 117 0
82 110 0
82 108 0
87 114 0
80 108 0
84 112 0
80 106 0
87 116 0
83 110 0
84 110 0
91 119 0
87 114 0
88 115 0
85 111 0
85 112 0
78 105 0
80 108 0
83 112 0
89 116 0
91 120 0
91 120 0
86 113 0
81 107 0
86 114 0
90 117 0
88 114 0
77 104 0
88 114 0
86 112 0
88 115 0
80 106 0
86 115 0
81 106 0
81 108 0
80 107 0
89 117 0
77 102 0
85 111 0
84 111 0
90 118 0
78 102 0
86 113 0
80 107 0
88 115 0
89 115 0
75 101 0
87 115 0
90 116 0
86 114 0
84 110 0
85 111 0
84 111 0
86 114 0
86 112 0
81 105 0
77 101 0
86 112 0
89 116 0
83 110 0
98 126 0
84 110 0
84 111 0
83 108 0
79 103 0
82 109 0
83 109 0
85 111 0
77 101 0
82 107 0
87 114 0
81 106 0
86 110 0
80 106 0
93 121 0
83 110 0
84 110 0
75 102 0
85 109 0
82 108 0
84 110 0
79 102 0
89 118 0
86 109 0
82 109 0
87 115 0
83 109 0
84 110 0
89 115 0
86 111 0
90 116 0
81 103 0
90 116 0
76 100 0
85 109 0
78 103 0
83 108 0
90 117 0
79 104 0
81 103 0
91 118 0
78 104 0
81 106 0
91 117 0
77 102 0
82 107 0
86 113 0
84 108 0
86 112 0
92 119 0
91 116 0
83 107 0
83 109 0
90 116 0
90 113 0
87 111 0
85 111 0
85 108 0
84 108 0
89 116 0
85 110 0
89 115 0
89 114 0
91 117 0
90 116 0
85 110 0
82 105 0
88 112 0
77 100 0
90 116 0
83 106 0
84 110 0
87 111 0
95 121 0
95 122 0
89 113 0
78 100 0
90 115 0
85 111 0
90 116 0
80 100 0
91 114 0
90 114 0
95 121 0
96 121 0
83 107 0
94 121 0
82 103 0
79 100 0
75 93 0
85 109 0
87 109 0
87 107 0
90 116 0
84 105 0
88 114 0
96 122 0
89 112 0
93 116 0
91 113 0
84 103 0
90 113 0
93 115 0
84 106 0
92 115 0
95 119 0
81 101 0
95 118 0
86 108 0
86 110 0
90 114 0
84 103 0
88 106 0
82 99 0
88 108 0
95 120 0
82 101 0
83 102 0
97 119 0
90 112 0
84 104 0
96 117 0
93 113 0
80 99 0
91 112 0
88 108 0
84 104 0
82 98 0
96 115 0
89 108 0
90 109 0
94 120 0
87 108 0
97 117 0
82 98 0
80 97 0
91 111 0
83 100 0
88 106 0
87 105 0
86 103 0
85 103 0
95 114 0
92 112 0
93 113 0
89 107 0
87 106 0
95 116 0
95 116 0
85 102 0
90 107 0
82 98 0
88 108 0
91 110 0
94 114 0
87 103 0
90 107 0
88 103 0
93 109 0
91 108 0
90 108 0
85 102 0
88 106 0
93 111 0
93 108 0
86 105 0
91 107 0
92 109 0
92 109 0
89 110 0
88 102 0
90 106 0
89 103 0
92 106 0
100 118 0
97 113 0
102 119 0
95 110 0
97 114 0
92 108 0
90 104 0
94 106 0
87 99 0
90 106 0
94 109 0
86 98 0
93 112 0
90 106 0
97 115 0
96 111 0
86 102 0
92 107 0
94 112 0
81 93 0
101 117 0
98 123 0
96 122 0
99 126 0
104 131 0
99 124 0
100 126 0
106 134 0
103 128 0
96 122 0
96 121 0
97 122 0
93 118 0
98 125 0
97 124 0
94 119 0
99 125 0
94 120 0
97 123 0
94 120 0
99 124 0
97 122 0
96 122 0
94 120 0
94 119 0
98 123 0
90 114 0
97 125 0
97 122 0
102 130 0
93 117 0
95 121 0
101 128 0
95 120 0
99 126 0
89 114 0
100 126 0
95 120 0
95 120 0
88 112 0
94 120 0
91 116 0
99 124 0
91 117 0
83 108 0
98 124 0
93 119 0
92 117 0
96 122 0
94 121 0
93 119 0
94 121 0
95 121 0
94 121 0
99 126 0
90 114 0
96 123 0
95 122 0
92 119 0
87 112 0
101 130 0
91 117 0
96 122 0
96 122 0
98 126 0
97 125 0
93 121 0
92 120 0
91 119 0
97 125 0
88 113 0
94 121 0
100 128 0
95 121 0
87 113 0
92 120 0
89 114 0
82 107 0
91 118 0
96 122 0
88 114 0
92 120 0
86 112 0
94 123 0
92 119 0
95 122 0
89 117 0
93 120 0
99 128 0
88 114 0
89 117 0
96 124 0
92 119 0
93 121 0
90 117 0
90 117 0
94 123 0
86 111 0
92 120 0
88 116 0
84 111 0
94 123 0
83 110 0
83 110 0
96 124 0
87 114 0
84 112 0
92 122 0
93 120 0
90 119 0
86 113 0
94 123 0
82 107 0
92 120 0
87 116 0
85 112 0
93 121 0
94 122 0
92 119 0
88 114 0
82 109 0
96 124 0
86 113 0
88 116 0
96 126 0
92 121 0
86 112 0
90 116 0
87 116 0
85 112 0
94 122 0
89 115 0
97 126 0
94 122 0
86 113 0
92 120 0
82 108 0
87 115 0
90 118 0
96 124 0
85 112 0
91 120 0
81 107 0
86 114 0
84 113 0
88 116 0
86 113 0
86 114 0
89 116 0
85 111 0
94 122 0
86 114 0
90 119 0
81 107 0
73 97 0
90 118 0
85 113 0
77 103 0
73 97 0
87 114 0
90 117 0
84 111 0
84 112 0
86 111 0
86 112 0
88 114 0
79 106 0
88 115 0
90 118 0
96 124 0
85 111 0
83 109 0
89 117 0
74 99 0
84 110 0
86 112 0
90 118 0
81 107 0
84 108 0
81 109 0
78 103 0
90 118 0
83 111 0
79 107 0
88 115 0
86 113 0
91 119 0
89 117 0
88 115 0
82 108 0
72 97 0
80 106 0
82 108 0
83 110 0
84 111 0
88 115 0
89 116 0
87 114 0
84 110 0
89 116 0
77 102 0
92 118 0
89 117 0
84 111 0
82 107 0
88 116 0
75 100 0
82 107 0
76 102 0
88 116 0
85 111 0
84 109 0
81 107 0
89 118 0
86 114 0
90 117 0
89 117 0
86 113 0
82 108 0
82 109 0
88 115 0
81 106 0
76 100 0
88 116 0
87 115 0
86 113 0
82 106 0
94 121 0
77 102 0
84 112 0
83 108 0
82 109 0
76 99 0
88 115 0
84 108 0
96 124 0
96 123 0
68 91 0
78 102 0
82 109 0
77 101 0
86 112 0
79 105 0
84 108 0
87 112 0
81 106 0
80 103 0
91 118 0
95 118 0
91 118 0
87 110 0
79 103 0
81 107 0
78 103 0
90 116 0
87 111 0
86 111 0
85 111 0
83 107 0
89 115 0
87 111 0
81 105 0
81 103 0
90 114 0
86 110 0
81 104 0
89 114 0
83 107 0
96 123 0
82 109 0
86 112 0
85 110 0
82 104 0
82 106 0
88 112 0
91 117 0
80 104 0
85 110 0
89 113 0
94 118 0
83 105 0
91 116 0
93 117 0
90 114 0
82 103 0
86 109 0
88 113 0
89 113 0
81 102 0
96 121 0
92 117 0
72 95 0
91 116 0
87 112 0
89 110 0
86 110 0
85 109 0
91 112 0
92 118 0
90 114 0
89 111 0
91 113 0
87 109 0
82 105 0
86 109 0
88 111 0
93 117 0
87 111 0
90 112 0
89 109 0
82 101 0
90 114 0
90 111 0
81 100 0
91 112 0
77 96 0
82 100 0
84 105 0
88 109 0
86 109 0
91 115 0
87 110 0
93 115 0
90 109 0
85 106 0
89 109 0
82 99 0
80 100 0
83 103 0
81 101 0
78 96 0
84 102 0
86 108 0
81 101 0
98 120 0
95 118 0
86 106 0
95 119 0
87 106 0
88 108 0
88 107 0
90 109 0
96 116 0
89 110 0
79 98 0
92 111 0
90 107 0
77 91 0
92 112 0
87 106 0
83 99 0
87 105 0
90 108 0
86 105 0
84 102 0
92 114 0
87 108 0
93 112 0
82 98 0
91 106 0
88 104 0
96 115 0
96 116 0
89 105 0
84 103 0
89 107 0
86 105 0
83 97 0
98 114 0
90 103 0
91 110 0
82 98 0
90 106 0
96 113 0
102 120 0
83 97 0
93 113 0
87 102 0
90 107 0
85 100 0
90 107 0
94 109 0
87 99 0
82 95 0
84 98 0
93 108 0
99 119 0
92 109 0
95 113 0
100 119 0
91 105 0
86 100 0
96 113 0
90 108 0
96 116 0
91 108 0
89 103 0
94 108 0
90 104 0
94 107 0
87 103 0
100 126 0
102 130 0
96 121 0
98 123 0
95 121 0
100 127 0
100 127 0
100 128 0
106 135 0
99 126 0
101 126 0
96 122 0
99 124 0
97 122 0
99 124 0
96 121 0
92 118 0
100 125 0
97 124 0
97 121 0
100 127 0
99 125 0
98 123 0
101 128 0
104 132 0
101 129 0
97 123 0
99 128 0
94 119 0
94 121 0
89 115 0
94 120 0
94 118 0
99 127 0
88 112 0
88 114 0
96 121 0
96 122 0
95 123 0
87 113 0
94 121 0
98 126 0
98 125 0
94 120 0
94 120 0
94 122 0
95 120 0
88 113 0
92 117 0
97 123 0
93 121 0
91 118 0
93 119 0
87 111 0
95 122 0
90 115 0
89 113 0
92 119 0
92 118 0
91 118 0
86 112 0
94 121 0
99 128 0
88 114 0
94 120 0
102 131 0
95 123 0
96 123 0
95 121 0
96 122 0
94 120 0
95 120 0
94 120 0
85 111 0
97 125 0
97 124 0
91 117 0
88 114 0
91 119 0
99 129 0
92 119 0
91 120 0
84 111 0
95 123 0
82 106 0
74 98 0
85 109 0
84 109 0
90 117 0
89 116 0
91 117 0
91 119 0
85 110 0
93 121 0
103 132 0
101 130 0
94 123 0
97 126 0
89 116 0
82 109 0
91 118 0
97 126 0
89 116 0
95 125 0
89 115 0
89 117 0
91 119 0
90 118 0
87 114 0
91 119 0
95 124 0
93 121 0
90 117 0
89 116 0
88 116 0
89 116 0
87 116 0
88 115 0
88 115 0
91 118 0
89 116 0
87 114 0
91 119 0
100 130 0
90 116 0
94 123 0
82 108 0
91 119 0
97 126 0
80 106 0
83 110 0
88 116 0
93 121 0
81 106 0
79 106 0
92 119 0
90 119 0
79 105 0
86 114 0
83 110 0
85 112 0
89 116 0
92 121 0
90 119 0
90 118 0
87 115 0
81 107 0
90 117 0
85 111 0
91 118 0
82 109 0
84 110 0
81 109 0
88 115 0
93 121 0
83 109 0
78 103 0
84 111 0
89 117 0
83 109 0
84 111 0
89 117 0
90 117 0
82 108 0
89 116 0
91 121 0
91 121 0
91 118 0
94 122 0
93 120 0
87 114 0
87 114 0
94 120 0
86 114 0
84 110 0
80 106 0
93 121 0
90 117 0
86 114 0
89 117 0
82 108 0
81 108 0
85 113 0
83 110 0
84 111 0
83 107 0
90 118 0
91 118 0
87 114 0
82 108 0
80 105 0
85 110 0
90 116 0
79 106 0
89 117 0
79 105 0
83 110 0
88 115 0
85 114 0
93 120 0
91 119 0
81 107 0
83 108 0
73 95 0
87 115 0
85 111 0
87 115 0
81 107 0
88 116 0
88 115 0
90 117 0
79 103 0
71 94 0
83 110 0
84 109 0
80 105 0
81 105 0
82 107 0
92 120 0
82 109 0
87 112 0
86 111 0
79 103 0
88 115 0
84 111 0
80 106 0
84 109 0
80 102 0
79 103 0
84 111 0
87 114 0
78 103 0
86 110 0
80 106 0
88 114 0
84 109 0
83 108 0
90 118 0
81 106 0
83 106 0
85 111 0
94 120 0
80 103 0
78 105 0
92 120 0
95 121 0
75 99 0
92 119 0
84 110 0
81 106 0
82 108 0
89 114 0
74 99 0
87 114 0
79 102 0
89 114 0
82 106 0
82 104 0
87 111 0
85 111 0
70 95 0
83 108 0
96 124 0
90 116 0
89 112 0
86 110 0
89 116 0
85 109 0
92 118 0
83 108 0
89 115 0
82 105 0
92 119 0
87 109 0
74 95 0
89 111 0
80 104 0
94 119 0
79 101 0
90 114 0
92 118 0
91 113 0
89 114 0
85 108 0
88 114 0
86 108 0
83 108 0
96 122 0
88 111 0
85 107 0
84 106 0
80 102 0
91 116 0
83 105 0
88 111 0
94 118 0
95 120 0
93 117 0
82 105 0
92 119 0
91 116 0
89 111 0
88 110 0
88 110 0
83 104 0
81 103 0
84 105 0
78 98 0
85 107 0
94 116 0
87 110 0
88 108 0
85 106 0
89 110 0
94 116 0
88 108 0
91 112 0
92 114 0
84 105 0
89 110 0
93 113 0
89 114 0
81 102 0
80 102 0
81 98 0
81 99 0
85 104 0
91 110 0
88 109 0
89 112 0
85 104 0
89 109 0
79 95 0
93 115 0
92 111 0
87 105 0
89 109 0
98 120 0
94 117 0
86 106 0
89 106 0
89 110 0
85 104 0
94 114 0
83 101 0
89 110 0
92 114 0
87 105 0
85 104 0
88 106 0
85 103 0
86 104 0
93 114 0
92 111 0
85 102 0
85 102 0
92 110 0
88 108 0
81 94 0
96 116 0
95 113 0
83 99 0
95 113 0
88 105 0
94 114 0
93 113 0
92 108 0
98 120 0
91 108 0
82 95 0
92 110 0
93 108 0
97 115 0
87 105 0
96 114 0
96 113 0
85 99 0
92 108 0
95 113 0
93 108 0
95 112 0
88 105 0
89 105 0
93 110 0
99 115 0
94 113 0
82 97 0
88 102 0
94 107 0
86 101 0
93 108 0
93 111 0
97 116 0
84 102 0
87 102 0
92 105 0
97 113 0
91 107 0
96 115 0
94 109 0
103 132 0
97 124 0
101 128 0
99 125 0
103 130 0
99 125 0
96 121 0
99 125 0
96 122 0
96 123 0
106 134 0
98 124 0
101 126 0
96 122 0
95 120 0
90 115 0
97 123 0
102 130 0
96 123 0
98 124 0
98 125 0
98 125 0
104 131 0
98 125 0
101 128 0
91 116 0
98 125 0
89 114 0
98 125 0
95 120 0
92 116 0
96 121 0
93 119 0
92 118 0
91 117 0
89 116 0
94 119 0
90 114 0
93 120 0
89 116 0
91 117 0
92 118 0
97 123 0
95 122 0
95 123 0
95 121 0
96 123 0
92 119 0
93 121 0
92 117 0
94 120 0
90 117 0
96 123 0
91 117 0
92 119 0
96 123 0
99 127 0
92 120 0
95 121 0
95 124 0
89 116 0
93 121 0
93 118 0
92 119 0
96 125 0
91 120 0
99 129 0
89 115 0
93 120 0
92 120 0
90 116 0
96 124 0
82 108 0
94 121 0
94 122 0
95 122 0
87 113 0
97 125 0
97 124 0
93 120 0
91 117 0
93 120 0
75 99 0
93 121 0
92 117 0
83 108 0
92 121 0
90 118 0
91 118 0
90 117 0
90 119 0
89 118 0
94 120 0
93 121 0
95 122 0
87 114 0
87 114 0
91 120 0
92 119 0
93 120 0
96 126 0
88 115 0
83 109 0
84 110 0
98 127 0
92 120 0
89 116 0
87 114 0
89 116 0
91 119 0
91 119 0
95 124 0
91 119 0
92 119 0
91 117 0
81 107 0
88 115 0
95 125 0
87 116 0
94 123 0
100 130 0
84 111 0
86 113 0
91 120 0
92 121 0
83 110 0
91 118 0
85 112 0
90 116 0
91 119 0
83 108 0
92 120 0
85 112 0
100 128 0
93 119 0
89 116 0
83 110 0
87 115 0
89 116 0
85 112 0
90 116 0
86 114 0
88 115 0
88 113 0
82 109 0
86 114 0
86 114 0
87 116 0
90 118 0
88 114 0
85 113 0
86 114 0
88 117 0
82 108 0
91 117 0
87 116 0
91 121 0
80 107 0
90 118 0
93 121 0
95 123 0
89 116 0
79 106 0
89 116 0
88 115 0
92 119 0
86 114 0
90 118 0
84 112 0
83 110 0
90 118 0
87 116 0
92 120 0
94 121 0
88 116 0
85 112 0
91 119 0
81 106 0
75 100 0
87 114 0
80 104 0
90 118 0
80 106 0
83 109 0
85 112 0
89 119 0
76 102 0
94 123 0
89 116 0
90 118 0
90 118 0
86 113 0
75 98 0
88 115 0
90 117 0
78 103 0
82 108 0
73 98 0
98 127 0
83 108 0
84 111 0
92 117 0
86 110 0
75 100 0
78 103 0
88 116 0
79 105 0
80 105 0
90 117 0
81 107 0
87 113 0
83 109 0
87 116 0
79 104 0
87 113 0
92 120 0
83 109 0
87 113 0
86 114 0
89 115 0
91 119 0
90 116 0
83 110 0
88 115 0
75 98 0
83 110 0
88 113 0
88 114 0
80 106 0
89 118 0
95 122 0
80 106 0
85 110 0
89 115 0
89 115 0
91 117 0
72 96 0
90 115 0
89 114 0
91 119 0
88 116 0
83 109 0
87 114 0
88 114 0
74 95 0
87 112 0
86 112 0
84 109 0
89 117 0
92 118 0
87 111 0
85 108 0
85 113 0
85 108 0
79 103 0
90 116 0
91 118 0
80 104 0
82 107 0
93 118 0
89 114 0
88 112 0
78 103 0
90 116 0
91 117 0
83 107 0
80 105 0
95 122 0
87 107 0
89 114 0
87 111 0
81 104 0
89 114 0
90 116 0
87 112 0
93 118 0
91 117 0
84 108 0
95 120 0
90 116 0
84 107 0
95 121 0
84 107 0
93 119 0
90 114 0
88 114 0
84 106 0
88 113 0
90 114 0
79 105 0
90 116 0
91 117 0
82 102 0
85 104 0
90 117 0
97 123 0
74 94 0
80 99 0
87 108 0
82 105 0
96 120 0
90 113 0
82 105 0
87 109 0
87 110 0
89 111 0
88 112 0
87 110 0
79 100 0
89 111 0
96 119 0
92 114 0
85 106 0
93 118 0
88 112 0
81 101 0
94 121 0
87 110 0
83 104 0
90 112 0
89 110 0
96 119 0
86 108 0
88 109 0
85 104 0
101 127 0
87 108 0
88 111 0
84 105 0
83 105 0
95 116 0
88 110 0
85 105 0
91 112 0
90 108 0
99 124 0
93 117 0
95 118 0
89 109 0
86 106 0
89 107 0
83 102 0
90 107 0
92 110 0
96 118 0
87 105 0
91 108 0
92 113 0
89 112 0
85 101 0
92 112 0
84 101 0
98 122 0
99 119 0
90 108 0
86 103 0
91 106 0
90 107 0
88 106 0
94 112 0
86 102 0
99 117 0
83 98 0
88 106 0
95 115 0
92 109 0
92 111 0
97 115 0
90 106 0
93 108 0
83 100 0
91 107 0
95 111 0
90 106 0
95 113 0
93 109 0
93 111 0
99 115 0
93 110 0
82 98 0
91 107 0
93 110 0
93 108 0
100 119 0
83 99 0
83 101 0
93 110 0
98 118 0
85 102 0
88 103 0
88 106 0
87 103 0
92 108 0
91 105 0
91 107 0
91 107 0
94 107 0
101 122 0
94 112 0
93 109 0
90 114 0
100 126 0
93 118 0
101 128 0
104 131 0
99 125 0
97 123 0
102 129 0
94 119 0
93 118 0
99 125 0
93 120 0
98 124 0
98 124 0
101 129 0
93 117 0
97 124 0
99 126 0
99 125 0
95 122 0
94 120 0
91 116 0
106 135 0
99 125 0
102 130 0
98 124 0
100 127 0
92 117 0
92 119 0
91 118 0
96 125 0
93 118 0
98 127 0
91 117 0
95 122 0
93 120 0
93 118 0
93 119 0
100 127 0
93 119 0
93 121 0
93 119 0
99 128 0
94 120 0
90 115 0
102 129 0
93 119 0
89 116 0
91 117 0
97 124 0
96 123 0
97 125 0
87 113 0
90 117 0
92 119 0
91 116 0
98 126 0
95 122 0
88 115 0
96 125 0
91 117 0
88 115 0
95 123 0
94 122 0
89 116 0
95 123 0
85 112 0
95 123 0
95 122 0
95 122 0
99 128 0
94 123 0
93 120 0
91 118 0
94 123 0
87 114 0
95 123 0
92 119 0
87 112 0
99 128 0
97 125 0
96 125 0
92 121 0
95 123 0
89 115 0
92 120 0
98 125 0
86 113 0
91 120 0
91 119 0
90 118 0
89 115 0
89 117 0
93 121 0
93 119 0
90 117 0
88 115 0
91 120 0
90 118 0
90 116 0
89 117 0
87 114 0
97 125 0
92 121 0
93 122 0
89 115 0
96 123 0
90 118 0
84 109 0
88 114 0
94 123 0
83 110 0
95 124 0
92 120 0
90 117 0
95 124 0
86 114 0
93 120 0
90 118 0
93 121 0
84 111 0
97 125 0
89 118 0
91 119 0
97 127 0
93 123 0
91 119 0
82 107 0
98 128 0
87 114 0
93 123 0
84 110 0
89 116 0
84 111 0
83 111 0
85 112 0
88 114 0
89 116 0
84 111 0
97 126 0
86 114 0
95 123 0
90 118 0
92 120 0
89 116 0
90 119 0
90 117 0
91 118 0
93 120 0
86 114 0
86 113 0
93 119 0
84 110 0
83 110 0
90 118 0
89 117 0
81 107 0
84 111 0
90 117 0
86 113 0
82 108 0
97 126 0
85 111 0
91 120 0
85 111 0
86 115 0
86 113 0
79 106 0
88 116 0
78 103 0
78 105 0
88 114 0
87 113 0
86 114 0
93 120 0
91 119 0
91 118 0
92 121 0
82 108 0
82 108 0
90 119 0
86 114 0
89 116 0
88 115 0
90 117 0
80 105 0
84 109 0
80 106 0
83 111 0
80 106 0
79 103 0
82 107 0
83 110 0
85 112 0
85 112 0
88 115 0
82 108 0
84 110 0
80 105 0
83 109 0
89 115 0
85 113 0
96 123 0
88 115 0
82 108 0
87 113 0
95 124 0
88 115 0
89 115 0
90 117 0
86 113 0
89 115 0
84 111 0
82 107 0
87 112 0
83 109 0
89 116 0
81 106 0
77 100 0
77 102 0
75 100 0
90 120 0
91 119 0
78 103 0
94 121 0
93 122 0
87 113 0
84 108 0
69 93 0
84 109 0
95 123 0
90 116 0
78 100 0
83 108 0
89 115 0
91 118 0
87 114 0
91 118 0
94 121 0
73 97 0
90 118 0
90 118 0
89 114 0
80 104 0
87 113 0
89 115 0
85 108 0
84 109 0
85 112 0
91 118 0
89 116 0
88 114 0
89 116 0
88 111 0
88 115 0
87 113 0
87 110 0
84 109 0
90 117 0
88 115 0
90 118 0
87 112 0
89 114 0
90 116 0
93 122 0
87 113 0
86 110 0
84 106 0
93 119 0
82 105 0
81 105 0
95 122 0
91 117 0
88 111 0
88 113 0
91 118 0
87 111 0
96 120 0
86 109 0
92 116 0
85 110 0
85 110 0
91 117 0
86 110 0
96 122 0
80 101 0
98 125 0
95 120 0
80 104 0
90 114 0
86 106 0
82 105 0
84 107 0
88 112 0
88 111 0
88 110 0
82 103 0
93 118 0
92 117 0
86 108 0
83 106 0
85 109 0
82 104 0
91 116 0
84 106 0
90 112 0
87 111 0
88 111 0
92 116 0
87 110 0
83 106 0
87 111 0
95 120 0
79 100 0
92 116 0
90 111 0
91 110 0
90 110 0
84 103 0
84 105 0
94 116 0
88 112 0
80 100 0
85 106 0
87 106 0
84 108 0
98 122 0
91 113 0
87 109 0
96 119 0
91 113 0
90 112 0
89 109 0
89 108 0
91 116 0
85 106 0
93 118 0
91 111 0
93 114 0
84 102 0
90 113 0
81 97 0
88 111 0
80 97 0
86 107 0
96 116 0
88 108 0
94 116 0
94 112 0
87 107 0
82 99 0
88 106 0
89 110 0
84 103 0
89 106 0
88 108 0
95 113 0
95 113 0
88 106 0
91 110 0
85 103 0
90 109 0
90 109 0
96 113 0
87 106 0
92 109 0
95 115 0
90 111 0
95 113 0
92 109 0
87 101 0
92 110 0
95 111 0
95 114 0
90 109 0
98 117 0
94 110 0
90 105 0
94 114 0
87 98 0
91 108 0
92 107 0
94 110 0
95 116 0
92 110 0
96 116 0
91 108 0
89 106 0
87 100 0
97 118 0
93 108 0
92 109 0
88 106 0
96 115 0
96 114 0
89 108 0
90 106 0
96 113 0
100 119 0
95 109 0
96 121 0
100 126 0
101 128 0
100 126 0
99 125 0
98 125 0
100 128 0
97 123 0
100 126 0
97 124 0
95 122 0
100 127 0
99 127 0
100 127 0
99 126 0
96 122 0
97 124 0
107 136 0
99 127 0
98 126 0
99 126 0
100 127 0
101 128 0
102 128 0
95 121 0
90 117 0
97 123 0
92 118 0
98 124 0
93 118 0
99 125 0
99 126 0
91 116 0
97 124 0
97 124 0
96 124 0
100 128 0
93 119 0
96 122 0
94 121 0
92 119 0
90 117 0
99 125 0
106 133 0
98 126 0
96 123 0
93 120 0
97 124 0
94 120 0
91 117 0
90 117 0
99 127 0
100 129 0
91 118 0
93 119 0
92 119 0
92 120 0
96 124 0
95 122 0
96 123 0
92 117 0
89 116 0
97 125 0
96 124 0
92 120 0
94 121 0
95 121 0
100 129 0
93 119 0
92 119 0
94 121 0
92 120 0
95 122 0
91 116 0
102 132 0
88 114 0
94 122 0
92 120 0
89 115 0
90 118 0
87 114 0
88 115 0
86 111 0
95 122 0
91 119 0
94 122 0
101 131 0
94 121 0
93 120 0
90 116 0
92 122 0
93 122 0
95 123 0
94 123 0
94 122 0
89 117 0
90 117 0
100 129 0
94 122 0
93 122 0
86 113 0
89 116 0
88 115 0
95 122 0
90 118 0
87 115 0
93 120 0
81 105 0
89 115 0
90 118 0
94 123 0
87 115 0
90 117 0
94 121 0
86 112 0
91 119 0
87 111 0
83 110 0
93 121 0
93 121 0
91 119 0
94 121 0
90 118 0
89 116 0
95 123 0
92 120 0
95 123 0
90 118 0
87 114 0
87 115 0
95 124 0
90 119 0
94 121 0
86 114 0
90 118 0
86 114 0
81 107 0
93 122 0
96 122 0
84 110 0
80 105 0
92 120 0
91 117 0
86 115 0
96 124 0
83 108 0
92 118 0
94 124 0
89 116 0
96 125 0
90 117 0
96 127 0
86 113 0
93 123 0
78 103 0
80 108 0
86 113 0
78 103 0
90 117 0
86 114 0
84 110 0
89 118 0
84 110 0
88 117 0
81 105 0
81 107 0
85 112 0
88 117 0
89 116 0
92 120 0
89 116 0
91 118 0
77 102 0
80 105 0
88 117 0
93 121 0
89 116 0
84 110 0
89 117 0
88 115 0
95 123 0
84 110 0
81 108 0
84 112 0
88 114 0
87 113 0
79 104 0
78 104 0
88 114 0
79 105 0
80 107 0
79 106 0
90 118 0
81 107 0
92 119 0
78 105 0
84 111 0
80 106 0
81 108 0
80 104 0
85 111 0
90 117 0
88 117 0
85 113 0
87 115 0
87 113 0
83 108 0
87 113 0
84 109 0
79 104 0
89 118 0
83 111 0
91 120 0
81 107 0
93 120 0
88 114 0
96 125 0
82 109 0
87 112 0
95 123 0
88 115 0
83 107 0
93 120 0
85 112 0
85 111 0
84 110 0
81 107 0
82 107 0
87 112 0
87 115 0
87 113 0
86 112 0
86 112 0
88 114 0
87 113 0
85 112 0
79 104 0
81 108 0
93 121 0
83 107 0
78 104 0
93 120 0
84 109 0
91 118 0
88 114 0
85 111 0
90 114 0
87 113 0
86 111 0
89 115 0
86 110 0
90 119 0
84 111 0
90 117 0
91 118 0
91 117 0
89 116 0
85 108 0
85 108 0
77 100 0
85 111 0
90 117 0
90 116 0
87 109 0
93 119 0
93 119 0
88 115 0
90 114 0
93 117 0
89 118 0
93 121 0
101 128 0
89 113 0
98 125 0
92 117 0
88 114 0
94 120 0
90 115 0
88 114 0
93 119 0
92 117 0
87 113 0
85 109 0
98 124 0
88 113 0
87 112 0
81 104 0
82 105 0
87 109 0
98 123 0
88 111 0
86 111 0
85 107 0
89 110 0
99 125 0
87 112 0
88 113 0
97 122 0
83 107 0
88 112 0
80 100 0
88 111 0
92 112 0
98 124 0
85 105 0
96 123 0
90 112 0
82 106 0
89 114 0
88 110 0
85 108 0
89 111 0
96 120 0
92 115 0
86 108 0
88 108 0
94 119 0
88 110 0
89 112 0
94 118 0
88 111 0
89 112 0
88 111 0
93 115 0
93 113 0
90 114 0
81 99 0
86 108 0
94 115 0
93 114 0
90 109 0
88 109 0
92 115 0
87 107 0
86 105 0
96 119 0
94 115 0
90 109 0
95 117 0
86 104 0
82 101 0
101 126 0
86 106 0
79 97 0
96 118 0
87 106 0
90 109 0
83 102 0
93 115 0
88 110 0
93 113 0
86 102 0
97 117 0
84 103 0
93 114 0
90 113 0
98 118 0
89 106 0
99 118 0
85 104 0
97 116 0
91 107 0
87 105 0
95 113 0
85 105 0
94 111 0
89 109 0
97 115 0
82 99 0
100 119 0
86 104 0
97 119 0
99 119 0
93 108 0
83 99 0
94 112 0
90 108 0
95 116 0
89 107 0
90 110 0
87 104 0
84 100 0
91 106 0
95 113 0
91 105 0
98 115 0
89 108 0
96 115 0
94 111 0
87 105 0
92 111 0
97 119 0
93 110 0
93 109 0
92 106 0
95 113 0
93 110 0
95 114 0
91 110 0
92 105 0
97 123 0
97 124 0
98 126 0
95 121 0
101 129 0
100 127 0
97 122 0
101 128 0
103 131 0
93 117 0
104 132 0
95 119 0
96 122 0
97 124 0
101 128 0
96 123 0
97 125 0
99 127 0
99 127 0
100 126 0
102 129 0
91 118 0
97 124 0
91 117 0
100 127 0
99 125 0
97 123 0
96 124 0
89 116 0
95 121 0
96 123 0
100 126 0
96 125 0
97 126 0
101 130 0
95 124 0
94 119 0
95 124 0
88 115 0
91 117 0
96 122 0
94 120 0
98 127 0
96 124 0
100 127 0
97 124 0
102 130 0
97 125 0
95 122 0
91 118 0
93 121 0
95 123 0
88 114 0
90 117 0
96 126 0
93 120 0
91 117 0
95 123 0
96 124 0
92 119 0
98 126 0
94 122 0
91 118 0
91 118 0
92 118 0
93 121 0
88 116 0
96 125 0
93 120 0
97 126 0
82 107 0
91 119 0
93 120 0
91 119 0
90 117 0
95 121 0
88 114 0
92 118 0
96 125 0
91 119 0
96 125 0
96 125 0
90 115 0
94 122 0
92 119 0
86 113 0
84 109 0
101 130 0
90 117 0
93 121 0
93 121 0
85 112 0
88 115 0
92 120 0
90 117 0
87 114 0
91 118 0
95 123 0
89 117 0
96 126 0
91 121 0
85 113 0
85 111 0
92 119 0
97 125 0
98 127 0
88 115 0
88 115 0
98 126 0
83 108 0
93 120 0
91 118 0
86 111 0
82 109 0
95 125 0
101 131 0
92 120 0
92 120 0
102 132 0
87 114 0
93 120 0
86 113 0
83 110 0
96 124 0
88 115 0
85 112 0
93 122 0
90 117 0
88 117 0
93 121 0
87 114 0
91 120 0
88 114 0
84 112 0
91 119 0
96 125 0
87 115 0
84 110 0
88 117 0
97 128 0
86 112 0
93 123 0
95 125 0
91 119 0
93 122 0
93 122 0
80 107 0
91 118 0
91 121 0
87 115 0
90 119 0
89 117 0
87 113 0
84 110 0
85 114 0
92 120 0
95 124 0
82 109 0
93 121 0
96 125 0
90 118 0
81 107 0
91 119 0
86 112 0
87 116 0
101 130 0
90 116 0
87 114 0
87 113 0
93 119 0
94 123 0
91 119 0
78 103 0
88 116 0
88 115 0
82 107 0
92 121 0
84 111 0
84 110 0
94 123 0
88 115 0
93 121 0
90 117 0
81 106 0
82 109 0
87 115 0
92 121 0
84 112 0
92 121 0
81 107 0
89 116 0
90 117 0
78 102 0
89 117 0
88 117 0
91 118 0
92 120 0
81 107 0
89 116 0
95 124 0
89 117 0
91 120 0
86 114 0
99 129 0
75 99 0
92 121 0
87 114 0
75 99 0
80 106 0
75 100 0
95 124 0
82 108 0
86 111 0
87 111 0
83 109 0
86 114 0
87 114 0
85 111 0
85 112 0
92 117 0
85 112 0
87 112 0
89 116 0
86 110 0
88 113 0
84 110 0
83 110 0
96 125 0
90 116 0
88 114 0
91 119 0
81 104 0
89 118 0
83 110 0
91 117 0
82 107 0
85 110 0
93 121 0
85 112 0
88 112 0
88 116 0
84 109 0
87 113 0
88 112 0
93 120 0
90 117 0
82 106 0
83 109 0
93 120 0
88 115 0
87 112 0
83 108 0
83 109 0
87 114 0
85 109 0
85 111 0
89 116 0
81 103 0
94 121 0
86 112 0
86 112 0
80 104 0
80 104 0
86 113 0
88 114 0
88 113 0
88 113 0
80 105 0
87 114 0
92 117 0
87 109 0
91 119 0
98 125 0
88 112 0
83 108 0
89 111 0
93 118 0
91 114 0
95 122 0
80 104 0
94 118 0
90 113 0
89 112 0
88 113 0
83 107 0
89 114 0
84 106 0
85 109 0
90 117 0
84 108 0
90 114 0
87 110 0
86 109 0
97 123 0
87 112 0
101 129 0
91 116 0
87 111 0
90 115 0
86 110 0
96 121 0
94 119 0
87 111 0
91 117 0
95 120 0
88 112 0
97 124 0
95 119 0
87 111 0
91 115 0
93 114 0
96 123 0
83 105 0
93 120 0
96 121 0
92 117 0
84 108 0
95 120 0
90 113 0
88 107 0
89 113 0
94 117 0
93 118 0
97 122 0
92 112 0
82 102 0
93 116 0
84 105 0
90 111 0
98 123 0
92 113 0
90 111 0
97 117 0
92 112 0
95 118 0
86 108 0
94 115 0
94 117 0
89 110 0
85 106 0
89 110 0
91 110 0
95 116 0
94 118 0
89 110 0
97 118 0
95 115 0
87 107 0
89 111 0
86 106 0
98 122 0
99 121 0
81 98 0
99 120 0
88 107 0
91 111 0
95 117 0
90 108 0
93 113 0
88 107 0
91 109 0
98 117 0
100 121 0
93 114 0
94 115 0
91 108 0
88 104 0
93 113 0
81 96 0
99 121 0
95 113 0
95 114 0
96 113 0
85 103 0
97 114 0
91 109 0
92 111 0
90 110 0
90 109 0
86 103 0
96 114 0
91 112 0
97 116 0
95 112 0
97 117 0
87 104 0
103 123 0
92 109 0
92 109 0
90 105 0
100 119 0
95 111 0
100 119 0
88 107 0
90 106 0
94 112 0
90 106 0
95 115 0
92 112 0
96 110 0
95 121 0
104 132 0
100 126 0
95 121 0
98 125 0
94 121 0
90 115 0
99 127 0
99 125 0
98 126 0
94 119 0
96 122 0
96 123 0
96 122 0
95 120 0
100 127 0
97 124 0
97 123 0
99 128 0
97 124 0
92 118 0
96 124 0
101 128 0
97 124 0
97 123 0
91 117 0
92 118 0
102 129 0
97 124 0
96 124 0
101 127 0
96 122 0
91 118 0
91 116 0
94 120 0
88 113 0
98 126 0
94 120 0
94 123 0
99 125 0
90 114 0
94 121 0
93 120 0
93 119 0
90 116 0
101 128 0
100 128 0
97 126 0
94 122 0
101 129 0
92 118 0
89 116 0
87 114 0
91 117 0
87 113 0
94 121 0
98 127 0
91 118 0
89 115 0
96 124 0
94 122 0
90 115 0
96 124 0
90 116 0
103 133 0
95 124 0
93 121 0
94 121 0
99 128 0
91 117 0
95 122 0
85 111 0
96 124 0
92 119 0
92 119 0
100 128 0
96 125 0
100 129 0
97 126 0
88 115 0
92 119 0
91 120 0
89 116 0
97 128 0
90 118 0
89 116 0
90 117 0
89 117 0
95 123 0
89 117 0
97 126 0
95 123 0
94 122 0
89 116 0
97 127 0
92 122 0
98 129 0
98 127 0
92 119 0
91 119 0
92 119 0
88 116 0
89 115 0
94 123 0
94 122 0
96 125 0
96 124 0
90 116 0
99 129 0
95 124 0
90 118 0
89 116 0
86 114 0
90 116 0
97 126 0
86 114 0
98 126 0
90 117 0
79 105 0
92 120 0
90 118 0
87 116 0
82 108 0
89 119 0
89 116 0
82 108 0
91 118 0
92 120 0
92 120 0
95 124 0
92 119 0
96 125 0
89 116 0
92 122 0
87 115 0
91 118 0
80 107 0
80 105 0
96 124 0
82 109 0
91 117 0
96 126 0
90 118 0
91 119 0
91 118 0
90 118 0
89 118 0
87 115 0
93 123 0
87 114 0
93 123 0
81 107 0
92 120 0
89 117 0
87 115 0
89 117 0
96 126 0
89 117 0
94 122 0
91 118 0
92 119 0
93 122 0
82 109 0
89 116 0
88 116 0
80 107 0
78 104 0
84 112 0
94 123 0
87 114 0
89 117 0
90 117 0
92 122 0
84 110 0
90 118 0
91 119 0
86 113 0
91 119 0
86 112 0
88 115 0
85 112 0
92 118 0
81 106 0
93 118 0
86 113 0
88 116 0
88 116 0
84 111 0
86 112 0
93 122 0
81 106 0
94 123 0
89 115 0
87 114 0
85 111 0
87 115 0
83 111 0
80 105 0
85 113 0
79 103 0
86 115 0
91 120 0
89 117 0
98 125 0
91 118 0
91 120 0
86 113 0
83 109 0
87 114 0
83 108 0
91 119 0
94 122 0
96 125 0
88 115 0
84 112 0
92 120 0
91 118 0
88 115 0
96 126 0
84 111 0
94 122 0
72 95 0
83 110 0
82 106 0
97 125 0
90 115 0
92 121 0
78 102 0
85 113 0
89 115 0
94 120 0
90 118 0
86 112 0
88 115 0
94 121 0
86 111 0
95 124 0
87 111 0
88 114 0
92 118 0
85 111 0
84 110 0
96 124 0
95 122 0
84 110 0
83 108 0
85 109 0
79 103 0
93 121 0
75 98 0
87 113 0
84 108 0
85 111 0
93 121 0
85 109 0
82 106 0
84 108 0
94 119 0
80 106 0
87 114 0
76 99 0
87 112 0
91 115 0
88 113 0
94 120 0
92 118 0
88 113 0
92 119 0
78 102 0
86 112 0
80 103 0
93 120 0
92 119 0
81 106 0
91 118 0
92 119 0
93 119 0
92 119 0
94 121 0
98 125 0
86 111 0
91 114 0
87 112 0
86 110 0
91 119 0
83 106 0
90 116 0
98 125 0
90 115 0
85 110 0
88 111 0
86 110 0
91 116 0
94 118 0
87 110 0
91 117 0
91 116 0
93 117 0
91 116 0
84 106 0
94 120 0
88 112 0
82 107 0
80 101 0
95 121 0
89 114 0
89 114 0
89 113 0
89 113 0
96 124 0
88 109 0
94 115 0
89 110 0
92 115 0
88 108 0
92 116 0
93 116 0
91 116 0
91 114 0
85 108 0
88 111 0
90 112 0
91 114 0
88 110 0
94 118 0
94 117 0
77 95 0
92 115 0
94 117 0
91 115 0
93 115 0
97 121 0
90 110 0
95 113 0
90 113 0
88 112 0
91 115 0
91 113 0
85 107 0
87 107 0
88 109 0
91 113 0
93 115 0
86 109 0
83 102 0
91 113 0
90 111 0
91 111 0
94 113 0
95 117 0
92 113 0
86 103 0
95 117 0
88 107 0
90 110 0
95 116 0
97 119 0
87 106 0
92 113 0
91 110 0
88 105 0
93 111 0
91 111 0
94 114 0
95 115 0
92 113 0
89 106 0
94 111 0
87 107 0
93 110 0
90 108 0
85 101 0
89 107 0
91 108 0
81 98 0
99 121 0
105 127 0
92 110 0
93 111 0
92 110 0
96 115 0
101 122 0
93 112 0
97 119 0
90 105 0
92 110 0
96 113 0
84 99 0
98 117 0
89 105 0
94 113 0
89 105 0
83 99 0
95 111 0
90 109 0
99 116 0
93 110 0
93 114 0
91 111 0
97 115 0
98 124 0
99 124 0
97 123 0
95 121 0
99 124 0
98 126 0
94 121 0
99 126 0
105 134 0
99 127 0
96 122 0
101 129 0
101 128 0
98 125 0
94 122 0
97 123 0
95 123 0
98 125 0
99 126 0
102 130 0
96 122 0
92 118 0
97 124 0
104 134 0
93 118 0
103 132 0
94 121 0
103 131 0
88 113 0
96 124 0
96 123 0
98 125 0
98 126 0
93 119 0
95 122 0
89 115 0
97 124 0
102 130 0
95 121 0
95 122 0
102 130 0
95 122 0
102 129 0
98 126 0
105 134 0
97 126 0
88 115 0
103 132 0
100 128 0
97 126 0
102 131 0
86 112 0
92 119 0
89 115 0
99 126 0
94 122 0
95 122 0
96 123 0
89 115 0
100 128 0
95 124 0
95 124 0
97 124 0
90 117 0
97 125 0
84 109 0
90 117 0
92 120 0
98 128 0
93 121 0
101 130 0
96 125 0
84 110 0
97 125 0
88 115 0
94 121 0
94 120 0
84 109 0
97 127 0
90 118 0
99 128 0
100 129 0
97 125 0
95 124 0
97 125 0
96 124 0
93 121 0
88 115 0
91 118 0
93 119 0
98 126 0
100 128 0
95 122 0
87 115 0
96 125 0
95 123 0
90 117 0
90 117 0
98 128 0
93 120 0
94 123 0
94 124 0
91 118 0
93 121 0
93 122 0
87 115 0
93 122 0
91 119 0
91 118 0
92 121 0
98 128 0
93 122 0
92 119 0
94 122 0
89 115 0
87 114 0
94 123 0
94 121 0
91 119 0
86 114 0
86 115 0
84 111 0
94 120 0
92 121 0
95 125 0
88 115 0
96 125 0
94 123 0
94 121 0
98 128 0
95 125 0
95 125 0
86 113 0
96 126 0
96 124 0
82 109 0
85 112 0
83 109 0
90 119 0
93 122 0
94 122 0
93 119 0
91 119 0
88 114 0
86 115 0
86 112 0
86 114 0
90 117 0
91 120 0
87 114 0
87 114 0
84 112 0
92 120 0
95 124 0
86 113 0
88 117 0
83 110 0
95 121 0
88 115 0
86 114 0
85 113 0
91 118 0
87 114 0
90 117 0
86 112 0
87 114 0
97 126 0
97 127 0
83 111 0
77 103 0
87 113 0
87 114 0
83 110 0
84 109 0
86 114 0
86 113 0
85 110 0
82 107 0
89 115 0
92 121 0
83 110 0
79 105 0
91 118 0
83 109 0
81 108 0
90 119 0
83 109 0
80 105 0
90 117 0
82 109 0
85 112 0
95 124 0
99 128 0
84 112 0
82 107 0
92 118 0
86 113 0
89 115 0
98 127 0
92 118 0
92 120 0
84 112 0
94 123 0
95 122 0
91 118 0
88 115 0
90 118 0
89 116 0
82 110 0
91 118 0
89 116 0
88 115 0
85 112 0
84 111 0
89 116 0
84 111 0
96 125 0
96 125 0
92 117 0
89 115 0
83 109 0
88 116 0
84 111 0
79 103 0
85 110 0
87 114 0
87 115 0
81 107 0
97 126 0
79 104 0
83 110 0
90 116 0
82 107 0
88 116 0
85 110 0
81 107 0
88 114 0
82 110 0
86 111 0
92 118 0
85 113 0
88 114 0
92 119 0
90 117 0
92 120 0
94 119 0
82 108 0
99 128 0
100 127 0
83 107 0
97 126 0
87 112 0
92 117 0
100 127 0
87 111 0
78 100 0
85 109 0
87 114 0
95 120 0
83 109 0
86 111 0
85 112 0
80 102 0
90 115 0
80 106 0
90 115 0
77 101 0
88 110 0
91 116 0
92 118 0
92 118 0
95 121 0
91 119 0
84 108 0
84 108 0
94 120 0
86 110 0
83 107 0
90 113 0
91 115 0
89 112 0
72 93 0
83 107 0
89 113 0
82 106 0
91 116 0
90 115 0
87 111 0
88 113 0
88 113 0
86 111 0
94 119 0
86 110 0
87 114 0
85 109 0
97 120 0
86 110 0
83 105 0
93 121 0
93 118 0
96 120 0
92 118 0
91 114 0
86 108 0
89 111 0
93 115 0
92 114 0
83 106 0
91 114 0
85 107 0
91 116 0
87 110 0
96 122 0
86 108 0
91 117 0
85 108 0
86 107 0
86 109 0
94 116 0
87 110 0
96 120 0
93 115 0
93 115 0
93 116 0
79 102 0
90 114 0
89 112 0
87 110 0
91 113 0
95 119 0
89 111 0
98 125 0
98 123 0
83 101 0
93 114 0
90 111 0
87 108 0
91 113 0
94 117 0
83 100 0
97 118 0
94 116 0
94 117 0
96 117 0
97 120 0
91 112 0
91 111 0
80 100 0
87 108 0
88 108 0
90 111 0
93 114 0
90 111 0
97 122 0
87 107 0
86 102 0
92 113 0
86 106 0
87 103 0
93 117 0
90 105 0
89 106 0
92 110 0
99 122 0
86 105 0
92 111 0
92 111 0
95 115 0
95 114 0
82 98 0
88 107 0
100 119 0
95 118 0
84 103 0
86 103 0
88 106 0
92 110 0
93 112 0
94 110 0
89 105 0
96 113 0
102 122 0
92 109 0
93 109 0
91 109 0
91 108 0
92 113 0
88 105 0
97 117 0
86 102 0
95 114 0
96 114 0
89 104 0
90 107 0
93 110 0
93 114 0
101 120 0
95 112 0
89 106 0
99 120 0
103 131 0
105 133 0
102 128 0
102 129 0
91 117 0
95 122 0
97 123 0
98 127 0
92 117 0
97 124 0
97 124 0
98 124 0
92 118 0
99 127 0
95 120 0
99 126 0
93 119 0
100 127 0
96 122 0
97 124 0
99 126 0
97 125 0
102 129 0
96 123 0
102 130 0
99 127 0
95 122 0
100 129 0
98 126 0
99 125 0
94 120 0
95 122 0
98 124 0
91 118 0
97 123 0
96 124 0
99 126 0
89 116 0
93 121 0
95 121 0
97 124 0
97 124 0
94 124 0
90 117 0
95 122 0
101 129 0
91 117 0
98 125 0
98 125 0
93 120 0
100 127 0
102 130 0
95 122 0
97 125 0
97 124 0
100 129 0
95 123 0
88 113 0
98 126 0
94 122 0
86 112 0
94 122 0
102 128 0
93 121 0
91 118 0
92 120 0
98 126 0
91 119 0
88 113 0
91 119 0
99 128 0
90 117 0
97 124 0
99 126 0
82 108 0
93 121 0
89 116 0
100 129 0
91 119 0
101 131 0
90 118 0
91 118 0
92 119 0
93 120 0
95 123 0
87 113 0
98 128 0
92 118 0
84 112 0
90 118 0
96 123 0
94 120 0
92 120 0
84 111 0
90 118 0
86 113 0
99 128 0
83 110 0
89 117 0
89 117 0
102 131 0
93 121 0
92 119 0
87 114 0
91 119 0
84 111 0
86 114 0
86 113 0
88 115 0
92 121 0
84 110 0
87 115 0
97 126 0
98 127 0
98 128 0
86 113 0
81 108 0
101 132 0
92 121 0
96 126 0
90 118 0
92 120 0
87 114 0
80 106 0
95 125 0
93 122 0
96 125 0
91 119 0
89 117 0
93 121 0
98 126 0
92 121 0
87 115 0
90 119 0
89 116 0
84 110 0
88 116 0
83 110 0
84 112 0
92 120 0
88 115 0
93 121 0
90 119 0
93 121 0
84 112 0
91 120 0
90 118 0
96 125 0
91 120 0
91 118 0
92 120 0
87 114 0
90 119 0
90 119 0
95 125 0
94 122 0
91 120 0
93 120 0
79 106 0
87 113 0
88 116 0
89 117 0
85 112 0
92 122 0
90 117 0
89 117 0
96 125 0
85 112 0
91 120 0
86 113 0
91 121 0
91 119 0
86 111 0
87 114 0
92 119 0
80 105 0
90 117 0
92 122 0
97 128 0
87 114 0
93 121 0
92 120 0
89 117 0
82 109 0
82 109 0
83 110 0
92 120 0
87 114 0
84 110 0
86 113 0
86 114 0
89 116 0
93 120 0
85 111 0
94 122 0
88 116 0
87 113 0
97 125 0
87 115 0
85 112 0
94 122 0
90 118 0
84 110 0
78 103 0
86 114 0
89 116 0
88 115 0
83 111 0
96 125 0
85 108 0
85 112 0
92 119 0
87 114 0
84 110 0
85 112 0
85 109 0
83 108 0
83 109 0
83 110 0
79 106 0
84 110 0
88 114 0
88 114 0
88 115 0
91 119 0
87 114 0
83 109 0
85 111 0
91 119 0
90 118 0
92 120 0
85 110 0
89 115 0
86 112 0
89 117 0
83 107 0
91 119 0
97 125 0
86 113 0
83 109 0
79 104 0
86 113 0
91 117 0
89 116 0
99 126 0
89 115 0
86 110 0
93 120 0
86 111 0
96 123 0
88 113 0
86 111 0
86 114 0
86 110 0
94 122 0
87 113 0
88 115 0
82 106 0
94 121 0
94 121 0
85 110 0
89 118 0
91 117 0
87 113 0
85 113 0
87 109 0
84 108 0
87 113 0
92 120 0
89 116 0
84 109 0
92 116 0
96 124 0
93 120 0
92 118 0
89 117 0
89 116 0
80 104 0
83 105 0
93 117 0
92 118 0
89 114 0
94 118 0
91 115 0
91 117 0
91 116 0
94 119 0
91 116 0
85 109 0
92 119 0
94 118 0
88 114 0
92 120 0
80 100 0
90 115 0
87 112 0
84 107 0
92 117 0
92 117 0
91 114 0
94 121 0
93 116 0
92 116 0
91 113 0
91 114 0
85 108 0
91 116 0
95 124 0
94 118 0
81 104 0
95 121 0
89 112 0
86 108 0
93 115 0
95 121 0
81 104 0
92 117 0
88 112 0
92 116 0
92 117 0
92 116 0
95 120 0
87 110 0
84 103 0
92 118 0
90 113 0
98 122 0
92 115 0
87 109 0
91 113 0
92 115 0
87 109 0
96 121 0
85 108 0
90 115 0
89 110 0
90 114 0
95 118 0
98 121 0
92 116 0
92 113 0
98 122 0
89 109 0
94 117 0
87 106 0
95 117 0
91 114 0
88 105 0
101 125 0
86 104 0
99 122 0
95 115 0
89 108 0
89 109 0
90 111 0
89 107 0
85 106 0
88 107 0
90 111 0
86 103 0
85 105 0
101 122 0
91 110 0
92 112 0
94 112 0
95 115 0
96 117 0
107 130 0
95 114 0
88 107 0
86 106 0
96 118 0
94 115 0
97 115 0
86 100 0
94 111 0
96 118 0
88 108 0
96 114 0
91 108 0
92 109 0
100 119 0
88 107 0
93 111 0
99 119 0
92 110 0
91 106 0
91 108 0
91 107 0
92 112 0
84 98 0
102 123 0
89 108 0
104 125 0
91 106 0
95 113 0
94 112 0
100 122 0
92 106 0
92 112 0
100 126 0
100 126 0
100 127 0
97 125 0
103 132 0
100 129 0
100 128 0
95 122 0
95 122 0
99 126 0
100 127 0
96 122 0
97 123 0
96 123 0
97 125 0
95 122 0
106 134 0
98 125 0
94 119 0
104 134 0
93 118 0
98 125 0
102 130 0
99 128 0
103 131 0
98 126 0
94 121 0
97 125 0
95 122 0
98 125 0
97 124 0
90 117 0
110 142 0
100 128 0
103 132 0
102 129 0
93 120 0
91 118 0
100 129 0
95 122 0
95 122 0
94 121 0
97 125 0
94 122 0
95 121 0
92 120 0
91 118 0
97 125 0
90 118 0
93 119 0
94 122 0
93 121 0
92 118 0
90 117 0
96 123 0
93 120 0
102 131 0
95 123 0
89 116 0
93 120 0
100 129 0
91 118 0
94 122 0
86 113 0
89 115 0
99 127 0
94 120 0
103 133 0
98 126 0
97 126 0
93 120 0
92 120 0
87 114 0
86 111 0
93 120 0
103 133 0
93 120 0
94 121 0
83 110 0
100 127 0
100 129 0
104 134 0
92 120 0
97 125 0
92 119 0
99 126 0
100 129 0
91 118 0
90 117 0
97 125 0
85 113 0
85 112 0
88 113 0
88 115 0
91 118 0
95 123 0
89 118 0
95 121 0
89 116 0
93 121 0
93 122 0
100 128 0
91 119 0
91 118 0
97 126 0
95 124 0
96 124 0
91 120 0
91 119 0
89 116 0
84 112 0
96 126 0
94 123 0
93 122 0
85 111 0
88 116 0
92 119 0
93 120 0
89 118 0
92 120 0
100 130 0
87 115 0
99 129 0
91 118 0
97 126 0
84 110 0
87 117 0
85 112 0
78 103 0
91 120 0
84 111 0
90 117 0
73 98 0
86 112 0
86 112 0
88 115 0
83 110 0
91 121 0
90 118 0
88 116 0
93 121 0
92 121 0
89 118 0
93 124 0
88 114 0
97 126 0
88 117 0
97 128 0
85 111 0
86 113 0
83 108 0
88 115 0
99 128 0
88 116 0
98 128 0
90 117 0
83 109 0
84 111 0
90 118 0
91 120 0
87 116 0
87 116 0
86 114 0
88 114 0
97 126 0
101 130 0
91 119 0
79 106 0
89 117 0
84 110 0
88 116 0
86 113 0
100 130 0
89 117 0
90 118 0
91 120 0
88 114 0
84 111 0
82 108 0
78 104 0
86 112 0
83 109 0
87 114 0
96 122 0
93 123 0
82 107 0
89 118 0
90 119 0
95 124 0
86 112 0
94 123 0
81 106 0
93 121 0
89 119 0
89 116 0
88 116 0
83 109 0
78 103 0
87 115 0
93 120 0
86 112 0
91 118 0
89 117 0
90 117 0
83 112 0
85 112 0
82 107 0
86 113 0
86 114 0
81 106 0
85 112 0
94 121 0
86 112 0
88 114 0
82 107 0
89 115 0
91 118 0
87 113 0
84 110 0
90 119 0
91 117 0
86 111 0
84 109 0
87 114 0
91 118 0
84 112 0
85 112 0
94 123 0
80 104 0
90 119 0
82 108 0
88 114 0
85 111 0
87 116 0
86 113 0
88 115 0
89 115 0
87 115 0
91 117 0
93 121 0
96 124 0
93 122 0
95 123 0
91 118 0
90 118 0
89 118 0
89 116 0
87 114 0
92 119 0
88 114 0
97 124 0
87 111 0
95 123 0
86 112 0
91 118 0
90 115 0
89 116 0
91 117 0
91 119 0
79 104 0
88 114 0
94 121 0
89 113 0
83 107 0
87 113 0
87 111 0
84 111 0
89 114 0
84 109 0
86 110 0
88 114 0
92 118 0
94 121 0
91 118 0
94 118 0
91 119 0
88 111 0
93 120 0
89 113 0
88 112 0
87 114 0
94 122 0
91 113 0
90 115 0
84 108 0
80 105 0
93 116 0
94 119 0
78 101 0
86 110 0
88 114 0
91 117 0
89 115 0
99 127 0
93 118 0
87 115 0
99 123 0
90 115 0
88 113 0
71 91 0
101 128 0
89 114 0
95 123 0
96 122 0
91 115 0
90 115 0
89 116 0
92 117 0
97 121 0
96 123 0
90 115 0
85 109 0
89 112 0
88 112 0
95 123 0
95 117 0
92 117 0
91 116 0
98 127 0
95 120 0
90 111 0
98 124 0
93 119 0
89 112 0
96 122 0
90 112 0
90 111 0
89 111 0
87 110 0
97 122 0
97 118 0
103 128 0
94 118 0
97 120 0
89 112 0
99 124 0
80 101 0
93 118 0
100 125 0
85 105 0
87 107 0
90 111 0
88 108 0
92 116 0
93 118 0
80 101 0
89 113 0
89 109 0
88 107 0
98 123 0
96 119 0
90 110 0
93 115 0
94 116 0
90 109 0
97 117 0
91 110 0
91 113 0
87 108 0
108 133 0
92 113 0
93 115 0
93 110 0
98 117 0
83 103 0
91 113 0
96 118 0
91 110 0
92 110 0
90 109 0
92 112 0
91 112 0
91 112 0
92 112 0
93 114 0
100 120 0
92 111 0
87 107 0
91 111 0
88 108 0
100 119 0
96 115 0
94 114 0
90 109 0
93 113 0
99 121 0
94 114 0
93 113 0
91 108 0
92 109 0
94 111 0
89 105 0
95 115 0
96 110 0
100 121 0
92 111 0
97 115 0
93 107 0
95 113 0
86 101 0
102 131 0
99 126 0
94 121 0
102 130 0
100 128 0
99 127 0
104 132 0
104 132 0
94 120 0
105 132 0
99 127 0
103 131 0
98 125 0
98 126 0
91 117 0
95 122 0
96 122 0
99 126 0
98 126 0
93 121 0
93 121 0
100 128 0
96 123 0
101 129 0
100 127 0
94 122 0
96 122 0
101 129 0
90 117 0
92 120 0
88 114 0
96 123 0
91 117 0
90 116 0
95 121 0
93 121 0
100 128 0
95 123 0
99 127 0
99 127 0
95 120 0
95 122 0
102 131 0
102 131 0
93 120 0
97 122 0
98 126 0
87 114 0
99 129 0
91 117 0
88 114 0
100 128 0
93 122 0
96 125 0
92 117 0
88 114 0
98 126 0
93 121 0
91 118 0
98 127 0
96 125 0
97 123 0
96 124 0
89 117 0
96 123 0
91 118 0
99 127 0
98 125 0
98 126 0
91 119 0
92 118 0
94 122 0
92 119 0
92 119 0
95 123 0
94 122 0
93 122 0
93 121 0
102 131 0
97 127 0
90 118 0
91 118 0
92 119 0
89 116 0
95 124 0
95 124 0
94 123 0
91 118 0
97 126 0
88 116 0
94 123 0
95 123 0
96 125 0
91 119 0
94 122 0
97 125 0
92 121 0
91 119 0
96 123 0
89 116 0
87 115 0
93 122 0
89 117 0
94 122 0
96 124 0
98 127 0
89 117 0
90 117 0
85 110 0
90 118 0
95 126 0
98 127 0
85 112 0
92 121 0
91 120 0
86 115 0
98 127 0
91 119 0
96 124 0
86 114 0
91 119 0
89 118 0
90 118 0
86 112 0
86 113 0
89 116 0
97 125 0
88 115 0
87 115 0
94 123 0
92 119 0
95 123 0
89 118 0
91 118 0
91 120 0
95 123 0
86 114 0
87 114 0
83 109 0
93 121 0
88 115 0
86 113 0
84 111 0
93 123 0
89 115 0
91 119 0
99 127 0
86 113 0
89 117 0
92 123 0
85 110 0
92 121 0
90 118 0
92 119 0
90 119 0
92 119 0
91 118 0
89 115 0
93 124 0
84 113 0
91 120 0
81 106 0
90 117 0
88 116 0
98 127 0
89 117 0
94 123 0
87 113 0
90 118 0
89 116 0
87 114 0
83 111 0
84 112 0
93 122 0
92 122 0
92 120 0
88 115 0
82 108 0
88 117 0
91 120 0
92 122 0
87 115 0
86 113 0
93 123 0
88 115 0
86 113 0
80 106 0
92 119 0
87 114 0
97 126 0
90 119 0
87 116 0
85 113 0
79 105 0
91 118 0
88 115 0
84 111 0
89 116 0
97 126 0
93 122 0
89 116 0
86 114 0
86 112 0
95 122 0
88 115 0
87 114 0
85 110 0
84 111 0
78 102 0
89 115 0
86 113 0
81 109 0
85 114 0
83 108 0
91 120 0
90 115 0
88 115 0
93 121 0
96 125 0
70 93 0
82 108 0
88 117 0
98 129 0
92 119 0
85 112 0
80 106 0
84 110 0
92 120 0
94 123 0
88 114 0
84 111 0
91 118 0
87 114 0
86 110 0
89 116 0
90 117 0
86 112 0
88 114 0
85 111 0
87 114 0
82 107 0
91 119 0
95 121 0
89 114 0
90 115 0
93 121 0
87 112 0
90 119 0
91 116 0
91 118 0
90 120 0
91 116 0
91 118 0
86 111 0
86 113 0
89 113 0
84 112 0
92 118 0
85 109 0
90 117 0
86 113 0
92 119 0
87 113 0
91 117 0
88 114 0
90 116 0
95 121 0
93 119 0
93 118 0
86 112 0
84 109 0
95 122 0
84 110 0
95 119 0
83 108 0
92 117 0
90 117 0
90 115 0
96 120 0
90 117 0
83 110 0
91 117 0
87 111 0
85 110 0
98 123 0
96 125 0
87 111 0
87 110 0
93 118 0
93 118 0
83 107 0
91 116 0
88 111 0
92 117 0
91 115 0
97 121 0
94 118 0
89 115 0
94 119 0
94 117 0
85 110 0
90 115 0
90 117 0
94 118 0
90 112 0
91 117 0
89 113 0
79 102 0
93 118 0
88 115 0
90 111 0
85 106 0
95 120 0
91 116 0
97 124 0
91 114 0
87 110 0
93 115 0
86 110 0
84 106 0
88 112 0
94 119 0
94 115 0
89 108 0
91 116 0
92 116 0
86 109 0
86 110 0
78 98 0
92 113 0
88 113 0
89 112 0
93 117 0
89 111 0
93 115 0
88 108 0
88 110 0
90 108 0
86 107 0
90 114 0
93 117 0
90 109 0
94 117 0
91 112 0
88 108 0
95 118 0
89 105 0
102 125 0
94 116 0
91 111 0
95 119 0
95 117 0
94 112 0
96 118 0
89 111 0
90 109 0
91 115 0
91 112 0
92 113 0
96 116 0
90 112 0
97 120 0
99 123 0
93 114 0
93 112 0
95 118 0
91 111 0
93 114 0
94 115 0
90 110 0
89 107 0
98 118 0
96 121 0
96 119 0
90 108 0
97 120 0
91 110 0
85 104 0
101 122 0
102 123 0
96 114 0
90 108 0
92 112 0
91 110 0
93 112 0
94 112 0
86 101 0
89 108 0
96 114 0
93 110 0
100 119 0
92 109 0
99 118 0
94 112 0
88 103 0
96 116 0
90 111 0
91 109 0
96 115 0
100 116 0
99 127 0
95 121 0
97 124 0
95 120 0
99 127 0
96 122 0
100 127 0
100 127 0
103 130 0
103 132 0
99 127 0
97 124 0
101 129 0
99 127 0
93 120 0
97 125 0
98 127 0
96 124 0
95 122 0
98 126 0
103 130 0
97 123 0
101 128 0
93 120 0
106 135 0
97 125 0
93 120 0
101 129 0
95 121 0
99 127 0
102 130 0
94 121 0
88 114 0
98 126 0
94 122 0
98 128 0
99 125 0
95 122 0
99 127 0
89 117 0
97 126 0
95 124 0
97 125 0
96 123 0
99 127 0
92 119 0
97 126 0
96 125 0
95 122 0
96 124 0
99 128 0
99 127 0
101 130 0
93 120 0
95 122 0
91 120 0
93 120 0
94 122 0
91 117 0
92 119 0
96 124 0
87 113 0
87 115 0
95 124 0
97 126 0
95 123 0
96 125 0
100 130 0
99 127 0
95 123 0
82 108 0
95 123 0
99 128 0
91 119 0
94 123 0
93 121 0
99 126 0
95 122 0
90 117 0
97 127 0
90 116 0
95 125 0
98 127 0
87 115 0
95 121 0
94 121 0
94 121 0
98 128 0
93 122 0
93 121 0
91 119 0
97 125 0
96 125 0
87 115 0
91 119 0
93 121 0
96 127 0
95 124 0
91 119 0
84 111 0
97 125 0
96 125 0
99 128 0
88 116 0
89 117 0
97 127 0
90 118 0
87 115 0
93 121 0
95 124 0
90 118 0
93 122 0
93 122 0
90 118 0
86 113 0
85 113 0
94 123 0
87 115 0
84 111 0
87 115 0
95 124 0
90 119 0
94 122 0
86 114 0
98 128 0
95 124 0
90 117 0
96 123 0
97 125 0
100 130 0
95 124 0
94 123 0
79 103 0
92 120 0
91 120 0
91 119 0
91 119 0
87 114 0
81 108 0
90 119 0
93 120 0
94 124 0
90 118 0
89 118 0
90 118 0
97 126 0
88 117 0
93 123 0
93 120 0
92 119 0
80 105 0
96 123 0
90 118 0
92 122 0
88 115 0
91 120 0
89 118 0
91 121 0
90 117 0
90 118 0
92 120 0
87 113 0
89 118 0
96 125 0
95 124 0
85 113 0
88 116 0
87 114 0
90 117 0
88 115 0
91 118 0
88 116 0
87 113 0
88 117 0
92 122 0
80 104 0
81 108 0
85 111 0
83 111 0
85 113 0
88 116 0
80 107 0
85 113 0
94 123 0
85 111 0
84 112 0
79 103 0
84 110 0
85 111 0
92 121 0
92 122 0
85 111 0
94 123 0
86 112 0
92 119 0
90 118 0
84 111 0
79 104 0
88 116 0
88 117 0
79 104 0
86 113 0
85 112 0
95 122 0
87 113 0
84 109 0
95 123 0
81 105 0
84 112 0
92 118 0
80 105 0
81 107 0
90 119 0
93 120 0
87 114 0
80 105 0
86 114 0
95 124 0
86 112 0
94 121 0
99 130 0
87 115 0
87 113 0
93 119 0
86 110 0
85 110 0
73 97 0
89 116 0
74 96 0
93 120 0
78 103 0
87 113 0
87 114 0
92 120 0
82 109 0
85 112 0
90 117 0
82 108 0
84 110 0
86 110 0
86 113 0
89 116 0
84 110 0
94 121 0
89 115 0
95 122 0
98 125 0
96 123 0
93 120 0
95 122 0
96 125 0
94 120 0
83 108 0
87 114 0
88 113 0
90 116 0
78 103 0
80 105 0
103 131 0
89 115 0
89 113 0
93 121 0
86 112 0
89 115 0
88 112 0
87 113 0
94 120 0
93 120 0
81 106 0
96 122 0
94 121 0
81 105 0
90 114 0
89 117 0
95 122 0
96 124 0
92 117 0
92 119 0
89 114 0
86 111 0
90 117 0
87 112 0
97 122 0
88 112 0
94 122 0
78 101 0
86 112 0
85 111 0
92 117 0
88 113 0
93 118 0
95 124 0
85 108 0
89 113 0
88 111 0
91 116 0
91 116 0
90 114 0
93 115 0
89 114 0
95 122 0
90 114 0
92 117 0
87 108 0
85 108 0
91 117 0
97 123 0
86 108 0
86 107 0
91 117 0
94 120 0
80 104 0
97 123 0
86 110 0
96 121 0
102 127 0
89 114 0
89 112 0
93 117 0
96 121 0
91 115 0
97 122 0
98 124 0
89 113 0
87 109 0
95 119 0
84 106 0
91 113 0
95 120 0
90 110 0
98 123 0
96 120 0
91 113 0
92 113 0
91 116 0
89 111 0
89 112 0
84 103 0
101 125 0
94 116 0
94 116 0
98 122 0
93 118 0
88 111 0
90 113 0
91 111 0
91 112 0
93 116 0
92 114 0
86 109 0
91 113 0
94 114 0
88 108 0
91 110 0
95 116 0
83 104 0
100 122 0
93 115 0
99 119 0
90 111 0
89 110 0
93 113 0
95 117 0
94 117 0
92 112 0
99 121 0
90 110 0
95 114 0
90 108 0
87 105 0
100 119 0
84 102 0
91 111 0
95 116 0
92 110 0
89 108 0
99 119 0
95 116 0
90 110 0
95 113 0
88 105 0
102 123 0
95 115 0
97 116 0
99 118 0
94 117 0
91 108 0
98 119 0
91 108 0
95 114 0
94 111 0
90 107 0
87 108 0
88 107 0
96 115 0
96 119 0
96 115 0
90 111 0
99 115 0
91 109 0
