P3
400 225
255
190 216 255
190 216 255
190 216 255
190 216 255
190 216 255
190 216 255
190 216 255
190 216 255
190 216 255
190 216 255
190 216 255
190 216 255
190 216 255
190 216 255
190 216 255
190 216 255
190 216 255
190 216 255
190 216 255
190 216 255
190 216 255
190 216 255
190 216 255
190 216 255
190 216 255
190 216 255
190 216 255
190 216 255
190 216 255
190 216 255
190 216 255
190 216 255
190 216 255
190 216 255
190 216 255
190 216 255
190 216 255
190 216 255
190 216 255
190 216 255
190 216 255
190 216 255
190 216 255
190 216 255
190 216 255
190 216 255
190 216 255
190 216 255
190 216 255
190 216 255
190 216 255
190 216 255
190 216 255
190 216 255
190 216 255
190 216 255
190 216 255
190 216 255
190 216 255
190 216 255
190 216 255
190 216 255
190 216 255
190 216 255
190 216 255
190 216 255
190 216 255
190 216 255
190 216 255
190 216 255
190 216 255
190 216 255
190 216 255
190 216 255
190 216 255
190 216 255
190 216 255
190 216 255
190 216 255
190 216 255
190 216 255
190 216 255
190 216 255
190 216 255
190 216 255
190 216 255
190 216 255
190 216 255
190 216 255
190 216 255
190 216 255
190 216 255
190 216 255
190 216 255
190 216 255
190 216 255
190 216 255
190 216 255
190 216 255
190 216 255
190 216 255
190 216 255
190 216 255
190 216 255
190 216 255
190 216 255
190 216 255
190 216 255
190 216 255
190 216 255
190 216 255
190 216 255
190 216 255
190 216 255
190 216 255
190 216 255
190 216 255
190 216 255
190 216 255
190 216 255
190 216 255
190 216 255
190 216 255
190 216 255
190 216 255
190 216 255
190 216 255
190 216 255
190 216 255
190 216 255
190 216 255
190 216 255
190 216 255
190 216 255
190 216 255
190 216 255
190 216 255
190 216 255
190 216 255
190 216 255
190 216 255
190 216 255
190 216 255
190 216 255
190 216 255
190 216 255
190 216 255
190 216 255
190 216 255
190 216 255
190 216 255
190 216 255
190 216 255
190 216 255
190 216 255
190 216 255
190 216 255
190 216 255
190 216 255
190 216 255
190 216 255
190 216 255
190 216 255
190 216 255
190 216 255
190 216 255
190 216 255
190 216 255
190 216 255
190 216 255
190 216 255
190 216 255
190 216 255
190 216 255
190 216 255
190 216 255
190 216 255
190 216 255
190 216 255
190 216 255
190 216 255
190 216 255
190 216 255
190 216 255
190 216 255
190 216 255
190 216 255
190 216 255
190 216 255
190 216 255
190 216 255
190 216 255
190 216 255
190 216 255
190 216 255
190 216 255
190 216 255
190 216 255
190 216 255
190 216 255
190 216 255
190 216 255
190 216 255
190 216 255
190 216 255
190 216 255
190 216 255
190 216 255
190 216 255
190 216 255
190 216 255
190 216 255
190 216 255
190 216 255
190 216 255
190 216 255
190 216 255
190 216 255
190 216 255
190 216 255
190 216 255
190 216 255
190 216 255
190 216 255
190 216 255
190 216 255
190 216 255
190 216 255
190 216 255
190 216 255
190 216 255
190 216 255
190 216 255
190 216 255
190 216 255
190 216 255
190 216 255
190 216 255
190 216 255
190 216 255
190 216 255
190 216 255
190 216 255
190 216 255
190 216 255
190 216 255
190 216 255
190 216 255
190 216 255
190 216 255
190 216 255
190 216 255
190 216 255
190 216 255
190 216 255
190 216 255
190 216 255
190 216 255
190 216 255
190 216 255
190 216 255
190 216 255
190 216 255
190 216 255
190 216 255
190 216 255
190 216 255
190 216 255
190 216 255
190 216 255
190 216 255
190 216 255
190 216 255
190 216 255
190 216 255
190 216 255
190 216 255
190 216 255
190 216 255
190 216 255
190 216 255
190 216 255
190 216 255
190 216 255
190 216 255
190 216 255
190 216 255
190 216 255
190 216 255
190 216 255
190 216 255
190 216 255
190 216 255
190 216 255
190 216 255
190 216 255
190 216 255
190 216 255
190 216 255
190 216 255
190 216 255
190 216 255
190 216 255
190 216 255
190 216 255
190 216 255
190 216 255
190 216 255
190 216 255
190 216 255
190 216 255
190 216 255
190 216 255
190 216 255
190 216 255
190 216 255
190 216 255
190 216 255
190 216 255
190 216 255
190 216 255
190 216 255
190 216 255
190 216 255
190 216 255
190 216 255
190 216 255
190 216 255
190 216 255
190 216 255
190 216 255
190 216 255
190 216 255
190 216 255
190 216 255
190 216 255
190 216 255
190 216 255
190 216 255
190 216 255
190 216 255
190 216 255
190 216 255
190 216 255
190 216 255
190 216 255
190 216 255
190 216 255
190 216 255
190 216 255
190 216 255
190 216 255
190 216 255
190 216 255
190 216 255
190 216 255
190 216 255
190 216 255
190 216 255
190 216 255
190 216 255
190 216 255
190 216 255
190 216 255
190 216 255
190 216 255
190 216 255
190 216 255
190 216 255
190 216 255
190 216 255
190 216 255
190 216 255
190 216 255
190 216 255
190 216 255
190 216 255
190 216 255
190 216 255
190 216 255
190 216 255
190 216 255
190 216 255
190 216 255
190 216 255
190 216 255
190 216 255
190 216 255
190 216 255
190 216 255
190 216 255
190 216 255
190 216 255
190 216 255
190 216 255
190 216 255
190 216 255
190 216 255
190 216 255
190 216 255
190 216 255
190 216 255
190 216 255
190 216 255
190 216 255
190 216 255
190 216 255
190 216 255
190 216 255
190 216 255
190 216 255
190 216 255
190 216 255
190 216 255
190 216 255
190 216 255
190 216 255
190 216 255
190 216 255
190 216 255
190 216 255
190 216 255
190 216 255
190 216 255
190 216 255
190 216 255
190 216 255
190 216 255
190 216 255
190 216 255
190 216 255
190 216 255
190 216 255
190 216 255
190 216 255
190 216 255
190 216 255
190 216 255
190 216 255
190 216 255
190 216 255
190 216 255
190 216 255
190 216 255
190 216 255
190 216 255
190 216 255
190 216 255
190 216 255
190 216 255
190 216 255
190 216 255
190 216 255
190 216 255
190 216 255
190 216 255
190 216 255
190 216 255
190 216 255
190 216 255
190 216 255
190 216 255
190 216 255
190 216 255
190 216 255
190 216 255
190 216 255
190 216 255
190 216 255
190 216 255
190 216 255
190 216 255
190 216 255
190 216 255
190 216 255
190 216 255
190 216 255
190 216 255
190 216 255
190 216 255
190 216 255
190 216 255
190 216 255
190 216 255
190 216 255
190 216 255
190 216 255
190 216 255
190 216 255
190 216 255
190 216 255
190 216 255
190 216 255
190 216 255
190 216 255
190 216 255
190 216 255
190 216 255
190 216 255
190 216 255
190 216 255
190 216 255
190 216 255
190 216 255
190 216 255
190 216 255
190 216 255
190 216 255
190 216 255
190 216 255
190 216 255
190 216 255
190 216 255
190 216 255
190 216 255
190 216 255
190 216 255
190 216 255
190 216 255
190 216 255
190 216 255
190 216 255
190 216 255
190 216 255
190 216 255
190 216 255
190 216 255
190 216 255
190 216 255
190 216 255
190 216 255
190 216 255
190 216 255
190 216 255
190 216 255
190 216 255
190 216 255
190 216 255
190 216 255
190 216 255
190 216 255
190 216 255
190 216 255
190 216 255
190 216 255
190 216 255
190 216 255
190 216 255
190 216 255
190 216 255
190 216 255
190 216 255
190 216 255
190 216 255
190 216 255
190 216 255
190 216 255
190 216 255
190 216 255
190 216 255
190 216 255
190 216 255
190 216 255
190 216 255
190 216 255
190 216 255
190 216 255
190 216 255
190 216 255
190 216 255
190 216 255
190 216 255
190 216 255
190 216 255
190 216 255
190 216 255
190 216 255
190 216 255
190 216 255
190 216 255
190 216 255
190 216 255
190 216 255
190 216 255
190 216 255
190 216 255
190 216 255
190 216 255
190 216 255
190 216 255
190 216 255
190 216 255
190 216 255
190 216 255
190 216 255
190 216 255
190 216 255
190 216 255
190 216 255
190 216 255
190 216 255
190 216 255
190 216 255
190 216 255
190 216 255
190 216 255
190 216 255
190 216 255
190 216 255
190 216 255
190 216 255
190 216 255
190 216 255
190 216 255
190 216 255
190 216 255
190 216 255
190 216 255
190 216 255
190 216 255
190 216 255
190 216 255
190 216 255
190 216 255
190 216 255
190 216 255
190 216 255
190 216 255
190 216 255
190 216 255
190 216 255
190 216 255
190 216 255
190 216 255
190 216 255
190 216 255
190 216 255
190 216 255
190 216 255
190 216 255
190 216 255
190 216 255
190 216 255
190 216 255
190 216 255
190 216 255
190 216 255
190 216 255
190 216 255
190 216 255
190 216 255
190 216 255
190 216 255
190 216 255
190 216 255
190 216 255
190 216 255
190 216 255
190 216 255
190 216 255
190 216 255
190 216 255
190 216 255
190 216 255
190 216 255
190 216 255
190 216 255
190 216 255
190 216 255
190 216 255
190 216 255
190 216 255
190 216 255
190 216 255
190 216 255
190 216 255
190 216 255
190 216 255
190 216 255
190 216 255
190 216 255
190 216 255
190 216 255
190 216 255
190 216 255
190 216 255
190 216 255
190 216 255
190 216 255
190 216 255
190 216 255
190 216 255
190 216 255
190 216 255
190 216 255
190 216 255
190 216 255
190 216 255
190 216 255
190 216 255
190 216 255
190 216 255
190 216 255
190 216 255
190 216 255
190 216 255
190 216 255
190 216 255
190 216 255
190 216 255
190 216 255
190 216 255
190 216 255
190 216 255
190 216 255
190 216 255
190 216 255
190 216 255
190 216 255
190 216 255
190 216 255
190 216 255
190 216 255
190 216 255
190 216 255
190 216 255
190 216 255
190 216 255
190 216 255
190 216 255
190 216 255
190 216 255
190 216 255
190 216 255
190 216 255
190 216 255
190 216 255
190 216 255
190 216 255
190 216 255
190 216 255
190 216 255
190 216 255
190 216 255
190 216 255
190 216 255
190 216 255
190 216 255
190 216 255
190 216 255
190 216 255
190 216 255
190 216 255
190 216 255
190 216 255
190 216 255
190 216 255
190 216 255
190 216 255
190 216 255
190 216 255
190 216 255
190 216 255
190 216 255
190 216 255
190 216 255
190 216 255
190 216 255
190 216 255
190 216 255
190 216 255
190 216 255
190 216 255
190 216 255
190 216 255
190 216 255
190 216 255
190 216 255
190 216 255
190 216 255
190 216 255
190 216 255
190 216 255
190 216 255
190 216 255
190 216 255
190 216 255
190 216 255
190 216 255
190 216 255
190 216 255
190 216 255
190 216 255
190 216 255
190 216 255
190 216 255
190 216 255
190 216 255
190 216 255
190 216 255
190 216 255
190 216 255
190 216 255
190 216 255
190 216 255
190 216 255
190 216 255
190 216 255
190 216 255
190 216 255
190 216 255
190 216 255
190 216 255
190 216 255
190 216 255
190 216 255
190 216 255
190 216 255
190 216 255
190 216 255
190 216 255
190 216 255
190 216 255
190 216 255
190 216 255
190 216 255
190 216 255
190 216 255
190 216 255
190 216 255
190 216 255
190 216 255
190 216 255
190 216 255
190 216 255
190 216 255
190 216 255
190 216 255
190 216 255
190 216 255
190 216 255
190 216 255
190 216 255
190 216 255
190 216 255
190 216 255
190 216 255
190 216 255
190 216 255
190 216 255
190 216 255
190 216 255
190 216 255
190 216 255
190 216 255
190 216 255
190 216 255
190 216 255
190 216 255
190 216 255
190 216 255
190 216 255
190 216 255
190 216 255
190 216 255
190 216 255
190 216 255
190 216 255
190 216 255
190 216 255
190 216 255
190 216 255
190 216 255
190 216 255
190 216 255
190 216 255
190 216 255
190 216 255
190 216 255
190 216 255
190 216 255
190 216 255
190 216 255
190 216 255
190 216 255
190 216 255
190 216 255
190 216 255
190 216 255
190 216 255
190 216 255
190 216 255
190 216 255
190 216 255
190 216 255
190 216 255
190 216 255
190 216 255
190 216 255
190 216 255
190 216 255
190 216 255
190 216 255
190 216 255
190 216 255
190 216 255
190 216 255
190 216 255
190 216 255
190 216 255
190 216 255
190 216 255
190 216 255
190 216 255
190 216 255
190 216 255
190 216 255
190 216 255
190 216 255
190 216 255
190 216 255
190 216 255
190 216 255
190 216 255
190 216 255
190 216 255
190 216 255
190 216 255
190 216 255
190 216 255
190 216 255
190 216 255
190 216 255
190 216 255
190 216 255
190 216 255
190 216 255
190 216 255
190 216 255
190 216 255
190 216 255
190 216 255
190 216 255
190 216 255
190 216 255
190 216 255
190 216 255
190 216 255
190 216 255
190 216 255
190 216 255
190 216 255
190 216 255
190 216 255
190 216 255
190 216 255
190 216 255
190 216 255
190 216 255
190 216 255
190 216 255
190 216 255
190 216 255
190 216 255
190 216 255
190 216 255
190 216 255
190 216 255
190 216 255
190 216 255
190 216 255
190 216 255
190 216 255
190 216 255
190 216 255
190 216 255
190 216 255
190 216 255
190 216 255
190 216 255
190 216 255
190 216 255
190 216 255
190 216 255
190 216 255
190 216 255
190 216 255
190 216 255
190 216 255
190 216 255
190 216 255
190 216 255
190 216 255
190 216 255
190 216 255
190 216 255
190 216 255
190 216 255
190 216 255
190 216 255
190 216 255
190 216 255
190 216 255
190 216 255
190 216 255
190 216 255
190 216 255
190 216 255
190 216 255
190 216 255
190 216 255
190 216 255
190 216 255
190 216 255
190 216 255
190 216 255
190 216 255
190 216 255
190 216 255
190 216 255
190 216 255
190 216 255
190 216 255
190 216 255
190 216 255
190 216 255
190 216 255
190 216 255
190 216 255
190 216 255
190 216 255
190 216 255
190 216 255
190 216 255
190 216 255
190 216 255
190 216 255
190 216 255
190 216 255
190 216 255
190 216 255
190 216 255
190 216 255
190 216 255
190 216 255
190 216 255
190 216 255
190 216 255
190 216 255
190 216 255
190 216 255
190 216 255
190 216 255
190 216 255
190 216 255
190 216 255
190 216 255
190 216 255
190 216 255
190 216 255
190 216 255
190 216 255
190 216 255
190 216 255
190 216 255
190 216 255
190 216 255
190 216 255
190 216 255
190 216 255
190 216 255
190 216 255
190 216 255
190 216 255
190 216 255
190 216 255
190 216 255
190 216 255
190 216 255
190 216 255
190 216 255
190 216 255
190 216 255
190 216 255
190 216 255
190 216 255
190 216 255
190 216 255
190 216 255
190 216 255
190 216 255
190 216 255
190 216 255
190 216 255
190 216 255
190 216 255
190 216 255
190 216 255
190 216 255
190 216 255
190 216 255
190 216 255
190 216 255
190 216 255
190 216 255
190 216 255
190 216 255
190 216 255
190 216 255
190 216 255
190 216 255
190 216 255
190 216 255
190 216 255
190 216 255
190 216 255
190 216 255
190 216 255
190 216 255
190 216 255
190 216 255
190 216 255
190 216 255
190 216 255
190 216 255
190 216 255
190 216 255
190 216 255
190 216 255
190 216 255
190 216 255
190 216 255
190 216 255
190 216 255
190 216 255
190 216 255
190 216 255
190 216 255
190 216 255
190 216 255
190 216 255
190 216 255
190 216 255
190 216 255
190 216 255
190 216 255
190 216 255
190 216 255
190 216 255
190 216 255
190 216 255
190 216 255
190 216 255
190 216 255
190 216 255
190 216 255
190 216 255
190 216 255
190 216 255
190 216 255
190 216 255
190 216 255
190 216 255
190 216 255
190 216 255
190 216 255
190 216 255
190 216 255
190 216 255
190 216 255
190 216 255
190 216 255
190 216 255
190 216 255
190 216 255
190 216 255
190 216 255
190 216 255
190 216 255
190 216 255
190 216 255
190 216 255
190 216 255
190 216 255
190 216 255
190 216 255
190 216 255
190 216 255
190 216 255
190 216 255
190 216 255
190 216 255
190 216 255
190 216 255
190 216 255
190 216 255
190 216 255
190 216 255
190 216 255
190 216 255
190 216 255
190 216 255
190 216 255
190 216 255
190 216 255
190 216 255
190 216 255
190 216 255
190 216 255
190 216 255
190 216 255
190 216 255
190 216 255
190 216 255
190 216 255
190 216 255
190 216 255
190 216 255
190 216 255
190 216 255
190 216 255
190 216 255
190 216 255
190 216 255
190 216 255
190 216 255
190 216 255
190 216 255
190 216 255
190 216 255
190 216 255
190 216 255
190 216 255
190 216 255
190 216 255
190 216 255
190 216 255
190 216 255
190 216 255
190 216 255
190 216 255
190 216 255
190 216 255
190 216 255
190 216 255
190 216 255
190 216 255
190 216 255
190 216 255
190 216 255
190 216 255
190 216 255
190 216 255
190 216 255
190 216 255
190 216 255
190 216 255
190 216 255
190 216 255
190 216 255
190 216 255
190 216 255
190 216 255
190 216 255
190 216 255
190 216 255
190 216 255
190 216 255
190 216 255
190 216 255
190 216 255
190 216 255
190 216 255
190 216 255
190 216 255
190 216 255
190 216 255
190 216 255
190 216 255
190 216 255
190 216 255
190 216 255
190 216 255
190 216 255
190 216 255
190 216 255
190 216 255
190 216 255
190 216 255
190 216 255
190 216 255
190 216 255
190 216 255
190 216 255
190 216 255
190 216 255
190 216 255
190 216 255
190 216 255
190 216 255
190 216 255
190 216 255
190 216 255
190 216 255
190 216 255
190 216 255
190 216 255
190 216 255
190 216 255
190 216 255
190 216 255
190 216 255
190 216 255
190 216 255
190 216 255
190 216 255
190 216 255
190 216 255
190 216 255
190 216 255
190 216 255
190 216 255
190 216 255
190 216 255
190 216 255
190 216 255
190 216 255
190 216 255
190 216 255
190 216 255
190 216 255
190 216 255
190 216 255
190 216 255
190 216 255
190 216 255
190 216 255
190 216 255
190 216 255
190 216 255
190 216 255
190 216 255
190 216 255
190 216 255
190 216 255
190 216 255
190 216 255
190 216 255
190 216 255
190 216 255
190 216 255
190 216 255
190 216 255
190 216 255
190 216 255
190 216 255
190 216 255
190 216 255
190 216 255
190 216 255
190 216 255
190 216 255
190 216 255
190 216 255
190 216 255
190 216 255
190 216 255
190 216 255
190 216 255
190 216 255
190 216 255
190 216 255
190 216 255
190 216 255
190 216 255
190 216 255
190 216 255
190 216 255
190 216 255
190 216 255
190 216 255
190 216 255
190 216 255
190 216 255
190 216 255
190 216 255
190 216 255
190 216 255
190 216 255
190 216 255
190 216 255
190 216 255
190 216 255
190 216 255
190 216 255
190 216 255
190 216 255
190 216 255
190 216 255
190 216 255
190 216 255
190 216 255
190 216 255
190 216 255
190 216 255
190 216 255
190 216 255
190 216 255
190 216 255
190 216 255
190 216 255
190 216 255
190 216 255
190 216 255
190 216 255
190 216 255
190 216 255
190 216 255
190 216 255
190 216 255
190 216 255
190 216 255
190 216 255
190 216 255
190 216 255
190 216 255
190 216 255
190 216 255
190 216 255
190 216 255
190 216 255
190 216 255
190 216 255
190 216 255
190 216 255
190 216 255
190 216 255
190 216 255
190 216 255
190 216 255
190 216 255
190 216 255
190 216 255
190 216 255
190 216 255
190 216 255
190 216 255
190 216 255
190 216 255
190 216 255
190 216 255
190 216 255
190 216 255
190 216 255
190 216 255
190 216 255
190 216 255
190 216 255
190 216 255
190 216 255
190 216 255
190 216 255
190 216 255
190 216 255
190 216 255
190 216 255
190 216 255
190 216 255
190 216 255
190 216 255
190 216 255
190 216 255
190 216 255
190 216 255
190 216 255
190 216 255
190 216 255
190 216 255
190 216 255
190 216 255
190 216 255
190 216 255
190 216 255
190 216 255
190 216 255
190 216 255
190 216 255
190 216 255
190 216 255
190 216 255
190 216 255
190 216 255
190 216 255
190 216 255
190 216 255
190 216 255
190 216 255
190 216 255
190 216 255
190 216 255
190 216 255
190 216 255
190 216 255
190 216 255
190 216 255
190 216 255
190 216 255
190 216 255
190 216 255
190 216 255
190 216 255
190 216 255
190 216 255
190 216 255
190 216 255
190 216 255
190 216 255
190 216 255
190 216 255
190 216 255
190 216 255
190 216 255
190 216 255
190 216 255
190 216 255
190 216 255
190 216 255
190 216 255
190 216 255
190 216 255
190 216 255
190 216 255
190 216 255
190 216 255
190 216 255
190 216 255
190 216 255
190 216 255
190 216 255
190 216 255
190 216 255
190 216 255
190 216 255
190 216 255
190 216 255
190 216 255
190 216 255
190 216 255
190 216 255
190 216 255
190 216 255
190 216 255
190 216 255
190 216 255
190 216 255
190 216 255
190 216 255
190 216 255
190 216 255
190 216 255
190 216 255
190 216 255
190 216 255
190 216 255
190 216 255
190 216 255
190 216 255
190 216 255
190 216 255
190 216 255
190 216 255
190 216 255
190 216 255
190 216 255
190 216 255
190 216 255
190 216 255
190 216 255
190 216 255
190 216 255
190 216 255
190 216 255
190 216 255
190 216 255
190 216 255
190 216 255
190 216 255
190 216 255
190 216 255
190 216 255
190 216 255
190 216 255
190 216 255
190 216 255
190 216 255
190 216 255
190 216 255
190 216 255
190 216 255
190 216 255
190 216 255
190 216 255
190 216 255
190 216 255
190 216 255
190 216 255
190 216 255
190 216 255
190 216 255
190 216 255
190 216 255
190 216 255
190 216 255
190 216 255
190 216 255
190 216 255
190 216 255
190 216 255
190 216 255
190 216 255
190 216 255
190 216 255
190 216 255
190 216 255
190 216 255
190 216 255
190 216 255
190 216 255
190 216 255
190 216 255
190 216 255
190 216 255
190 216 255
190 216 255
190 216 255
190 216 255
190 216 255
190 216 255
190 216 255
190 216 255
190 216 255
190 216 255
190 216 255
190 216 255
190 216 255
190 216 255
190 216 255
190 216 255
190 216 255
190 216 255
190 216 255
190 216 255
190 216 255
190 216 255
190 216 255
190 216 255
190 216 255
190 216 255
190 216 255
190 216 255
190 216 255
190 216 255
190 216 255
190 216 255
190 216 255
190 216 255
190 216 255
190 216 255
190 216 255
190 216 255
190 216 255
190 216 255
190 216 255
190 216 255
190 216 255
190 216 255
190 216 255
190 216 255
190 216 255
190 216 255
190 216 255
190 216 255
190 216 255
190 216 255
190 216 255
190 216 255
190 216 255
190 216 255
190 216 255
190 216 255
190 216 255
190 216 255
190 216 255
190 216 255
190 216 255
190 216 255
190 216 255
190 216 255
190 216 255
190 216 255
190 216 255
190 216 255
190 216 255
190 216 255
190 216 255
190 216 255
190 216 255
190 216 255
190 216 255
190 216 255
190 216 255
190 216 255
190 216 255
190 216 255
190 216 255
190 216 255
190 216 255
190 216 255
190 216 255
190 216 255
190 216 255
190 216 255
190 216 255
190 216 255
190 216 255
190 216 255
190 216 255
190 216 255
190 216 255
190 216 255
190 216 255
190 216 255
190 216 255
190 216 255
190 216 255
190 216 255
190 216 255
190 216 255
190 216 255
190 216 255
190 216 255
190 216 255
190 216 255
190 216 255
190 216 255
190 216 255
190 216 255
190 216 255
190 216 255
190 216 255
190 216 255
190 216 255
190 216 255
190 216 255
190 216 255
190 216 255
190 216 255
190 216 255
190 216 255
190 216 255
190 216 255
190 216 255
190 216 255
190 216 255
190 216 255
190 216 255
190 216 255
190 216 255
190 216 255
190 216 255
190 216 255
190 216 255
190 216 255
190 216 255
190 216 255
190 216 255
190 216 255
190 216 255
190 216 255
190 216 255
190 216 255
190 216 255
190 216 255
190 216 255
190 216 255
190 216 255
190 216 255
190 216 255
190 216 255
190 216 255
190 216 255
190 216 255
190 216 255
190 216 255
190 216 255
190 216 255
190 216 255
190 216 255
190 216 255
190 216 255
190 216 255
190 216 255
190 216 255
190 216 255
190 216 255
190 216 255
190 216 255
190 216 255
190 216 255
190 216 255
190 216 255
190 216 255
190 216 255
190 216 255
190 216 255
190 216 255
190 216 255
190 216 255
190 216 255
190 216 255
190 216 255
190 216 255
190 216 255
190 216 255
190 216 255
190 216 255
190 216 255
190 216 255
190 216 255
190 216 255
190 216 255
190 216 255
190 216 255
190 216 255
190 216 255
190 216 255
190 216 255
190 216 255
190 216 255
190 216 255
190 216 255
190 216 255
190 216 255
190 216 255
190 216 255
190 216 255
190 216 255
190 216 255
190 216 255
190 216 255
190 216 255
190 216 255
190 216 255
190 216 255
190 216 255
190 216 255
190 216 255
190 216 255
190 216 255
190 216 255
190 216 255
190 216 255
190 216 255
190 216 255
190 216 255
190 216 255
190 216 255
190 216 255
190 216 255
190 216 255
190 216 255
190 216 255
190 216 255
190 216 255
190 216 255
190 216 255
190 216 255
190 216 255
190 216 255
190 216 255
190 216 255
190 216 255
190 216 255
190 216 255
190 216 255
190 216 255
190 216 255
190 216 255
190 216 255
190 216 255
190 216 255
190 216 255
190 216 255
190 216 255
190 216 255
190 216 255
190 216 255
190 216 255
190 216 255
190 216 255
190 216 255
190 216 255
190 216 255
190 216 255
190 216 255
190 216 255
190 216 255
190 216 255
190 216 255
190 216 255
190 216 255
190 216 255
190 216 255
190 216 255
190 216 255
190 216 255
190 216 255
190 216 255
190 216 255
190 216 255
190 216 255
190 216 255
190 216 255
190 216 255
190 216 255
190 216 255
190 216 255
190 216 255
190 216 255
190 216 255
190 216 255
190 216 255
190 216 255
190 216 255
190 216 255
190 216 255
190 216 255
190 216 255
190 216 255
190 216 255
190 216 255
190 216 255
190 216 255
190 216 255
190 216 255
190 216 255
190 216 255
190 216 255
190 216 255
190 216 255
190 216 255
190 216 255
190 216 255
190 216 255
190 216 255
190 216 255
190 216 255
190 216 255
190 216 255
190 216 255
190 216 255
190 216 255
190 216 255
190 216 255
190 216 255
190 216 255
190 216 255
190 216 255
190 216 255
190 216 255
190 216 255
190 216 255
190 216 255
190 216 255
190 216 255
190 216 255
190 216 255
190 216 255
190 216 255
190 216 255
190 216 255
190 216 255
190 216 255
190 216 255
190 216 255
190 216 255
190 216 255
190 216 255
190 216 255
190 216 255
190 216 255
190 216 255
190 216 255
190 216 255
190 216 255
190 216 255
190 216 255
190 216 255
190 216 255
190 216 255
190 216 255
190 216 255
190 216 255
190 216 255
190 216 255
190 216 255
190 216 255
190 216 255
190 216 255
190 216 255
190 216 255
190 216 255
190 216 255
190 216 255
190 216 255
190 216 255
190 216 255
190 216 255
190 216 255
190 216 255
190 216 255
190 216 255
190 216 255
190 216 255
190 216 255
190 216 255
190 216 255
190 216 255
190 216 255
190 216 255
190 216 255
190 216 255
190 216 255
190 216 255
190 216 255
190 216 255
190 216 255
190 216 255
190 216 255
190 216 255
190 216 255
190 216 255
190 216 255
190 216 255
190 216 255
190 216 255
190 216 255
190 216 255
190 216 255
190 216 255
190 216 255
190 216 255
190 216 255
190 216 255
190 216 255
190 216 255
190 216 255
190 216 255
190 216 255
190 216 255
190 216 255
190 216 255
190 216 255
190 216 255
190 216 255
190 216 255
190 216 255
190 216 255
190 216 255
190 216 255
190 216 255
190 216 255
190 216 255
190 216 255
190 216 255
190 216 255
190 216 255
190 216 255
190 216 255
190 216 255
190 216 255
190 216 255
190 216 255
190 216 255
190 216 255
190 216 255
190 216 255
190 216 255
190 216 255
190 216 255
190 216 255
190 216 255
190 216 255
190 216 255
190 216 255
190 216 255
190 216 255
190 216 255
190 216 255
190 216 255
190 216 255
190 216 255
190 216 255
190 216 255
190 216 255
190 216 255
190 216 255
190 216 255
190 216 255
190 216 255
190 216 255
190 216 255
190 216 255
190 216 255
190 216 255
190 216 255
190 216 255
190 216 255
190 216 255
190 216 255
190 216 255
190 216 255
190 216 255
190 216 255
190 216 255
190 216 255
190 216 255
190 216 255
190 216 255
190 216 255
190 216 255
190 216 255
190 216 255
190 216 255
190 216 255
190 216 255
190 216 255
190 216 255
190 216 255
190 216 255
190 216 255
190 216 255
190 216 255
190 216 255
190 216 255
190 216 255
190 216 255
190 216 255
190 216 255
190 216 255
190 216 255
190 216 255
190 216 255
190 216 255
190 216 255
190 216 255
190 216 255
190 216 255
190 216 255
190 216 255
190 216 255
190 216 255
190 216 255
190 216 255
190 216 255
190 216 255
190 216 255
190 216 255
190 216 255
190 216 255
190 216 255
190 216 255
190 216 255
190 216 255
190 216 255
190 216 255
190 216 255
190 216 255
190 216 255
190 216 255
190 216 255
190 216 255
190 216 255
190 216 255
190 216 255
190 216 255
190 216 255
190 216 255
190 216 255
190 216 255
190 216 255
190 216 255
190 216 255
190 216 255
190 216 255
190 216 255
190 216 255
190 216 255
190 216 255
190 216 255
190 216 255
190 216 255
190 216 255
190 216 255
190 216 255
190 216 255
190 216 255
190 216 255
190 216 255
190 216 255
190 216 255
190 216 255
190 216 255
190 216 255
190 216 255
190 216 255
190 216 255
190 216 255
190 216 255
190 216 255
190 216 255
190 216 255
190 216 255
190 216 255
190 216 255
190 216 255
190 216 255
190 216 255
190 216 255
190 216 255
190 216 255
190 216 255
190 216 255
190 216 255
190 216 255
190 216 255
190 216 255
190 216 255
190 216 255
190 216 255
190 216 255
190 216 255
190 216 255
190 216 255
190 216 255
190 216 255
190 216 255
190 216 255
190 216 255
190 216 255
190 216 255
190 216 255
190 216 255
190 216 255
190 216 255
190 216 255
190 216 255
190 216 255
190 216 255
190 216 255
190 216 255
190 216 255
190 216 255
190 216 255
190 216 255
190 216 255
190 216 255
190 216 255
190 216 255
190 216 255
190 216 255
190 216 255
190 216 255
190 216 255
190 216 255
190 216 255
190 216 255
190 216 255
190 216 255
190 216 255
190 216 255
190 216 255
190 216 255
190 216 255
190 216 255
190 216 255
190 216 255
190 216 255
190 216 255
190 216 255
190 216 255
190 216 255
190 216 255
190 216 255
190 216 255
190 216 255
190 216 255
190 216 255
190 216 255
190 216 255
190 216 255
190 216 255
190 216 255
190 216 255
190 216 255
190 216 255
190 216 255
190 216 255
190 216 255
190 216 255
190 216 255
190 216 255
190 216 255
190 216 255
190 216 255
190 216 255
190 216 255
190 216 255
190 216 255
190 216 255
190 216 255
190 216 255
190 216 255
190 216 255
190 216 255
190 216 255
190 216 255
190 216 255
190 216 255
190 216 255
190 216 255
190 216 255
190 216 255
190 216 255
190 216 255
190 216 255
190 216 255
190 216 255
190 216 255
190 216 255
190 216 255
190 216 255
190 216 255
190 216 255
190 216 255
190 216 255
190 216 255
190 216 255
190 216 255
190 216 255
190 216 255
190 216 255
190 216 255
190 216 255
190 216 255
190 216 255
190 216 255
190 216 255
190 216 255
190 216 255
190 216 255
190 216 255
190 216 255
190 216 255
190 216 255
190 216 255
190 216 255
190 216 255
190 216 255
190 216 255
190 216 255
190 216 255
190 216 255
190 216 255
190 216 255
190 216 255
190 216 255
190 216 255
190 216 255
190 216 255
190 216 255
190 216 255
190 216 255
190 216 255
190 216 255
190 216 255
190 216 255
190 216 255
190 216 255
190 216 255
190 216 255
190 216 255
190 216 255
190 216 255
190 216 255
190 216 255
190 216 255
190 216 255
190 216 255
190 216 255
191 217 255
191 217 255
191 217 255
191 217 255
191 217 255
191 217 255
191 217 255
191 217 255
191 217 255
191 217 255
191 217 255
191 217 255
191 217 255
191 217 255
191 217 255
191 217 255
191 217 255
191 217 255
191 217 255
191 217 255
191 217 255
191 217 255
191 217 255
191 217 255
191 217 255
191 217 255
191 217 255
191 217 255
191 217 255
191 217 255
191 217 255
191 217 255
191 217 255
191 217 255
191 217 255
191 217 255
190 216 255
191 217 255
191 217 255
191 217 255
191 217 255
191 217 255
191 217 255
191 217 255
191 217 255
191 217 255
191 217 255
190 216 255
190 216 255
191 217 255
191 217 255
190 216 255
190 216 255
191 217 255
191 217 255
191 217 255
190 216 255
190 216 255
191 217 255
190 216 255
190 216 255
191 217 255
191 217 255
190 216 255
190 216 255
190 216 255
191 217 255
191 217 255
191 217 255
191 216 255
190 216 255
191 217 255
191 217 255
190 216 255
191 217 255
191 217 255
191 217 255
191 217 255
190 216 255
191 217 255
190 216 255
190 216 255
191 217 255
191 217 255
190 216 255
190 216 255
191 217 255
191 217 255
191 217 255
190 216 255
191 217 255
191 217 255
191 216 255
191 217 255
191 217 255
190 216 255
191 217 255
190 216 255
190 216 255
190 216 255
191 217 255
190 216 255
190 216 255
190 216 255
191 217 255
190 216 255
191 217 255
191 217 255
190 216 255
190 216 255
191 217 255
190 216 255
191 217 255
190 216 255
190 216 255
190 216 255
191 217 255
190 216 255
191 217 255
190 216 255
190 216 255
190 216 255
191 217 255
191 217 255
190 216 255
191 217 255
190 216 255
190 216 255
191 217 255
190 216 255
190 216 255
190 216 255
190 216 255
190 216 255
191 217 255
191 217 255
191 217 255
190 216 255
190 216 255
190 216 255
190 216 255
191 217 255
191 217 255
190 216 255
191 217 255
190 216 255
190 216 255
190 216 255
190 216 255
191 217 255
190 216 255
191 217 255
191 217 255
190 216 255
190 216 255
191 217 255
191 217 255
190 216 255
190 216 255
190 216 255
190 216 255
190 216 255
190 216 255
190 216 255
190 216 255
190 216 255
191 217 255
191 217 255
190 216 255
190 216 255
190 216 255
190 216 255
190 216 255
190 216 255
190 216 255
190 216 255
191 217 255
191 217 255
190 216 255
190 216 255
190 216 255
190 216 255
190 216 255
191 217 255
190 216 255
190 216 255
191 217 255
190 216 255
190 216 255
190 216 255
190 216 255
190 216 255
190 216 255
191 217 255
190 216 255
190 216 255
190 216 255
190 216 255
190 216 255
191 216 255
190 216 255
190 216 255
190 216 255
190 216 255
191 217 255
190 216 255
190 216 255
190 216 255
191 217 255
190 216 255
190 216 255
191 217 255
190 216 255
191 217 255
190 216 255
190 216 255
190 216 255
190 216 255
190 216 255
190 216 255
190 216 255
190 216 255
190 216 255
190 216 255
190 216 255
190 216 255
190 216 255
190 216 255
191 217 255
191 217 255
191 217 255
190 216 255
190 216 255
191 217 255
191 217 255
191 217 255
190 216 255
190 216 255
190 216 255
191 217 255
190 216 255
191 217 255
190 216 255
190 216 255
190 216 255
190 216 255
191 217 255
190 216 255
190 216 255
191 217 255
190 216 255
190 216 255
191 217 255
190 216 255
190 216 255
190 216 255
190 216 255
190 216 255
190 216 255
190 216 255
190 216 255
190 216 255
190 216 255
190 216 255
190 216 255
191 217 255
190 216 255
190 216 255
191 217 255
190 216 255
190 216 255
190 216 255
191 217 255
191 216 255
191 217 255
190 216 255
191 217 255
191 217 255
191 217 255
190 216 255
190 216 255
190 216 255
190 216 255
190 216 255
190 216 255
190 216 255
191 217 255
190 216 255
191 217 255
191 217 255
190 216 255
191 217 255
191 217 255
191 217 255
190 216 255
190 216 255
191 217 255
190 216 255
190 216 255
191 217 255
191 217 255
191 217 255
191 217 255
191 217 255
191 217 255
191 217 255
190 216 255
190 216 255
190 216 255
190 216 255
190 216 255
190 216 255
191 217 255
190 216 255
190 216 255
191 217 255
191 217 255
191 217 255
190 216 255
191 217 255
190 216 255
190 216 255
191 217 255
190 216 255
190 216 255
191 217 255
191 217 255
190 216 255
191 217 255
190 216 255
190 216 255
190 216 255
191 217 255
190 216 255
190 216 255
191 217 255
190 216 255
190 216 255
191 217 255
191 217 255
191 217 255
190 216 255
191 217 255
191 217 255
190 216 255
191 217 255
190 216 255
191 217 255
191 217 255
191 217 255
191 217 255
190 216 255
190 216 255
191 217 255
191 217 255
191 217 255
190 216 255
191 217 255
191 217 255
191 217 255
191 217 255
190 216 255
191 217 255
191 217 255
190 216 255
191 217 255
191 217 255
190 216 255
191 217 255
191 217 255
191 217 255
191 217 255
191 217 255
191 217 255
191 216 255
191 217 255
191 217 255
191 217 255
191 217 255
191 217 255
191 217 255
191 217 255
191 217 255
191 217 255
191 217 255
191 217 255
191 217 255
191 217 255
191 217 255
191 217 255
191 217 255
191 217 255
191 217 255
191 217 255
191 217 255
191 217 255
191 217 255
191 217 255
191 217 255
191 217 255
191 217 255
191 217 255
191 217 255
191 217 255
191 217 255
191 217 255
191 217 255
191 217 255
191 217 255
191 217 255
191 217 255
191 217 255
191 217 255
191 217 255
191 217 255
191 217 255
191 217 255
191 217 255
191 217 255
191 217 255
191 217 255
191 217 255
191 217 255
191 217 255
191 217 255
191 217 255
191 217 255
191 217 255
191 217 255
191 217 255
191 217 255
191 217 255
191 217 255
191 217 255
191 217 255
191 217 255
191 217 255
191 217 255
191 217 255
191 217 255
191 217 255
191 217 255
191 217 255
191 217 255
191 217 255
191 217 255
191 217 255
191 217 255
191 217 255
191 217 255
191 217 255
191 217 255
191 217 255
191 217 255
191 217 255
191 217 255
191 217 255
191 217 255
191 217 255
191 217 255
191 217 255
191 217 255
191 217 255
191 217 255
191 217 255
191 217 255
191 217 255
191 217 255
191 217 255
191 217 255
191 217 255
191 217 255
191 217 255
191 217 255
191 217 255
191 217 255
191 217 255
191 217 255
191 217 255
191 217 255
191 217 255
191 217 255
191 217 255
191 217 255
191 217 255
191 217 255
191 217 255
191 217 255
191 217 255
191 217 255
191 217 255
191 217 255
191 217 255
191 217 255
191 217 255
191 217 255
191 217 255
191 217 255
191 217 255
191 217 255
191 217 255
191 217 255
191 217 255
191 217 255
191 217 255
191 217 255
191 217 255
191 217 255
191 217 255
191 217 255
191 217 255
191 217 255
191 217 255
191 217 255
191 217 255
191 217 255
191 217 255
191 217 255
191 217 255
191 217 255
191 217 255
191 217 255
191 217 255
191 217 255
191 217 255
191 217 255
191 217 255
191 217 255
191 217 255
191 217 255
191 217 255
191 217 255
191 217 255
191 217 255
191 217 255
191 217 255
191 217 255
191 217 255
191 217 255
191 217 255
191 217 255
191 217 255
191 217 255
191 217 255
191 217 255
191 217 255
191 217 255
191 217 255
191 217 255
191 217 255
191 217 255
191 217 255
191 217 255
191 217 255
191 217 255
191 217 255
191 217 255
191 217 255
191 217 255
191 217 255
191 217 255
191 217 255
191 217 255
191 217 255
191 217 255
191 217 255
191 217 255
191 217 255
191 217 255
191 217 255
191 217 255
191 217 255
191 217 255
191 217 255
191 217 255
191 217 255
191 217 255
191 217 255
191 217 255
191 217 255
191 217 255
191 217 255
191 217 255
191 217 255
191 217 255
191 217 255
191 217 255
191 217 255
191 217 255
191 217 255
191 217 255
191 217 255
191 217 255
191 217 255
191 217 255
191 217 255
191 217 255
191 217 255
191 217 255
191 217 255
191 217 255
191 217 255
191 217 255
191 217 255
191 217 255
191 217 255
191 217 255
191 217 255
191 217 255
191 217 255
191 217 255
191 217 255
191 217 255
191 217 255
191 217 255
191 217 255
191 217 255
191 217 255
191 217 255
191 217 255
191 217 255
191 217 255
191 217 255
191 217 255
191 217 255
191 217 255
191 217 255
191 217 255
191 217 255
191 217 255
191 217 255
191 217 255
191 217 255
191 217 255
191 217 255
191 217 255
191 217 255
191 217 255
191 217 255
191 217 255
191 217 255
191 217 255
191 217 255
191 217 255
191 217 255
191 217 255
191 217 255
191 217 255
191 217 255
191 217 255
191 217 255
191 217 255
191 217 255
191 217 255
191 217 255
191 217 255
191 217 255
191 217 255
191 217 255
191 217 255
191 217 255
191 217 255
191 217 255
191 217 255
191 217 255
191 217 255
191 217 255
191 217 255
191 217 255
191 217 255
191 217 255
191 217 255
191 217 255
191 217 255
191 217 255
191 217 255
191 217 255
191 217 255
191 217 255
191 217 255
191 217 255
191 217 255
191 217 255
191 217 255
191 217 255
191 217 255
191 217 255
191 217 255
191 217 255
191 217 255
191 217 255
191 217 255
191 217 255
191 217 255
191 217 255
191 217 255
191 217 255
191 217 255
191 217 255
191 217 255
191 217 255
191 217 255
191 217 255
191 217 255
191 217 255
191 217 255
191 217 255
191 217 255
191 217 255
191 217 255
191 217 255
191 217 255
191 217 255
191 217 255
191 217 255
191 217 255
191 217 255
191 217 255
191 217 255
191 217 255
191 217 255
191 217 255
191 217 255
191 217 255
191 217 255
191 217 255
191 217 255
191 217 255
191 217 255
191 217 255
191 217 255
191 217 255
191 217 255
191 217 255
191 217 255
191 217 255
191 217 255
191 217 255
191 217 255
191 217 255
191 217 255
191 217 255
191 217 255
191 217 255
191 217 255
191 217 255
191 217 255
191 217 255
191 217 255
191 217 255
191 217 255
191 217 255
191 217 255
191 217 255
191 217 255
191 217 255
191 217 255
191 217 255
191 217 255
191 217 255
191 217 255
191 217 255
191 217 255
191 217 255
191 217 255
191 217 255
191 217 255
191 217 255
191 217 255
191 217 255
191 217 255
191 217 255
191 217 255
191 217 255
191 217 255
191 217 255
191 217 255
191 217 255
191 217 255
191 217 255
191 217 255
191 217 255
191 217 255
191 217 255
191 217 255
191 217 255
191 217 255
191 217 255
191 217 255
191 217 255
191 217 255
191 217 255
191 217 255
191 217 255
191 217 255
191 217 255
191 217 255
191 217 255
191 217 255
191 217 255
191 217 255
191 217 255
191 217 255
191 217 255
191 217 255
191 217 255
191 217 255
191 217 255
191 217 255
191 217 255
191 217 255
191 217 255
191 217 255
191 217 255
191 217 255
191 217 255
191 217 255
191 217 255
191 217 255
191 217 255
191 217 255
191 217 255
191 217 255
191 217 255
191 217 255
191 217 255
191 217 255
191 217 255
191 217 255
191 217 255
191 217 255
191 217 255
191 217 255
191 217 255
191 217 255
191 217 255
191 217 255
191 217 255
191 217 255
191 217 255
191 217 255
191 217 255
191 217 255
191 217 255
191 217 255
191 217 255
191 217 255
191 217 255
191 217 255
191 217 255
191 217 255
191 217 255
191 217 255
191 217 255
191 217 255
191 217 255
191 217 255
191 217 255
191 217 255
191 217 255
191 217 255
191 217 255
191 217 255
191 217 255
191 217 255
191 217 255
191 217 255
191 217 255
191 217 255
191 217 255
191 217 255
191 217 255
191 217 255
191 217 255
191 217 255
191 217 255
191 217 255
191 217 255
191 217 255
191 217 255
191 217 255
191 217 255
191 217 255
191 217 255
191 217 255
191 217 255
191 217 255
191 217 255
191 217 255
191 217 255
191 217 255
191 217 255
191 217 255
191 217 255
191 217 255
191 217 255
191 217 255
191 217 255
191 217 255
191 217 255
191 217 255
191 217 255
191 217 255
191 217 255
191 217 255
191 217 255
191 217 255
191 217 255
191 217 255
191 217 255
191 217 255
191 217 255
191 217 255
191 217 255
191 217 255
191 217 255
191 217 255
191 217 255
191 217 255
191 217 255
191 217 255
191 217 255
191 217 255
191 217 255
191 217 255
191 217 255
191 217 255
191 217 255
191 217 255
191 217 255
191 217 255
191 217 255
191 217 255
191 217 255
191 217 255
191 217 255
191 217 255
191 217 255
191 217 255
191 217 255
191 217 255
191 217 255
191 217 255
191 217 255
191 217 255
191 217 255
191 217 255
191 217 255
191 217 255
191 217 255
191 217 255
191 217 255
191 217 255
191 217 255
191 217 255
191 217 255
191 217 255
191 217 255
191 217 255
191 217 255
191 217 255
191 217 255
191 217 255
191 217 255
191 217 255
191 217 255
191 217 255
191 217 255
191 217 255
191 217 255
191 217 255
191 217 255
191 217 255
191 217 255
191 217 255
191 217 255
191 217 255
191 217 255
191 217 255
191 217 255
191 217 255
191 217 255
191 217 255
191 217 255
191 217 255
191 217 255
191 217 255
191 217 255
191 217 255
191 217 255
191 217 255
191 217 255
191 217 255
191 217 255
191 217 255
191 217 255
191 217 255
191 217 255
191 217 255
191 217 255
191 217 255
191 217 255
191 217 255
191 217 255
191 217 255
191 217 255
191 217 255
191 217 255
191 217 255
191 217 255
191 217 255
191 217 255
191 217 255
191 217 255
191 217 255
191 217 255
191 217 255
191 217 255
191 217 255
191 217 255
191 217 255
191 217 255
191 217 255
191 217 255
191 217 255
191 217 255
191 217 255
191 217 255
191 217 255
191 217 255
191 217 255
191 217 255
191 217 255
191 217 255
191 217 255
191 217 255
191 217 255
191 217 255
191 217 255
191 217 255
191 217 255
191 217 255
191 217 255
191 217 255
191 217 255
191 217 255
191 217 255
191 217 255
191 217 255
191 217 255
191 217 255
191 217 255
191 217 255
191 217 255
191 217 255
191 217 255
191 217 255
191 217 255
191 217 255
191 217 255
191 217 255
191 217 255
191 217 255
191 217 255
191 217 255
191 217 255
191 217 255
191 217 255
191 217 255
191 217 255
191 217 255
191 217 255
191 217 255
191 217 255
191 217 255
191 217 255
191 217 255
191 217 255
191 217 255
191 217 255
191 217 255
191 217 255
191 217 255
191 217 255
191 217 255
191 217 255
191 217 255
191 217 255
191 217 255
191 217 255
191 217 255
191 217 255
191 217 255
191 217 255
191 217 255
191 217 255
191 217 255
191 217 255
191 217 255
191 217 255
191 217 255
191 217 255
191 217 255
191 217 255
191 217 255
191 217 255
191 217 255
191 217 255
191 217 255
191 217 255
191 217 255
191 217 255
191 217 255
191 217 255
191 217 255
191 217 255
191 217 255
191 217 255
191 217 255
191 217 255
191 217 255
191 217 255
191 217 255
191 217 255
191 217 255
191 217 255
191 217 255
191 217 255
191 217 255
191 217 255
191 217 255
191 217 255
191 217 255
191 217 255
191 217 255
191 217 255
191 217 255
191 217 255
191 217 255
191 217 255
191 217 255
191 217 255
191 217 255
191 217 255
191 217 255
191 217 255
191 217 255
191 217 255
191 217 255
191 217 255
191 217 255
191 217 255
191 217 255
191 217 255
191 217 255
191 217 255
191 217 255
191 217 255
191 217 255
191 217 255
191 217 255
191 217 255
191 217 255
191 217 255
191 217 255
191 217 255
191 217 255
191 217 255
191 217 255
191 217 255
191 217 255
191 217 255
191 217 255
191 217 255
191 217 255
191 217 255
191 217 255
191 217 255
191 217 255
191 217 255
191 217 255
191 217 255
191 217 255
191 217 255
191 217 255
191 217 255
191 217 255
191 217 255
191 217 255
191 217 255
191 217 255
191 217 255
191 217 255
191 217 255
191 217 255
191 217 255
191 217 255
191 217 255
191 217 255
191 217 255
191 217 255
191 217 255
191 217 255
191 217 255
191 217 255
191 217 255
191 217 255
191 217 255
191 217 255
191 217 255
191 217 255
191 217 255
191 217 255
191 217 255
191 217 255
191 217 255
191 217 255
191 217 255
191 217 255
191 217 255
191 217 255
191 217 255
191 217 255
191 217 255
191 217 255
191 217 255
191 217 255
191 217 255
191 217 255
191 217 255
191 217 255
191 217 255
191 217 255
191 217 255
191 217 255
191 217 255
191 217 255
191 217 255
191 217 255
191 217 255
191 217 255
191 217 255
191 217 255
191 217 255
191 217 255
191 217 255
191 217 255
191 217 255
191 217 255
191 217 255
191 217 255
191 217 255
191 217 255
191 217 255
191 217 255
191 217 255
191 217 255
191 217 255
191 217 255
191 217 255
191 217 255
191 217 255
191 217 255
191 217 255
191 217 255
191 217 255
191 217 255
191 217 255
191 217 255
191 217 255
191 217 255
191 217 255
191 217 255
191 217 255
191 217 255
191 217 255
191 217 255
191 217 255
191 217 255
191 217 255
191 217 255
191 217 255
191 217 255
191 217 255
191 217 255
191 217 255
191 217 255
191 217 255
191 217 255
191 217 255
191 217 255
191 217 255
191 217 255
191 217 255
191 217 255
191 217 255
191 217 255
191 217 255
191 217 255
191 217 255
191 217 255
191 217 255
191 217 255
191 217 255
191 217 255
191 217 255
191 217 255
191 217 255
191 217 255
191 217 255
191 217 255
191 217 255
191 217 255
191 217 255
191 217 255
191 217 255
191 217 255
191 217 255
191 217 255
191 217 255
191 217 255
191 217 255
191 217 255
191 217 255
191 217 255
191 217 255
191 217 255
191 217 255
191 217 255
191 217 255
191 217 255
191 217 255
191 217 255
191 217 255
191 217 255
191 217 255
191 217 255
191 217 255
191 217 255
191 217 255
191 217 255
191 217 255
191 217 255
191 217 255
191 217 255
191 217 255
191 217 255
191 217 255
191 217 255
191 217 255
191 217 255
191 217 255
191 217 255
191 217 255
191 217 255
191 217 255
191 217 255
191 217 255
191 217 255
191 217 255
191 217 255
191 217 255
191 217 255
191 217 255
191 217 255
191 217 255
191 217 255
191 217 255
191 217 255
191 217 255
191 217 255
191 217 255
191 217 255
191 217 255
191 217 255
191 217 255
191 217 255
191 217 255
191 217 255
191 217 255
191 217 255
191 217 255
191 217 255
191 217 255
191 217 255
191 217 255
191 217 255
191 217 255
191 217 255
191 217 255
191 217 255
191 217 255
191 217 255
191 217 255
191 217 255
191 217 255
191 217 255
191 217 255
191 217 255
191 217 255
191 217 255
191 217 255
191 217 255
191 217 255
191 217 255
191 217 255
191 217 255
191 217 255
191 217 255
191 217 255
191 217 255
191 217 255
191 217 255
191 217 255
191 217 255
191 217 255
191 217 255
191 217 255
191 217 255
191 217 255
191 217 255
191 217 255
191 217 255
191 217 255
191 217 255
191 217 255
191 217 255
191 217 255
191 217 255
191 217 255
191 217 255
191 217 255
191 217 255
191 217 255
191 217 255
191 217 255
191 217 255
191 217 255
191 217 255
191 217 255
191 217 255
191 217 255
191 217 255
191 217 255
191 217 255
191 217 255
191 217 255
191 217 255
191 217 255
191 217 255
191 217 255
191 217 255
191 217 255
191 217 255
191 217 255
191 217 255
191 217 255
191 217 255
191 217 255
191 217 255
191 217 255
191 217 255
191 217 255
191 217 255
191 217 255
191 217 255
191 217 255
191 217 255
191 217 255
191 217 255
191 217 255
191 217 255
191 217 255
191 217 255
191 217 255
191 217 255
191 217 255
191 217 255
191 217 255
191 217 255
191 217 255
191 217 255
191 217 255
191 217 255
191 217 255
191 217 255
191 217 255
191 217 255
191 217 255
191 217 255
191 217 255
191 217 255
191 217 255
191 217 255
191 217 255
191 217 255
191 217 255
191 217 255
191 217 255
191 217 255
191 217 255
191 217 255
191 217 255
191 217 255
191 217 255
191 217 255
191 217 255
191 217 255
191 217 255
191 217 255
191 217 255
191 217 255
191 217 255
191 217 255
191 217 255
191 217 255
191 217 255
191 217 255
191 217 255
191 217 255
191 217 255
191 217 255
191 217 255
191 217 255
191 217 255
191 217 255
191 217 255
191 217 255
191 217 255
191 217 255
191 217 255
191 217 255
191 217 255
191 217 255
191 217 255
191 217 255
191 217 255
191 217 255
191 217 255
191 217 255
191 217 255
191 217 255
191 217 255
191 217 255
191 217 255
191 217 255
191 217 255
191 217 255
191 217 255
191 217 255
191 217 255
191 217 255
191 217 255
191 217 255
191 217 255
191 217 255
191 217 255
191 217 255
191 217 255
191 217 255
191 217 255
191 217 255
191 217 255
191 217 255
191 217 255
191 217 255
191 217 255
191 217 255
191 217 255
191 217 255
191 217 255
191 217 255
191 217 255
191 217 255
191 217 255
191 217 255
191 217 255
191 217 255
191 217 255
191 217 255
191 217 255
191 217 255
191 217 255
191 217 255
191 217 255
191 217 255
191 217 255
191 217 255
191 217 255
191 217 255
191 217 255
191 217 255
191 217 255
191 217 255
191 217 255
191 217 255
191 217 255
191 217 255
191 217 255
191 217 255
191 217 255
191 217 255
191 217 255
191 217 255
191 217 255
191 217 255
191 217 255
191 217 255
191 217 255
191 217 255
191 217 255
191 217 255
191 217 255
191 217 255
191 217 255
191 217 255
191 217 255
191 217 255
191 217 255
191 217 255
191 217 255
191 217 255
191 217 255
191 217 255
191 217 255
191 217 255
191 217 255
191 217 255
191 217 255
191 217 255
191 217 255
191 217 255
191 217 255
191 217 255
191 217 255
191 217 255
191 217 255
191 217 255
191 217 255
191 217 255
191 217 255
191 217 255
191 217 255
191 217 255
191 217 255
191 217 255
191 217 255
191 217 255
191 217 255
191 217 255
191 217 255
191 217 255
191 217 255
191 217 255
191 217 255
191 217 255
191 217 255
191 217 255
191 217 255
191 217 255
191 217 255
191 217 255
191 217 255
191 217 255
191 217 255
191 217 255
191 217 255
191 217 255
191 217 255
191 217 255
191 217 255
191 217 255
191 217 255
191 217 255
191 217 255
191 217 255
191 217 255
191 217 255
191 217 255
191 217 255
191 217 255
191 217 255
191 217 255
191 217 255
191 217 255
191 217 255
191 217 255
191 217 255
191 217 255
191 217 255
191 217 255
191 217 255
191 217 255
191 217 255
191 217 255
191 217 255
191 217 255
191 217 255
191 217 255
191 217 255
191 217 255
191 217 255
191 217 255
191 217 255
191 217 255
191 217 255
191 217 255
191 217 255
191 217 255
191 217 255
191 217 255
191 217 255
191 217 255
191 217 255
191 217 255
191 217 255
191 217 255
191 217 255
191 217 255
191 217 255
191 217 255
191 217 255
191 217 255
191 217 255
191 217 255
191 217 255
191 217 255
191 217 255
191 217 255
191 217 255
191 217 255
191 217 255
191 217 255
191 217 255
191 217 255
191 217 255
191 217 255
191 217 255
191 217 255
191 217 255
191 217 255
191 217 255
191 217 255
191 217 255
191 217 255
191 217 255
191 217 255
191 217 255
191 217 255
191 217 255
191 217 255
191 217 255
191 217 255
191 217 255
191 217 255
191 217 255
191 217 255
191 217 255
191 217 255
191 217 255
191 217 255
191 217 255
191 217 255
191 217 255
191 217 255
191 217 255
191 217 255
191 217 255
191 217 255
191 217 255
191 217 255
191 217 255
191 217 255
191 217 255
191 217 255
191 217 255
191 217 255
191 217 255
191 217 255
191 217 255
191 217 255
191 217 255
191 217 255
191 217 255
191 217 255
191 217 255
191 217 255
191 217 255
191 217 255
191 217 255
191 217 255
191 217 255
191 217 255
191 217 255
191 217 255
191 217 255
191 217 255
191 217 255
191 217 255
191 217 255
191 217 255
191 217 255
191 217 255
191 217 255
191 217 255
191 217 255
191 217 255
191 217 255
191 217 255
191 217 255
191 217 255
191 217 255
191 217 255
191 217 255
191 217 255
191 217 255
191 217 255
191 217 255
191 217 255
191 217 255
191 217 255
191 217 255
191 217 255
191 217 255
191 217 255
191 217 255
191 217 255
191 217 255
191 217 255
191 217 255
191 217 255
191 217 255
191 217 255
191 217 255
191 217 255
191 217 255
191 217 255
191 217 255
191 217 255
191 217 255
191 217 255
191 217 255
191 217 255
191 217 255
191 217 255
191 217 255
191 217 255
191 217 255
191 217 255
191 217 255
191 217 255
191 217 255
191 217 255
191 217 255
191 217 255
191 217 255
191 217 255
191 217 255
191 217 255
191 217 255
191 217 255
191 217 255
191 217 255
191 217 255
191 217 255
191 217 255
191 217 255
191 217 255
191 217 255
191 217 255
191 217 255
191 217 255
191 217 255
191 217 255
191 217 255
191 217 255
191 217 255
191 217 255
191 217 255
191 217 255
191 217 255
191 217 255
191 217 255
191 217 255
191 217 255
191 217 255
191 217 255
191 217 255
191 217 255
191 217 255
191 217 255
191 217 255
191 217 255
191 217 255
191 217 255
191 217 255
191 217 255
191 217 255
191 217 255
191 217 255
191 217 255
191 217 255
191 217 255
191 217 255
191 217 255
191 217 255
191 217 255
191 217 255
191 217 255
191 217 255
191 217 255
191 217 255
191 217 255
191 217 255
191 217 255
191 217 255
191 217 255
191 217 255
191 217 255
191 217 255
191 217 255
191 217 255
191 217 255
191 217 255
191 217 255
191 217 255
191 217 255
191 217 255
191 217 255
191 217 255
191 217 255
191 217 255
191 217 255
191 217 255
191 217 255
191 217 255
191 217 255
191 217 255
191 217 255
191 217 255
191 217 255
191 217 255
191 217 255
191 217 255
191 217 255
191 217 255
191 217 255
191 217 255
191 217 255
191 217 255
191 217 255
191 217 255
191 217 255
191 217 255
191 217 255
191 217 255
191 217 255
191 217 255
191 217 255
191 217 255
191 217 255
191 217 255
191 217 255
191 217 255
191 217 255
191 217 255
191 217 255
191 217 255
191 217 255
191 217 255
191 217 255
191 217 255
191 217 255
191 217 255
191 217 255
191 217 255
191 217 255
191 217 255
191 217 255
191 217 255
191 217 255
191 217 255
191 217 255
191 217 255
191 217 255
191 217 255
191 217 255
191 217 255
191 217 255
191 217 255
191 217 255
191 217 255
191 217 255
191 217 255
191 217 255
191 217 255
191 217 255
191 217 255
191 217 255
191 217 255
191 217 255
191 217 255
191 217 255
191 217 255
191 217 255
191 217 255
191 217 255
191 217 255
191 217 255
191 217 255
191 217 255
191 217 255
191 217 255
191 217 255
191 217 255
191 217 255
191 217 255
191 217 255
191 217 255
191 217 255
191 217 255
191 217 255
191 217 255
191 217 255
191 217 255
191 217 255
191 217 255
191 217 255
191 217 255
191 217 255
191 217 255
191 217 255
191 217 255
191 217 255
191 217 255
191 217 255
191 217 255
191 217 255
191 217 255
191 217 255
191 217 255
191 217 255
191 217 255
191 217 255
191 217 255
191 217 255
191 217 255
191 217 255
191 217 255
191 217 255
191 217 255
191 217 255
191 217 255
191 217 255
191 217 255
191 217 255
191 217 255
191 217 255
191 217 255
191 217 255
191 217 255
191 217 255
191 217 255
191 217 255
191 217 255
191 217 255
191 217 255
191 217 255
191 217 255
191 217 255
191 217 255
191 217 255
191 217 255
191 217 255
191 217 255
191 217 255
191 217 255
191 217 255
191 217 255
191 217 255
191 217 255
191 217 255
191 217 255
191 217 255
191 217 255
191 217 255
191 217 255
191 217 255
191 217 255
191 217 255
191 217 255
191 217 255
191 217 255
191 217 255
191 217 255
191 217 255
191 217 255
191 217 255
191 217 255
191 217 255
191 217 255
191 217 255
191 217 255
191 217 255
191 217 255
191 217 255
191 217 255
191 217 255
191 217 255
191 217 255
191 217 255
191 217 255
191 217 255
191 217 255
191 217 255
191 217 255
191 217 255
191 217 255
191 217 255
191 217 255
191 217 255
191 217 255
191 217 255
191 217 255
191 217 255
191 217 255
191 217 255
191 217 255
191 217 255
191 217 255
191 217 255
191 217 255
191 217 255
191 217 255
191 217 255
191 217 255
191 217 255
191 217 255
191 217 255
191 217 255
191 217 255
191 217 255
191 217 255
191 217 255
191 217 255
191 217 255
191 217 255
191 217 255
191 217 255
191 217 255
191 217 255
191 217 255
191 217 255
191 217 255
191 217 255
191 217 255
191 217 255
191 217 255
191 217 255
191 217 255
191 217 255
191 217 255
191 217 255
191 217 255
191 217 255
191 217 255
191 217 255
191 217 255
191 217 255
191 217 255
191 217 255
191 217 255
191 217 255
191 217 255
191 217 255
191 217 255
191 217 255
191 217 255
191 217 255
191 217 255
191 217 255
191 217 255
191 217 255
191 217 255
191 217 255
191 217 255
191 217 255
191 217 255
191 217 255
191 217 255
191 217 255
191 217 255
191 217 255
191 217 255
191 217 255
191 217 255
191 217 255
191 217 255
191 217 255
191 217 255
191 217 255
191 217 255
191 217 255
191 217 255
191 217 255
191 217 255
191 217 255
191 217 255
191 217 255
191 217 255
191 217 255
191 217 255
191 217 255
191 217 255
191 217 255
191 217 255
191 217 255
191 217 255
191 217 255
191 217 255
191 217 255
191 217 255
191 217 255
191 217 255
191 217 255
191 217 255
191 217 255
191 217 255
191 217 255
191 217 255
191 217 255
191 217 255
191 217 255
191 217 255
191 217 255
191 217 255
191 217 255
191 217 255
191 217 255
191 217 255
191 217 255
191 217 255
191 217 255
191 217 255
191 217 255
191 217 255
191 217 255
191 217 255
191 217 255
191 217 255
191 217 255
191 217 255
191 217 255
191 217 255
191 217 255
191 217 255
191 217 255
191 217 255
191 217 255
191 217 255
191 217 255
191 217 255
191 217 255
191 217 255
191 217 255
191 217 255
191 217 255
191 217 255
191 217 255
191 217 255
191 217 255
191 217 255
191 217 255
191 217 255
191 217 255
191 217 255
191 217 255
191 217 255
191 217 255
191 217 255
191 217 255
191 217 255
191 217 255
191 217 255
191 217 255
191 217 255
191 217 255
191 217 255
191 217 255
191 217 255
191 217 255
191 217 255
191 217 255
191 217 255
191 217 255
191 217 255
191 217 255
191 217 255
191 217 255
191 217 255
191 217 255
191 217 255
191 217 255
191 217 255
191 217 255
191 217 255
191 217 255
191 217 255
191 217 255
191 217 255
191 217 255
191 217 255
191 217 255
191 217 255
191 217 255
191 217 255
191 217 255
191 217 255
191 217 255
191 217 255
191 217 255
191 217 255
191 217 255
191 217 255
191 217 255
191 217 255
191 217 255
191 217 255
191 217 255
191 217 255
191 217 255
191 217 255
191 217 255
191 217 255
191 217 255
191 217 255
191 217 255
191 217 255
191 217 255
191 217 255
191 217 255
191 217 255
191 217 255
191 217 255
191 217 255
191 217 255
191 217 255
191 217 255
191 217 255
191 217 255
191 217 255
191 217 255
191 217 255
191 217 255
191 217 255
191 217 255
191 217 255
191 217 255
191 217 255
191 217 255
191 217 255
191 217 255
191 217 255
191 217 255
191 217 255
191 217 255
191 217 255
191 217 255
191 217 255
191 217 255
191 217 255
191 217 255
191 217 255
191 217 255
191 217 255
191 217 255
191 217 255
191 217 255
191 217 255
191 217 255
191 217 255
191 217 255
191 217 255
191 217 255
191 217 255
191 217 255
191 217 255
191 217 255
191 217 255
191 217 255
191 217 255
191 217 255
191 217 255
191 217 255
191 217 255
191 217 255
191 217 255
191 217 255
191 217 255
191 217 255
191 217 255
191 217 255
191 217 255
191 217 255
191 217 255
191 217 255
191 217 255
191 217 255
191 217 255
191 217 255
191 217 255
191 217 255
191 217 255
191 217 255
191 217 255
191 217 255
191 217 255
191 217 255
191 217 255
191 217 255
191 217 255
191 217 255
191 217 255
191 217 255
191 217 255
191 217 255
191 217 255
191 217 255
191 217 255
191 217 255
191 217 255
191 217 255
191 217 255
191 217 255
191 217 255
191 217 255
191 217 255
191 217 255
191 217 255
191 217 255
191 217 255
191 217 255
191 217 255
191 217 255
191 217 255
191 217 255
191 217 255
191 217 255
191 217 255
191 217 255
191 217 255
191 217 255
191 217 255
191 217 255
191 217 255
191 217 255
191 217 255
191 217 255
191 217 255
191 217 255
191 217 255
191 217 255
191 217 255
191 217 255
191 217 255
191 217 255
191 217 255
191 217 255
191 217 255
191 217 255
191 217 255
191 217 255
191 217 255
191 217 255
191 217 255
191 217 255
191 217 255
191 217 255
191 217 255
191 217 255
191 217 255
191 217 255
191 217 255
191 217 255
191 217 255
191 217 255
191 217 255
191 217 255
191 217 255
191 217 255
191 217 255
191 217 255
191 217 255
191 217 255
191 217 255
191 217 255
191 217 255
191 217 255
191 217 255
191 217 255
191 217 255
191 217 255
191 217 255
191 217 255
191 217 255
191 217 255
191 217 255
191 217 255
191 217 255
191 217 255
191 217 255
191 217 255
191 217 255
191 217 255
191 217 255
191 217 255
191 217 255
191 217 255
191 217 255
191 217 255
191 217 255
191 217 255
191 217 255
191 217 255
191 217 255
191 217 255
191 217 255
191 217 255
191 217 255
191 217 255
191 217 255
191 217 255
191 217 255
191 217 255
191 217 255
191 217 255
191 217 255
191 217 255
191 217 255
191 217 255
191 217 255
191 217 255
191 217 255
191 217 255
191 217 255
191 217 255
191 217 255
191 217 255
191 217 255
191 217 255
191 217 255
191 217 255
191 217 255
191 217 255
191 217 255
191 217 255
191 217 255
191 217 255
191 217 255
191 217 255
191 217 255
191 217 255
191 217 255
191 217 255
191 217 255
191 217 255
191 217 255
191 217 255
191 217 255
191 217 255
191 217 255
191 217 255
191 217 255
191 217 255
191 217 255
191 217 255
191 217 255
191 217 255
191 217 255
191 217 255
191 217 255
191 217 255
191 217 255
191 217 255
191 217 255
191 217 255
191 217 255
191 217 255
191 217 255
191 217 255
191 217 255
191 217 255
191 217 255
191 217 255
191 217 255
191 217 255
191 217 255
191 217 255
191 217 255
191 217 255
191 217 255
191 217 255
191 217 255
191 217 255
191 217 255
191 217 255
191 217 255
191 217 255
191 217 255
191 217 255
191 217 255
191 217 255
191 217 255
191 217 255
191 217 255
191 217 255
191 217 255
191 217 255
191 217 255
191 217 255
191 217 255
191 217 255
191 217 255
191 217 255
191 217 255
191 217 255
191 217 255
191 217 255
191 217 255
191 217 255
191 217 255
191 217 255
191 217 255
191 217 255
191 217 255
191 217 255
191 217 255
191 217 255
191 217 255
191 217 255
191 217 255
191 217 255
191 217 255
191 217 255
191 217 255
191 217 255
191 217 255
191 217 255
191 217 255
191 217 255
191 217 255
191 217 255
191 217 255
191 217 255
191 217 255
191 217 255
191 217 255
191 217 255
191 217 255
191 217 255
191 217 255
191 217 255
191 217 255
191 217 255
191 217 255
191 217 255
191 217 255
191 217 255
191 217 255
191 217 255
191 217 255
191 217 255
191 217 255
191 217 255
191 217 255
191 217 255
191 217 255
191 217 255
191 217 255
191 217 255
191 217 255
191 217 255
191 217 255
191 217 255
191 217 255
191 217 255
191 217 255
191 217 255
191 217 255
191 217 255
191 217 255
191 217 255
191 217 255
191 217 255
191 217 255
191 217 255
191 217 255
191 217 255
191 217 255
191 217 255
191 217 255
191 217 255
191 217 255
191 217 255
191 217 255
191 217 255
191 217 255
191 217 255
191 217 255
191 217 255
191 217 255
191 217 255
191 217 255
191 217 255
191 217 255
191 217 255
191 217 255
191 217 255
191 217 255
191 217 255
191 217 255
191 217 255
191 217 255
191 217 255
191 217 255
191 217 255
191 217 255
191 217 255
191 217 255
191 217 255
191 217 255
191 217 255
191 217 255
191 217 255
191 217 255
191 217 255
191 217 255
191 217 255
191 217 255
191 217 255
191 217 255
191 217 255
191 217 255
191 217 255
191 217 255
191 217 255
191 217 255
191 217 255
191 217 255
191 217 255
191 217 255
191 217 255
191 217 255
191 217 255
191 217 255
191 217 255
191 217 255
191 217 255
191 217 255
191 217 255
191 217 255
191 217 255
191 217 255
191 217 255
191 217 255
191 217 255
191 217 255
191 217 255
191 217 255
191 217 255
191 217 255
191 217 255
191 217 255
191 217 255
191 217 255
191 217 255
191 217 255
191 217 255
191 217 255
191 217 255
191 217 255
191 217 255
191 217 255
191 217 255
191 217 255
191 217 255
191 217 255
191 217 255
191 217 255
191 217 255
191 217 255
191 217 255
191 217 255
191 217 255
191 217 255
191 217 255
191 217 255
191 217 255
191 217 255
191 217 255
191 217 255
191 217 255
191 217 255
191 217 255
191 217 255
191 217 255
191 217 255
191 217 255
191 217 255
191 217 255
191 217 255
191 217 255
191 217 255
191 217 255
191 217 255
191 217 255
191 217 255
191 217 255
191 217 255
191 217 255
191 217 255
191 217 255
191 217 255
191 217 255
191 217 255
191 217 255
191 217 255
191 217 255
191 217 255
191 217 255
191 217 255
191 217 255
191 217 255
191 217 255
191 217 255
191 217 255
191 217 255
191 217 255
191 217 255
191 217 255
191 217 255
191 217 255
191 217 255
191 217 255
191 217 255
191 217 255
191 217 255
191 217 255
191 217 255
191 217 255
191 217 255
191 217 255
191 217 255
191 217 255
191 217 255
191 217 255
191 217 255
191 217 255
191 217 255
191 217 255
191 217 255
191 217 255
191 217 255
191 217 255
191 217 255
191 217 255
191 217 255
191 217 255
191 217 255
191 217 255
191 217 255
191 217 255
191 217 255
191 217 255
191 217 255
191 217 255
191 217 255
191 217 255
191 217 255
191 217 255
191 217 255
191 217 255
191 217 255
191 217 255
191 217 255
191 217 255
191 217 255
191 217 255
191 217 255
191 217 255
191 217 255
191 217 255
191 217 255
191 217 255
191 217 255
191 217 255
191 217 255
191 217 255
191 217 255
191 217 255
191 217 255
191 217 255
191 217 255
191 217 255
191 217 255
191 217 255
191 217 255
191 217 255
191 217 255
191 217 255
191 217 255
191 217 255
191 217 255
191 217 255
191 217 255
191 217 255
191 217 255
191 217 255
191 217 255
191 217 255
191 217 255
191 217 255
191 217 255
191 217 255
191 217 255
191 217 255
191 217 255
191 217 255
191 217 255
191 217 255
191 217 255
191 217 255
191 217 255
191 217 255
191 217 255
191 217 255
191 217 255
191 217 255
191 217 255
191 217 255
191 217 255
191 217 255
191 217 255
191 217 255
191 217 255
191 217 255
191 217 255
191 217 255
191 217 255
191 217 255
191 217 255
191 217 255
191 217 255
191 217 255
191 217 255
191 217 255
191 217 255
191 217 255
191 217 255
191 217 255
191 217 255
191 217 255
191 217 255
191 217 255
191 217 255
191 217 255
191 217 255
191 217 255
191 217 255
191 217 255
191 217 255
191 217 255
191 217 255
191 217 255
191 217 255
191 217 255
191 217 255
191 217 255
191 217 255
191 217 255
191 217 255
191 217 255
191 217 255
191 217 255
191 217 255
191 217 255
191 217 255
191 217 255
191 217 255
191 217 255
191 217 255
191 217 255
191 217 255
191 217 255
191 217 255
191 217 255
191 217 255
191 217 255
191 217 255
191 217 255
191 217 255
191 217 255
191 217 255
191 217 255
191 217 255
191 217 255
191 217 255
191 217 255
191 217 255
191 217 255
191 217 255
191 217 255
191 217 255
191 217 255
191 217 255
191 217 255
191 217 255
191 217 255
191 217 255
191 217 255
191 217 255
191 217 255
191 217 255
191 217 255
191 217 255
191 217 255
191 217 255
191 217 255
191 217 255
191 217 255
191 217 255
191 217 255
191 217 255
191 217 255
191 217 255
191 217 255
191 217 255
191 217 255
191 217 255
191 217 255
191 217 255
191 217 255
191 217 255
191 217 255
191 217 255
191 217 255
191 217 255
191 217 255
191 217 255
191 217 255
191 217 255
191 217 255
191 217 255
191 217 255
191 217 255
191 217 255
191 217 255
191 217 255
191 217 255
191 217 255
191 217 255
191 217 255
191 217 255
191 217 255
191 217 255
191 217 255
191 217 255
191 217 255
191 217 255
191 217 255
191 217 255
191 217 255
191 217 255
191 217 255
191 217 255
191 217 255
191 217 255
191 217 255
191 217 255
191 217 255
191 217 255
191 217 255
191 217 255
191 217 255
191 217 255
191 217 255
191 217 255
191 217 255
191 217 255
191 217 255
191 217 255
191 217 255
191 217 255
191 217 255
191 217 255
191 217 255
191 217 255
191 217 255
191 217 255
191 217 255
191 217 255
191 217 255
191 217 255
191 217 255
191 217 255
191 217 255
191 217 255
191 217 255
191 217 255
191 217 255
191 217 255
191 217 255
191 217 255
191 217 255
191 217 255
191 217 255
191 217 255
191 217 255
191 217 255
191 217 255
191 217 255
191 217 255
191 217 255
191 217 255
191 217 255
191 217 255
191 217 255
191 217 255
191 217 255
191 217 255
191 217 255
191 217 255
191 217 255
191 217 255
191 217 255
191 217 255
191 217 255
191 217 255
191 217 255
191 217 255
191 217 255
191 217 255
191 217 255
191 217 255
191 217 255
191 217 255
191 217 255
191 217 255
191 217 255
191 217 255
191 217 255
191 217 255
191 217 255
191 217 255
191 217 255
191 217 255
191 217 255
191 217 255
191 217 255
191 217 255
191 217 255
191 217 255
191 217 255
191 217 255
191 217 255
191 217 255
191 217 255
191 217 255
191 217 255
191 217 255
191 217 255
191 217 255
191 217 255
191 217 255
191 217 255
191 217 255
191 217 255
191 217 255
191 217 255
191 217 255
191 217 255
191 217 255
191 217 255
191 217 255
191 217 255
191 217 255
191 217 255
191 217 255
191 217 255
191 217 255
191 217 255
191 217 255
191 217 255
191 217 255
191 217 255
191 217 255
191 217 255
191 217 255
191 217 255
191 217 255
191 217 255
191 217 255
191 217 255
191 217 255
191 217 255
191 217 255
191 217 255
191 217 255
191 217 255
191 217 255
191 217 255
191 217 255
191 217 255
191 217 255
191 217 255
191 217 255
191 217 255
191 217 255
191 217 255
191 217 255
191 217 255
191 217 255
191 217 255
191 217 255
191 217 255
191 217 255
191 217 255
191 217 255
191 217 255
191 217 255
191 217 255
191 217 255
191 217 255
191 217 255
191 217 255
191 217 255
191 217 255
191 217 255
191 217 255
191 217 255
191 217 255
191 217 255
191 217 255
191 217 255
191 217 255
191 217 255
191 217 255
191 217 255
191 217 255
191 217 255
191 217 255
191 217 255
191 217 255
191 217 255
191 217 255
191 217 255
191 217 255
191 217 255
191 217 255
191 217 255
191 217 255
191 217 255
191 217 255
191 217 255
191 217 255
191 217 255
191 217 255
191 217 255
191 217 255
191 217 255
191 217 255
191 217 255
191 217 255
191 217 255
191 217 255
191 217 255
191 217 255
191 217 255
191 217 255
191 217 255
191 217 255
191 217 255
191 217 255
191 217 255
191 217 255
191 217 255
191 217 255
191 217 255
191 217 255
191 217 255
191 217 255
191 217 255
191 217 255
191 217 255
191 217 255
191 217 255
191 217 255
191 217 255
191 217 255
191 217 255
191 217 255
191 217 255
191 217 255
191 217 255
191 217 255
191 217 255
191 217 255
191 217 255
191 217 255
191 217 255
191 217 255
191 217 255
191 217 255
191 217 255
191 217 255
191 217 255
191 217 255
191 217 255
191 217 255
191 217 255
191 217 255
191 217 255
191 217 255
191 217 255
191 217 255
191 217 255
191 217 255
191 217 255
191 217 255
191 217 255
191 217 255
191 217 255
191 217 255
191 217 255
191 217 255
191 217 255
191 217 255
191 217 255
191 217 255
191 217 255
191 217 255
191 217 255
191 217 255
191 217 255
191 217 255
191 217 255
191 217 255
191 217 255
191 217 255
191 217 255
191 217 255
191 217 255
191 217 255
191 217 255
191 217 255
191 217 255
191 217 255
191 217 255
191 217 255
191 217 255
191 217 255
191 217 255
191 217 255
191 217 255
191 217 255
191 217 255
191 217 255
191 217 255
191 217 255
191 217 255
191 217 255
191 217 255
191 217 255
191 217 255
191 217 255
191 217 255
191 217 255
191 217 255
191 217 255
191 217 255
191 217 255
191 217 255
191 217 255
191 217 255
191 217 255
191 217 255
191 217 255
191 217 255
191 217 255
191 217 255
191 217 255
191 217 255
191 217 255
191 217 255
191 217 255
191 217 255
191 217 255
191 217 255
191 217 255
191 217 255
191 217 255
191 217 255
191 217 255
191 217 255
191 217 255
191 217 255
191 217 255
191 217 255
191 217 255
191 217 255
191 217 255
191 217 255
191 217 255
191 217 255
191 217 255
191 217 255
191 217 255
191 217 255
191 217 255
191 217 255
191 217 255
191 217 255
191 217 255
191 217 255
191 217 255
191 217 255
191 217 255
191 217 255
191 217 255
191 217 255
191 217 255
191 217 255
191 217 255
191 217 255
191 217 255
191 217 255
191 217 255
191 217 255
191 217 255
191 217 255
191 217 255
191 217 255
191 217 255
191 217 255
191 217 255
191 217 255
191 217 255
191 217 255
191 217 255
191 217 255
191 217 255
191 217 255
191 217 255
191 217 255
191 217 255
191 217 255
191 217 255
191 217 255
191 217 255
191 217 255
191 217 255
191 217 255
191 217 255
191 217 255
191 217 255
191 217 255
191 217 255
191 217 255
191 217 255
191 217 255
191 217 255
191 217 255
191 217 255
191 217 255
191 217 255
191 217 255
191 217 255
191 217 255
191 217 255
191 217 255
191 217 255
191 217 255
191 217 255
191 217 255
191 217 255
191 217 255
191 217 255
191 217 255
191 217 255
191 217 255
191 217 255
191 217 255
191 217 255
191 217 255
191 217 255
191 217 255
191 217 255
191 217 255
191 217 255
191 217 255
191 217 255
191 217 255
191 217 255
191 217 255
191 217 255
191 217 255
191 217 255
191 217 255
191 217 255
191 217 255
191 217 255
191 217 255
191 217 255
191 217 255
191 217 255
191 217 255
191 217 255
191 217 255
191 217 255
191 217 255
191 217 255
191 217 255
191 217 255
191 217 255
191 217 255
191 217 255
191 217 255
191 217 255
191 217 255
191 217 255
191 217 255
191 217 255
191 217 255
191 217 255
191 217 255
191 217 255
191 217 255
191 217 255
191 217 255
191 217 255
191 217 255
191 217 255
191 217 255
191 217 255
191 217 255
191 217 255
191 217 255
191 217 255
191 217 255
191 217 255
191 217 255
191 217 255
191 217 255
191 217 255
191 217 255
191 217 255
191 217 255
191 217 255
191 217 255
191 217 255
191 217 255
191 217 255
191 217 255
191 217 255
191 217 255
191 217 255
191 217 255
191 217 255
191 217 255
191 217 255
191 217 255
191 217 255
191 217 255
191 217 255
191 217 255
191 217 255
191 217 255
191 217 255
191 217 255
191 217 255
191 217 255
191 217 255
191 217 255
191 217 255
191 217 255
191 217 255
191 217 255
191 217 255
191 217 255
191 217 255
191 217 255
191 217 255
191 217 255
191 217 255
191 217 255
191 217 255
191 217 255
191 217 255
191 217 255
191 217 255
191 217 255
191 217 255
191 217 255
191 217 255
191 217 255
191 217 255
191 217 255
191 217 255
191 217 255
191 217 255
191 217 255
191 217 255
191 217 255
191 217 255
191 217 255
191 217 255
191 217 255
191 217 255
191 217 255
191 217 255
191 217 255
191 217 255
191 217 255
191 217 255
191 217 255
191 217 255
191 217 255
191 217 255
191 217 255
191 217 255
191 217 255
191 217 255
191 217 255
191 217 255
191 217 255
191 217 255
191 217 255
191 217 255
191 217 255
191 217 255
191 217 255
191 217 255
191 217 255
191 217 255
191 217 255
191 217 255
191 217 255
191 217 255
191 217 255
191 217 255
191 217 255
191 217 255
191 217 255
191 217 255
191 217 255
191 217 255
191 217 255
191 217 255
191 217 255
191 217 255
191 217 255
191 217 255
191 217 255
191 217 255
191 217 255
191 217 255
191 217 255
191 217 255
191 217 255
191 217 255
191 217 255
191 217 255
191 217 255
191 217 255
191 217 255
191 217 255
191 217 255
191 217 255
191 217 255
191 217 255
191 217 255
191 217 255
191 217 255
191 217 255
191 217 255
191 217 255
191 217 255
191 217 255
191 217 255
191 217 255
191 217 255
191 217 255
191 217 255
191 217 255
191 217 255
191 217 255
191 217 255
191 217 255
191 217 255
191 217 255
191 217 255
191 217 255
191 217 255
191 217 255
191 217 255
191 217 255
191 217 255
191 217 255
191 217 255
191 217 255
191 217 255
191 217 255
191 217 255
191 217 255
191 217 255
191 217 255
191 217 255
191 217 255
191 217 255
191 217 255
191 217 255
191 217 255
191 217 255
191 217 255
191 217 255
191 217 255
191 217 255
191 217 255
191 217 255
191 217 255
191 217 255
191 217 255
191 217 255
191 217 255
191 217 255
191 217 255
191 217 255
191 217 255
191 217 255
191 217 255
191 217 255
191 217 255
191 217 255
191 217 255
191 217 255
191 217 255
191 217 255
191 217 255
191 217 255
191 217 255
191 217 255
191 217 255
191 217 255
191 217 255
191 217 255
191 217 255
191 217 255
191 217 255
191 217 255
191 217 255
191 217 255
191 217 255
191 217 255
187 212 249
189 213 251
186 210 246
187 212 249
186 210 246
189 213 251
190 215 253
190 215 253
191 217 255
191 217 255
191 217 255
191 217 255
191 217 255
191 217 255
191 217 255
191 217 255
191 217 255
191 217 255
191 217 255
191 217 255
191 217 255
191 217 255
191 217 255
191 217 255
191 217 255
191 217 255
191 217 255
191 217 255
191 217 255
191 217 255
191 217 255
191 217 255
191 217 255
191 217 255
191 217 255
191 217 255
191 217 255
191 217 255
191 217 255
191 217 255
191 217 255
191 217 255
191 217 255
191 217 255
191 217 255
191 217 255
191 217 255
191 217 255
191 217 255
191 217 255
191 217 255
191 217 255
191 217 255
191 217 255
191 217 255
191 217 255
191 217 255
191 217 255
191 217 255
191 217 255
191 217 255
191 217 255
191 217 255
191 217 255
191 217 255
191 217 255
191 217 255
191 217 255
191 217 255
191 217 255
191 217 255
191 217 255
191 217 255
191 217 255
191 217 255
191 217 255
191 217 255
191 217 255
191 217 255
191 217 255
191 217 255
191 217 255
191 217 255
191 217 255
191 217 255
191 217 255
191 217 255
191 217 255
191 217 255
191 217 255
191 217 255
191 217 255
191 217 255
191 217 255
191 217 255
191 217 255
191 217 255
191 217 255
191 217 255
191 217 255
191 217 255
191 217 255
191 217 255
191 217 255
191 217 255
191 217 255
191 217 255
191 217 255
191 217 255
191 217 255
191 217 255
191 217 255
191 217 255
191 217 255
191 217 255
191 217 255
191 217 255
191 217 255
191 217 255
191 217 255
191 217 255
191 217 255
191 217 255
191 217 255
191 217 255
191 217 255
191 217 255
191 217 255
191 217 255
191 217 255
191 217 255
191 217 255
191 217 255
191 217 255
191 217 255
191 217 255
191 217 255
191 217 255
191 217 255
191 217 255
191 217 255
191 217 255
191 217 255
191 217 255
191 217 255
191 217 255
191 217 255
191 217 255
191 217 255
191 217 255
191 217 255
191 217 255
191 217 255
191 217 255
191 217 255
191 217 255
191 217 255
191 217 255
191 217 255
191 217 255
191 217 255
191 217 255
191 217 255
191 217 255
191 217 255
191 217 255
191 217 255
191 217 255
191 217 255
191 217 255
191 217 255
191 217 255
191 217 255
191 217 255
191 217 255
191 217 255
191 217 255
191 217 255
191 217 255
191 217 255
191 217 255
191 217 255
191 217 255
191 217 255
191 217 255
191 217 255
191 217 255
191 217 255
191 217 255
191 217 255
191 217 255
191 217 255
191 217 255
191 217 255
191 217 255
191 217 255
191 217 255
191 217 255
191 217 255
191 217 255
191 217 255
191 217 255
191 217 255
191 217 255
191 217 255
191 217 255
191 217 255
191 217 255
191 217 255
191 217 255
191 217 255
191 217 255
191 217 255
191 217 255
191 217 255
191 217 255
191 217 255
191 217 255
191 217 255
191 217 255
191 217 255
191 217 255
191 217 255
191 217 255
191 217 255
191 217 255
191 217 255
191 217 255
191 217 255
191 217 255
191 217 255
191 217 255
191 217 255
191 217 255
191 217 255
191 217 255
191 217 255
191 217 255
191 217 255
191 217 255
191 217 255
191 217 255
191 217 255
191 217 255
191 217 255
191 217 255
191 217 255
191 217 255
191 217 255
191 217 255
191 217 255
191 217 255
191 217 255
191 217 255
191 217 255
191 217 255
191 217 255
192 217 255
191 217 255
191 217 255
191 217 255
191 217 255
191 217 255
191 217 255
191 217 255
191 217 255
191 217 255
191 217 255
191 217 255
191 217 255
191 217 255
191 217 255
191 217 255
191 217 255
191 217 255
191 217 255
191 217 255
191 217 255
191 217 255
191 217 255
191 217 255
191 217 255
191 217 255
191 217 255
191 217 255
191 217 255
191 217 255
191 217 255
191 217 255
191 217 255
191 217 255
191 217 255
192 217 255
191 217 255
191 217 255
191 217 255
191 217 255
191 217 255
191 217 255
191 217 255
191 217 255
191 217 255
191 217 255
191 217 255
192 217 255
191 217 255
191 217 255
191 217 255
191 217 255
191 217 255
191 217 255
191 217 255
191 217 255
191 217 255
191 217 255
191 217 255
191 217 255
191 217 255
191 217 255
191 217 255
191 217 255
191 217 255
191 217 255
191 217 255
191 217 255
191 217 255
191 217 255
191 217 255
192 217 255
191 217 255
191 217 255
191 217 255
191 217 255
191 217 255
191 217 255
191 217 255
191 217 255
191 217 255
191 217 255
191 217 255
191 217 255
191 217 255
191 217 255
191 217 255
191 217 255
191 217 255
191 217 255
191 217 255
191 217 255
191 217 255
191 217 255
191 217 255
191 217 255
191 217 255
191 217 255
191 217 255
191 217 255
191 217 255
191 217 255
191 217 255
191 217 255
191 217 255
191 217 255
191 217 255
191 217 255
191 217 255
191 217 255
191 217 255
191 217 255
191 217 255
191 217 255
191 217 255
191 217 255
191 217 255
191 217 255
191 217 255
191 217 255
191 217 255
191 217 255
191 217 255
191 217 255
191 217 255
191 217 255
191 217 255
191 217 255
191 217 255
191 217 255
191 217 255
191 217 255
191 217 255
191 217 255
191 217 255
191 217 255
191 217 255
189 214 251
186 210 246
183 206 242
176 196 228
158 172 198
165 181 209
158 172 198
153 165 189
158 172 198
154 165 189
160 176 203
147 158 179
154 167 191
159 172 198
166 183 212
180 201 235
184 206 242
185 208 244
191 217 255
190 215 253
191 217 255
191 217 255
191 217 255
191 217 255
191 217 255
191 217 255
191 217 255
191 217 255
191 217 255
191 217 255
191 217 255
191 217 255
191 217 255
191 217 255
191 217 255
190 216 254
191 217 255
190 216 254
185 210 249
186 211 250
175 201 239
182 208 248
175 201 239
173 198 236
179 205 243
176 202 241
185 211 249
187 213 252
190 216 254
190 216 254
191 217 255
191 217 255
191 217 255
191 217 255
191 217 255
191 217 255
191 217 255
191 217 255
191 217 255
191 217 255
191 217 255
191 217 255
191 217 255
191 217 255
191 217 255
191 217 255
191 217 255
191 217 255
191 217 255
191 217 255
191 217 255
191 217 255
191 217 255
191 217 255
191 217 255
191 217 255
191 217 255
191 217 255
191 217 255
191 217 255
191 217 255
191 217 255
191 217 255
191 217 255
191 217 255
191 217 255
191 217 255
191 217 255
191 217 255
191 217 255
191 217 255
191 217 255
191 217 255
191 217 255
191 217 255
191 217 255
191 217 255
191 217 255
191 217 255
189 214 250
190 214 252
187 211 247
185 208 243
178 198 229
184 206 240
182 204 236
186 210 245
185 208 243
188 212 248
191 216 254
191 216 254
191 217 255
191 217 255
191 217 255
191 217 255
191 217 255
191 217 255
191 217 255
191 217 255
191 217 255
191 217 255
191 217 255
191 217 255
191 217 255
191 217 255
191 217 255
191 217 255
191 217 255
191 217 255
191 217 255
191 217 255
191 217 255
191 217 255
191 217 255
191 217 255
191 217 255
191 217 255
191 217 255
191 217 255
191 217 255
191 217 255
191 217 255
191 217 255
191 217 255
191 217 255
191 217 255
191 217 255
191 217 255
191 217 255
191 217 255
191 217 255
191 217 255
191 217 255
191 217 255
191 217 255
191 217 255
191 217 255
191 217 255
191 217 255
191 217 255
191 217 255
191 217 255
191 217 255
191 217 255
191 217 255
191 217 255
191 217 255
191 217 255
191 217 255
191 217 255
191 217 255
191 217 255
191 217 255
191 217 255
191 217 255
191 217 255
191 217 255
191 217 255
191 217 255
191 217 255
191 217 255
191 217 255
191 217 255
191 217 255
191 217 255
191 217 255
191 217 255
191 217 255
191 217 255
191 217 255
191 217 255
191 217 255
192 217 255
191 217 255
191 217 255
191 217 255
191 217 255
191 217 255
191 217 255
191 217 255
191 217 255
191 217 255
191 217 255
191 217 255
191 217 255
191 217 255
191 217 255
191 217 255
191 217 255
191 217 255
191 217 255
191 217 255
191 217 255
191 217 255
191 217 255
191 217 255
191 217 255
191 217 255
191 217 255
191 217 255
191 217 255
191 217 255
191 217 255
191 217 255
191 217 255
191 217 255
191 217 255
191 217 255
191 217 255
191 217 255
191 217 255
191 217 255
191 217 255
191 217 255
191 217 255
191 217 255
191 217 255
191 217 255
191 217 255
191 217 255
191 217 255
191 217 255
191 217 255
192 217 255
192 217 255
192 217 255
192 217 255
192 217 255
192 217 255
192 217 255
192 217 255
192 217 255
192 217 255
192 217 255
192 217 255
192 217 255
192 217 255
192 217 255
192 217 255
192 217 255
192 217 255
192 217 255
192 217 255
192 217 255
192 217 255
192 217 255
192 217 255
192 217 255
192 217 255
192 217 255
192 217 255
192 217 255
192 217 255
192 217 255
192 217 255
192 217 255
192 217 255
192 217 255
192 217 255
192 217 255
192 217 255
192 217 255
192 217 255
192 217 255
192 217 255
192 217 255
192 217 255
192 217 255
192 217 255
192 217 255
192 217 255
192 217 255
192 217 255
192 217 255
192 217 255
192 217 255
192 217 255
192 217 255
192 217 255
192 217 255
192 217 255
192 217 255
192 217 255
192 217 255
192 217 255
192 217 255
192 217 255
192 217 255
192 217 255
192 217 255
192 217 255
192 217 255
192 217 255
192 217 255
192 217 255
192 217 255
192 217 255
192 217 255
192 217 255
192 217 255
192 217 255
192 217 255
192 217 255
192 217 255
192 217 255
192 217 255
192 217 255
192 217 255
192 217 255
192 217 255
192 217 255
192 217 255
192 217 255
192 217 255
192 217 255
192 217 255
192 217 255
192 217 255
192 217 255
192 217 255
192 217 255
192 217 255
192 217 255
192 217 255
192 217 255
192 217 255
192 217 255
192 217 255
192 217 255
192 217 255
192 217 255
192 217 255
192 217 255
192 217 255
192 217 255
192 217 255
192 217 255
192 217 255
192 217 255
192 217 255
192 217 255
192 217 255
192 217 255
192 217 255
192 217 255
192 217 255
192 217 255
192 217 255
192 217 255
192 217 255
192 217 255
192 217 255
192 217 255
192 217 255
192 217 255
192 217 255
192 217 255
192 217 255
192 217 255
192 217 255
192 217 255
192 217 255
192 217 255
192 217 255
192 217 255
192 217 255
192 217 255
192 217 255
192 217 255
192 217 255
192 217 255
192 217 255
192 217 255
192 217 255
192 217 255
192 217 255
190 215 253
185 208 244
180 201 235
174 194 226
149 160 182
138 144 161
132 137 152
109 104 110
104 99 103
102 95 99
95 86 87
99 92 94
99 91 94
97 89 92
90 81 80
96 88 89
96 88 90
103 97 101
101 95 99
123 124 136
121 122 133
144 152 173
151 162 184
169 187 216
171 189 219
186 210 246
190 215 253
192 217 255
192 217 255
192 217 255
192 217 255
192 217 255
192 217 255
192 217 255
191 217 255
191 217 255
185 211 250
178 204 243
168 193 232
170 197 237
144 168 206
147 174 215
135 161 199
131 156 194
122 147 186
117 141 180
125 150 190
123 147 186
135 162 205
124 148 186
123 148 186
125 150 189
134 157 195
156 181 221
168 194 234
158 183 221
176 201 240
186 212 251
190 216 254
191 217 255
192 217 255
192 217 255
192 217 255
192 217 255
192 217 255
192 217 255
192 217 255
192 217 255
192 217 255
192 217 255
192 217 255
192 217 255
192 217 255
192 217 255
192 217 255
192 217 255
192 217 255
192 217 255
192 217 255
192 217 255
192 217 255
192 217 255
192 217 255
192 217 255
192 217 255
192 217 255
192 217 255
192 217 255
192 217 255
192 217 255
192 217 255
192 217 255
192 217 255
192 217 255
192 217 255
190 215 253
184 206 240
168 184 208
164 178 200
154 165 183
147 156 170
142 149 161
141 148 158
132 136 143
125 127 131
124 126 130
124 125 129
122 124 127
122 124 127
122 124 127
124 126 130
122 124 127
127 129 133
127 130 135
131 134 140
145 153 166
143 149 159
160 173 193
165 179 202
179 200 231
187 211 247
191 216 254
192 217 255
192 217 255
192 217 255
192 217 255
192 217 255
192 217 255
192 217 255
192 217 255
192 217 255
192 217 255
192 217 255
192 217 255
192 217 255
192 217 255
192 217 255
192 217 255
192 217 255
192 217 255
192 217 255
192 217 255
192 217 255
192 217 255
192 217 255
192 217 255
192 217 255
192 217 255
192 217 255
192 217 255
192 217 255
192 217 255
192 217 255
192 217 255
192 217 255
192 217 255
192 217 255
192 217 255
192 217 255
192 217 255
192 217 255
192 217 255
192 217 255
192 217 255
192 217 255
192 217 255
192 217 255
192 217 255
192 217 255
192 217 255
192 217 255
192 217 255
192 217 255
192 217 255
192 217 255
192 217 255
192 217 255
192 217 255
192 217 255
192 217 255
192 217 255
192 217 255
192 217 255
192 217 255
192 217 255
192 217 255
192 217 255
192 217 255
192 217 255
192 217 255
192 217 255
192 217 255
192 217 255
192 217 255
192 217 255
192 217 255
192 217 255
192 217 255
192 217 255
192 217 255
192 217 255
192 217 255
192 217 255
192 217 255
192 217 255
192 217 255
192 217 255
192 217 255
192 217 255
192 217 255
192 217 255
192 217 255
192 217 255
192 217 255
192 217 255
192 217 255
192 217 255
192 217 255
192 217 255
192 217 255
192 217 255
192 217 255
192 217 255
192 217 255
192 217 255
192 217 255
192 217 255
192 217 255
192 217 255
192 217 255
192 217 255
192 217 255
192 217 255
192 217 255
192 217 255
192 217 255
192 217 255
192 217 255
192 217 255
192 217 255
192 217 255
192 217 255
192 217 255
192 217 255
192 217 255
192 217 255
192 217 255
192 217 255
192 217 255
192 217 255
192 217 255
192 217 255
192 217 255
192 217 255
192 217 255
192 217 255
192 217 255
192 217 255
192 217 255
192 217 255
192 217 255
192 217 255
192 217 255
192 217 255
192 217 255
192 217 255
192 217 255
192 217 255
192 217 255
192 217 255
192 217 255
192 217 255
192 217 255
192 217 255
192 217 255
192 217 255
192 217 255
192 217 255
192 217 255
192 217 255
192 217 255
192 217 255
192 217 255
192 217 255
192 217 255
192 217 255
192 217 255
192 217 255
192 217 255
192 217 255
192 217 255
192 217 255
192 217 255
192 217 255
192 217 255
192 217 255
192 217 255
192 217 255
192 217 255
192 217 255
192 217 255
192 217 255
192 217 255
192 217 255
192 217 255
192 217 255
192 217 255
192 217 255
192 217 255
192 217 255
192 217 255
192 217 255
192 217 255
192 217 255
192 217 255
192 217 255
192 217 255
192 217 255
192 217 255
192 217 255
192 217 255
192 217 255
192 217 255
192 217 255
192 217 255
192 217 255
192 217 255
192 217 255
192 217 255
192 217 255
192 217 255
192 217 255
192 217 255
192 217 255
192 217 255
192 217 255
192 217 255
192 217 255
192 217 255
192 217 255
192 217 255
192 217 255
192 217 255
192 217 255
192 217 255
192 217 255
192 217 255
192 217 255
192 217 255
192 217 255
192 217 255
192 217 255
192 217 255
192 217 255
192 217 255
192 217 255
192 217 255
192 217 255
192 217 255
192 217 255
192 217 255
192 217 255
192 217 255
192 217 255
192 217 255
192 217 255
192 217 255
192 217 255
192 217 255
192 217 255
192 217 255
192 217 255
192 217 255
192 217 255
192 217 255
192 217 255
192 217 255
192 217 255
192 217 255
192 217 255
192 217 255
192 217 255
192 217 255
192 217 255
192 217 255
192 217 255
192 217 255
192 217 255
192 217 255
192 217 255
192 217 255
192 217 255
192 217 255
192 217 255
192 217 255
192 217 255
192 217 255
192 217 255
190 215 253
175 194 226
164 181 209
137 142 159
120 119 129
94 85 85
103 97 101
83 69 64
72 56 48
71 54 45
63 42 30
60 38 25
60 40 27
59 38 25
59 38 25
60 38 25
61 38 25
61 40 27
59 38 25
61 40 27
65 45 34
65 45 34
78 63 57
81 68 64
102 96 101
111 108 115
116 115 124
149 160 182
169 187 216
174 194 225
189 214 251
192 217 255
192 217 255
190 216 254
186 212 250
180 206 245
158 183 221
150 175 213
125 150 186
118 143 182
109 132 169
105 129 167
99 122 160
91 114 150
97 123 164
76 95 129
73 92 126
80 102 137
73 94 130
71 90 125
82 104 141
86 108 145
88 109 147
99 125 163
98 121 158
98 122 159
106 130 169
112 136 174
116 141 179
133 157 196
158 183 223
166 192 232
180 205 244
181 206 244
190 216 254
192 217 255
192 217 255
192 217 255
192 217 255
192 217 255
192 217 255
192 217 255
192 217 255
192 217 255
192 217 255
192 217 255
192 217 255
192 217 255
192 217 255
192 217 255
192 217 255
192 217 255
192 217 255
192 217 255
192 217 255
192 217 255
192 217 255
192 217 255
192 217 255
192 217 255
192 217 255
192 217 255
192 217 255
188 212 248
178 197 227
167 183 207
144 151 162
130 133 138
125 127 130
121 124 127
120 123 127
119 123 127
118 122 127
118 122 127
117 121 127
116 121 127
116 121 127
116 121 127
116 121 127
115 120 127
115 120 127
115 120 127
115 121 127
115 121 127
116 121 127
116 121 127
117 121 127
118 122 127
118 122 127
120 123 127
120 123 127
122 124 127
126 128 131
136 141 149
153 163 180
151 160 175
175 193 221
189 213 249
192 217 255
192 217 255
192 217 255
192 217 255
192 217 255
192 217 255
192 217 255
192 217 255
192 217 255
192 217 255
192 217 255
192 217 255
192 217 255
192 217 255
192 217 255
192 217 255
192 217 255
192 217 255
192 217 255
192 217 255
192 217 255
192 217 255
192 217 255
192 217 255
192 217 255
192 217 255
192 217 255
192 217 255
192 217 255
192 217 255
192 217 255
192 217 255
192 217 255
192 217 255
192 217 255
192 217 255
192 217 255
192 217 255
192 217 255
192 217 255
192 217 255
192 217 255
192 217 255
192 217 255
192 217 255
192 217 255
192 217 255
192 217 255
192 217 255
192 217 255
192 217 255
192 217 255
192 217 255
192 217 255
192 217 255
192 217 255
192 217 255
192 217 255
192 217 255
192 217 255
192 217 255
192 217 255
192 217 255
192 217 255
192 217 255
192 217 255
192 217 255
192 217 255
192 217 255
192 217 255
192 217 255
192 217 255
192 217 255
192 217 255
192 217 255
192 217 255
192 217 255
192 217 255
192 217 255
192 217 255
192 217 255
192 217 255
192 217 255
192 217 255
192 217 255
192 217 255
192 217 255
192 217 255
192 217 255
192 217 255
192 217 255
192 217 255
192 217 255
192 217 255
192 217 255
192 217 255
192 217 255
192 217 255
192 217 255
192 217 255
192 217 255
192 217 255
192 217 255
192 217 255
192 217 255
192 217 255
192 217 255
192 217 255
192 217 255
192 217 255
192 217 255
192 217 255
192 217 255
192 217 255
192 217 255
192 217 255
192 217 255
192 217 255
192 217 255
192 217 255
192 217 255
192 217 255
192 217 255
192 217 255
192 217 255
192 217 255
192 217 255
192 217 255
192 217 255
192 217 255
192 217 255
192 217 255
192 217 255
192 217 255
192 217 255
192 217 255
192 217 255
192 217 255
192 217 255
192 217 255
192 217 255
192 217 255
192 217 255
192 217 255
192 217 255
192 217 255
192 217 255
192 217 255
192 217 255
192 217 255
192 217 255
192 217 255
192 217 255
192 217 255
192 217 255
192 217 255
192 217 255
192 217 255
192 217 255
192 217 255
192 217 255
192 217 255
192 217 255
192 217 255
192 217 255
192 217 255
192 217 255
192 217 255
192 217 255
192 217 255
192 217 255
192 217 255
192 217 255
192 217 255
192 217 255
192 217 255
192 217 255
192 217 255
192 217 255
192 217 255
192 217 255
192 217 255
192 217 255
192 217 255
192 217 255
192 217 255
192 217 255
192 217 255
192 217 255
192 217 255
192 217 255
192 217 255
192 217 255
192 217 255
192 217 255
192 217 255
192 217 255
192 217 255
192 217 255
192 217 255
192 217 255
192 217 255
192 217 255
192 217 255
192 217 255
192 217 255
192 217 255
192 217 255
192 217 255
192 217 255
192 217 255
192 217 255
192 217 255
192 217 255
192 217 255
192 217 255
192 217 255
192 217 255
192 217 255
192 217 255
192 217 255
192 217 255
192 217 255
192 217 255
192 217 255
192 217 255
192 217 255
192 217 255
192 217 255
192 217 255
192 217 255
192 217 255
192 217 255
192 217 255
192 217 255
192 217 255
192 217 255
192 217 255
192 217 255
192 217 255
192 217 255
192 217 255
192 217 255
192 217 255
192 217 255
192 217 255
192 217 255
192 217 255
192 217 255
192 217 255
192 217 255
192 217 255
192 217 255
192 217 255
192 217 255
192 217 255
192 217 255
192 217 255
192 217 255
192 217 255
192 217 255
192 217 255
192 217 255
192 217 255
192 217 255
192 217 255
192 217 255
192 217 255
192 217 255
192 217 255
190 215 253
168 185 214
143 151 170
133 138 154
112 109 117
90 79 78
74 59 52
65 45 34
60 39 26
59 38 25
60 38 25
59 38 25
59 38 25
60 38 25
59 37 25
59 38 25
60 38 25
58 37 24
58 37 25
58 37 24
60 38 24
59 38 25
58 37 25
59 37 24
59 38 25
60 38 25
60 39 27
68 50 41
81 68 64
110 106 112
110 107 115
134 138 154
155 169 193
171 192 225
172 198 236
156 182 221
139 165 205
114 138 176
104 128 164
87 109 146
88 111 147
86 110 149
80 102 143
66 85 124
53 70 113
49 66 124
56 75 129
57 77 132
57 76 125
58 78 132
51 68 118
56 72 110
65 83 120
62 80 114
77 99 137
69 89 124
82 104 142
80 102 139
80 102 137
90 113 150
101 125 165
91 115 154
94 117 152
117 142 182
115 138 176
140 165 203
153 176 213
175 201 238
191 217 255
192 217 255
192 217 255
192 217 255
192 217 255
192 217 255
192 217 255
192 217 255
192 217 255
192 217 255
192 217 255
192 217 255
192 217 255
192 217 255
192 217 255
192 217 255
192 217 255
192 217 255
192 217 255
192 217 255
192 217 255
192 217 255
192 217 255
191 215 253
181 202 234
157 168 186
145 152 165
128 131 136
122 124 127
120 123 127
118 122 127
117 121 127
116 121 127
115 120 127
114 120 127
113 120 127
113 119 127
112 119 127
112 119 127
111 118 127
111 118 127
111 118 127
111 118 127
111 118 127
110 118 127
110 118 127
111 118 127
111 118 127
111 118 127
111 118 127
112 119 127
112 119 127
113 119 127
113 120 127
114 120 127
115 121 127
116 121 127
117 122 127
119 122 127
120 123 127
123 125 129
132 136 143
152 163 179
160 173 193
183 205 238
192 217 255
192 217 255
192 217 255
192 217 255
192 217 255
192 217 255
192 217 255
192 217 255
192 217 255
192 217 255
192 217 255
192 217 255
192 217 255
192 217 255
192 217 255
192 217 255
192 217 255
192 217 255
192 217 255
192 217 255
192 217 255
192 217 255
192 217 255
192 217 255
192 217 255
192 217 255
192 217 255
192 217 255
192 217 255
192 217 255
192 217 255
192 217 255
192 217 255
192 217 255
192 217 255
192 217 255
192 217 255
192 217 255
192 217 255
192 217 255
192 217 255
192 217 255
192 217 255
192 217 255
192 217 255
192 217 255
192 217 255
192 217 255
192 217 255
192 217 255
192 217 255
192 217 255
192 217 255
192 217 255
192 217 255
192 217 255
192 217 255
192 217 255
192 217 255
192 217 255
192 217 255
192 217 255
192 217 255
192 217 255
192 217 255
192 217 255
192 217 255
192 217 255
192 217 255
192 217 255
192 217 255
192 217 255
192 217 255
192 217 255
192 217 255
192 217 255
192 217 255
192 217 255
192 217 255
192 217 255
192 217 255
192 217 255
192 217 255
192 217 255
192 217 255
192 217 255
192 217 255
192 217 255
192 217 255
192 217 255
192 217 255
192 217 255
192 217 255
192 217 255
192 217 255
192 217 255
192 217 255
192 217 255
192 217 255
192 217 255
192 217 255
192 217 255
192 217 255
192 217 255
192 217 255
192 217 255
192 217 255
192 217 255
192 217 255
192 217 255
192 217 255
192 217 255
192 217 255
192 217 255
192 217 255
192 217 255
192 217 255
192 217 255
192 217 255
192 217 255
192 217 255
192 217 255
192 217 255
192 217 255
192 217 255
192 217 255
192 217 255
192 217 255
192 217 255
192 217 255
192 217 255
192 217 255
192 217 255
192 217 255
192 217 255
192 217 255
192 217 255
192 217 255
192 217 255
192 217 255
192 217 255
192 217 255
192 217 255
192 217 255
192 217 255
192 217 255
192 217 255
192 217 255
192 217 255
192 217 255
192 217 255
192 217 255
192 217 255
192 217 255
192 217 255
192 217 255
192 217 255
192 217 255
192 217 255
192 217 255
192 217 255
192 217 255
192 217 255
192 217 255
192 217 255
192 217 255
192 217 255
192 217 255
192 217 255
192 217 255
192 217 255
192 217 255
192 217 255
192 217 255
192 217 255
192 217 255
192 217 255
192 217 255
192 217 255
192 217 255
192 217 255
192 217 255
192 217 255
192 217 255
192 217 255
192 217 255
192 217 255
192 217 255
192 217 255
192 217 255
192 217 255
192 217 255
192 217 255
192 217 255
192 217 255
192 217 255
192 217 255
192 217 255
192 217 255
192 217 255
192 217 255
192 217 255
192 217 255
192 217 255
192 217 255
192 217 255
192 217 255
192 217 255
192 217 255
192 217 255
192 217 255
192 217 255
192 217 255
192 217 255
192 217 255
192 217 255
192 217 255
192 217 255
192 217 255
192 217 255
192 217 255
192 217 255
192 217 255
192 217 255
192 217 255
192 217 255
192 217 255
192 217 255
192 217 255
192 217 255
192 217 255
192 217 255
192 217 255
192 217 255
192 217 255
192 217 255
192 217 255
192 217 255
192 217 255
192 217 255
192 217 255
192 217 255
192 217 255
192 217 255
192 217 255
192 217 255
192 217 255
192 217 255
192 217 255
192 217 255
192 217 255
192 217 255
192 217 255
192 217 255
192 217 255
192 217 255
192 217 255
192 217 255
192 217 255
192 217 255
192 217 255
192 217 255
192 217 255
192 217 255
192 217 255
188 212 249
177 198 230
151 163 186
117 116 126
85 73 70
76 61 55
65 46 36
59 37 24
58 37 24
59 37 24
60 38 25
58 37 24
59 37 24
58 37 24
59 37 25
58 37 24
58 37 25
58 37 24
57 37 24
59 37 25
59 37 24
60 38 25
59 38 25
57 37 24
60 38 25
58 37 24
59 37 24
59 37 24
59 38 25
60 38 25
61 38 25
60 39 27
75 60 54
95 93 101
129 142 167
138 159 194
126 152 190
102 126 162
98 123 160
88 112 149
76 96 135
60 78 118
53 71 130
41 59 130
50 71 151
47 67 149
36 56 155
41 63 157
36 57 153
36 57 155
34 55 156
38 58 150
41 61 154
38 57 140
45 66 145
48 66 131
57 74 118
56 73 106
65 83 117
75 97 134
72 91 125
80 103 142
76 98 133
88 113 152
83 106 146
84 106 142
90 114 152
95 118 156
109 134 175
117 140 178
145 171 208
167 192 231
178 204 242
192 217 255
192 217 255
192 217 255
192 217 255
192 217 255
192 217 255
192 217 255
192 217 255
192 217 255
192 217 255
192 217 255
192 217 255
192 217 255
192 217 255
192 217 255
192 217 255
192 217 255
191 216 253
180 200 231
161 175 195
134 138 145
124 125 129
120 123 127
119 122 127
117 121 127
115 121 127
114 120 127
113 119 127
112 119 127
111 118 127
110 118 127
110 118 127
109 117 127
109 117 127
108 117 127
108 117 127
108 117 127
107 116 127
107 116 127
107 116 127
107 116 127
107 116 127
107 116 127
107 116 127
107 116 127
107 116 127
108 117 127
108 117 127
108 117 127
109 117 127
109 117 127
110 118 127
111 118 127
111 119 127
112 119 127
114 120 127
114 120 127
116 121 127
117 121 127
119 122 127
121 123 127
126 127 131
137 141 149
158 169 188
183 205 238
192 217 255
192 217 255
192 217 255
192 217 255
192 217 255
192 217 255
192 217 255
192 217 255
192 217 255
192 217 255
192 217 255
192 217 255
192 217 255
192 217 255
192 217 255
192 217 255
192 217 255
192 217 255
192 217 255
192 217 255
192 217 255
192 217 255
192 217 255
192 217 255
192 217 255
192 217 255
192 217 255
192 217 255
192 217 255
192 217 255
192 217 255
192 217 255
192 217 255
192 217 255
192 217 255
192 217 255
192 217 255
192 217 255
192 217 255
192 217 255
192 217 255
192 217 255
192 217 255
192 217 255
192 217 255
192 217 255
192 217 255
192 217 255
192 217 255
192 217 255
192 217 255
192 217 255
192 217 255
192 217 255
192 217 255
192 217 255
192 217 255
192 217 255
192 217 255
192 217 255
192 217 255
192 217 255
192 217 255
192 217 255
192 217 255
192 217 255
192 217 255
192 217 255
192 217 255
192 217 255
192 217 255
192 217 255
192 217 255
192 217 255
192 217 255
192 217 255
192 217 255
192 217 255
192 217 255
192 217 255
192 217 255
192 217 255
192 217 255
192 217 255
192 217 255
192 217 255
192 217 255
192 217 255
192 217 255
192 217 255
192 217 255
192 217 255
192 217 255
192 217 255
192 217 255
192 217 255
192 217 255
192 217 255
192 217 255
192 217 255
192 217 255
192 217 255
192 217 255
192 217 255
192 217 255
192 217 255
192 217 255
192 217 255
192 217 255
192 217 255
192 217 255
192 217 255
192 217 255
192 217 255
192 217 255
192 217 255
192 217 255
192 217 255
192 217 255
192 217 255
192 217 255
192 217 255
192 217 255
192 217 255
192 217 255
192 217 255
192 217 255
192 217 255
192 217 255
192 217 255
192 217 255
192 217 255
192 217 255
192 217 255
192 217 255
192 217 255
192 217 255
192 217 255
192 217 255
192 217 255
192 217 255
192 217 255
192 217 255
192 217 255
192 217 255
192 217 255
192 217 255
192 217 255
192 217 255
192 217 255
192 217 255
192 217 255
192 217 255
192 217 255
192 217 255
192 217 255
192 217 255
192 217 255
192 217 255
192 217 255
192 217 255
192 217 255
192 217 255
192 217 255
192 217 255
192 217 255
192 217 255
192 217 255
192 217 255
192 217 255
192 217 255
192 217 255
192 217 255
192 217 255
192 217 255
192 217 255
192 217 255
192 217 255
192 217 255
192 217 255
192 217 255
192 217 255
192 217 255
192 217 255
192 217 255
192 217 255
192 217 255
192 217 255
192 217 255
192 217 255
192 217 255
192 217 255
192 217 255
192 217 255
192 217 255
192 217 255
192 217 255
192 217 255
192 217 255
192 217 255
192 217 255
192 217 255
192 217 255
192 217 255
192 217 255
192 217 255
192 217 255
192 217 255
192 217 255
192 217 255
192 217 255
192 217 255
192 217 255
192 217 255
192 217 255
192 217 255
192 217 255
192 217 255
192 217 255
192 217 255
192 217 255
192 217 255
192 217 255
192 217 255
192 217 255
192 217 255
192 217 255
192 217 255
192 217 255
192 217 255
192 217 255
192 217 255
192 217 255
192 217 255
192 217 255
192 217 255
192 217 255
192 217 255
192 217 255
192 217 255
192 217 255
192 217 255
192 217 255
192 217 255
192 217 255
192 217 255
192 217 255
192 217 255
192 217 255
192 217 255
192 217 255
192 217 255
192 217 255
192 217 255
192 217 255
192 217 255
192 217 255
192 217 255
192 217 255
192 217 255
192 217 255
175 194 225
152 163 186
124 125 138
92 82 82
74 59 52
62 41 29
58 37 24
57 36 24
59 37 24
59 38 25
59 37 25
58 38 25
58 37 24
59 37 25
61 38 25
61 38 25
59 37 24
58 37 24
58 37 24
59 37 24
60 38 25
59 37 24
60 38 25
57 36 24
57 37 24
61 38 24
58 37 24
58 37 24
59 37 25
56 36 23
60 38 25
61 39 27
79 69 69
105 111 129
93 105 127
101 123 158
109 135 176
96 120 160
76 97 133
69 89 132
61 82 139
39 58 143
36 57 153
46 70 174
43 65 160
33 54 164
36 57 158
32 55 169
40 63 174
39 62 169
38 62 175
38 61 171
36 59 165
41 65 173
31 50 152
41 62 156
37 57 149
36 57 149
54 73 122
61 79 112
69 88 122
65 82 113
70 90 124
72 92 126
73 93 128
80 103 139
85 109 147
82 105 141
87 110 146
83 104 141
93 116 153
106 130 171
105 126 163
134 158 197
153 175 213
182 207 245
188 213 250
192 217 255
192 217 255
192 217 255
192 217 255
192 217 255
192 217 255
192 217 255
192 217 255
192 217 255
192 217 255
192 217 255
192 217 255
188 211 247
162 175 195
145 153 166
124 126 129
121 123 127
118 122 127
116 121 127
115 120 127
113 119 127
112 119 127
111 118 127
110 118 127
109 117 127
108 117 127
108 117 127
107 116 127
107 116 127
106 116 127
106 115 127
105 115 127
105 115 127
105 115 127
104 115 127
104 115 127
104 115 127
104 115 127
104 115 127
104 115 127
104 115 127
104 115 127
104 115 127
105 115 127
105 115 127
105 115 127
106 116 127
106 116 127
107 116 127
107 116 127
108 117 127
109 117 127
109 117 127
110 118 127
111 119 127
113 119 127
114 120 127
115 120 127
117 121 127
119 122 127
120 123 127
126 128 131
138 143 152
168 183 207
189 213 249
192 217 255
192 217 255
192 217 255
192 217 255
192 217 255
192 217 255
192 217 255
192 217 255
192 217 255
192 217 255
192 217 255
192 217 255
192 217 255
192 217 255
192 217 255
192 217 255
192 217 255
192 217 255
192 217 255
192 217 255
192 217 255
192 217 255
192 217 255
192 217 255
192 217 255
192 217 255
192 217 255
192 217 255
192 217 255
192 217 255
192 217 255
192 217 255
192 217 255
192 217 255
192 217 255
192 217 255
192 217 255
192 217 255
192 217 255
192 217 255
192 217 255
192 217 255
192 217 255
192 217 255
192 217 255
192 217 255
192 217 255
192 217 255
192 217 255
192 217 255
192 217 255
192 217 255
192 217 255
192 217 255
192 217 255
192 217 255
192 217 255
192 217 255
192 217 255
192 217 255
192 217 255
192 217 255
192 217 255
192 217 255
192 217 255
192 217 255
192 217 255
192 217 255
192 217 255
192 217 255
192 217 255
192 217 255
192 217 255
192 217 255
192 217 255
192 217 255
192 217 255
192 217 255
192 217 255
192 217 255
192 217 255
192 217 255
192 217 255
192 217 255
192 217 255
192 217 255
192 217 255
192 217 255
192 217 255
192 217 255
192 217 255
192 217 255
192 217 255
192 217 255
192 217 255
192 217 255
192 217 255
192 217 255
192 217 255
192 217 255
192 217 255
192 217 255
192 217 255
192 217 255
192 217 255
192 217 255
192 217 255
192 217 255
192 217 255
192 217 255
192 217 255
192 217 255
192 217 255
192 217 255
192 217 255
192 217 255
192 217 255
192 217 255
192 217 255
192 217 255
192 217 255
192 217 255
192 217 255
192 217 255
192 217 255
192 217 255
192 217 255
192 217 255
192 217 255
192 217 255
192 217 255
192 217 255
192 217 255
192 217 255
192 217 255
192 217 255
192 217 255
192 217 255
192 217 255
192 217 255
192 217 255
192 217 255
192 217 255
192 217 255
192 217 255
192 217 255
192 217 255
192 217 255
192 217 255
192 217 255
192 217 255
192 217 255
192 217 255
192 217 255
192 217 255
192 217 255
192 217 255
192 217 255
192 217 255
192 217 255
192 217 255
192 217 255
192 217 255
192 217 255
192 217 255
192 217 255
192 217 255
192 217 255
192 217 255
192 217 255
192 217 255
192 217 255
192 217 255
192 217 255
192 217 255
192 217 255
192 217 255
192 217 255
192 217 255
192 217 255
192 217 255
192 217 255
192 217 255
192 217 255
192 217 255
192 217 255
192 217 255
192 217 255
192 217 255
192 217 255
192 217 255
192 217 255
192 217 255
192 217 255
192 217 255
192 217 255
192 217 255
192 217 255
192 217 255
192 217 255
192 217 255
192 217 255
192 217 255
192 217 255
192 217 255
192 217 255
192 217 255
192 217 255
192 217 255
192 217 255
192 217 255
192 217 255
192 217 255
192 217 255
192 217 255
192 217 255
192 217 255
192 217 255
192 217 255
192 217 255
192 217 255
192 217 255
192 217 255
192 217 255
192 217 255
192 217 255
192 217 255
192 217 255
192 217 255
192 217 255
192 217 255
192 217 255
192 217 255
192 217 255
192 217 255
192 217 255
192 217 255
192 217 255
192 217 255
192 217 255
192 217 255
192 217 255
192 217 255
192 217 255
192 217 255
192 217 255
192 217 255
192 217 255
192 217 255
192 217 255
192 217 255
192 217 255
192 217 255
192 217 255
192 217 255
190 215 253
188 212 249
164 181 209
142 151 170
97 88 89
76 59 52
63 41 29
58 36 24
58 37 24
58 37 24
59 37 24
58 37 24
59 37 24
59 38 24
58 37 24
58 37 24
58 36 24
57 36 24
58 37 24
58 37 24
59 38 25
56 36 24
59 37 25
59 37 24
58 37 24
59 37 24
59 38 25
57 36 24
58 37 25
59 37 24
59 37 24
59 38 25
66 47 37
69 55 50
94 92 101
98 113 139
110 135 170
96 120 157
78 100 134
72 94 130
62 80 127
55 76 141
46 68 152
40 61 154
37 60 169
39 62 172
33 56 169
31 52 166
35 58 172
40 64 175
40 64 176
34 56 173
29 51 169
35 58 169
27 47 161
31 50 154
33 55 160
35 58 166
35 56 154
31 49 137
35 53 135
53 71 114
64 84 117
61 78 108
64 84 116
64 83 114
70 90 123
75 97 132
71 90 123
74 95 131
76 97 131
76 96 128
84 106 145
77 97 131
82 102 135
98 122 159
93 114 152
112 134 171
131 154 193
160 185 224
179 204 241
189 215 253
192 217 255
192 217 255
192 217 255
192 217 255
192 217 255
192 217 255
192 217 255
192 217 255
179 198 227
150 159 174
128 130 134
122 124 127
119 122 127
117 121 127
115 120 127
113 120 127
112 119 127
111 118 127
110 118 127
109 117 127
108 117 127
107 116 127
106 116 127
106 115 127
105 115 127
104 115 127
104 115 127
103 114 127
103 114 127
103 114 127
102 114 127
102 114 127
102 114 127
102 114 127
102 113 127
102 113 127
102 113 127
101 113 127
102 113 127
102 113 127
102 114 127
102 114 127
102 114 127
103 114 127
103 114 127
103 114 127
104 115 127
105 115 127
105 115 127
106 116 127
106 116 127
107 116 127
108 117 127
109 117 127
110 118 127
111 118 127
112 119 127
114 120 127
115 120 127
117 122 127
119 123 127
122 124 127
133 137 143
157 168 186
188 212 248
192 217 255
192 217 255
192 217 255
192 217 255
192 217 255
192 217 255
192 217 255
192 217 255
192 217 255
192 217 255
192 217 255
192 217 255
192 217 255
192 217 255
192 217 255
192 217 255
192 217 255
192 217 255
192 217 255
192 217 255
192 217 255
192 217 255
192 217 255
192 217 255
192 217 255
192 217 255
192 217 255
192 217 255
192 217 255
192 217 255
192 217 255
192 217 255
192 217 255
192 217 255
192 217 255
192 217 255
192 217 255
192 217 255
192 217 255
192 217 255
192 217 255
192 217 255
192 217 255
192 217 255
192 217 255
192 217 255
192 217 255
192 217 255
192 217 255
192 217 255
192 217 255
192 217 255
192 217 255
192 217 255
192 217 255
192 217 255
192 217 255
192 217 255
192 217 255
192 217 255
192 217 255
192 217 255
192 217 255
192 217 255
192 217 255
192 217 255
192 217 255
192 217 255
192 217 255
192 217 255
192 217 255
192 217 255
192 217 255
192 217 255
192 217 255
192 217 255
192 217 255
192 217 255
192 217 255
192 217 255
192 217 255
192 217 255
192 217 255
192 217 255
192 217 255
192 217 255
192 217 255
192 217 255
192 217 255
192 217 255
192 217 255
192 217 255
192 217 255
192 217 255
192 217 255
192 217 255
192 217 255
192 217 255
192 217 255
192 217 255
192 217 255
192 217 255
192 217 255
192 217 255
192 217 255
192 217 255
192 217 255
192 217 255
192 217 255
192 217 255
192 217 255
192 217 255
192 217 255
192 217 255
192 217 255
192 217 255
192 217 255
192 217 255
192 217 255
192 217 255
192 217 255
192 217 255
192 217 255
192 217 255
192 217 255
192 217 255
192 217 255
192 217 255
192 217 255
192 217 255
192 217 255
192 217 255
192 217 255
192 217 255
192 217 255
192 217 255
192 217 255
192 217 255
192 217 255
192 217 255
192 217 255
192 217 255
192 217 255
192 217 255
192 217 255
192 217 255
192 217 255
192 217 255
192 217 255
192 217 255
192 217 255
192 217 255
192 217 255
192 217 255
192 217 255
192 217 255
192 217 255
192 217 255
192 217 255
192 217 255
192 217 255
192 217 255
192 217 255
192 217 255
192 217 255
192 217 255
192 217 255
192 217 255
192 217 255
192 217 255
192 217 255
192 217 255
192 217 255
192 217 255
192 217 255
192 217 255
192 217 255
192 217 255
192 217 255
192 217 255
192 217 255
192 217 255
192 217 255
192 217 255
192 217 255
192 217 255
192 217 255
192 217 255
192 217 255
192 217 255
192 217 255
192 217 255
192 217 255
192 217 255
192 217 255
192 217 255
192 217 255
192 217 255
192 217 255
192 217 255
192 217 255
192 217 255
192 217 255
192 217 255
192 217 255
192 217 255
192 217 255
192 217 255
192 217 255
192 217 255
192 217 255
192 217 255
192 217 255
192 217 255
192 218 255
192 218 255
192 217 255
192 217 255
192 217 255
192 217 255
192 217 255
192 217 255
192 218 255
192 217 255
192 217 255
192 217 255
192 217 255
192 217 255
192 217 255
192 217 255
192 217 255
192 217 255
192 217 255
192 218 255
192 217 255
192 217 255
192 217 255
192 217 255
192 217 255
192 217 255
192 217 255
192 217 255
192 217 255
192 217 255
192 217 255
192 217 255
192 217 255
192 217 255
192 217 255
192 217 255
192 217 255
192 217 255
191 216 253
183 205 239
140 149 169
103 98 103
84 71 68
64 45 35
57 36 24
59 37 24
59 37 24
57 36 23
58 37 24
61 38 25
55 35 23
57 36 23
58 37 24
58 37 24
59 37 24
58 37 24
58 36 24
60 38 24
60 38 24
57 36 23
57 36 24
58 36 24
58 37 24
59 37 24
58 37 24
59 37 24
60 38 25
59 37 24
59 37 24
58 36 23
59 42 34
85 83 90
100 116 139
110 132 164
95 120 159
84 107 143
84 107 143
63 82 121
50 70 136
44 65 154
34 55 158
38 60 164
33 54 161
35 59 179
35 59 175
39 63 176
36 60 180
29 51 170
34 58 174
30 51 165
26 46 158
32 55 173
29 50 163
39 62 166
29 49 149
32 50 140
44 66 154
39 56 130
55 74 121
63 81 121
59 77 108
57 73 100
66 83 113
68 91 125
70 90 123
72 93 127
69 88 119
74 94 131
70 90 124
73 95 132
72 93 127
72 91 124
80 103 139
72 94 128
83 106 141
85 106 141
95 118 157
94 117 154
110 133 171
138 162 200
167 192 231
188 214 252
192 218 255
192 217 255
192 217 255
192 217 255
192 217 255
177 195 223
143 149 159
125 127 130
121 123 127
118 122 127
116 121 127
114 120 127
113 119 127
111 118 127
110 118 127
109 117 127
108 117 127
107 116 127
106 116 127
105 115 127
104 115 127
104 115 127
103 114 127
103 114 127
102 114 127
102 113 127
101 113 127
101 113 127
101 113 127
100 113 127
100 113 127
100 112 127
100 112 127
99 112 127
100 112 127
99 112 127
99 112 127
100 112 127
100 112 127
100 113 127
100 113 127
100 113 127
101 113 127
101 113 127
101 113 127
102 114 127
102 114 127
103 114 127
103 114 127
104 115 127
105 115 127
105 115 127
106 116 127
107 116 127
108 117 127
109 117 127
110 118 127
112 119 127
113 119 127
115 120 127
117 121 127
119 122 127
121 124 127
128 130 134
152 161 176
180 200 231
192 217 255
192 217 255
192 217 255
192 217 255
192 217 255
192 217 255
192 217 255
192 217 255
192 217 255
192 217 255
192 217 255
192 217 255
192 217 255
192 217 255
192 217 255
192 217 255
192 217 255
192 217 255
192 217 255
192 217 255
192 217 255
192 217 255
192 217 255
192 217 255
192 217 255
192 217 255
192 217 255
192 217 255
192 217 255
192 217 255
192 217 255
192 217 255
192 217 255
192 217 255
192 217 255
192 217 255
192 217 255
192 217 255
192 217 255
192 217 255
192 217 255
192 217 255
192 217 255
192 217 255
192 217 255
192 217 255
192 217 255
192 217 255
192 217 255
192 217 255
192 217 255
192 217 255
192 217 255
192 217 255
192 217 255
192 217 255
192 217 255
192 217 255
192 217 255
192 217 255
192 217 255
192 217 255
192 217 255
192 217 255
192 217 255
192 217 255
192 217 255
192 217 255
192 217 255
192 217 255
192 217 255
192 217 255
192 217 255
192 217 255
192 217 255
192 217 255
192 217 255
192 217 255
192 217 255
192 217 255
192 217 255
192 217 255
192 217 255
192 217 255
192 217 255
192 217 255
192 217 255
192 217 255
192 217 255
192 217 255
192 217 255
192 217 255
192 217 255
192 217 255
192 217 255
192 217 255
192 217 255
192 217 255
192 217 255
192 217 255
192 217 255
192 217 255
192 217 255
192 217 255
192 217 255
192 217 255
192 217 255
192 217 255
192 218 255
192 218 255
192 218 255
192 218 255
192 218 255
192 218 255
192 218 255
192 218 255
192 218 255
192 218 255
192 218 255
192 218 255
192 218 255
192 218 255
192 218 255
192 218 255
192 218 255
192 218 255
192 218 255
192 218 255
192 218 255
192 218 255
192 218 255
192 218 255
192 218 255
192 218 255
192 218 255
192 218 255
192 218 255
192 218 255
192 218 255
192 218 255
192 218 255
192 218 255
192 218 255
192 218 255
192 218 255
192 218 255
192 218 255
192 218 255
192 218 255
192 218 255
192 218 255
192 218 255
192 218 255
192 218 255
192 218 255
192 218 255
192 218 255
192 218 255
192 218 255
192 218 255
192 218 255
192 218 255
192 218 255
192 218 255
192 218 255
192 218 255
192 218 255
192 218 255
192 218 255
192 218 255
192 218 255
192 218 255
192 218 255
192 218 255
192 218 255
192 218 255
192 218 255
192 218 255
192 218 255
192 218 255
192 218 255
192 218 255
192 218 255
192 218 255
192 218 255
192 218 255
192 218 255
192 218 255
192 218 255
192 218 255
192 218 255
192 218 255
192 218 255
192 218 255
192 218 255
192 218 255
192 218 255
192 218 255
192 218 255
192 218 255
192 218 255
192 218 255
192 218 255
192 218 255
192 218 255
192 218 255
192 218 255
192 218 255
192 218 255
192 218 255
192 218 255
192 218 255
192 218 255
192 218 255
192 218 255
192 218 255
192 218 255
192 218 255
192 218 255
192 218 255
192 218 255
192 218 255
192 218 255
192 218 255
192 218 255
192 218 255
192 218 255
192 218 255
192 218 255
192 218 255
192 218 255
192 218 255
192 218 255
192 218 255
192 218 255
192 218 255
192 218 255
192 218 255
192 218 255
192 218 255
192 218 255
192 218 255
192 218 255
192 218 255
192 218 255
192 218 255
192 218 255
192 218 255
192 218 255
191 216 253
180 201 235
133 138 154
102 96 100
67 50 42
61 40 29
56 35 23
59 37 24
58 37 24
57 36 23
58 36 24
56 35 23
59 37 24
59 37 24
59 38 25
58 36 24
58 37 24
56 35 24
56 35 23
57 36 24
57 36 24
57 36 23
56 36 24
58 37 24
57 36 23
58 37 24
56 35 23
57 35 23
57 36 23
59 37 24
57 36 23
60 41 30
68 55 51
107 120 143
100 123 155
101 125 162
87 110 146
85 107 144
80 101 137
58 76 120
60 83 150
32 53 155
38 61 164
35 57 168
30 52 170
39 63 181
35 59 174
34 57 174
33 56 172
28 49 162
30 52 166
34 57 170
31 51 151
32 50 142
35 53 134
42 64 147
50 71 141
57 77 122
60 79 123
60 80 122
64 85 118
69 90 124
69 90 122
65 85 117
60 78 107
68 89 122
67 88 122
69 90 122
61 78 108
66 85 116
66 85 116
70 91 124
73 94 128
68 87 117
72 93 127
75 94 127
70 90 122
78 99 132
79 101 136
86 109 144
82 104 139
92 114 151
90 112 148
126 150 189
142 165 202
167 190 227
189 213 251
192 218 255
172 189 215
139 143 151
125 126 130
120 123 127
118 122 127
116 121 127
114 120 127
112 119 127
111 118 127
110 118 127
108 117 127
107 116 127
106 116 127
105 115 127
104 115 127
103 114 127
103 114 127
102 114 127
101 113 127
101 113 127
100 113 127
100 113 127
100 112 127
99 112 127
99 112 127
99 112 127
98 112 127
98 112 127
98 112 127
98 112 127
98 111 127
98 111 127
98 111 127
98 112 127
98 112 127
98 112 127
98 112 127
98 112 127
98 112 127
99 112 127
99 112 127
99 112 127
100 113 127
100 113 127
101 113 127
101 113 127
102 114 127
102 114 127
103 114 127
104 115 127
105 115 127
106 115 127
106 116 127
107 116 127
109 117 127
110 118 127
111 118 127
113 119 127
114 120 127
116 121 127
118 122 127
121 124 127
127 127 130
152 160 175
180 200 230
192 218 255
192 218 255
192 218 255
192 218 255
192 218 255
192 218 255
192 218 255
192 218 255
192 218 255
192 218 255
192 218 255
192 218 255
192 218 255
192 218 255
192 218 255
192 218 255
192 218 255
192 218 255
192 218 255
192 218 255
192 218 255
192 218 255
192 218 255
192 218 255
192 218 255
192 218 255
192 218 255
192 218 255
192 218 255
192 218 255
192 218 255
192 218 255
192 218 255
192 218 255
192 218 255
192 218 255
192 218 255
192 218 255
192 218 255
192 218 255
192 218 255
192 218 255
192 218 255
192 218 255
192 218 255
192 218 255
192 218 255
192 218 255
192 218 255
192 218 255
192 218 255
192 218 255
192 218 255
192 218 255
192 218 255
192 218 255
192 218 255
192 218 255
192 218 255
192 218 255
192 218 255
192 218 255
192 218 255
192 218 255
192 218 255
192 218 255
192 218 255
192 218 255
192 218 255
192 218 255
192 218 255
192 218 255
192 218 255
192 218 255
192 218 255
192 218 255
192 218 255
192 218 255
192 218 255
192 218 255
192 218 255
192 218 255
192 218 255
192 218 255
192 218 255
192 218 255
192 218 255
192 218 255
192 218 255
192 218 255
192 218 255
192 218 255
192 218 255
192 218 255
192 218 255
192 218 255
192 218 255
192 218 255
192 218 255
192 218 255
192 218 255
192 218 255
192 218 255
192 218 255
192 218 255
192 218 255
192 218 255
192 218 255
192 218 255
192 218 255
192 218 255
192 218 255
192 218 255
192 218 255
192 218 255
192 218 255
192 218 255
192 218 255
192 218 255
192 218 255
192 218 255
192 218 255
192 218 255
192 218 255
192 218 255
192 218 255
192 218 255
192 218 255
192 218 255
192 218 255
192 218 255
192 218 255
192 218 255
192 218 255
192 218 255
192 218 255
192 218 255
192 218 255
192 218 255
192 218 255
192 218 255
192 218 255
192 218 255
192 218 255
192 218 255
192 218 255
192 218 255
192 218 255
192 218 255
192 218 255
192 218 255
192 218 255
192 218 255
192 218 255
192 218 255
192 218 255
192 218 255
192 218 255
192 218 255
192 218 255
192 218 255
192 218 255
192 218 255
192 218 255
192 218 255
192 218 255
192 218 255
192 218 255
192 218 255
192 218 255
192 218 255
192 218 255
192 218 255
192 218 255
192 218 255
192 218 255
192 218 255
192 218 255
192 218 255
192 218 255
192 218 255
192 218 255
192 218 255
192 218 255
192 218 255
192 218 255
192 218 255
192 218 255
192 218 255
192 218 255
192 218 255
192 218 255
192 218 255
192 218 255
192 218 255
192 218 255
192 218 255
192 218 255
192 218 255
192 218 255
192 218 255
192 218 255
192 218 255
192 218 255
192 218 255
192 218 255
192 218 255
192 218 255
192 218 255
192 218 255
192 218 255
192 218 255
192 218 255
192 218 255
192 218 255
192 218 255
192 218 255
192 218 255
192 218 255
192 218 255
192 218 255
192 218 255
192 218 255
192 218 255
192 218 255
192 218 255
192 218 255
192 218 255
192 218 255
192 218 255
192 218 255
192 218 255
192 218 255
192 218 255
192 218 255
192 218 255
192 218 255
192 218 255
192 218 255
192 218 255
192 218 255
192 218 255
192 218 255
192 218 255
192 218 255
192 218 255
190 214 251
164 181 209
126 129 142
99 91 94
62 43 33
59 37 24
60 37 24
57 36 24
57 36 24
59 38 25
57 36 23
58 36 24
57 36 24
56 35 23
56 35 23
58 36 24
58 37 24
56 35 23
59 37 24
56 36 23
59 37 24
58 37 24
55 35 23
56 35 23
55 35 22
56 36 23
58 37 24
58 36 23
56 35 23
60 37 24
56 36 23
70 53 46
77 77 81
94 110 129
91 115 145
94 118 154
83 106 138
80 102 135
76 97 132
68 88 124
56 79 157
32 54 167
36 59 172
27 49 164
34 57 175
29 51 171
30 52 174
35 57 167
34 54 152
33 54 158
36 56 150
47 67 143
45 62 127
62 83 136
59 78 122
60 79 117
67 87 122
61 77 105
62 80 111
63 82 113
69 90 125
63 81 110
72 93 126
69 89 121
65 83 111
73 96 130
62 79 107
65 84 115
68 88 119
67 85 115
67 88 119
65 84 114
73 94 127
66 86 117
64 83 115
69 90 121
72 92 125
75 96 129
78 99 135
81 105 140
76 95 128
81 103 141
76 96 128
89 111 147
96 118 156
97 117 153
120 142 178
162 182 215
154 164 180
125 126 129
121 123 127
118 122 127
116 121 127
114 120 127
112 119 127
111 118 127
109 117 127
108 117 127
107 116 127
106 116 127
105 115 127
104 115 127
103 114 127
102 114 127
102 113 127
101 113 127
100 113 127
100 113 127
99 112 127
99 112 127
98 112 127
98 112 127
98 111 127
97 111 127
97 111 127
97 111 127
97 111 127
96 111 127
96 111 127
96 111 127
96 111 127
96 111 127
96 111 127
96 111 127
96 111 127
97 111 127
97 111 127
97 111 127
97 111 127
98 111 127
98 112 127
98 112 127
99 112 127
99 112 127
99 112 127
100 113 127
101 113 127
101 113 127
102 114 127
102 114 127
103 114 127
104 115 127
105 115 127
106 116 127
107 116 127
108 117 127
110 118 127
111 118 127
112 119 127
114 120 127
116 121 127
119 122 127
121 123 127
129 131 135
158 169 186
189 212 248
192 218 255
192 218 255
192 218 255
192 218 255
192 218 255
192 218 255
192 218 255
192 218 255
192 218 255
192 218 255
192 218 255
192 218 255
192 218 255
192 218 255
192 218 255
192 218 255
192 218 255
192 218 255
192 218 255
192 218 255
192 218 255
192 218 255
192 218 255
192 218 255
192 218 255
192 218 255
192 218 255
192 218 255
192 218 255
192 218 255
192 218 255
192 218 255
192 218 255
192 218 255
192 218 255
192 218 255
192 218 255
192 218 255
192 218 255
192 218 255
192 218 255
192 218 255
192 218 255
192 218 255
192 218 255
192 218 255
192 218 255
192 218 255
192 218 255
192 218 255
192 218 255
192 218 255
192 218 255
192 218 255
192 218 255
192 218 255
192 218 255
192 218 255
192 218 255
192 218 255
192 218 255
192 218 255
192 218 255
192 218 255
192 218 255
192 218 255
192 218 255
192 218 255
192 218 255
192 218 255
192 218 255
192 218 255
192 218 255
192 218 255
192 218 255
192 218 255
192 218 255
192 218 255
192 218 255
192 218 255
192 218 255
192 218 255
192 218 255
192 218 255
192 218 255
192 218 255
192 218 255
192 218 255
192 218 255
192 218 255
192 218 255
192 218 255
192 218 255
192 218 255
192 218 255
192 218 255
192 218 255
192 218 255
192 218 255
192 218 255
192 218 255
192 218 255
192 218 255
192 218 255
192 218 255
192 218 255
192 218 255
192 218 255
192 218 255
192 218 255
192 218 255
192 218 255
192 218 255
192 218 255
192 218 255
192 218 255
192 218 255
192 218 255
192 218 255
192 218 255
192 218 255
192 218 255
192 218 255
192 218 255
192 218 255
192 218 255
192 218 255
192 218 255
192 218 255
192 218 255
192 218 255
192 218 255
192 218 255
192 218 255
192 218 255
192 218 255
192 218 255
192 218 255
192 218 255
192 218 255
192 218 255
192 218 255
192 218 255
192 218 255
192 218 255
192 218 255
192 218 255
192 218 255
192 218 255
192 218 255
192 218 255
192 218 255
192 218 255
192 218 255
192 218 255
192 218 255
192 218 255
192 218 255
192 218 255
192 218 255
192 218 255
192 218 255
192 218 255
192 218 255
192 218 255
192 218 255
192 218 255
192 218 255
192 218 255
192 218 255
192 218 255
192 218 255
192 218 255
192 218 255
192 218 255
192 218 255
192 218 255
192 218 255
192 218 255
192 218 255
192 218 255
192 218 255
192 218 255
192 218 255
192 218 255
192 218 255
192 218 255
192 218 255
192 218 255
192 218 255
192 218 255
192 218 255
192 218 255
192 218 255
192 218 255
192 218 255
192 218 255
192 218 255
192 218 255
192 218 255
192 218 255
192 218 255
192 218 255
192 218 255
192 218 255
192 218 255
192 218 255
192 218 255
192 218 255
192 218 255
192 218 255
192 218 255
192 218 255
192 218 255
192 218 255
192 218 255
192 218 255
192 218 255
192 218 255
192 218 255
192 218 255
192 218 255
192 218 255
192 218 255
192 218 255
192 218 255
192 218 255
192 218 255
192 218 255
192 218 255
192 218 255
192 218 255
192 218 255
192 218 255
192 218 255
192 218 255
192 218 255
192 218 255
192 218 255
192 218 255
192 218 255
192 218 255
192 218 255
189 212 249
157 170 195
124 128 141
81 69 65
60 41 30
56 35 23
58 37 24
57 36 23
58 37 24
55 34 22
56 36 23
59 37 24
58 36 23
58 36 24
56 36 23
57 36 23
57 35 23
57 36 24
58 36 24
58 37 24
55 35 23
58 36 23
59 37 24
58 36 23
58 37 24
55 34 23
58 36 23
57 36 23
59 37 24
57 36 23
56 36 24
71 62 60
88 92 100
100 121 146
98 122 155
82 105 138
82 104 139
79 101 136
79 102 137
74 96 131
63 84 133
33 54 152
35 58 167
40 63 171
39 61 166
37 59 166
42 64 158
47 68 144
53 74 144
52 70 126
55 73 110
65 84 115
62 80 110
64 81 110
61 78 107
63 82 110
63 81 108
68 87 117
67 86 117
66 85 113
64 82 112
66 83 111
69 89 120
67 86 116
62 80 110
70 90 121
67 86 117
69 90 121
65 84 115
63 80 111
65 84 114
68 89 121
67 86 115
66 83 113
70 91 124
74 98 132
66 84 113
69 90 125
69 87 118
72 92 122
68 88 121
75 96 129
77 97 131
74 94 129
84 107 142
84 106 140
93 114 150
111 123 142
123 124 128
121 124 127
118 122 127
116 121 127
114 120 127
112 119 127
111 118 127
109 117 127
108 117 127
107 116 127
106 116 127
105 115 127
104 115 127
103 114 127
102 114 127
101 113 127
100 113 127
100 113 127
99 112 127
99 112 127
98 112 127
98 111 127
97 111 127
97 111 127
97 111 127
96 111 127
96 111 127
96 110 127
95 110 127
95 110 127
95 110 127
95 110 127
95 110 127
95 110 127
95 110 127
95 110 127
95 110 127
95 110 127
95 110 127
95 110 127
96 110 127
96 110 127
96 111 127
96 111 127
97 111 127
97 111 127
97 111 127
98 112 127
98 112 127
99 112 127
99 112 127
100 113 127
101 113 127
102 113 127
102 114 127
103 114 127
104 115 127
105 115 127
106 116 127
107 116 127
108 117 127
110 118 127
111 118 127
113 119 127
115 120 127
117 121 127
119 123 127
122 124 127
130 132 135
167 182 206
189 213 249
192 218 255
192 218 255
192 218 255
192 218 255
192 218 255
192 218 255
192 218 255
192 218 255
192 218 255
192 218 255
192 218 255
192 218 255
192 218 255
192 218 255
192 218 255
192 218 255
192 218 255
192 218 255
192 218 255
192 218 255
192 218 255
192 218 255
192 218 255
192 218 255
192 218 255
192 218 255
192 218 255
192 218 255
192 218 255
192 218 255
192 218 255
192 218 255
192 218 255
192 218 255
192 218 255
192 218 255
192 218 255
192 218 255
192 218 255
192 218 255
192 218 255
192 218 255
192 218 255
192 218 255
192 218 255
192 218 255
192 218 255
192 218 255
192 218 255
192 218 255
192 218 255
192 218 255
192 218 255
192 218 255
192 218 255
192 218 255
192 218 255
192 218 255
192 218 255
192 218 255
192 218 255
192 218 255
192 218 255
192 218 255
192 218 255
192 218 255
192 218 255
192 218 255
192 218 255
192 218 255
192 218 255
192 218 255
192 218 255
192 218 255
192 218 255
192 218 255
192 218 255
192 218 255
192 218 255
192 218 255
192 218 255
192 218 255
192 218 255
192 218 255
192 218 255
192 218 255
192 218 255
192 218 255
192 218 255
192 218 255
192 218 255
192 218 255
192 218 255
192 218 255
192 218 255
192 218 255
192 218 255
192 218 255
192 218 255
192 218 255
192 218 255
192 218 255
192 218 255
192 218 255
193 218 255
192 218 255
192 218 255
192 218 255
193 218 255
193 218 255
192 218 255
193 218 255
192 218 255
192 218 255
193 218 255
193 218 255
193 218 255
192 218 255
193 218 255
193 218 255
193 218 255
192 218 255
193 218 255
193 218 255
192 218 255
193 218 255
193 218 255
192 218 255
193 218 255
193 218 255
193 218 255
192 218 255
193 218 255
193 218 255
193 218 255
193 218 255
193 218 255
193 218 255
193 218 255
193 218 255
193 218 255
192 218 255
193 218 255
193 218 255
193 218 255
193 218 255
192 218 255
192 218 255
193 218 255
193 218 255
193 218 255
193 218 255
193 218 255
193 218 255
193 218 255
193 218 255
192 218 255
193 218 255
193 218 255
193 218 255
193 218 255
193 218 255
193 218 255
193 218 255
193 218 255
193 218 255
193 218 255
193 218 255
193 218 255
193 218 255
193 218 255
193 218 255
193 218 255
193 218 255
193 218 255
193 218 255
193 218 255
193 218 255
193 218 255
193 218 255
193 218 255
193 218 255
193 218 255
193 218 255
193 218 255
193 218 255
193 218 255
193 218 255
193 218 255
193 218 255
193 218 255
193 218 255
193 218 255
193 218 255
193 218 255
193 218 255
193 218 255
193 218 255
193 218 255
193 218 255
193 218 255
193 218 255
193 218 255
193 218 255
193 218 255
193 218 255
193 218 255
193 218 255
193 218 255
193 218 255
193 218 255
193 218 255
193 218 255
193 218 255
193 218 255
193 218 255
193 218 255
193 218 255
193 218 255
193 218 255
193 218 255
193 218 255
193 218 255
193 218 255
193 218 255
193 218 255
193 218 255
193 218 255
193 218 255
193 218 255
193 218 255
193 218 255
193 218 255
193 218 255
193 218 255
193 218 255
193 218 255
193 218 255
193 218 255
193 218 255
191 216 253
166 181 209
119 118 128
75 60 53
60 41 30
54 34 22
56 35 23
58 37 24
56 35 23
57 35 23
58 37 24
55 34 23
56 36 23
57 36 23
58 36 23
55 35 22
59 37 24
59 37 24
57 35 23
57 35 23
56 35 22
58 36 23
58 36 24
58 36 24
59 37 24
55 35 23
56 35 23
58 36 24
57 36 24
55 34 22
61 40 28
82 75 76
100 115 134
94 118 148
94 118 153
87 111 147
80 102 137
73 94 128
72 93 125
71 93 126
68 87 118
72 93 126
57 76 130
55 76 134
55 73 123
62 82 128
58 78 127
58 74 106
69 88 118
64 81 109
66 85 115
68 89 119
65 83 112
63 82 110
66 85 115
66 86 115
67 85 116
62 80 109
65 83 112
63 82 113
67 85 114
67 87 117
63 80 108
67 86 116
64 83 113
70 91 124
70 90 121
69 89 120
69 90 121
65 83 112
69 89 119
69 89 120
69 89 119
66 84 113
67 86 115
65 83 111
66 86 116
74 95 128
71 91 122
75 96 128
74 96 130
64 82 111
71 91 123
75 96 127
71 92 126
73 94 126
87 100 122
117 119 124
123 124 127
119 123 127
117 121 127
115 120 127
113 119 127
111 118 127
110 118 127
108 117 127
107 116 127
106 116 127
105 115 127
104 115 127
103 114 127
102 114 127
101 113 127
100 113 127
100 112 127
99 112 127
98 112 127
98 111 127
97 111 127
97 111 127
96 111 127
96 111 127
96 110 127
95 110 127
95 110 127
95 110 127
94 110 127
94 110 127
94 110 127
94 109 127
94 109 127
94 109 127
94 109 127
94 109 127
94 109 127
94 110 127
94 110 127
94 110 127
94 110 127
94 110 127
95 110 127
95 110 127
95 110 127
95 110 127
96 110 127
96 111 127
96 111 127
97 111 127
98 111 127
98 112 127
99 112 127
99 112 127
100 113 127
101 113 127
101 113 127
102 114 127
103 114 127
104 115 127
105 115 127
106 116 127
107 116 127
109 117 127
110 118 127
112 119 127
113 120 127
115 120 127
118 122 127
120 123 127
123 125 127
143 148 158
181 202 232
193 218 255
193 218 255
193 218 255
193 218 255
193 218 255
193 218 255
193 218 255
193 218 255
193 218 255
193 218 255
193 218 255
193 218 255
193 218 255
193 218 255
193 218 255
193 218 255
193 218 255
193 218 255
193 218 255
193 218 255
193 218 255
193 218 255
193 218 255
193 218 255
193 218 255
193 218 255
193 218 255
193 218 255
193 218 255
193 218 255
193 218 255
193 218 255
193 218 255
193 218 255
193 218 255
193 218 255
192 218 255
193 218 255
193 218 255
193 218 255
193 218 255
193 218 255
193 218 255
193 218 255
192 218 255
193 218 255
193 218 255
193 218 255
193 218 255
192 218 255
193 218 255
193 218 255
192 218 255
193 218 255
193 218 255
193 218 255
193 218 255
193 218 255
193 218 255
192 218 255
193 218 255
193 218 255
193 218 255
192 218 255
193 218 255
193 218 255
193 218 255
192 218 255
193 218 255
192 218 255
193 218 255
193 218 255
193 218 255
193 218 255
193 218 255
192 218 255
192 218 255
193 218 255
193 218 255
192 218 255
193 218 255
193 218 255
193 218 255
193 218 255
192 218 255
193 218 255
192 218 255
192 218 255
192 218 255
193 218 255
193 218 255
192 218 255
192 218 255
192 218 255
192 218 255
192 218 255
193 218 255
193 218 255
193 218 255
193 218 255
192 218 255
193 218 255
193 218 255
193 218 255
193 218 255
193 218 255
193 218 255
193 218 255
193 218 255
193 218 255
193 218 255
193 218 255
193 218 255
193 218 255
193 218 255
193 218 255
193 218 255
193 218 255
193 218 255
193 218 255
193 218 255
193 218 255
193 218 255
193 218 255
193 218 255
193 218 255
193 218 255
193 218 255
193 218 255
193 218 255
193 218 255
193 218 255
193 218 255
193 218 255
193 218 255
193 218 255
193 218 255
193 218 255
193 218 255
193 218 255
193 218 255
193 218 255
193 218 255
193 218 255
193 218 255
193 218 255
193 218 255
193 218 255
193 218 255
193 218 255
193 218 255
193 218 255
193 218 255
193 218 255
193 218 255
193 218 255
193 218 255
193 218 255
193 218 255
193 218 255
193 218 255
193 218 255
193 218 255
193 218 255
193 218 255
193 218 255
193 218 255
193 218 255
193 218 255
193 218 255
193 218 255
193 218 255
193 218 255
193 218 255
193 218 255
193 218 255
193 218 255
193 218 255
193 218 255
193 218 255
193 218 255
193 218 255
193 218 255
193 218 255
193 218 255
193 218 255
193 218 255
193 218 255
193 218 255
193 218 255
193 218 255
193 218 255
193 218 255
193 218 255
193 218 255
193 218 255
193 218 255
193 218 255
193 218 255
193 218 255
193 218 255
193 218 255
193 218 255
193 218 255
193 218 255
193 218 255
193 218 255
193 218 255
193 218 255
193 218 255
193 218 255
193 218 255
193 218 255
193 218 255
193 218 255
193 218 255
193 218 255
193 218 255
193 218 255
193 218 255
193 218 255
193 218 255
193 218 255
193 218 255
193 218 255
193 218 255
193 218 255
193 218 255
193 218 255
193 218 255
193 218 255
193 218 255
193 218 255
193 218 255
193 218 255
193 218 255
193 218 255
193 218 255
190 214 251
158 171 195
119 118 128
81 68 65
58 36 23
57 35 22
56 36 23
57 36 24
58 36 23
56 35 23
58 37 24
57 36 23
56 35 22
57 36 24
54 34 22
56 35 22
57 36 23
55 34 22
57 36 23
57 36 23
56 35 23
56 36 23
52 33 22
57 35 23
59 36 23
56 35 23
57 36 23
57 36 23
58 37 24
54 34 22
58 37 25
72 62 60
102 118 141
91 113 141
89 112 144
84 106 138
77 98 130
77 99 133
72 93 126
73 94 127
69 90 121
74 95 129
74 96 129
67 87 118
69 89 121
67 86 116
65 83 110
68 88 117
66 85 116
67 87 117
68 85 113
67 85 114
67 86 118
60 76 100
60 75 100
61 79 108
67 86 115
63 81 110
66 84 114
65 84 112
68 87 119
69 89 122
62 79 109
67 85 115
65 82 110
70 88 118
62 78 105
65 83 113
63 81 109
67 85 113
66 84 115
65 83 111
64 82 110
65 83 111
70 89 121
64 81 109
73 94 128
60 76 104
63 80 109
61 76 103
69 89 119
71 90 121
69 87 117
71 91 122
66 85 115
81 101 132
102 112 127
122 123 126
121 123 127
118 122 127
116 121 127
114 120 127
112 119 127
110 118 127
109 117 127
107 116 127
106 116 127
105 115 127
104 115 127
103 114 127
102 114 127
101 113 127
100 113 127
100 112 127
99 112 127
98 112 127
98 111 127
97 111 127
97 111 127
96 111 127
96 110 127
95 110 127
95 110 127
94 110 127
94 110 127
94 110 127
94 109 127
93 109 127
93 109 127
93 109 127
93 109 127
93 109 127
93 109 127
93 109 127
93 109 127
93 109 127
93 109 127
93 109 127
93 109 127
93 109 127
93 109 127
94 109 127
94 109 127
94 110 127
94 110 127
95 110 127
95 110 127
96 110 127
96 111 127
96 111 127
97 111 127
97 111 127
98 112 127
99 112 127
99 112 127
100 113 127
101 113 127
102 113 127
103 114 127
103 114 127
104 115 127
106 115 127
107 116 127
108 117 127
109 117 127
111 118 127
112 119 127
114 120 127
117 121 127
119 122 127
122 124 127
130 131 135
160 172 190
192 217 254
193 218 255
193 218 255
193 218 255
193 218 255
193 218 255
193 218 255
193 218 255
193 218 255
193 218 255
193 218 255
193 218 255
193 218 255
193 218 255
193 218 255
193 218 255
193 218 255
193 218 255
193 218 255
193 218 255
193 218 255
193 218 255
193 218 255
193 218 255
193 218 255
193 218 255
193 218 255
193 218 255
193 218 255
193 218 255
193 218 255
193 218 255
193 218 255
193 218 255
193 218 255
193 218 255
193 218 255
193 218 255
193 218 255
193 218 255
193 218 255
193 218 255
193 218 255
193 218 255
193 218 255
193 218 255
193 218 255
193 218 255
193 218 255
193 218 255
193 218 255
193 218 255
193 218 255
193 218 255
193 218 255
193 218 255
193 218 255
193 218 255
193 218 255
193 218 255
193 218 255
193 218 255
193 218 255
193 218 255
193 218 255
193 218 255
193 218 255
193 218 255
193 218 255
193 218 255
193 218 255
193 218 255
193 218 255
193 218 255
193 218 255
193 218 255
193 218 255
193 218 255
193 218 255
193 218 255
193 218 255
193 218 255
193 218 255
193 218 255
193 218 255
193 218 255
193 218 255
193 218 255
193 218 255
193 218 255
193 218 255
193 218 255
193 218 255
193 218 255
193 218 255
193 218 255
193 218 255
193 218 255
193 218 255
193 218 255
193 218 255
193 218 255
193 218 255
193 218 255
193 218 255
193 218 255
193 218 255
193 218 255
193 218 255
193 218 255
193 218 255
193 218 255
193 218 255
193 218 255
193 218 255
193 218 255
193 218 255
193 218 255
193 218 255
193 218 255
193 218 255
193 218 255
193 218 255
193 218 255
193 218 255
193 218 255
193 218 255
193 218 255
193 218 255
193 218 255
193 218 255
193 218 255
193 218 255
193 218 255
193 218 255
193 218 255
193 218 255
193 218 255
193 218 255
193 218 255
193 218 255
193 218 255
193 218 255
193 218 255
193 218 255
193 218 255
193 218 255
193 218 255
193 218 255
193 218 255
193 218 255
193 218 255
193 218 255
193 218 255
193 218 255
193 218 255
193 218 255
193 218 255
193 218 255
193 218 255
193 218 255
193 218 255
193 218 255
193 218 255
193 218 255
193 218 255
193 218 255
193 218 255
193 218 255
193 218 255
193 218 255
193 218 255
193 218 255
193 218 255
193 218 255
193 218 255
193 218 255
193 218 255
193 218 255
193 218 255
193 218 255
193 218 255
193 218 255
193 218 255
193 218 255
193 218 255
193 218 255
193 218 255
193 218 255
193 218 255
193 218 255
193 218 255
193 218 255
193 218 255
193 218 255
193 218 255
193 218 255
193 218 255
193 218 255
193 218 255
193 218 255
193 218 255
193 218 255
193 218 255
193 218 255
193 218 255
193 218 255
193 218 255
193 218 255
193 218 255
193 218 255
193 218 255
193 218 255
193 218 255
193 218 255
193 218 255
193 218 255
193 218 255
193 218 255
193 218 255
193 218 255
193 218 255
193 218 255
193 218 255
193 218 255
193 218 255
193 218 255
193 218 255
193 218 255
193 218 255
193 218 255
193 218 255
193 218 255
193 218 255
193 218 255
193 218 255
190 214 251
168 185 214
134 139 155
80 65 61
58 36 23
58 37 24
56 35 23
58 36 23
59 37 24
59 37 24
59 37 23
57 36 23
56 36 23
57 35 23
55 34 22
58 36 23
57 36 23
56 36 23
57 36 23
56 36 23
55 35 23
56 35 23
53 34 22
54 34 22
55 34 22
57 36 23
54 35 22
57 35 23
53 33 22
56 35 23
61 44 34
85 81 86
99 113 133
85 106 135
89 112 145
94 120 156
84 106 142
77 98 132
72 94 126
71 91 121
70 91 124
73 94 127
70 90 120
70 89 120
67 85 113
67 85 113
64 79 106
66 83 112
62 81 108
68 86 115
65 83 112
72 92 124
70 90 121
66 84 112
67 86 117
63 82 110
67 85 115
65 83 112
68 87 115
65 84 113
62 79 106
62 78 101
61 78 105
65 83 112
61 77 104
68 88 121
65 83 111
62 79 108
65 84 113
68 88 118
58 74 104
68 88 120
63 80 109
65 84 115
65 82 111
63 80 109
66 83 113
66 84 113
63 80 109
60 75 100
65 83 114
66 85 115
67 85 114
69 88 117
71 90 120
83 95 115
114 117 122
123 124 127
120 123 127
117 121 127
115 120 127
113 119 127
111 118 127
110 118 127
108 117 127
107 116 127
106 115 127
104 115 127
103 114 127
103 114 127
102 113 127
101 113 127
100 113 127
99 112 127
98 112 127
98 111 127
97 111 127
97 111 127
96 111 127
96 110 127
95 110 127
95 110 127
94 110 127
94 110 127
94 109 127
93 109 127
93 109 127
93 109 127
93 109 127
92 109 127
92 109 127
92 109 127
92 109 127
92 109 127
92 108 127
92 108 127
92 108 127
92 109 127
92 109 127
92 109 127
92 109 127
93 109 127
93 109 127
93 109 127
93 109 127
93 109 127
94 109 127
94 110 127
94 110 127
95 110 127
95 110 127
96 110 127
96 111 127
97 111 127
97 111 127
98 112 127
99 112 127
99 112 127
100 113 127
101 113 127
102 114 127
103 114 127
104 115 127
105 115 127
106 116 127
107 116 127
109 117 127
110 118 127
112 119 127
113 120 127
115 121 127
118 122 127
120 123 127
124 125 127
146 153 165
182 202 232
193 218 255
193 218 255
193 218 255
193 218 255
193 218 255
193 218 255
193 218 255
193 218 255
193 218 255
193 218 255
193 218 255
193 218 255
193 218 255
193 218 255
193 218 255
193 218 255
193 218 255
193 218 255
193 218 255
193 218 255
193 218 255
193 218 255
193 218 255
193 218 255
193 218 255
193 218 255
193 218 255
193 218 255
193 218 255
193 218 255
193 218 255
193 218 255
193 218 255
193 218 255
193 218 255
193 218 255
193 218 255
193 218 255
193 218 255
193 218 255
193 218 255
193 218 255
193 218 255
193 218 255
193 218 255
193 218 255
193 218 255
193 218 255
193 218 255
193 218 255
193 218 255
193 218 255
193 218 255
193 218 255
193 218 255
193 218 255
193 218 255
193 218 255
193 218 255
193 218 255
193 218 255
193 218 255
193 218 255
193 218 255
193 218 255
193 218 255
193 218 255
193 218 255
193 218 255
193 218 255
193 218 255
193 218 255
193 218 255
193 218 255
193 218 255
193 218 255
193 218 255
193 218 255
193 218 255
193 218 255
193 218 255
193 218 255
193 218 255
193 218 255
193 218 255
193 218 255
193 218 255
193 218 255
193 218 255
193 218 255
193 218 255
193 218 255
193 218 255
193 218 255
193 218 255
193 218 255
193 218 255
193 218 255
193 218 255
193 218 255
193 218 255
193 218 255
193 218 255
193 218 255
193 218 255
193 218 255
193 218 255
193 218 255
193 218 255
193 218 255
193 218 255
193 218 255
193 218 255
193 218 255
193 218 255
193 218 255
193 218 255
193 218 255
193 218 255
193 218 255
193 218 255
193 218 255
193 218 255
193 218 255
193 218 255
193 218 255
193 218 255
193 218 255
193 218 255
193 218 255
193 218 255
193 218 255
193 218 255
193 218 255
193 218 255
193 218 255
193 218 255
193 218 255
193 218 255
193 218 255
193 218 255
193 218 255
193 218 255
193 218 255
193 218 255
193 218 255
193 218 255
193 218 255
193 218 255
193 218 255
193 218 255
193 218 255
193 218 255
193 218 255
193 218 255
193 218 255
193 218 255
193 218 255
193 218 255
193 218 255
193 218 255
193 218 255
193 218 255
193 218 255
193 218 255
193 218 255
193 218 255
193 218 255
193 218 255
193 218 255
193 218 255
193 218 255
193 218 255
193 218 255
193 218 255
193 218 255
193 218 255
193 218 255
193 218 255
193 218 255
193 218 255
193 218 255
193 218 255
193 218 255
193 218 255
193 218 255
193 218 255
193 218 255
193 218 255
193 218 255
193 218 255
193 218 255
193 218 255
193 218 255
193 218 255
193 218 255
193 218 255
193 218 255
193 218 255
193 218 255
193 218 255
193 218 255
193 218 255
193 218 255
193 218 255
193 218 255
193 218 255
193 218 255
193 218 255
193 218 255
193 218 255
193 218 255
193 218 255
193 218 255
193 218 255
193 218 255
193 218 255
193 218 255
193 218 255
193 218 255
193 218 255
193 218 255
193 218 255
193 218 255
193 218 255
193 218 255
193 218 255
193 218 255
193 218 255
193 218 255
193 218 255
193 218 255
193 218 255
193 218 255
167 182 209
127 131 146
82 70 67
59 39 29
55 34 22
58 36 24
53 33 22
56 35 22
56 35 22
54 34 22
56 34 22
55 34 23
57 35 23
54 34 22
54 34 22
55 35 23
56 35 23
56 35 22
58 36 24
55 35 23
53 33 21
56 35 23
55 34 22
59 37 24
56 35 23
57 35 23
56 35 23
57 35 23
57 35 23
57 39 27
86 87 93
86 102 120
92 116 147
82 105 136
77 98 128
77 98 131
77 99 134
70 90 121
66 84 110
70 89 121
68 87 118
71 91 122
69 89 119
68 88 117
65 82 109
70 88 117
68 87 115
66 82 109
63 81 109
65 82 111
66 84 113
65 82 113
65 82 111
62 78 105
63 82 111
62 81 109
67 86 115
63 80 107
63 82 109
66 85 115
67 86 115
63 79 104
64 83 113
67 87 119
55 71 96
64 83 116
60 76 105
62 78 105
62 79 107
66 85 115
61 79 109
60 76 105
62 76 103
65 81 109
64 83 111
58 74 100
61 76 101
62 76 100
63 81 109
62 79 106
66 85 115
64 82 108
63 80 108
67 85 113
93 102 118
124 124 127
122 124 127
119 122 127
116 121 127
114 120 127
112 119 127
110 118 127
109 117 127
108 117 127
106 116 127
105 115 127
104 115 127
103 114 127
102 114 127
101 113 127
100 113 127
99 112 127
99 112 127
98 112 127
97 111 127
97 111 127
96 111 127
96 110 127
95 110 127
95 110 127
94 110 127
94 109 127
93 109 127
93 109 127
93 109 127
93 109 127
92 109 127
92 109 127
92 108 127
92 108 127
92 108 127
91 108 127
91 108 127
91 108 127
91 108 127
91 108 127
91 108 127
91 108 127
91 108 127
92 108 127
92 108 127
92 108 127
92 108 127
92 109 127
92 109 127
93 109 127
93 109 127
93 109 127
94 109 127
94 110 127
94 110 127
95 110 127
95 110 127
96 111 127
96 111 127
97 111 127
98 111 127
98 112 127
99 112 127
100 113 127
101 113 127
101 113 127
103 114 127
103 114 127
105 115 127
106 116 127
107 116 127
108 117 127
110 118 127
111 118 127
113 119 127
114 120 127
117 121 127
119 123 127
122 124 127
130 131 134
173 189 215
192 217 254
193 218 255
193 218 255
193 218 255
193 218 255
193 218 255
193 218 255
193 218 255
193 218 255
193 218 255
193 218 255
193 218 255
193 218 255
193 218 255
193 218 255
193 218 255
193 218 255
193 218 255
193 218 255
193 218 255
193 218 255
193 218 255
193 218 255
193 218 255
193 218 255
193 218 255
193 218 255
193 218 255
193 218 255
193 218 255
193 218 255
193 218 255
193 218 255
193 218 255
193 218 255
193 218 255
193 218 255
193 218 255
193 218 255
193 218 255
193 218 255
193 218 255
193 218 255
193 218 255
193 218 255
193 218 255
193 218 255
193 218 255
193 218 255
193 218 255
193 218 255
193 218 255
193 218 255
193 218 255
193 218 255
193 218 255
193 218 255
193 218 255
193 218 255
193 218 255
193 218 255
193 218 255
193 218 255
193 218 255
193 218 255
193 218 255
193 218 255
193 218 255
193 218 255
193 218 255
193 218 255
193 218 255
193 218 255
193 218 255
193 218 255
193 218 255
193 218 255
193 218 255
193 218 255
193 218 255
193 218 255
193 218 255
193 218 255
193 218 255
193 218 255
193 218 255
193 218 255
193 218 255
193 218 255
193 218 255
193 218 255
193 218 255
193 218 255
193 218 255
193 218 255
193 218 255
193 218 255
193 218 255
193 218 255
193 218 255
193 218 255
193 218 255
193 218 255
193 218 255
193 218 255
193 218 255
193 218 255
193 218 255
193 218 255
193 218 255
193 218 255
193 218 255
193 218 255
193 218 255
193 218 255
193 218 255
193 218 255
193 218 255
193 218 255
193 218 255
193 218 255
193 218 255
193 218 255
193 218 255
193 218 255
193 218 255
193 218 255
193 218 255
193 218 255
193 218 255
193 218 255
193 218 255
193 218 255
193 218 255
193 218 255
193 218 255
193 218 255
193 218 255
193 218 255
193 218 255
193 218 255
193 218 255
193 218 255
193 218 255
193 218 255
193 218 255
193 218 255
193 218 255
193 218 255
193 218 255
193 218 255
193 218 255
193 218 255
193 218 255
193 218 255
193 218 255
193 218 255
193 218 255
193 218 255
193 218 255
193 218 255
193 218 255
193 218 255
193 218 255
193 218 255
193 218 255
193 218 255
193 218 255
193 218 255
193 218 255
193 218 255
193 218 255
193 218 255
193 218 255
193 218 255
193 218 255
193 218 255
193 218 255
193 218 255
193 218 255
193 218 255
193 218 255
193 218 255
193 218 255
193 218 255
193 218 255
193 218 255
193 218 255
193 218 255
193 218 255
193 218 255
193 218 255
193 218 255
193 218 255
193 218 255
193 218 255
193 218 255
193 218 255
193 218 255
193 218 255
193 218 255
193 218 255
193 218 255
193 218 255
193 218 255
193 218 255
193 218 255
193 218 255
193 218 255
193 218 255
193 218 255
193 218 255
193 218 255
193 218 255
193 218 255
193 218 255
193 218 255
193 218 255
193 218 255
193 218 255
193 218 255
193 218 255
193 218 255
193 218 255
193 218 255
193 218 255
193 218 255
193 218 255
193 218 255
193 218 255
193 218 255
193 218 255
178 198 230
142 151 171
93 86 89
64 46 36
56 36 23
56 34 22
60 37 24
56 35 23
53 34 22
54 33 21
59 37 24
58 36 23
55 34 22
56 35 23
59 36 24
53 33 21
57 36 23
59 36 23
56 35 23
53 33 22
56 35 22
55 34 22
58 36 23
55 35 22
51 32 21
56 34 22
55 35 23
54 34 22
54 34 22
58 42 31
78 81 82
100 121 141
89 112 144
79 103 133
71 92 122
74 96 126
74 94 124
79 103 137
80 101 133
72 92 123
67 86 114
69 86 112
68 86 115
69 87 116
66 84 113
67 86 115
68 85 110
66 85 115
60 75 99
69 86 114
61 76 101
65 83 110
56 70 92
66 84 111
64 81 109
63 79 103
67 85 111
68 87 114
63 81 110
63 81 110
60 77 103
60 77 104
63 83 112
62 80 111
48 60 84
61 78 108
60 78 108
63 81 110
51 65 90
57 72 99
60 77 107
67 86 115
56 71 96
61 78 107
63 81 111
65 83 115
55 70 93
58 73 101
55 72 97
57 72 98
61 78 106
65 83 114
62 79 106
71 88 115
100 104 112
125 125 127
121 123 127
118 122 127
116 121 127
114 120 127
112 119 127
110 118 127
109 117 127
107 116 127
106 116 127
105 115 127
104 115 127
103 114 127
102 114 127
101 113 127
100 113 127
99 112 127
99 112 127
98 112 127
97 111 127
97 111 127
96 111 127
95 110 127
95 110 127
94 110 127
94 109 127
93 109 127
93 109 127
93 109 127
92 109 127
92 109 127
92 108 127
92 108 127
91 108 127
91 108 127
91 108 127
91 108 127
91 108 127
91 108 127
91 108 127
91 108 127
91 108 127
91 108 127
91 108 127
91 108 127
91 108 127
91 108 127
91 108 127
91 108 127
92 108 127
92 108 127
92 109 127
92 109 127
93 109 127
93 109 127
93 109 127
94 109 127
94 110 127
95 110 127
95 110 127
96 110 127
96 111 127
97 111 127
97 111 127
98 112 127
99 112 127
100 112 127
100 113 127
101 113 127
102 114 127
103 114 127
104 115 127
105 115 127
107 116 127
108 117 127
109 117 127
111 118 127
112 119 127
114 120 127
116 121 127
119 122 127
121 124 127
126 126 127
163 176 195
192 216 253
193 218 255
193 218 255
193 218 255
193 218 255
193 218 255
193 218 255
193 218 255
193 218 255
193 218 255
193 218 255
193 218 255
193 218 255
193 218 255
193 218 255
193 218 255
193 218 255
193 218 255
193 218 255
193 218 255
193 218 255
193 218 255
193 218 255
193 218 255
193 218 255
193 218 255
193 218 255
193 218 255
193 218 255
193 218 255
193 218 255
193 218 255
193 218 255
193 218 255
193 218 255
193 218 255
193 218 255
193 218 255
193 218 255
193 218 255
193 218 255
193 218 255
193 218 255
193 218 255
193 218 255
193 218 255
193 218 255
193 218 255
193 218 255
193 218 255
193 218 255
193 218 255
193 218 255
193 218 255
193 218 255
193 218 255
193 218 255
193 218 255
193 218 255
193 218 255
193 218 255
193 218 255
193 218 255
193 218 255
193 218 255
193 218 255
193 218 255
193 218 255
193 218 255
193 218 255
193 218 255
193 218 255
193 218 255
193 218 255
193 218 255
193 218 255
193 218 255
193 218 255
193 218 255
193 218 255
193 218 255
193 218 255
193 218 255
193 218 255
193 218 255
193 218 255
193 218 255
193 218 255
193 218 255
193 218 255
193 218 255
193 218 255
193 218 255
193 218 255
193 218 255
193 218 255
193 218 255
193 218 255
193 218 255
193 218 255
193 218 255
193 218 255
193 218 255
193 218 255
193 218 255
193 218 255
193 218 255
193 218 255
193 218 255
193 218 255
193 218 255
193 218 255
193 218 255
193 218 255
193 218 255
193 218 255
193 218 255
193 218 255
193 218 255
193 218 255
193 218 255
193 218 255
193 218 255
193 218 255
193 218 255
193 218 255
193 218 255
193 218 255
193 218 255
193 218 255
193 218 255
193 218 255
193 218 255
193 218 255
193 218 255
193 218 255
193 218 255
193 218 255
193 218 255
193 218 255
193 218 255
193 218 255
193 218 255
193 218 255
193 218 255
193 218 255
193 218 255
193 218 255
193 218 255
193 218 255
193 218 255
193 218 255
193 218 255
193 218 255
193 218 255
193 218 255
193 218 255
193 218 255
193 218 255
193 218 255
193 218 255
193 218 255
193 218 255
193 218 255
193 218 255
193 218 255
193 218 255
193 218 255
193 218 255
193 218 255
193 218 255
193 218 255
193 218 255
193 218 255
193 218 255
193 218 255
193 218 255
193 218 255
193 218 255
193 218 255
193 218 255
193 218 255
193 218 255
193 218 255
193 218 255
193 218 255
193 218 255
193 218 255
193 218 255
193 218 255
193 218 255
193 218 255
193 218 255
193 218 255
193 218 255
193 218 255
193 218 255
193 218 255
193 218 255
193 218 255
193 218 255
193 218 255
193 218 255
193 218 255
193 218 255
193 218 255
193 218 255
193 218 255
193 218 255
193 218 255
193 218 255
193 218 255
193 218 255
193 218 255
193 218 255
193 218 255
193 218 255
193 218 255
193 218 255
193 218 255
193 218 255
193 218 255
193 218 255
193 218 255
193 218 255
193 218 255
193 218 255
193 218 255
193 218 255
193 218 255
191 216 253
165 180 207
101 95 99
63 46 38
55 35 22
55 34 22
55 34 22
57 35 23
54 33 22
56 35 23
55 34 22
54 34 22
56 34 22
56 34 22
57 35 23
55 34 22
57 36 23
56 35 22
58 36 23
56 35 23
54 34 22
55 34 22
56 35 23
56 35 22
54 35 22
55 34 22
54 34 22
55 35 22
56 34 22
55 36 23
75 70 66
83 99 109
83 105 131
85 108 141
84 108 142
87 110 145
77 97 130
75 93 122
72 92 125
69 88 118
68 86 115
70 90 122
66 82 106
70 87 116
68 85 113
62 75 97
62 77 101
63 78 103
66 84 110
61 76 102
64 80 106
58 73 96
66 83 111
63 80 104
64 81 109
63 80 106
70 90 121
65 82 109
60 78 105
62 80 107
60 76 103
62 79 104
59 75 104
57 72 100
62 79 109
63 81 113
59 74 106
57 73 103
53 68 96
48 61 89
60 76 106
57 72 101
58 74 104
50 63 86
57 71 100
65 83 114
55 70 97
57 73 101
60 77 106
61 77 103
58 73 98
62 79 107
69 89 121
67 80 102
119 120 124
123 125 127
120 123 127
117 121 127
115 120 127
113 119 127
111 119 127
110 118 127
108 117 127
107 116 127
106 116 127
105 115 127
104 114 127
103 114 127
102 113 127
101 113 127
100 113 127
99 112 127
98 112 127
98 111 127
97 111 127
96 111 127
96 110 127
95 110 127
95 110 127
94 110 127
94 109 127
93 109 127
93 109 127
92 109 127
92 109 127
92 108 127
92 108 127
91 108 127
91 108 127
91 108 127
91 108 127
91 108 127
90 108 127
90 108 127
90 108 127
90 108 127
90 108 127
90 108 127
90 108 127
90 108 127
90 108 127
90 108 127
91 108 127
91 108 127
91 108 127
91 108 127
91 108 127
91 108 127
92 108 127
92 109 127
92 109 127
93 109 127
93 109 127
94 109 127
94 109 127
94 110 127
95 110 127
95 110 127
96 111 127
97 111 127
97 111 127
98 112 127
99 112 127
99 112 127
100 113 127
101 113 127
102 114 127
103 114 127
104 115 127
105 115 127
106 116 127
108 117 127
109 117 127
110 118 127
112 119 127
114 120 127
116 121 127
118 122 127
121 124 127
124 125 127
148 154 166
188 211 245
193 218 255
193 218 255
193 218 255
193 218 255
193 218 255
193 218 255
193 218 255
193 218 255
193 218 255
193 218 255
193 218 255
193 218 255
193 218 255
193 218 255
193 218 255
193 218 255
193 218 255
193 218 255
193 218 255
193 218 255
193 218 255
193 218 255
193 218 255
193 218 255
193 218 255
193 218 255
193 218 255
193 218 255
193 218 255
193 218 255
193 218 255
193 218 255
193 218 255
193 218 255
193 218 255
193 218 255
193 218 255
193 218 255
193 218 255
193 218 255
193 218 255
193 218 255
193 218 255
193 218 255
193 218 255
193 218 255
193 218 255
193 218 255
193 218 255
193 218 255
193 218 255
193 218 255
193 218 255
193 218 255
193 218 255
193 218 255
193 218 255
193 218 255
193 218 255
193 218 255
193 218 255
193 218 255
193 218 255
193 218 255
193 218 255
193 218 255
193 218 255
193 218 255
193 218 255
193 218 255
193 218 255
193 218 255
193 218 255
193 218 255
193 218 255
193 218 255
193 218 255
193 218 255
193 218 255
193 218 255
193 218 255
193 218 255
193 218 255
193 218 255
193 218 255
193 218 255
193 218 255
193 218 255
193 218 255
193 218 255
193 218 255
193 218 255
193 218 255
193 218 255
193 218 255
193 218 255
193 218 255
193 218 255
193 218 255
193 218 255
193 218 255
193 218 255
193 218 255
193 218 255
193 218 255
193 218 255
193 218 255
193 218 255
193 218 255
193 218 255
193 218 255
193 218 255
193 218 255
193 218 255
193 218 255
193 218 255
193 218 255
193 218 255
193 218 255
193 218 255
193 218 255
193 218 255
193 218 255
193 218 255
193 218 255
193 218 255
193 218 255
193 218 255
193 218 255
193 218 255
193 218 255
193 218 255
193 218 255
193 218 255
193 218 255
193 218 255
193 218 255
193 218 255
193 218 255
193 218 255
193 218 255
193 218 255
193 218 255
193 218 255
193 218 255
193 218 255
193 218 255
193 218 255
193 218 255
193 218 255
193 218 255
193 218 255
193 218 255
193 218 255
193 218 255
193 218 255
193 218 255
193 218 255
193 218 255
193 218 255
193 218 255
193 218 255
193 218 255
193 218 255
193 218 255
193 218 255
193 218 255
193 218 255
193 218 255
193 218 255
193 218 255
193 218 255
193 218 255
193 218 255
193 218 255
193 218 255
193 218 255
193 218 255
193 218 255
193 218 255
193 218 255
193 218 255
193 218 255
193 218 255
193 218 255
193 218 255
193 218 255
193 218 255
193 218 255
193 218 255
193 218 255
193 218 255
193 218 255
193 218 255
193 218 255
193 218 255
193 218 255
193 218 255
193 218 255
193 218 255
193 218 255
193 218 255
193 218 255
193 218 255
193 218 255
193 218 255
193 218 255
193 218 255
193 218 255
193 218 255
193 218 255
193 218 255
193 218 255
193 218 255
193 218 255
193 218 255
193 218 255
193 218 255
193 218 255
193 218 255
193 218 255
193 218 255
193 218 255
193 218 255
193 218 255
193 218 255
193 218 255
193 218 255
176 194 225
135 140 156
78 65 60
56 35 22
55 34 22
52 33 22
54 33 22
54 33 22
54 34 22
56 35 23
54 33 21
53 33 21
55 34 22
53 33 21
50 31 21
56 35 23
53 34 22
55 35 22
54 33 21
51 32 20
54 33 21
52 32 21
54 34 22
54 34 21
57 36 23
53 34 22
53 33 21
51 31 20
55 36 24
73 69 63
101 119 136
82 106 132
79 100 131
77 99 133
83 106 139
72 93 123
77 97 128
76 96 126
70 86 112
70 88 114
69 86 114
62 77 99
63 77 99
61 76 99
63 75 96
62 76 100
60 75 99
60 73 96
64 80 104
64 80 106
59 74 98
58 72 95
62 78 103
59 74 97
62 80 105
60 78 107
58 74 101
65 83 109
61 79 109
67 86 116
57 72 99
54 69 96
59 75 103
61 78 110
52 65 94
49 62 89
52 65 95
51 65 96
46 56 83
45 57 84
52 66 95
42 51 76
50 64 95
51 65 93
51 63 92
48 58 84
56 72 100
53 67 93
57 73 103
58 72 97
55 72 99
58 74 101
72 85 106
117 118 121
123 124 127
120 123 127
117 121 127
115 120 127
113 119 127
111 118 127
110 118 127
108 117 127
107 116 127
106 116 127
105 115 127
104 114 127
103 114 127
101 113 127
101 113 127
100 113 127
99 112 127
98 112 127
98 111 127
97 111 127
96 111 127
96 110 127
95 110 127
95 110 127
94 110 127
94 109 127
93 109 127
93 109 127
92 109 127
92 109 127
92 108 127
91 108 127
91 108 127
91 108 127
91 108 127
90 108 127
90 108 127
90 108 127
90 108 127
90 107 127
90 107 127
90 107 127
90 107 127
90 107 127
90 107 127
90 107 127
90 107 127
90 107 127
90 108 127
90 108 127
90 108 127
91 108 127
91 108 127
91 108 127
91 108 127
92 108 127
92 108 127
92 109 127
93 109 127
93 109 127
93 109 127
94 109 127
94 110 127
95 110 127
95 110 127
96 111 127
97 111 127
97 111 127
98 112 127
99 112 127
99 112 127
100 113 127
101 113 127
102 114 127
103 114 127
104 115 127
105 115 127
106 116 127
107 116 127
109 117 127
110 118 127
112 119 127
114 120 127
115 121 127
118 122 127
120 123 127
124 125 127
143 147 156
180 199 229
193 218 255
193 218 255
193 218 255
193 218 255
193 218 255
193 218 255
193 218 255
193 218 255
193 218 255
193 218 255
193 218 255
193 218 255
193 218 255
193 218 255
193 218 255
193 218 255
193 218 255
193 218 255
193 218 255
193 218 255
193 218 255
193 218 255
193 218 255
193 218 255
193 218 255
193 218 255
193 218 255
193 218 255
193 218 255
193 218 255
193 218 255
193 218 255
193 218 255
193 218 255
193 218 255
193 218 255
193 218 255
193 218 255
193 218 255
193 218 255
193 218 255
193 218 255
193 218 255
193 218 255
193 218 255
193 218 255
193 218 255
193 218 255
193 218 255
193 218 255
193 218 255
193 218 255
193 218 255
193 218 255
193 218 255
193 218 255
193 218 255
193 218 255
193 218 255
193 218 255
193 218 255
193 218 255
193 218 255
193 218 255
193 218 255
193 218 255
193 218 255
193 218 255
193 218 255
193 218 255
193 218 255
193 218 255
193 218 255
193 218 255
193 218 255
193 218 255
193 218 255
193 218 255
193 218 255
193 218 255
193 218 255
193 218 255
193 218 255
193 218 255
193 218 255
193 218 255
193 218 255
193 218 255
193 218 255
193 218 255
193 218 255
193 218 255
193 218 255
193 218 255
193 218 255
193 218 255
193 218 255
193 218 255
193 218 255
193 218 255
193 218 255
193 218 255
193 218 255
193 218 255
193 218 255
193 218 255
193 218 255
193 218 255
193 218 255
193 218 255
193 218 255
193 218 255
193 218 255
193 218 255
193 218 255
193 218 255
193 218 255
193 218 255
193 218 255
193 218 255
193 218 255
193 218 255
193 218 255
193 218 255
193 218 255
193 218 255
193 218 255
193 218 255
193 218 255
193 218 255
193 218 255
193 218 255
193 218 255
193 218 255
193 218 255
193 218 255
193 218 255
193 218 255
193 218 255
193 218 255
193 218 255
193 218 255
193 218 255
193 218 255
193 218 255
193 218 255
193 218 255
193 218 255
193 218 255
193 218 255
193 218 255
193 218 255
193 218 255
193 218 255
193 218 255
193 218 255
193 218 255
193 218 255
193 218 255
193 218 255
193 218 255
193 218 255
193 218 255
193 218 255
193 218 255
193 218 255
193 218 255
193 218 255
193 218 255
193 218 255
193 218 255
193 218 255
193 218 255
193 218 255
193 218 255
193 218 255
193 218 255
193 218 255
193 218 255
193 218 255
193 218 255
193 218 255
193 218 255
193 218 255
193 218 255
193 218 255
193 218 255
193 218 255
193 218 255
193 218 255
193 218 255
193 218 255
193 218 255
193 218 255
193 218 255
193 218 255
193 218 255
193 218 255
193 218 255
193 218 255
193 218 255
193 218 255
193 218 255
193 218 255
193 218 255
193 218 255
193 218 255
193 218 255
193 218 255
193 218 255
193 218 255
193 218 255
193 218 255
193 218 255
193 218 255
193 218 255
193 218 255
193 218 255
193 218 255
193 218 255
193 218 255
193 218 255
193 218 255
193 218 255
193 218 255
193 218 255
186 209 244
153 165 188
81 71 69
56 36 24
56 34 22
54 34 22
52 32 21
56 35 22
55 35 22
56 34 22
57 34 22
56 35 23
53 33 22
56 35 23
52 33 22
54 33 22
55 34 22
54 34 21
49 31 20
53 33 21
56 35 23
52 32 20
52 33 21
56 34 22
54 33 21
53 33 21
55 34 22
57 35 22
55 35 23
65 59 49
92 106 114
90 115 133
84 108 138
82 104 136
77 98 132
78 101 133
78 98 130
67 86 114
72 92 121
69 85 112
63 78 99
61 71 88
55 64 78
52 60 75
61 72 92
55 64 80
61 74 94
51 63 81
64 81 108
61 77 103
57 72 100
64 82 110
64 80 106
65 82 109
63 79 106
60 77 105
58 71 94
58 73 100
55 68 94
70 90 118
59 77 104
64 82 111
54 69 94
50 64 88
49 62 88
47 59 84
49 62 88
42 53 75
38 47 70
31 37 59
35 43 66
31 37 55
24 29 47
33 40 63
31 37 56
40 50 70
36 45 65
50 63 88
49 62 89
48 60 83
49 62 84
57 72 98
74 82 97
118 119 122
123 124 127
119 123 127
117 121 127
115 120 127
113 119 127
111 118 127
110 118 127
108 117 127
107 116 127
106 116 127
105 115 127
104 114 127
103 114 127
101 113 127
101 113 127
100 113 127
99 112 127
98 112 127
98 111 127
97 111 127
96 111 127
96 110 127
95 110 127
95 110 127
94 110 127
94 109 127
93 109 127
93 109 127
92 109 127
92 108 127
92 108 127
91 108 127
91 108 127
91 108 127
91 108 127
90 108 127
90 108 127
90 107 127
90 107 127
90 107 127
90 107 127
90 107 127
90 107 127
90 107 127
90 107 127
90 107 127
90 107 127
90 107 127
90 107 127
90 107 127
90 107 127
90 108 127
90 108 127
90 108 127
91 108 127
91 108 127
91 108 127
92 108 127
92 108 127
92 109 127
93 109 127
93 109 127
93 109 127
94 109 127
94 110 127
95 110 127
95 110 127
96 111 127
97 111 127
97 111 127
98 112 127
99 112 127
99 112 127
100 113 127
101 113 127
102 114 127
103 114 127
104 115 127
105 115 127
106 116 127
108 117 127
109 117 127
110 118 127
112 119 127
114 120 127
116 121 127
118 122 127
120 123 127
123 125 127
135 138 143
185 206 238
193 218 255
193 218 255
193 218 255
193 218 255
193 218 255
193 218 255
193 218 255
193 218 255
193 218 255
193 218 255
193 218 255
193 218 255
193 218 255
193 218 255
193 218 255
193 218 255
193 218 255
193 218 255
193 218 255
193 218 255
193 218 255
193 218 255
193 218 255
193 218 255
193 218 255
193 218 255
193 218 255
193 218 255
193 218 255
193 218 255
193 218 255
193 218 255
193 218 255
193 218 255
193 218 255
193 218 255
193 218 255
193 218 255
193 218 255
193 218 255
193 218 255
193 218 255
193 218 255
193 218 255
193 218 255
193 218 255
193 218 255
193 218 255
193 218 255
193 218 255
193 218 255
193 218 255
193 218 255
193 218 255
193 218 255
193 218 255
193 218 255
193 218 255
193 218 255
193 218 255
193 218 255
193 218 255
193 218 255
193 218 255
193 218 255
193 218 255
193 218 255
193 218 255
193 218 255
193 218 255
193 218 255
193 218 255
193 218 255
193 218 255
193 218 255
193 218 255
193 218 255
193 218 255
193 218 255
193 218 255
193 218 255
193 218 255
193 218 255
193 218 255
193 218 255
193 218 255
193 218 255
193 218 255
193 218 255
193 218 255
193 218 255
193 218 255
193 218 255
193 218 255
193 218 255
193 218 255
193 218 255
193 218 255
193 218 255
193 218 255
193 218 255
193 218 255
193 218 255
193 218 255
193 218 255
193 218 255
193 218 255
193 218 255
193 218 255
193 218 255
193 218 255
193 218 255
193 218 255
193 218 255
193 218 255
193 218 255
193 218 255
193 218 255
193 218 255
193 218 255
193 218 255
193 218 255
193 218 255
193 218 255
193 218 255
193 218 255
193 218 255
193 218 255
193 218 255
193 218 255
193 218 255
193 218 255
193 218 255
193 218 255
193 218 255
193 218 255
193 218 255
193 218 255
193 218 255
193 218 255
193 218 255
193 218 255
193 218 255
193 218 255
193 218 255
193 218 255
193 218 255
193 218 255
193 218 255
193 218 255
193 218 255
193 218 255
193 218 255
193 218 255
193 218 255
193 218 255
193 218 255
193 218 255
193 218 255
193 218 255
193 218 255
193 218 255
193 218 255
193 218 255
193 218 255
193 218 255
193 218 255
193 218 255
193 218 255
193 218 255
193 218 255
193 218 255
193 218 255
193 218 255
193 218 255
193 218 255
193 218 255
193 218 255
193 218 255
193 218 255
193 218 255
193 218 255
193 218 255
193 218 255
193 218 255
193 218 255
193 218 255
193 218 255
193 218 255
193 218 255
193 218 255
193 218 255
193 218 255
193 218 255
193 218 255
193 218 255
193 218 255
193 218 255
193 218 255
193 218 255
193 218 255
193 218 255
193 218 255
193 218 255
193 218 255
193 218 255
193 218 255
193 218 255
193 218 255
193 218 255
193 218 255
193 218 255
193 218 255
193 218 255
193 218 255
193 218 255
193 218 255
193 218 255
193 218 255
193 218 255
193 218 255
193 218 255
193 218 255
193 218 255
193 218 255
166 182 209
109 108 117
67 50 42
55 34 22
56 35 22
50 31 20
55 34 22
55 35 22
54 33 21
52 32 20
56 34 22
56 34 22
52 33 21
54 33 21
57 35 23
52 33 22
50 31 20
57 35 22
53 33 21
53 33 21
53 33 21
52 32 21
55 34 22
54 33 21
52 32 21
54 33 22
51 32 21
57 35 23
61 48 36
87 101 103
100 126 146
82 105 134
81 102 133
83 105 138
77 97 127
81 102 135
76 97 130
66 81 104
69 85 111
65 79 103
54 63 76
45 49 59
39 43 52
41 44 51
45 50 60
52 62 79
50 58 72
59 73 96
62 76 99
59 74 99
63 79 105
63 80 108
64 80 108
66 84 113
59 75 100
58 73 96
55 69 94
58 74 101
55 70 96
62 79 106
59 76 104
59 74 102
53 67 92
49 62 88
45 57 79
37 47 68
38 47 73
26 30 57
22 24 57
22 22 60
12 10 46
21 22 58
20 19 57
21 22 55
17 18 39
26 31 54
37 46 67
32 39 55
27 32 50
43 53 75
36 43 60
65 72 85
125 126 127
123 124 127
119 123 127
117 121 127
115 120 127
113 119 127
111 118 127
110 118 127
108 117 127
107 116 127
106 116 127
105 115 127
104 115 127
103 114 127
102 114 127
101 113 127
100 113 127
99 112 127
98 112 127
98 111 127
97 111 127
96 111 127
96 110 127
95 110 127
95 110 127
94 110 127
94 109 127
93 109 127
93 109 127
92 109 127
92 109 127
92 108 127
91 108 127
91 108 127
91 108 127
91 108 127
90 108 127
90 108 127
90 107 127
90 107 127
90 107 127
90 107 127
89 107 127
89 107 127
89 107 127
89 107 127
89 107 127
89 107 127
89 107 127
89 107 127
90 107 127
90 107 127
90 107 127
90 107 127
90 108 127
90 108 127
90 108 127
91 108 127
91 108 127
91 108 127
92 108 127
92 108 127
92 109 127
93 109 127
93 109 127
93 109 127
94 110 127
94 110 127
95 110 127
96 110 127
96 111 127
97 111 127
97 111 127
98 112 127
99 112 127
100 112 127
100 113 127
101 113 127
102 114 127
103 114 127
104 115 127
105 115 127
106 116 127
108 117 127
109 117 127
110 118 127
112 119 127
114 120 127
115 121 127
118 122 127
120 123 127
123 125 127
130 130 131
181 200 230
193 218 255
193 218 255
193 218 255
193 218 255
193 218 255
193 218 255
193 218 255
193 218 255
193 218 255
193 218 255
193 218 255
193 218 255
193 218 255
193 218 255
193 218 255
193 218 255
193 218 255
193 218 255
193 218 255
193 218 255
193 218 255
193 218 255
193 218 255
193 218 255
193 218 255
193 218 255
193 218 255
193 218 255
193 218 255
193 218 255
193 218 255
193 218 255
193 218 255
193 218 255
193 218 255
193 218 255
193 218 255
193 218 255
193 218 255
193 218 255
193 218 255
193 218 255
193 218 255
193 218 255
193 218 255
193 218 255
193 218 255
193 218 255
193 218 255
193 218 255
193 218 255
193 218 255
193 218 255
193 218 255
193 218 255
193 218 255
193 218 255
193 218 255
193 218 255
193 218 255
193 218 255
193 218 255
193 218 255
193 218 255
193 218 255
193 218 255
193 218 255
193 218 255
193 218 255
193 218 255
193 218 255
193 218 255
193 218 255
193 218 255
193 218 255
193 218 255
193 218 255
193 218 255
193 218 255
193 218 255
193 218 255
193 218 255
193 218 255
193 218 255
193 218 255
193 218 255
193 218 255
193 218 255
193 218 255
193 218 255
193 218 255
193 218 255
193 218 255
193 218 255
193 218 255
193 218 255
193 218 255
193 218 255
193 218 255
193 218 255
193 218 255
193 218 255
193 218 255
193 218 255
193 218 255
193 218 255
193 218 255
193 218 255
193 218 255
193 218 255
193 218 255
193 218 255
193 218 255
193 218 255
193 218 255
193 218 255
193 218 255
193 218 255
193 218 255
193 218 255
193 218 255
193 218 255
193 218 255
193 218 255
193 218 255
193 218 255
193 218 255
193 218 255
193 218 255
193 218 255
193 218 255
193 218 255
193 218 255
193 218 255
193 218 255
193 218 255
193 218 255
193 218 255
193 218 255
193 218 255
193 218 255
193 218 255
193 218 255
193 218 255
193 218 255
193 218 255
193 218 255
193 218 255
193 218 255
193 218 255
193 218 255
193 218 255
193 218 255
193 218 255
193 218 255
193 218 255
193 218 255
193 218 255
193 218 255
193 218 255
193 218 255
193 218 255
193 218 255
193 218 255
193 218 255
193 218 255
193 218 255
193 218 255
193 218 255
193 218 255
193 218 255
193 218 255
193 218 255
193 218 255
193 218 255
193 218 255
193 218 255
193 218 255
193 218 255
193 218 255
193 218 255
193 218 255
193 218 255
193 218 255
193 218 255
193 218 255
193 218 255
193 218 255
193 218 255
193 218 255
193 218 255
193 218 255
193 218 255
193 218 255
193 218 255
193 218 255
193 218 255
193 218 255
193 218 255
193 218 255
193 218 255
193 218 255
193 218 255
193 218 255
193 218 255
193 218 255
193 218 255
193 218 255
193 218 255
193 218 255
193 218 255
193 218 255
193 218 255
193 218 255
193 218 255
193 218 255
193 218 255
193 218 255
193 218 255
193 218 255
193 218 255
193 218 255
193 218 255
176 196 227
132 136 151
70 53 46
55 35 24
53 33 21
53 34 22
57 35 22
56 34 22
54 33 21
56 34 22
51 31 20
52 32 21
53 33 21
52 32 21
54 33 21
52 31 20
55 33 21
56 34 22
52 32 21
54 34 22
52 33 21
51 32 20
55 34 22
54 33 21
55 34 22
53 33 22
52 32 21
51 33 21
60 41 31
83 86 85
85 112 121
91 114 143
91 114 146
75 96 128
73 93 123
75 96 127
70 89 117
72 90 118
72 88 113
57 67 85
53 62 75
47 47 49
36 26 18
42 35 33
37 36 40
48 56 69
52 63 80
59 71 94
56 69 91
62 79 104
56 68 89
66 84 113
63 79 103
65 81 108
60 75 98
62 79 106
53 68 90
64 82 110
69 90 118
65 84 111
57 74 98
54 67 92
60 78 102
50 63 89
37 46 66
40 48 66
30 35 66
17 14 57
22 19 76
22 18 74
23 21 75
20 15 72
26 26 81
19 15 68
17 13 63
15 12 57
20 18 65
29 33 63
33 40 62
26 31 43
42 51 72
65 71 83
122 123 125
122 124 127
120 123 127
117 121 127
115 120 127
113 119 127
112 119 127
110 118 127
109 117 127
107 116 127
106 116 127
105 115 127
104 115 127
103 114 127
102 114 127
101 113 127
100 113 127
99 112 127
99 112 127
98 112 127
97 111 127
97 111 127
96 111 127
95 110 127
95 110 127
94 110 127
94 109 127
93 109 127
93 109 127
93 109 127
92 109 127
92 108 127
91 108 127
91 108 127
91 108 127
91 108 127
90 108 127
90 108 127
90 107 127
90 107 127
90 107 127
89 107 127
89 107 127
89 107 127
89 107 127
89 107 127
89 107 127
89 107 127
89 107 127
89 107 127
89 107 127
89 107 127
89 107 127
90 107 127
90 107 127
90 107 127
90 108 127
90 108 127
90 108 127
91 108 127
91 108 127
91 108 127
92 108 127
92 109 127
92 109 127
93 109 127
93 109 127
94 109 127
94 110 127
95 110 127
95 110 127
96 110 127
96 111 127
97 111 127
98 111 127
98 112 127
99 112 127
100 113 127
101 113 127
101 113 127
102 114 127
103 114 127
104 115 127
106 115 127
107 116 127
108 117 127
109 117 127
111 118 127
112 119 127
114 120 127
116 121 127
118 122 127
120 123 127
124 125 127
130 131 134
174 190 216
193 218 255
193 218 255
193 218 255
193 218 255
193 218 255
193 218 255
193 218 255
193 218 255
193 218 255
193 218 255
193 218 255
193 218 255
193 218 255
193 218 255
193 218 255
193 218 255
193 218 255
193 218 255
193 218 255
193 218 255
193 218 255
193 218 255
193 218 255
193 218 255
193 218 255
193 218 255
193 218 255
193 218 255
193 218 255
193 218 255
193 218 255
193 218 255
193 218 255
193 218 255
193 218 255
193 218 255
193 218 255
193 218 255
193 218 255
193 218 255
193 218 255
193 218 255
193 218 255
193 218 255
193 218 255
193 218 255
193 218 255
193 218 255
193 218 255
193 218 255
193 218 255
193 218 255
193 218 255
193 218 255
193 218 255
193 218 255
193 218 255
193 218 255
193 218 255
193 218 255
193 218 255
193 218 255
193 218 255
193 218 255
193 218 255
193 218 255
193 218 255
193 218 255
193 218 255
193 218 255
193 218 255
193 218 255
193 218 255
193 218 255
193 218 255
193 218 255
193 218 255
193 218 255
193 218 255
193 218 255
193 218 255
193 218 255
193 218 255
193 218 255
193 218 255
193 218 255
193 218 255
193 218 255
193 218 255
193 218 255
193 218 255
193 218 255
193 218 255
193 218 255
193 218 255
193 218 255
193 218 255
193 218 255
193 218 255
193 218 255
193 218 255
193 218 255
193 218 255
193 218 255
193 218 255
193 218 255
193 218 255
193 218 255
193 218 255
193 218 255
193 218 255
193 218 255
193 218 255
193 218 255
193 218 255
193 218 255
193 218 255
193 218 255
193 218 255
193 218 255
193 218 255
193 218 255
193 218 255
193 218 255
193 218 255
193 218 255
193 218 255
193 218 255
193 218 255
193 218 255
193 218 255
193 218 255
193 218 255
193 218 255
193 218 255
193 218 255
193 218 255
193 218 255
193 218 255
193 218 255
193 218 255
193 218 255
193 218 255
193 218 255
193 218 255
194 218 255
193 218 255
193 218 255
193 218 255
193 218 255
194 218 255
193 218 255
193 218 255
194 218 255
193 218 255
193 218 255
194 218 255
194 218 255
194 218 255
193 218 255
194 218 255
193 218 255
193 218 255
193 218 255
194 218 255
193 218 255
193 218 255
193 218 255
193 218 255
194 218 255
193 218 255
194 218 255
194 218 255
194 218 255
194 218 255
194 218 255
193 218 255
194 218 255
194 218 255
194 218 255
194 218 255
193 218 255
194 218 255
194 218 255
194 218 255
194 218 255
193 218 255
194 218 255
194 218 255
193 218 255
193 218 255
194 218 255
193 218 255
194 218 255
194 218 255
194 218 255
194 218 255
194 218 255
194 218 255
194 218 255
194 218 255
194 218 255
194 218 255
194 218 255
194 218 255
194 218 255
194 218 255
193 218 255
194 218 255
194 218 255
194 218 255
194 218 255
193 218 255
193 218 255
194 218 255
194 218 255
194 218 255
194 218 255
194 218 255
194 218 255
194 218 255
191 215 251
156 168 192
117 116 127
59 41 32
55 34 21
52 32 21
55 35 23
51 32 21
59 36 23
52 32 21
52 32 21
52 32 21
51 32 21
55 34 22
54 34 22
50 31 20
51 32 21
56 35 22
52 32 21
51 32 21
53 32 21
54 34 21
53 33 21
52 32 21
54 33 22
52 32 21
55 34 21
51 31 20
56 36 26
61 58 47
95 120 131
92 115 145
86 109 141
78 98 127
77 98 132
73 94 124
74 95 127
67 86 113
73 91 118
63 71 85
53 56 61
55 38 18
57 39 17
68 47 23
62 38 10
64 51 36
58 70 91
53 65 84
58 72 96
61 77 103
60 76 104
59 75 98
60 74 97
63 79 106
60 77 104
67 86 115
59 76 102
58 72 95
59 75 98
56 71 94
61 78 104
54 68 93
49 62 85
55 69 91
45 58 79
50 63 84
39 45 82
19 14 66
22 18 74
22 17 75
21 15 76
23 19 77
20 13 76
25 20 84
20 14 78
22 18 76
21 16 76
24 20 79
22 19 70
19 16 58
26 29 48
65 70 82
121 121 123
123 124 127
120 123 127
117 121 127
115 121 127
113 120 127
112 119 127
110 118 127
109 117 127
108 116 127
106 116 127
105 115 127
104 115 127
103 114 127
102 114 127
101 113 127
101 113 127
100 112 127
99 112 127
98 112 127
98 111 127
97 111 127
96 111 127
96 110 127
95 110 127
95 110 127
94 110 127
94 109 127
93 109 127
93 109 127
92 109 127
92 108 127
92 108 127
91 108 127
91 108 127
91 108 127
90 108 127
90 108 127
90 108 127
90 107 127
90 107 127
90 107 127
89 107 127
89 107 127
89 107 127
89 107 127
89 107 127
89 107 127
89 107 127
89 107 127
89 107 127
89 107 127
89 107 127
89 107 127
90 107 127
90 107 127
90 107 127
90 107 127
90 108 127
90 108 127
91 108 127
91 108 127
91 108 127
92 108 127
92 108 127
92 109 127
93 109 127
93 109 127
93 109 127
94 109 127
94 110 127
95 110 127
95 110 127
96 111 127
97 111 127
97 111 127
98 112 127
99 112 127
99 112 127
100 113 127
101 113 127
102 113 127
103 114 127
104 114 127
105 115 127
106 116 127
107 116 127
108 117 127
109 117 127
111 118 127
113 119 127
114 120 127
116 121 127
118 122 127
120 123 127
124 125 127
131 131 134
183 203 234
194 218 255
194 218 255
193 218 255
194 218 255
194 218 255
193 218 255
193 218 255
194 218 255
194 218 255
193 218 255
193 218 255
194 218 255
194 218 255
194 218 255
194 218 255
193 218 255
193 218 255
193 218 255
193 218 255
193 218 255
193 218 255
193 218 255
193 218 255
193 218 255
193 218 255
194 218 255
193 218 255
193 218 255
193 218 255
193 218 255
193 218 255
193 218 255
193 218 255
193 218 255
193 218 255
193 218 255
193 218 255
193 218 255
193 218 255
193 218 255
193 218 255
193 218 255
193 218 255
193 218 255
193 218 255
193 218 255
193 218 255
193 218 255
193 218 255
193 218 255
193 218 255
193 218 255
193 218 255
193 218 255
193 218 255
193 218 255
193 218 255
193 218 255
193 218 255
193 218 255
193 218 255
193 218 255
193 218 255
193 218 255
193 218 255
193 218 255
193 218 255
193 218 255
193 218 255
193 218 255
193 218 255
193 218 255
193 218 255
193 218 255
193 218 255
193 218 255
193 218 255
193 218 255
193 218 255
193 218 255
193 218 255
193 218 255
193 218 255
193 218 255
193 218 255
193 218 255
193 218 255
193 218 255
193 218 255
194 218 255
194 218 255
194 218 255
194 218 255
194 218 255
194 218 255
194 218 255
194 218 255
194 218 255
194 218 255
194 218 255
194 218 255
194 218 255
194 218 255
194 218 255
194 218 255
194 218 255
194 218 255
194 218 255
194 218 255
194 218 255
194 218 255
194 218 255
194 218 255
194 218 255
194 218 255
194 218 255
194 218 255
194 218 255
194 218 255
194 218 255
194 218 255
194 218 255
194 218 255
194 218 255
194 218 255
194 218 255
194 218 255
194 218 255
194 218 255
194 218 255
194 218 255
194 218 255
194 218 255
194 218 255
194 218 255
194 218 255
194 218 255
194 218 255
194 218 255
194 218 255
194 218 255
194 218 255
194 218 255
194 218 255
194 218 255
194 218 255
194 218 255
194 218 255
194 218 255
194 218 255
194 218 255
194 218 255
194 218 255
194 218 255
194 218 255
194 218 255
194 218 255
194 218 255
194 218 255
194 218 255
194 218 255
194 218 255
194 218 255
194 218 255
194 218 255
194 218 255
194 218 255
194 218 255
194 218 255
194 218 255
194 218 255
194 218 255
194 218 255
194 218 255
194 218 255
194 218 255
194 218 255
194 218 255
194 218 255
194 218 255
194 218 255
194 218 255
194 218 255
194 218 255
194 218 255
194 218 255
194 218 255
194 218 255
194 218 255
194 218 255
194 218 255
194 218 255
194 218 255
194 218 255
194 218 255
194 218 255
194 218 255
194 218 255
194 218 255
194 218 255
194 218 255
194 218 255
194 218 255
194 218 255
194 218 255
194 218 255
194 218 255
194 218 255
194 218 255
194 218 255
194 218 255
194 218 255
194 218 255
194 218 255
194 218 255
194 218 255
194 218 255
194 218 255
194 218 255
194 218 255
184 206 239
144 151 170
75 62 58
49 30 20
54 33 21
52 32 21
48 30 19
55 34 22
53 33 21
52 32 21
52 32 21
54 33 21
54 34 22
51 31 20
55 34 22
51 33 21
51 32 20
55 33 21
50 31 20
55 34 22
50 31 20
51 32 20
51 32 21
55 34 22
55 34 22
53 32 21
50 31 20
51 32 21
63 50 40
88 106 106
101 129 152
81 103 129
75 96 127
90 114 150
84 108 143
72 90 119
76 97 127
74 91 116
66 79 99
66 72 81
60 41 19
66 42 12
75 47 13
68 42 10
73 46 16
59 45 30
54 66 85
59 72 96
60 75 96
63 79 105
61 77 102
64 81 109
65 82 112
63 81 110
59 74 98
60 76 102
60 76 100
56 70 93
56 72 98
60 77 101
53 66 91
54 69 92
57 73 98
51 66 89
57 75 101
53 67 92
29 30 73
25 19 81
21 16 78
20 13 74
21 15 76
25 21 89
20 15 78
22 15 82
21 15 82
18 9 75
20 13 79
21 16 78
21 14 78
18 11 71
53 51 82
125 125 126
123 124 127
120 123 127
118 122 127
116 121 127
114 120 127
112 119 127
111 118 127
109 117 127
108 117 127
107 116 127
106 116 127
105 115 127
104 114 127
103 114 127
102 113 127
101 113 127
100 113 127
99 112 127
99 112 127
98 112 127
97 111 127
97 111 127
96 111 127
95 110 127
95 110 127
94 110 127
94 109 127
93 109 127
93 109 127
93 109 127
92 109 127
92 108 127
92 108 127
91 108 127
91 108 127
91 108 127
90 108 127
90 108 127
90 107 127
90 107 127
90 107 127
90 107 127
89 107 127
89 107 127
89 107 127
89 107 127
89 107 127
89 107 127
89 107 127
89 107 127
89 107 127
89 107 127
89 107 127
89 107 127
90 107 127
90 107 127
90 107 127
90 107 127
90 108 127
90 108 127
91 108 127
91 108 127
91 108 127
91 108 127
92 108 127
92 109 127
92 109 127
93 109 127
93 109 127
94 109 127
94 110 127
95 110 127
95 110 127
96 110 127
96 111 127
97 111 127
98 111 127
98 112 127
99 112 127
100 112 127
100 113 127
101 113 127
102 114 127
103 114 127
104 115 127
105 115 127
106 116 127
107 116 127
109 117 127
110 118 127
111 118 127
113 119 127
114 120 127
116 121 127
118 122 127
121 123 127
124 125 127
132 132 134
183 203 234
194 218 255
194 218 255
194 218 255
194 218 255
194 218 255
194 218 255
194 218 255
194 218 255
194 218 255
194 218 255
194 218 255
194 218 255
194 218 255
194 218 255
194 218 255
194 218 255
194 218 255
194 218 255
194 218 255
194 218 255
194 218 255
194 218 255
194 218 255
194 218 255
194 218 255
194 218 255
194 218 255
194 218 255
194 218 255
194 218 255
194 218 255
194 218 255
194 218 255
194 218 255
194 218 255
194 218 255
194 218 255
194 218 255
194 218 255
194 218 255
194 218 255
194 218 255
194 218 255
194 218 255
194 218 255
194 218 255
194 218 255
194 218 255
194 218 255
194 218 255
194 218 255
194 218 255
194 218 255
194 218 255
194 218 255
194 218 255
194 218 255
194 218 255
194 218 255
194 218 255
194 218 255
194 218 255
194 218 255
194 218 255
194 218 255
194 218 255
194 218 255
194 218 255
194 218 255
194 218 255
194 218 255
194 218 255
194 218 255
194 218 255
194 218 255
194 218 255
194 218 255
194 218 255
194 218 255
194 218 255
194 218 255
194 218 255
194 218 255
194 218 255
194 218 255
194 218 255
194 218 255
194 218 255
194 218 255
194 218 255
194 218 255
194 218 255
194 218 255
194 218 255
194 218 255
194 218 255
194 218 255
194 218 255
194 218 255
194 218 255
194 218 255
194 218 255
194 218 255
194 218 255
194 218 255
194 218 255
194 218 255
194 218 255
194 218 255
194 218 255
194 218 255
194 218 255
194 218 255
194 218 255
194 218 255
194 218 255
194 218 255
194 218 255
194 218 255
194 218 255
194 218 255
194 218 255
194 218 255
194 218 255
194 218 255
194 218 255
194 218 255
194 218 255
194 218 255
194 218 255
194 218 255
194 218 255
194 218 255
194 218 255
194 218 255
194 218 255
194 218 255
194 218 255
194 218 255
194 218 255
194 218 255
194 218 255
194 218 255
194 218 255
194 218 255
194 218 255
194 218 255
194 218 255
194 218 255
194 218 255
194 218 255
194 218 255
194 218 255
194 218 255
194 218 255
194 218 255
194 218 255
194 218 255
194 218 255
194 218 255
194 218 255
194 218 255
194 218 255
194 218 255
194 218 255
194 218 255
194 218 255
194 218 255
194 218 255
194 218 255
194 218 255
194 218 255
194 218 255
194 218 255
194 218 255
194 218 255
194 218 255
194 218 255
194 218 255
194 218 255
194 218 255
194 218 255
194 218 255
194 218 255
194 218 255
194 218 255
194 218 255
194 218 255
194 218 255
194 218 255
194 218 255
194 218 255
194 218 255
194 218 255
194 218 255
194 218 255
194 218 255
194 218 255
194 218 255
194 218 255
194 218 255
194 218 255
194 218 255
194 218 255
194 218 255
194 218 255
194 218 255
194 218 255
194 218 255
194 218 255
194 218 255
194 218 255
194 218 255
194 218 255
194 218 255
194 218 255
194 218 255
194 218 255
194 218 255
160 175 201
116 116 126
55 37 28
51 31 20
52 32 21
55 34 22
51 32 20
54 33 21
53 32 21
51 32 20
46 29 19
50 31 20
52 31 20
52 32 21
56 35 22
52 32 20
50 31 20
50 31 20
51 31 20
53 33 21
51 32 21
51 32 21
51 31 20
51 32 20
52 32 21
51 31 20
50 30 20
55 40 30
67 77 66
80 103 111
89 112 142
76 97 129
80 100 129
74 93 122
75 96 127
80 102 134
77 95 123
71 87 111
65 65 70
69 52 31
75 47 12
72 46 14
91 57 18
80 52 18
77 48 16
66 61 58
60 75 99
65 82 108
62 79 105
60 75 99
65 83 112
66 84 113
61 78 105
62 77 100
56 74 98
55 71 96
60 76 100
63 78 103
57 74 98
58 76 97
57 72 96
60 76 100
55 69 91
58 75 99
50 64 80
41 48 84
20 13 75
22 13 85
22 16 85
23 16 89
23 15 88
22 13 84
24 19 82
24 19 87
25 18 91
24 16 91
23 15 90
26 20 90
21 16 78
47 43 83
118 118 122
124 125 127
121 123 127
118 122 127
116 121 127
114 120 127
113 119 127
111 118 127
110 118 127
108 117 127
107 116 127
106 116 127
105 115 127
104 115 127
103 114 127
102 114 127
101 113 127
100 113 127
100 112 127
99 112 127
98 112 127
98 111 127
97 111 127
96 111 127
96 110 127
95 110 127
95 110 127
94 110 127
94 109 127
93 109 127
93 109 127
93 109 127
92 109 127
92 108 127
92 108 127
91 108 127
91 108 127
91 108 127
90 108 127
90 108 127
90 108 127
90 107 127
90 107 127
90 107 127
90 107 127
89 107 127
89 107 127
89 107 127
89 107 127
89 107 127
89 107 127
89 107 127
89 107 127
89 107 127
89 107 127
89 107 127
90 107 127
90 107 127
90 107 127
90 107 127
90 108 127
90 108 127
91 108 127
91 108 127
91 108 127
91 108 127
92 108 127
92 109 127
92 109 127
93 109 127
93 109 127
94 109 127
94 110 127
95 110 127
95 110 127
96 110 127
96 111 127
97 111 127
97 111 127
98 112 127
99 112 127
99 112 127
100 113 127
101 113 127
102 114 127
103 114 127
103 114 127
104 115 127
105 115 127
107 116 127
108 117 127
109 117 127
110 118 127
112 119 127
113 119 127
115 120 127
117 121 127
119 122 127
121 124 127
124 125 127
132 133 135
188 210 244
194 218 255
194 218 255
194 218 255
194 218 255
194 218 255
194 218 255
194 218 255
194 218 255
194 218 255
194 218 255
194 218 255
194 218 255
194 218 255
194 218 255
194 218 255
194 218 255
194 218 255
194 218 255
194 218 255
194 218 255
194 218 255
194 218 255
194 218 255
194 218 255
194 218 255
194 218 255
194 218 255
194 218 255
194 218 255
194 218 255
194 218 255
194 218 255
194 218 255
194 218 255
194 218 255
194 218 255
194 218 255
194 218 255
194 218 255
194 218 255
194 218 255
194 218 255
194 218 255
194 218 255
194 218 255
194 218 255
194 218 255
194 218 255
194 218 255
194 218 255
194 218 255
194 218 255
194 218 255
194 218 255
194 218 255
194 218 255
194 218 255
194 218 255
194 218 255
194 218 255
194 218 255
194 218 255
194 218 255
194 218 255
194 218 255
194 218 255
194 218 255
194 218 255
194 218 255
194 218 255
194 218 255
194 218 255
194 218 255
194 218 255
194 218 255
194 218 255
194 218 255
194 218 255
194 218 255
194 218 255
194 218 255
194 218 255
194 218 255
194 218 255
194 218 255
194 218 255
194 218 255
194 218 255
194 218 255
194 218 255
194 218 255
194 218 255
194 218 255
194 218 255
194 218 255
194 218 255
194 218 255
194 218 255
194 218 255
194 218 255
194 218 255
194 218 255
194 218 255
194 218 255
194 218 255
194 218 255
194 218 255
194 218 255
194 218 255
194 218 255
194 218 255
194 218 255
194 218 255
194 218 255
194 218 255
194 218 255
194 218 255
194 218 255
194 218 255
194 218 255
194 218 255
194 218 255
194 218 255
194 218 255
194 218 255
194 218 255
194 218 255
194 218 255
194 218 255
194 218 255
194 218 255
194 218 255
194 218 255
194 218 255
194 218 255
194 218 255
194 218 255
194 218 255
194 218 255
194 218 255
194 218 255
194 218 255
194 218 255
194 218 255
194 218 255
194 218 255
194 218 255
194 218 255
194 218 255
194 218 255
194 218 255
194 218 255
194 218 255
194 218 255
194 218 255
194 218 255
194 218 255
194 218 255
194 218 255
194 218 255
194 218 255
194 218 255
194 218 255
194 218 255
194 218 255
194 218 255
194 218 255
194 218 255
194 218 255
194 218 255
194 218 255
194 218 255
194 218 255
194 218 255
194 218 255
194 218 255
194 218 255
194 218 255
194 218 255
194 218 255
194 218 255
194 218 255
194 218 255
194 218 255
194 218 255
194 218 255
194 218 255
194 218 255
194 218 255
194 218 255
194 218 255
194 218 255
194 218 255
194 218 255
194 218 255
194 218 255
194 218 255
194 218 255
194 218 255
194 218 255
194 218 255
194 218 255
194 218 255
194 218 255
194 218 255
194 218 255
194 218 255
194 218 255
194 218 255
194 218 255
194 219 255
194 218 255
194 218 255
194 218 255
194 219 255
194 218 255
194 218 255
192 216 253
151 161 183
75 65 62
50 31 20
54 33 21
53 32 21
55 34 22
56 34 22
51 32 20
53 33 21
53 32 21
48 30 19
53 33 21
55 34 21
55 34 22
48 30 19
52 32 21
53 33 22
53 33 21
49 30 19
53 33 21
53 32 21
50 31 20
53 33 21
51 31 20
53 32 21
53 33 21
50 31 20
68 62 55
100 122 136
90 114 140
90 114 148
79 103 135
81 104 138
74 96 128
76 96 126
66 82 107
71 91 120
73 78 88
78 55 29
77 50 16
84 50 4
84 58 26
89 57 18
79 51 17
67 42 13
62 69 82
61 76 101
69 88 117
66 83 109
62 79 104
58 73 96
61 79 106
59 75 99
61 81 103
59 74 99
59 75 102
53 67 89
60 75 98
59 76 101
58 74 97
58 75 98
54 70 91
50 64 83
48 62 83
53 68 87
45 53 91
26 19 90
24 15 95
24 15 91
22 14 83
24 17 92
27 22 96
27 20 98
22 13 92
26 18 96
18 9 77
32 28 106
21 14 81
34 29 83
112 112 116
124 125 127
121 123 127
119 122 127
117 121 127
115 120 127
113 119 127
112 119 127
110 118 127
109 117 127
108 117 127
107 116 127
105 115 127
104 115 127
104 114 127
103 114 127
102 114 127
101 113 127
100 113 127
99 112 127
99 112 127
98 112 127
97 111 127
97 111 127
96 111 127
96 110 127
95 110 127
95 110 127
94 110 127
94 109 127
93 109 127
93 109 127
93 109 127
92 109 127
92 108 127
92 108 127
91 108 127
91 108 127
91 108 127
91 108 127
90 108 127
90 108 127
90 107 127
90 107 127
90 107 127
90 107 127
90 107 127
89 107 127
89 107 127
89 107 127
89 107 127
89 107 127
89 107 127
89 107 127
89 107 127
90 107 127
90 107 127
90 107 127
90 107 127
90 107 127
90 108 127
90 108 127
91 108 127
91 108 127
91 108 127
91 108 127
92 108 127
92 108 127
92 109 127
93 109 127
93 109 127
93 109 127
94 109 127
94 110 127
95 110 127
95 110 127
95 110 127
96 111 127
97 111 127
97 111 127
98 111 127
98 112 127
99 112 127
100 113 127
101 113 127
101 113 127
102 114 127
103 114 127
104 115 127
105 115 127
106 116 127
107 116 127
108 117 127
109 117 127
111 118 127
112 119 127
114 120 127
116 121 127
117 122 127
120 123 127
122 124 127
125 126 127
142 146 153
189 211 245
194 218 255
194 218 255
194 218 255
194 218 255
194 218 255
194 218 255
194 218 255
194 218 255
194 218 255
194 218 255
194 218 255
194 218 255
194 218 255
194 218 255
194 218 255
194 218 255
194 218 255
194 218 255
194 218 255
194 218 255
194 218 255
194 218 255
194 218 255
194 218 255
194 218 255
194 218 255
194 218 255
194 218 255
194 218 255
194 218 255
194 218 255
194 218 255
194 218 255
194 218 255
194 218 255
194 218 255
194 218 255
194 218 255
194 218 255
194 218 255
194 218 255
194 218 255
194 218 255
194 218 255
194 218 255
194 218 255
194 218 255
194 218 255
194 218 255
194 218 255
194 218 255
194 218 255
194 218 255
194 218 255
194 218 255
194 218 255
194 218 255
194 218 255
194 218 255
194 218 255
194 218 255
194 218 255
194 218 255
194 218 255
194 218 255
194 218 255
194 218 255
194 218 255
194 218 255
194 218 255
194 218 255
194 218 255
194 218 255
194 218 255
194 218 255
194 218 255
194 218 255
194 218 255
194 218 255
194 218 255
194 218 255
194 218 255
194 218 255
194 218 255
194 218 255
194 218 255
194 218 255
194 219 255
194 218 255
194 219 255
194 218 255
194 219 255
194 218 255
194 218 255
194 218 255
194 218 255
194 219 255
194 218 255
194 219 255
194 218 255
194 219 255
194 219 255
194 219 255
194 218 255
194 219 255
194 219 255
194 219 255
194 218 255
194 219 255
194 218 255
194 219 255
194 218 255
194 219 255
194 219 255
194 219 255
194 219 255
194 219 255
194 219 255
194 219 255
194 219 255
194 219 255
194 219 255
194 219 255
194 219 255
194 219 255
194 219 255
194 219 255
194 219 255
194 219 255
194 219 255
194 219 255
194 219 255
194 219 255
194 219 255
194 219 255
194 219 255
194 219 255
194 219 255
194 219 255
194 218 255
194 219 255
194 219 255
194 219 255
194 219 255
194 219 255
194 219 255
194 219 255
194 219 255
194 219 255
194 219 255
194 219 255
194 219 255
194 219 255
194 219 255
194 219 255
194 219 255
194 219 255
194 219 255
194 219 255
194 219 255
194 219 255
194 219 255
194 219 255
194 219 255
194 219 255
194 219 255
194 219 255
194 219 255
194 219 255
194 219 255
194 219 255
194 219 255
194 219 255
194 219 255
194 219 255
194 219 255
194 219 255
194 219 255
194 219 255
194 219 255
194 219 255
194 219 255
194 219 255
194 219 255
194 219 255
194 219 255
194 219 255
194 219 255
194 219 255
194 219 255
194 219 255
194 219 255
194 219 255
194 219 255
194 219 255
194 219 255
194 219 255
194 219 255
194 219 255
194 219 255
194 219 255
194 219 255
194 219 255
194 219 255
194 219 255
194 219 255
194 219 255
194 219 255
194 219 255
194 219 255
194 219 255
194 219 255
194 219 255
194 219 255
194 219 255
194 219 255
165 181 208
119 121 133
66 51 44
51 31 21
46 28 18
54 33 21
52 32 21
54 33 21
52 32 20
50 31 20
51 32 20
54 34 21
52 32 20
48 29 19
53 33 21
50 31 20
51 31 20
55 34 21
48 30 19
45 28 18
53 32 21
49 30 19
48 30 19
54 33 21
52 32 21
52 32 20
50 31 20
60 45 33
78 86 87
88 112 132
86 108 137
81 103 136
79 101 135
75 94 122
75 95 125
77 99 132
69 87 115
69 81 101
72 60 46
88 63 31
87 58 20
88 54 11
90 59 20
93 58 16
83 51 14
78 64 49
64 79 102
63 80 107
63 83 112
70 89 119
63 81 108
60 76 99
59 80 99
61 79 102
65 84 111
63 80 108
59 78 100
57 75 95
61 76 100
51 66 85
58 74 96
55 70 91
57 72 94
53 69 90
56 72 95
49 62 81
48 60 94
30 25 97
23 15 91
28 21 94
29 22 109
29 21 110
31 26 108
24 15 96
22 12 90
29 22 104
23 14 96
27 19 96
32 27 89
94 93 108
125 125 127
122 124 127
119 123 127
117 122 127
115 121 127
114 120 127
112 119 127
111 118 127
110 118 127
108 117 127
107 116 127
106 116 127
105 115 127
104 115 127
103 114 127
102 114 127
101 113 127
101 113 127
100 113 127
99 112 127
99 112 127
98 112 127
97 111 127
97 111 127
96 111 127
96 110 127
95 110 127
95 110 127
94 110 127
94 109 127
93 109 127
93 109 127
93 109 127
92 109 127
92 109 127
92 108 127
91 108 127
91 108 127
91 108 127
91 108 127
91 108 127
90 108 127
90 108 127
90 108 127
90 107 127
90 107 127
90 107 127
90 107 127
90 107 127
90 107 127
90 107 127
90 107 127
90 107 127
90 107 127
90 107 127
90 107 127
90 107 127
90 107 127
90 108 127
90 108 127
90 108 127
90 108 127
91 108 127
91 108 127
91 108 127
91 108 127
92 108 127
92 108 127
92 109 127
93 109 127
93 109 127
93 109 127
94 109 127
94 110 127
95 110 127
95 110 127
95 110 127
96 111 127
97 111 127
97 111 127
98 111 127
98 112 127
99 112 127
100 112 127
100 113 127
101 113 127
102 114 127
103 114 127
104 114 127
105 115 127
105 115 127
107 116 127
108 117 127
109 117 127
110 118 127
111 118 127
113 119 127
114 120 127
116 121 127
118 122 127
120 123 127
123 124 127
126 126 127
144 148 156
191 215 250
194 219 255
194 219 255
194 219 255
194 219 255
194 219 255
194 219 255
194 219 255
194 219 255
194 219 255
194 219 255
194 219 255
194 219 255
194 219 255
194 219 255
194 219 255
194 219 255
194 219 255
194 219 255
194 219 255
194 219 255
194 219 255
194 219 255
194 219 255
194 219 255
194 219 255
194 219 255
194 219 255
194 219 255
194 219 255
194 219 255
194 219 255
194 219 255
194 219 255
194 219 255
194 219 255
194 219 255
194 219 255
194 219 255
194 219 255
194 219 255
194 219 255
194 219 255
194 219 255
194 219 255
194 219 255
194 219 255
194 219 255
194 219 255
194 219 255
194 219 255
194 219 255
194 218 255
194 219 255
194 219 255
194 219 255
194 219 255
194 219 255
194 218 255
194 218 255
194 219 255
194 219 255
194 219 255
194 219 255
194 219 255
194 219 255
194 219 255
194 219 255
194 218 255
194 219 255
194 219 255
194 219 255
194 218 255
194 218 255
194 219 255
194 218 255
194 218 255
194 219 255
194 219 255
194 218 255
194 218 255
194 218 255
194 218 255
194 218 255
194 219 255
194 219 255
194 219 255
194 219 255
194 219 255
194 219 255
194 219 255
194 219 255
194 219 255
194 219 255
194 219 255
194 219 255
194 219 255
194 219 255
194 219 255
194 219 255
194 219 255
194 219 255
194 219 255
194 219 255
194 219 255
194 219 255
194 219 255
194 219 255
194 219 255
194 219 255
194 219 255
194 219 255
194 219 255
194 219 255
194 219 255
194 219 255
194 219 255
194 219 255
194 219 255
194 219 255
194 219 255
194 219 255
194 219 255
194 219 255
194 219 255
194 219 255
194 219 255
194 219 255
194 219 255
194 219 255
194 219 255
194 219 255
194 219 255
194 219 255
194 219 255
194 219 255
194 219 255
194 219 255
194 219 255
194 219 255
194 219 255
194 219 255
194 219 255
194 219 255
194 219 255
194 219 255
194 219 255
194 219 255
194 219 255
194 219 255
194 219 255
194 219 255
194 219 255
194 219 255
194 219 255
194 219 255
194 219 255
194 219 255
194 219 255
194 219 255
194 219 255
194 219 255
194 219 255
194 219 255
194 219 255
194 219 255
194 219 255
194 219 255
194 219 255
194 219 255
194 219 255
194 219 255
194 219 255
194 219 255
194 219 255
194 219 255
194 219 255
194 219 255
194 219 255
194 219 255
194 219 255
194 219 255
194 219 255
194 219 255
194 219 255
194 219 255
194 219 255
194 219 255
194 219 255
194 219 255
194 219 255
194 219 255
194 219 255
194 219 255
194 219 255
194 219 255
194 219 255
194 219 255
194 219 255
194 219 255
194 219 255
194 219 255
194 219 255
194 219 255
194 219 255
194 219 255
194 219 255
194 219 255
194 219 255
194 219 255
194 219 255
194 219 255
194 219 255
194 219 255
194 219 255
194 219 255
165 181 208
101 95 101
53 34 25
53 33 21
53 33 21
51 31 20
50 31 20
49 30 20
51 31 20
49 31 19
55 34 22
50 30 20
52 32 21
54 33 21
55 34 22
49 30 19
52 32 20
48 30 19
51 32 20
49 30 19
50 31 20
52 32 20
53 33 21
51 32 20
48 29 19
52 32 21
49 31 21
67 64 60
98 118 138
88 111 141
84 104 133
85 108 140
70 90 121
85 109 143
72 90 119
65 82 109
67 84 110
67 62 58
84 55 18
91 59 17
100 66 24
99 63 17
93 57 13
92 55 8
78 48 15
73 77 87
59 75 98
63 79 105
61 76 103
59 74 100
61 77 102
60 77 105
65 85 111
53 74 92
64 84 112
60 78 102
56 74 93
58 74 99
59 74 97
54 69 88
61 77 103
57 73 98
55 71 94
51 64 84
55 69 89
55 72 95
53 68 91
32 27 97
29 23 104
25 17 95
28 20 108
30 23 103
29 22 107
25 16 95
32 26 108
26 18 100
24 14 95
27 22 93
85 86 105
126 126 127
122 124 127
120 123 127
118 122 127
116 121 127
114 120 127
113 119 127
111 118 127
110 118 127
109 117 127
108 117 127
107 116 127
106 116 127
105 115 127
104 115 127
103 114 127
102 114 127
101 113 127
101 113 127
100 113 127
99 112 127
99 112 127
98 112 127
97 111 127
97 111 127
96 111 127
96 110 127
95 110 127
95 110 127
94 110 127
94 110 127
94 109 127
93 109 127
93 109 127
93 109 127
92 109 127
92 108 127
92 108 127
91 108 127
91 108 127
91 108 127
91 108 127
91 108 127
90 108 127
90 108 127
90 108 127
90 108 127
90 107 127
90 107 127
90 107 127
90 107 127
90 107 127
90 107 127
90 107 127
90 107 127
90 107 127
90 107 127
90 108 127
90 108 127
90 108 127
90 108 127
91 108 127
91 108 127
91 108 127
91 108 127
91 108 127
92 108 127
92 108 127
92 109 127
92 109 127
93 109 127
93 109 127
93 109 127
94 109 127
94 110 127
95 110 127
95 110 127
96 110 127
96 111 127
97 111 127
97 111 127
98 111 127
98 112 127
99 112 127
100 112 127
100 113 127
101 113 127
102 114 127
102 114 127
103 114 127
104 115 127
105 115 127
106 116 127
107 116 127
108 117 127
109 117 127
111 118 127
112 119 127
113 119 127
115 120 127
117 121 127
119 122 127
121 123 127
123 125 127
127 127 127
159 169 185
193 218 254
194 219 255
194 219 255
194 219 255
194 219 255
194 219 255
194 219 255
194 219 255
194 219 255
194 219 255
194 219 255
194 219 255
194 219 255
194 219 255
194 219 255
194 219 255
194 219 255
194 219 255
194 219 255
194 219 255
194 219 255
194 219 255
194 219 255
194 219 255
194 219 255
194 219 255
194 219 255
194 219 255
194 219 255
194 219 255
194 219 255
194 219 255
194 219 255
194 219 255
194 219 255
194 219 255
194 219 255
194 219 255
194 219 255
194 219 255
194 219 255
194 219 255
194 219 255
194 219 255
194 219 255
194 219 255
194 219 255
194 219 255
194 219 255
194 219 255
194 219 255
194 219 255
194 219 255
194 219 255
194 219 255
194 219 255
194 219 255
194 219 255
194 219 255
194 219 255
194 219 255
194 219 255
194 219 255
194 219 255
194 219 255
194 219 255
194 219 255
194 219 255
194 219 255
194 219 255
194 219 255
194 219 255
194 219 255
194 219 255
194 219 255
194 219 255
194 219 255
194 219 255
194 219 255
194 219 255
194 219 255
194 219 255
194 219 255
194 219 255
194 219 255
194 219 255
194 219 255
194 219 255
194 219 255
194 219 255
194 219 255
194 219 255
194 219 255
194 219 255
194 219 255
194 219 255
194 219 255
194 219 255
194 219 255
194 219 255
194 219 255
194 219 255
194 219 255
194 219 255
194 219 255
194 219 255
194 219 255
194 219 255
194 219 255
194 219 255
194 219 255
194 219 255
194 219 255
194 219 255
194 219 255
194 219 255
194 219 255
194 219 255
194 219 255
194 219 255
194 219 255
194 219 255
194 219 255
194 219 255
194 219 255
194 219 255
194 219 255
194 219 255
194 219 255
194 219 255
194 219 255
194 219 255
194 219 255
194 219 255
194 219 255
194 219 255
194 219 255
194 219 255
194 219 255
194 219 255
194 219 255
194 219 255
194 219 255
194 219 255
194 219 255
194 219 255
194 219 255
194 219 255
194 219 255
194 219 255
194 219 255
194 219 255
194 219 255
194 219 255
194 219 255
194 219 255
194 219 255
194 219 255
194 219 255
194 219 255
194 219 255
194 219 255
194 219 255
194 219 255
194 219 255
194 219 255
194 219 255
194 219 255
194 219 255
194 219 255
194 219 255
194 219 255
194 219 255
194 219 255
194 219 255
194 219 255
194 219 255
194 219 255
194 219 255
194 219 255
194 219 255
194 219 255
194 219 255
194 219 255
194 219 255
194 219 255
194 219 255
194 219 255
194 219 255
194 219 255
194 219 255
194 219 255
194 219 255
194 219 255
194 219 255
194 219 255
194 219 255
194 219 255
194 219 255
194 219 255
194 219 255
194 219 255
194 219 255
194 219 255
194 219 255
194 219 255
194 219 255
194 219 255
194 219 255
194 219 255
194 219 255
194 219 255
194 219 255
194 219 255
186 208 242
149 159 180
93 88 92
52 33 22
46 28 19
49 31 20
51 31 20
51 31 20
54 33 21
50 30 19
47 29 19
51 31 20
50 30 19
50 31 19
50 30 19
49 30 19
53 32 21
50 31 20
47 29 19
51 32 20
52 31 20
50 31 20
48 29 19
48 29 19
49 30 19
52 32 20
49 30 19
61 49 43
76 91 107
92 118 148
78 99 129
81 102 132
82 104 138
78 100 132
78 99 131
71 89 116
70 88 116
68 78 94
89 60 24
102 60 9
94 58 12
97 63 19
95 58 12
104 68 25
87 54 15
71 64 58
65 80 106
67 84 113
57 72 97
61 75 99
63 80 107
62 81 103
65 83 108
62 82 107
58 76 99
58 77 100
59 80 100
59 80 99
57 75 94
58 76 96
54 71 90
54 70 92
62 78 103
56 72 94
52 67 88
55 71 94
50 64 82
49 63 81
43 52 85
29 22 102
29 22 105
26 18 100
31 25 109
28 20 108
24 15 95
24 15 96
26 17 101
24 15 95
60 57 91
125 125 126
123 125 127
121 123 127
119 122 127
117 121 127
115 120 127
114 120 127
112 119 127
111 118 127
110 118 127
108 117 127
107 116 127
106 116 127
105 115 127
104 115 127
104 114 127
103 114 127
102 114 127
101 113 127
100 113 127
100 113 127
99 112 127
99 112 127
98 112 127
97 111 127
97 111 127
96 111 127
96 110 127
95 110 127
95 110 127
95 110 127
94 110 127
94 109 127
93 109 127
93 109 127
93 109 127
92 109 127
92 109 127
92 108 127
92 108 127
91 108 127
91 108 127
91 108 127
91 108 127
91 108 127
91 108 127
90 108 127
90 108 127
90 108 127
90 108 127
90 108 127
90 108 127
90 108 127
90 108 127
90 108 127
90 108 127
90 108 127
90 108 127
90 108 127
90 108 127
91 108 127
91 108 127
91 108 127
91 108 127
91 108 127
91 108 127
92 108 127
92 108 127
92 109 127
92 109 127
93 109 127
93 109 127
93 109 127
94 109 127
94 110 127
94 110 127
95 110 127
95 110 127
96 110 127
96 111 127
97 111 127
97 111 127
98 111 127
98 112 127
99 112 127
99 112 127
100 113 127
101 113 127
102 113 127
102 114 127
103 114 127
104 115 127
105 115 127
106 116 127
107 116 127
108 117 127
109 117 127
110 118 127
111 118 127
113 119 127
114 120 127
116 121 127
117 122 127
119 123 127
122 124 127
124 125 127
129 129 130
173 189 213
194 219 255
194 219 255
194 219 255
194 219 255
194 219 255
194 219 255
194 219 255
194 219 255
194 219 255
194 219 255
194 219 255
194 219 255
194 219 255
194 219 255
194 219 255
194 219 255
194 219 255
194 219 255
194 219 255
194 219 255
194 219 255
194 219 255
194 219 255
194 219 255
194 219 255
194 219 255
194 219 255
194 219 255
194 219 255
194 219 255
194 219 255
194 219 255
194 219 255
194 219 255
194 219 255
194 219 255
194 219 255
194 219 255
194 219 255
194 219 255
194 219 255
194 219 255
194 219 255
194 219 255
194 219 255
194 219 255
194 219 255
194 219 255
194 219 255
194 219 255
194 219 255
194 219 255
194 219 255
194 219 255
194 219 255
194 219 255
194 219 255
194 219 255
194 219 255
194 219 255
194 219 255
194 219 255
194 219 255
194 219 255
194 219 255
194 219 255
194 219 255
194 219 255
194 219 255
194 219 255
194 219 255
194 219 255
194 219 255
194 219 255
194 219 255
194 219 255
194 219 255
194 219 255
194 219 255
194 219 255
194 219 255
194 219 255
194 219 255
194 219 255
194 219 255
194 219 255
194 219 255
194 219 255
194 219 255
194 219 255
194 219 255
194 219 255
194 219 255
194 219 255
194 219 255
194 219 255
194 219 255
194 219 255
194 219 255
194 219 255
194 219 255
194 219 255
194 219 255
194 219 255
194 219 255
194 219 255
194 219 255
194 219 255
194 219 255
194 219 255
194 219 255
194 219 255
194 219 255
194 219 255
194 219 255
194 219 255
194 219 255
194 219 255
194 219 255
194 219 255
194 219 255
194 219 255
194 219 255
194 219 255
194 219 255
194 219 255
194 219 255
194 219 255
194 219 255
194 219 255
194 219 255
194 219 255
194 219 255
194 219 255
194 219 255
194 219 255
194 219 255
194 219 255
194 219 255
194 219 255
194 219 255
194 219 255
194 219 255
194 219 255
194 219 255
194 219 255
194 219 255
194 219 255
194 219 255
194 219 255
194 219 255
194 219 255
194 219 255
194 219 255
194 219 255
194 219 255
194 219 255
194 219 255
194 219 255
194 219 255
194 219 255
194 219 255
194 219 255
194 219 255
194 219 255
194 219 255
194 219 255
194 219 255
194 219 255
194 219 255
194 219 255
194 219 255
194 219 255
194 219 255
194 219 255
194 219 255
194 219 255
194 219 255
194 219 255
194 219 255
194 219 255
194 219 255
194 219 255
194 219 255
194 219 255
194 219 255
194 219 255
194 219 255
194 219 255
194 219 255
194 219 255
194 219 255
194 219 255
194 219 255
194 219 255
194 219 255
194 219 255
194 219 255
194 219 255
194 219 255
194 219 255
194 219 255
194 219 255
194 219 255
194 219 255
194 219 255
194 219 255
194 219 255
194 219 255
194 219 255
194 219 255
194 219 255
194 219 255
181 202 234
138 146 164
62 45 39
51 31 20
49 31 20
47 29 19
49 31 20
50 30 20
52 32 20
52 32 20
48 30 19
50 30 19
48 29 19
54 33 21
51 31 20
48 30 20
45 28 18
51 31 20
51 31 19
49 30 19
54 34 22
51 31 20
45 28 18
49 31 20
51 32 20
52 32 21
50 30 19
70 69 73
78 100 120
76 98 127
79 101 134
74 95 127
73 94 126
73 93 123
72 92 122
75 95 125
73 92 122
87 87 91
93 64 26
100 62 13
100 64 19
101 71 31
94 56 7
90 58 20
75 59 41
52 58 71
56 71 93
57 71 96
60 77 102
59 73 96
54 68 91
59 77 100
66 84 112
60 79 101
55 71 89
62 79 103
59 78 99
60 77 102
56 73 92
61 82 100
56 74 92
61 77 102
59 75 98
58 73 95
56 70 91
53 66 86
50 63 82
54 68 90
49 61 80
47 54 91
31 26 100
29 20 104
28 21 102
32 26 111
29 21 109
22 11 96
26 18 93
41 37 88
118 118 121
124 125 127
122 124 127
119 123 127
117 122 127
116 121 127
114 120 127
113 119 127
112 119 127
110 118 127
109 117 127
108 117 127
107 116 127
106 116 127
105 115 127
104 115 127
103 114 127
103 114 127
102 114 127
101 113 127
100 113 127
100 113 127
99 112 127
99 112 127
98 112 127
98 111 127
97 111 127
97 111 127
96 111 127
96 110 127
95 110 127
95 110 127
94 110 127
94 110 127
94 109 127
93 109 127
93 109 127
93 109 127
92 109 127
92 109 127
92 109 127
92 108 127
92 108 127
91 108 127
91 108 127
91 108 127
91 108 127
91 108 127
91 108 127
91 108 127
91 108 127
91 108 127
91 108 127
91 108 127
90 108 127
90 108 127
91 108 127
91 108 127
91 108 127
91 108 127
91 108 127
91 108 127
91 108 127
91 108 127
91 108 127
91 108 127
92 108 127
92 108 127
92 109 127
92 109 127
93 109 127
93 109 127
93 109 127
94 109 127
94 109 127
94 110 127
95 110 127
95 110 127
95 110 127
96 110 127
96 111 127
97 111 127
97 111 127
98 112 127
98 112 127
99 112 127
100 112 127
100 113 127
101 113 127
102 113 127
102 114 127
103 114 127
104 115 127
105 115 127
106 115 127
107 116 127
108 117 127
109 117 127
110 118 127
111 118 127
112 119 127
113 120 127
115 120 127
116 121 127
118 122 127
120 123 127
123 124 127
125 126 127
134 134 136
182 202 231
194 219 255
194 219 255
194 219 255
194 219 255
194 219 255
194 219 255
194 219 255
194 219 255
194 219 255
194 219 255
194 219 255
194 219 255
194 219 255
194 219 255
194 219 255
194 219 255
194 219 255
194 219 255
194 219 255
194 219 255
194 219 255
194 219 255
194 219 255
194 219 255
194 219 255
194 219 255
194 219 255
194 219 255
194 219 255
194 219 255
194 219 255
194 219 255
194 219 255
194 219 255
194 219 255
194 219 255
194 219 255
194 219 255
194 219 255
194 219 255
194 219 255
194 219 255
194 219 255
194 219 255
194 219 255
194 219 255
194 219 255
194 219 255
194 219 255
194 219 255
194 219 255
194 219 255
194 219 255
194 219 255
194 219 255
194 219 255
194 219 255
194 219 255
194 219 255
194 219 255
194 219 255
194 219 255
194 219 255
194 219 255
194 219 255
194 219 255
194 219 255
194 219 255
194 219 255
194 219 255
194 219 255
194 219 255
194 219 255
194 219 255
194 219 255
194 219 255
194 219 255
194 219 255
194 219 255
194 219 255
194 219 255
194 219 255
194 219 255
194 219 255
194 219 255
194 219 255
194 219 255
194 219 255
194 219 255
194 219 255
194 219 255
194 219 255
194 219 255
194 219 255
194 219 255
194 219 255
194 219 255
194 219 255
194 219 255
194 219 255
194 219 255
194 219 255
194 219 255
194 219 255
194 219 255
194 219 255
194 219 255
194 219 255
194 219 255
194 219 255
194 219 255
194 219 255
194 219 255
194 219 255
194 219 255
194 219 255
194 219 255
194 219 255
194 219 255
194 219 255
194 219 255
194 219 255
194 219 255
194 219 255
194 219 255
194 219 255
194 219 255
194 219 255
194 219 255
194 219 255
194 219 255
194 219 255
194 219 255
194 219 255
194 219 255
194 219 255
194 219 255
194 219 255
194 219 255
194 219 255
194 219 255
194 219 255
194 219 255
194 219 255
194 219 255
194 219 255
194 219 255
194 219 255
194 219 255
194 219 255
194 219 255
194 219 255
194 219 255
194 219 255
194 219 255
194 219 255
194 219 255
194 219 255
194 219 255
194 219 255
194 219 255
194 219 255
194 219 255
194 219 255
194 219 255
194 219 255
194 219 255
194 219 255
194 219 255
194 219 255
194 219 255
194 219 255
194 219 255
194 219 255
194 219 255
194 219 255
194 219 255
194 219 255
194 219 255
194 219 255
194 219 255
194 219 255
194 219 255
194 219 255
194 219 255
194 219 255
194 219 255
194 219 255
194 219 255
194 219 255
194 219 255
194 219 255
194 219 255
194 219 255
194 219 255
194 219 255
194 219 255
194 219 255
194 219 255
194 219 255
194 219 255
194 219 255
194 219 255
194 219 255
194 219 255
194 219 255
194 219 255
194 219 255
194 219 255
194 219 255
194 219 255
194 219 255
167 183 211
110 111 121
58 42 35
52 32 20
48 30 19
49 30 19
50 30 20
50 31 20
54 34 22
54 32 21
50 31 20
49 30 19
52 31 20
45 27 17
49 30 19
48 29 19
49 31 20
47 29 18
48 29 19
46 28 18
50 31 20
55 33 21
49 30 19
50 30 19
48 29 19
46 28 18
53 37 30
75 82 92
90 116 145
73 95 124
75 96 130
80 102 135
80 100 133
71 93 124
72 90 118
69 88 117
70 87 115
84 70 53
99 65 21
107 69 18
102 63 12
101 65 19
104 67 22
74 48 16
54 57 63
53 64 83
54 67 87
59 73 97
67 86 114
61 77 102
60 76 99
59 77 100
60 82 103
59 78 98
67 92 113
59 77 97
60 79 99
60 79 100
58 74 98
63 81 107
59 78 100
64 81 108
62 78 102
59 75 99
54 68 89
50 62 79
57 70 90
55 68 91
49 61 80
60 76 100
50 60 89
32 35 92
23 18 97
29 21 104
28 21 103
27 18 98
27 20 87
105 105 111
125 126 127
123 124 127
120 123 127
118 122 127
117 121 127
115 120 127
114 120 127
112 119 127
111 118 127
110 118 127
109 117 127
108 117 127
107 116 127
106 116 127
105 115 127
104 115 127
103 114 127
103 114 127
102 114 127
101 113 127
101 113 127
100 113 127
99 112 127
99 112 127
98 112 127
98 111 127
97 111 127
97 111 127
96 111 127
96 110 127
95 110 127
95 110 127
95 110 127
94 110 127
94 110 127
94 109 127
93 109 127
93 109 127
93 109 127
93 109 127
92 109 127
92 109 127
92 108 127
92 108 127
92 108 127
91 108 127
91 108 127
91 108 127
91 108 127
91 108 127
91 108 127
91 108 127
91 108 127
91 108 127
91 108 127
91 108 127
91 108 127
91 108 127
91 108 127
91 108 127
91 108 127
91 108 127
91 108 127
92 108 127
92 108 127
92 108 127
92 109 127
92 109 127
93 109 127
93 109 127
93 109 127
93 109 127
94 109 127
94 109 127
94 110 127
95 110 127
95 110 127
95 110 127
96 110 127
96 111 127
97 111 127
97 111 127
98 111 127
98 112 127
99 112 127
99 112 127
100 112 127
100 113 127
101 113 127
102 113 127
102 114 127
103 114 127
104 115 127
105 115 127
105 115 127
106 116 127
107 116 127
108 117 127
109 117 127
110 118 127
112 119 127
113 119 127
114 120 127
116 121 127
117 121 127
119 123 127
121 124 127
124 125 127
127 126 127
146 151 159
194 218 254
194 219 255
194 219 255
194 219 255
194 219 255
194 219 255
194 219 255
194 219 255
194 219 255
194 219 255
194 219 255
194 219 255
194 219 255
194 219 255
194 219 255
194 219 255
194 219 255
194 219 255
194 219 255
194 219 255
194 219 255
194 219 255
194 219 255
194 219 255
194 219 255
194 219 255
194 219 255
194 219 255
194 219 255
194 219 255
194 219 255
194 219 255
194 219 255
194 219 255
194 219 255
194 219 255
194 219 255
194 219 255
194 219 255
194 219 255
194 219 255
194 219 255
194 219 255
194 219 255
194 219 255
194 219 255
194 219 255
194 219 255
194 219 255
194 219 255
194 219 255
194 219 255
194 219 255
194 219 255
194 219 255
194 219 255
194 219 255
194 219 255
194 219 255
194 219 255
194 219 255
194 219 255
194 219 255
194 219 255
194 219 255
194 219 255
194 219 255
194 219 255
194 219 255
194 219 255
194 219 255
194 219 255
194 219 255
194 219 255
194 219 255
194 219 255
194 219 255
194 219 255
194 219 255
194 219 255
194 219 255
194 219 255
194 219 255
194 219 255
194 219 255
194 219 255
194 219 255
194 219 255
194 219 255
194 219 255
194 219 255
194 219 255
194 219 255
194 219 255
194 219 255
194 219 255
194 219 255
194 219 255
194 219 255
194 219 255
194 219 255
194 219 255
194 219 255
194 219 255
194 219 255
194 219 255
194 219 255
194 219 255
194 219 255
194 219 255
194 219 255
194 219 255
194 219 255
194 219 255
194 219 255
194 219 255
194 219 255
194 219 255
194 219 255
194 219 255
194 219 255
194 219 255
194 219 255
194 219 255
194 219 255
194 219 255
194 219 255
194 219 255
194 219 255
194 219 255
194 219 255
194 219 255
194 219 255
194 219 255
194 219 255
194 219 255
194 219 255
194 219 255
194 219 255
194 219 255
194 219 255
194 219 255
194 219 255
194 219 255
194 219 255
194 219 255
194 219 255
194 219 255
194 219 255
194 219 255
194 219 255
194 219 255
194 219 255
194 219 255
194 219 255
194 219 255
194 219 255
194 219 255
194 219 255
194 219 255
194 219 255
194 219 255
194 219 255
194 219 255
194 219 255
194 219 255
194 219 255
194 219 255
194 219 255
194 219 255
194 219 255
194 219 255
194 219 255
194 219 255
194 219 255
194 219 255
194 219 255
194 219 255
194 219 255
194 219 255
194 219 255
194 219 255
194 219 255
194 219 255
194 219 255
194 219 255
194 219 255
194 219 255
194 219 255
194 219 255
194 219 255
194 219 255
194 219 255
194 219 255
194 219 255
194 219 255
194 219 255
194 219 255
194 219 255
194 219 255
194 219 255
194 219 255
194 219 255
194 219 255
194 219 255
194 219 255
194 219 255
194 219 255
194 219 255
194 219 255
194 219 255
193 217 253
163 178 204
97 93 98
49 32 23
54 33 21
49 30 20
50 31 20
47 29 18
48 29 19
48 29 19
53 32 20
49 30 19
49 30 19
47 29 19
51 31 20
45 28 19
45 27 18
50 31 20
48 29 19
43 27 17
50 31 20
49 30 19
49 29 18
47 29 19
49 30 19
48 29 19
47 29 19
63 55 54
120 148 178
92 114 142
70 90 121
88 110 146
76 98 133
73 94 126
73 93 123
68 87 117
69 87 116
71 88 116
92 73 50
104 68 19
113 71 19
102 67 20
96 59 14
80 50 16
48 47 52
44 52 67
54 66 85
55 70 90
64 80 104
66 85 109
62 79 105
58 73 93
62 80 105
64 86 107
66 86 111
62 82 103
62 83 104
67 89 112
54 71 89
60 79 101
60 79 100
60 76 101
61 77 101
62 79 105
60 75 98
58 72 95
58 72 94
57 71 94
61 77 101
54 67 86
52 65 84
57 72 95
30 60 62
11 47 48
15 36 62
13 19 60
20 15 77
74 73 95
127 126 127
124 125 127
121 124 127
119 123 127
118 122 127
116 121 127
114 120 127
113 119 127
112 119 127
111 118 127
110 118 127
109 117 127
108 117 127
107 116 127
106 116 127
105 115 127
104 115 127
103 114 127
103 114 127
102 114 127
101 113 127
101 113 127
100 113 127
100 112 127
99 112 127
98 112 127
98 112 127
97 111 127
97 111 127
97 111 127
96 111 127
96 110 127
95 110 127
95 110 127
95 110 127
94 110 127
94 110 127
94 109 127
93 109 127
93 109 127
93 109 127
93 109 127
93 109 127
92 109 127
92 109 127
92 109 127
92 108 127
92 108 127
92 108 127
92 108 127
92 108 127
91 108 127
91 108 127
91 108 127
91 108 127
91 108 127
91 108 127
91 108 127
91 108 127
92 108 127
92 108 127
92 108 127
92 108 127
92 108 127
92 109 127
92 109 127
92 109 127
92 109 127
93 109 127
93 109 127
93 109 127
93 109 127
94 109 127
94 110 127
94 110 127
95 110 127
95 110 127
95 110 127
96 110 127
96 111 127
96 111 127
97 111 127
97 111 127
98 111 127
98 112 127
99 112 127
99 112 127
100 113 127
100 113 127
101 113 127
102 113 127
102 114 127
103 114 127
104 115 127
105 115 127
105 115 127
106 116 127
107 116 127
108 117 127
109 117 127
110 118 127
111 118 127
112 119 127
114 120 127
115 120 127
117 121 127
118 122 127
120 123 127
122 124 127
125 125 127
128 127 127
158 167 181
194 219 255
194 219 255
194 219 255
194 219 255
194 219 255
194 219 255
194 219 255
194 219 255
194 219 255
194 219 255
194 219 255
194 219 255
194 219 255
194 219 255
194 219 255
194 219 255
194 219 255
194 219 255
194 219 255
194 219 255
194 219 255
194 219 255
194 219 255
194 219 255
194 219 255
194 219 255
194 219 255
194 219 255
194 219 255
194 219 255
194 219 255
194 219 255
194 219 255
194 219 255
194 219 255
194 219 255
194 219 255
194 219 255
194 219 255
194 219 255
194 219 255
194 219 255
194 219 255
194 219 255
194 219 255
194 219 255
194 219 255
194 219 255
194 219 255
194 219 255
194 219 255
194 219 255
194 219 255
194 219 255
194 219 255
194 219 255
194 219 255
194 219 255
194 219 255
194 219 255
194 219 255
194 219 255
194 219 255
194 219 255
194 219 255
194 219 255
194 219 255
194 219 255
194 219 255
194 219 255
194 219 255
194 219 255
194 219 255
194 219 255
194 219 255
194 219 255
194 219 255
194 219 255
194 219 255
194 219 255
194 219 255
194 219 255
194 219 255
194 219 255
194 219 255
194 219 255
194 219 255
194 219 255
194 219 255
194 219 255
194 219 255
194 219 255
194 219 255
194 219 255
194 219 255
194 219 255
194 219 255
194 219 255
194 219 255
194 219 255
194 219 255
194 219 255
194 219 255
194 219 255
194 219 255
194 219 255
194 219 255
194 219 255
194 219 255
194 219 255
194 219 255
194 219 255
194 219 255
194 219 255
194 219 255
194 219 255
194 219 255
194 219 255
194 219 255
194 219 255
194 219 255
194 219 255
194 219 255
194 219 255
194 219 255
194 219 255
194 219 255
194 219 255
194 219 255
194 219 255
194 219 255
194 219 255
194 219 255
194 219 255
194 219 255
194 219 255
194 219 255
194 219 255
194 219 255
194 219 255
194 219 255
194 219 255
194 219 255
194 219 255
194 219 255
194 219 255
194 219 255
194 219 255
194 219 255
194 219 255
194 219 255
194 219 255
194 219 255
194 219 255
194 219 255
194 219 255
194 219 255
194 219 255
194 219 255
194 219 255
194 219 255
194 219 255
194 219 255
194 219 255
194 219 255
194 219 255
194 219 255
194 219 255
194 219 255
194 219 255
194 219 255
194 219 255
194 219 255
194 219 255
194 219 255
194 219 255
194 219 255
194 219 255
194 219 255
194 219 255
193 218 254
194 219 255
194 219 255
194 219 255
194 219 255
195 219 255
194 219 255
194 219 255
194 219 255
194 219 255
194 219 255
194 219 255
193 218 254
194 219 255
193 218 254
193 218 254
195 219 255
193 218 254
194 219 255
194 219 255
194 219 255
194 219 255
194 219 255
195 219 255
192 216 253
195 219 255
195 219 255
195 219 255
193 218 254
194 219 255
190 214 249
142 153 174
81 72 73
51 31 21
52 32 20
50 30 20
49 31 19
48 29 19
51 31 20
51 31 20
47 29 19
49 30 19
46 28 18
48 29 19
48 29 19
48 30 19
48 29 19
50 31 20
50 31 20
46 29 18
46 28 18
48 30 19
46 28 18
46 29 18
49 30 19
52 31 20
48 31 22
79 96 111
102 136 170
83 105 132
76 95 123
76 96 130
73 93 126
70 91 121
74 93 122
69 88 117
65 83 111
66 82 107
87 71 54
106 64 8
113 70 12
103 66 20
72 42 12
39 20 10
40 41 51
52 63 83
59 73 96
59 73 97
64 82 110
65 85 110
68 87 114
62 79 102
64 80 105
64 84 110
60 81 100
60 80 102
55 72 90
60 82 101
59 78 98
61 81 103
65 85 112
59 74 97
63 82 111
66 83 111
57 71 95
55 68 91
61 77 101
63 81 108
62 78 103
54 67 89
53 68 88
60 74 99
41 65 76
6 46 32
11 55 43
5 48 33
39 56 57
124 123 124
125 125 127
122 124 127
120 123 127
118 122 127
117 121 127
115 121 127
114 120 127
113 119 127
112 119 127
110 118 127
110 118 127
109 117 127
108 117 127
107 116 127
106 116 127
105 115 127
104 115 127
103 114 127
103 114 127
102 114 127
102 113 127
101 113 127
100 113 127
100 113 127
99 112 127
99 112 127
98 112 127
98 111 127
97 111 127
97 111 127
97 111 127
96 111 127
96 110 127
95 110 127
95 110 127
95 110 127
94 110 127
94 110 127
94 110 127
94 109 127
93 109 127
93 109 127
93 109 127
93 109 127
93 109 127
93 109 127
92 109 127
92 109 127
92 109 127
92 109 127
92 109 127
92 108 127
92 108 127
92 108 127
92 108 127
92 108 127
92 108 127
92 108 127
92 108 127
92 108 127
92 109 127
92 109 127
92 109 127
92 109 127
93 109 127
93 109 127
93 109 127
93 109 127
93 109 127
93 109 127
94 109 127
94 109 127
94 110 127
94 110 127
95 110 127
95 110 127
95 110 127
96 110 127
96 111 127
96 111 127
97 111 127
97 111 127
98 111 127
98 112 127
99 112 127
99 112 127
100 112 127
100 113 127
101 113 127
101 113 127
102 114 127
102 114 127
103 114 127
104 115 127
105 115 127
105 115 127
106 116 127
107 116 127
108 117 127
109 117 127
110 118 127
111 118 127
112 119 127
113 119 127
115 120 127
116 121 127
118 122 127
119 122 127
121 123 127
123 125 127
126 126 127
132 131 131
182 201 230
194 219 255
194 219 255
194 219 255
194 219 255
194 219 255
194 219 255
194 219 255
194 219 255
194 219 255
194 219 255
194 219 255
194 219 255
194 219 255
194 219 255
194 219 255
194 219 255
194 219 255
194 219 255
194 219 255
194 219 255
194 219 255
194 219 255
194 219 255
194 219 255
194 219 255
194 219 255
194 219 255
194 219 255
194 219 255
194 219 255
194 219 255
194 219 255
194 219 255
194 219 255
194 219 255
194 219 255
194 219 255
194 219 255
194 219 255
194 219 255
194 219 255
194 219 255
194 219 255
194 219 255
194 219 255
194 219 255
194 219 255
194 219 255
194 219 255
194 219 255
194 219 255
194 219 255
194 219 255
194 219 255
194 219 255
194 219 255
194 219 255
194 219 255
194 219 255
194 219 255
194 219 255
194 219 255
194 219 255
194 219 255
194 219 255
194 219 255
194 219 255
194 219 255
194 219 255
194 219 255
194 219 255
194 219 255
194 219 255
194 219 255
194 219 255
194 219 255
194 219 255
194 219 255
194 219 255
194 219 255
194 219 255
194 219 255
194 219 255
195 219 255
194 219 255
195 219 255
194 219 255
194 219 255
194 219 255
194 219 255
195 219 255
194 219 255
194 219 255
194 219 255
194 219 255
195 219 255
194 219 255
194 219 255
195 219 255
195 219 255
195 219 255
195 219 255
195 219 255
195 219 255
195 219 255
193 218 254
195 219 255
192 216 253
193 218 254
193 218 254
194 219 255
195 219 255
195 219 255
195 219 255
195 219 255
195 219 255
195 219 255
193 218 254
193 218 254
195 219 255
195 219 255
192 216 253
191 215 252
195 219 255
193 218 254
193 218 254
195 219 255
193 218 254
195 219 255
193 218 254
193 218 254
192 216 253
192 216 253
191 215 252
187 212 248
195 219 255
191 215 252
193 218 254
193 218 254
192 216 253
191 215 252
192 216 253
192 216 253
192 217 253
191 215 252
192 216 253
189 213 249
190 214 250
195 219 255
188 213 249
186 210 247
191 215 252
190 214 250
191 215 252
191 215 252
191 215 252
191 215 252
187 212 248
190 214 250
187 212 248
187 211 248
187 212 248
190 214 250
191 215 252
190 214 250
186 210 247
182 206 241
190 214 250
191 215 252
183 207 243
183 207 243
190 214 250
186 210 247
187 211 248
187 211 248
186 210 247
184 208 244
186 210 247
188 212 248
181 205 241
190 214 250
180 204 240
184 208 244
188 213 249
184 208 244
180 204 240
178 202 238
182 207 243
183 207 243
185 209 245
179 203 239
184 208 244
186 210 247
181 205 241
190 214 250
181 205 241
187 212 248
178 202 238
187 211 248
175 199 235
180 204 240
180 204 240
180 204 240
177 200 236
178 203 239
178 202 238
177 201 238
173 197 232
174 198 234
175 198 232
135 141 159
67 53 48
48 29 18
56 33 21
47 28 18
46 28 19
46 28 18
50 30 19
47 29 19
46 28 19
45 28 17
51 31 19
51 31 20
48 29 19
45 28 17
48 30 18
47 29 19
44 28 17
48 29 18
50 30 19
49 30 19
49 30 19
43 27 17
48 29 18
45 27 17
56 51 47
106 140 171
81 114 153
75 96 127
69 89 120
72 93 124
76 98 128
74 94 122
68 88 116
72 91 123
56 72 97
68 89 116
75 76 80
96 64 23
90 60 26
65 34 7
43 25 18
33 16 14
37 34 43
62 77 102
61 79 105
62 79 103
68 87 115
64 84 107
63 82 104
67 86 113
62 79 102
66 85 113
68 87 115
64 87 108
58 79 100
67 88 116
58 75 98
64 82 106
61 78 103
65 80 106
63 81 107
59 74 97
55 69 92
60 75 98
61 78 104
59 73 97
56 71 94
53 66 87
62 78 105
56 69 91
52 68 86
11 56 42
11 59 44
21 57 48
107 108 109
126 126 127
124 125 127
122 124 127
120 123 127
118 122 127
116 121 127
115 120 127
114 120 127
112 119 127
111 118 127
110 118 127
109 117 127
108 117 127
107 116 127
107 116 127
106 116 127
105 115 127
104 115 127
104 115 127
103 114 127
102 114 127
102 114 127
101 113 127
101 113 127
100 113 127
100 112 127
99 112 127
99 112 127
98 112 127
98 111 127
97 111 127
97 111 127
96 111 127
96 111 127
96 110 127
95 110 127
95 110 127
95 110 127
95 110 127
94 110 127
94 110 127
94 110 127
94 109 127
94 109 127
93 109 127
93 109 127
93 109 127
93 109 127
93 109 127
93 109 127
93 109 127
93 109 127
92 109 127
92 109 127
92 109 127
92 109 127
92 109 127
92 109 127
92 109 127
92 109 127
93 109 127
93 109 127
93 109 127
93 109 127
93 109 127
93 109 127
93 109 127
93 109 127
93 109 127
94 109 127
94 109 127
94 110 127
94 110 127
95 110 127
95 110 127
95 110 127
95 110 127
96 110 127
96 111 127
96 111 127
97 111 127
97 111 127
98 111 127
98 112 127
98 112 127
99 112 127
99 112 127
100 113 127
100 113 127
101 113 127
101 113 127
102 114 127
103 114 127
103 114 127
104 115 127
105 115 127
105 115 127
106 116 127
107 116 127
108 117 127
109 117 127
110 118 127
111 118 127
112 119 127
113 119 127
114 120 127
116 121 127
117 121 127
119 122 127
120 123 127
122 124 127
124 125 127
127 127 127
146 149 157
185 209 244
191 215 252
192 216 253
191 215 252
187 212 248
192 217 253
186 210 247
190 214 250
191 215 252
191 215 252
193 218 254
191 215 252
192 216 253
191 215 252
188 212 248
191 215 252
191 215 252
189 213 249
190 214 250
190 214 250
187 211 248
195 219 255
192 216 253
195 219 255
195 219 255
195 219 255
190 214 250
195 219 255
193 218 254
195 219 255
191 215 252
193 218 254
193 218 254
192 216 253
192 216 253
193 218 254
193 218 254
192 216 253
195 219 255
190 214 250
192 216 253
195 219 255
193 218 254
195 219 255
193 218 254
195 219 255
195 219 255
195 219 255
192 216 253
195 219 255
195 219 255
195 219 255
193 218 254
195 219 255
194 219 255
194 219 255
194 219 255
195 219 255
193 218 254
195 219 255
194 219 255
195 219 255
195 219 255
195 219 255
194 219 255
195 219 255
195 219 255
194 219 255
194 219 255
195 219 255
195 219 255
194 219 255
194 219 255
195 219 255
194 219 255
194 219 255
195 219 255
194 219 255
194 219 255
195 219 255
194 219 255
191 215 252
193 218 254
191 215 252
189 213 249
193 218 254
186 210 247
191 215 252
191 215 252
188 212 248
191 215 252
190 214 250
193 218 254
186 210 247
192 217 253
184 208 244
191 215 252
184 208 244
189 213 249
185 209 245
191 215 252
179 203 239
186 210 247
188 212 248
188 212 248
188 213 249
187 211 248
184 208 244
178 202 238
187 212 248
185 209 245
186 210 247
185 209 245
184 208 244
178 202 238
177 201 238
190 214 250
186 210 247
181 205 241
175 199 235
188 213 249
186 210 247
185 209 245
188 212 248
178 202 238
186 210 247
181 205 241
178 202 238
181 205 241
182 206 243
175 199 235
186 210 247
184 208 244
168 192 227
176 200 236
179 203 239
178 202 238
177 201 238
167 191 226
172 196 231
175 199 235
168 192 227
172 196 231
176 200 236
177 201 236
176 200 236
178 202 238
173 197 232
166 190 226
178 202 238
168 192 227
173 197 232
174 198 234
165 188 223
160 184 220
170 193 229
163 187 222
173 197 232
168 191 227
165 188 223
166 189 225
165 189 225
167 191 226
170 194 230
161 185 220
169 192 227
169 193 229
165 188 223
164 188 223
172 196 231
161 184 220
165 189 225
172 196 231
168 192 227
179 203 239
166 189 225
161 184 220
159 182 217
161 184 220
171 195 231
164 187 222
163 186 221
169 192 227
171 194 230
162 186 221
163 186 221
156 180 215
158 181 217
158 182 217
170 194 230
149 172 207
162 186 221
151 174 208
150 174 209
140 163 198
157 181 216
151 174 209
149 173 208
157 181 216
161 184 220
166 189 225
155 178 213
145 168 203
160 183 218
154 177 212
166 189 225
163 186 221
159 182 217
158 182 217
150 170 201
112 114 128
56 43 38
42 26 17
49 31 19
53 31 20
48 29 19
50 30 20
47 28 18
48 28 18
49 30 19
50 31 20
46 28 18
48 29 19
50 30 19
44 28 18
47 29 19
49 30 19
50 31 19
43 25 16
49 30 19
48 29 19
46 28 18
49 29 19
44 27 17
45 29 19
63 67 68
96 136 173
77 107 147
86 109 144
82 104 136
81 102 135
69 90 118
64 83 108
60 73 99
60 75 100
65 81 110
63 84 110
58 73 98
56 53 60
48 28 23
43 24 23
34 16 14
32 16 16
42 32 38
65 82 109
66 84 114
67 84 112
71 90 118
68 86 113
64 82 110
62 80 102
68 85 109
68 89 115
65 83 110
57 74 98
67 88 116
60 78 104
55 72 92
57 73 96
58 74 99
57 73 98
56 71 94
60 76 102
58 74 98
63 80 106
59 73 97
60 77 102
60 77 101
68 84 111
58 72 94
63 78 104
59 75 100
33 67 69
11 59 43
75 85 82
128 127 127
125 125 127
123 124 127
121 123 127
119 122 127
117 122 127
116 121 127
115 120 127
113 120 127
112 119 127
111 118 127
110 118 127
109 117 127
108 117 127
108 117 127
107 116 127
106 116 127
105 115 127
105 115 127
104 115 127
103 114 127
103 114 127
102 114 127
101 113 127
101 113 127
100 113 127
100 113 127
99 112 127
99 112 127
99 112 127
98 112 127
98 111 127
97 111 127
97 111 127
97 111 127
96 111 127
96 111 127
96 110 127
95 110 127
95 110 127
95 110 127
95 110 127
95 110 127
94 110 127
94 110 127
94 110 127
94 109 127
94 109 127
94 109 127
93 109 127
93 109 127
93 109 127
93 109 127
93 109 127
93 109 127
93 109 127
93 109 127
93 109 127
93 109 127
93 109 127
93 109 127
93 109 127
93 109 127
93 109 127
93 109 127
93 109 127
94 109 127
94 109 127
94 109 127
94 110 127
94 110 127
94 110 127
95 110 127
95 110 127
95 110 127
95 110 127
96 110 127
96 111 127
96 111 127
96 111 127
97 111 127
97 111 127
98 111 127
98 112 127
98 112 127
99 112 127
99 112 127
100 112 127
100 113 127
101 113 127
101 113 127
102 114 127
102 114 127
103 114 127
104 114 127
104 115 127
105 115 127
106 116 127
106 116 127
107 116 127
108 117 127
109 117 127
110 118 127
111 118 127
112 119 127
113 119 127
114 120 127
115 120 127
117 121 127
118 122 127
120 123 127
121 124 127
123 125 127
126 126 127
129 127 127
154 167 188
168 192 227
163 186 221
163 187 222
184 208 244
171 194 230
157 181 216
167 191 226
175 198 234
170 193 229
176 200 236
178 202 238
169 193 229
170 194 230
179 203 239
166 189 225
173 197 232
171 195 230
167 191 226
171 195 230
175 198 234
180 204 240
174 198 234
170 194 230
177 200 236
177 201 236
174 197 232
177 200 236
179 203 239
171 194 230
177 200 236
178 202 238
179 203 239
180 204 240
174 198 234
177 201 236
180 204 240
179 203 239
180 204 240
174 198 234
185 209 245
181 205 241
179 203 239
178 202 238
182 207 243
181 205 241
183 207 243
180 204 240
185 209 245
179 203 239
184 208 244
187 212 248
181 205 241
184 208 244
186 210 247
182 206 243
184 208 244
187 212 248
190 214 250
191 215 252
190 214 250
192 217 253
193 218 254
186 210 247
183 208 244
189 214 250
190 214 250
193 218 254
190 214 250
186 210 247
191 215 252
191 215 252
192 216 253
188 213 249
193 218 254
192 216 253
191 215 252
195 219 255
190 214 250
191 215 252
194 218 254
172 196 231
179 203 239
170 193 229
174 198 234
176 199 235
166 189 225
168 191 227
176 200 236
172 196 231
175 199 235
170 194 230
161 184 220
172 196 231
172 195 231
172 196 231
163 187 222
166 190 225
166 189 223
161 185 220
169 193 229
173 197 232
158 182 217
172 196 231
168 192 227
161 184 220
156 180 215
168 192 227
163 186 221
161 184 220
162 186 221
162 186 221
156 179 215
165 188 223
163 187 222
160 183 218
163 187 222
161 184 220
156 180 215
157 180 216
155 178 213
154 178 213
154 178 213
158 182 217
155 178 212
160 184 218
154 177 212
150 173 208
154 177 212
160 183 218
156 180 215
154 177 212
154 178 213
148 171 206
147 170 204
150 174 208
142 165 199
146 169 204
149 172 207
139 162 197
145 168 203
144 167 200
162 186 221
158 182 217
149 172 207
146 169 204
147 171 206
132 155 189
149 172 207
145 168 203
143 166 200
145 168 202
145 168 202
144 167 202
141 165 199
142 165 199
139 161 195
146 169 203
144 167 202
137 160 194
146 170 204
142 165 199
134 156 190
135 158 193
135 158 191
139 162 197
131 153 188
142 165 199
148 171 206
138 161 195
144 166 200
143 166 200
135 157 191
140 162 197
143 166 200
133 156 190
148 171 206
137 160 194
143 167 202
127 150 184
136 159 193
131 154 188
136 158 193
134 157 191
123 146 180
126 149 183
133 156 190
141 164 198
143 166 200
127 150 184
136 159 194
137 160 194
138 161 195
140 163 198
129 152 186
130 153 186
136 158 193
141 164 199
135 157 191
136 159 193
129 151 185
133 155 189
140 163 198
140 162 197
139 162 197
134 157 191
128 151 185
119 141 174
127 150 184
109 127 155
84 86 98
51 35 27
43 26 17
51 31 20
46 28 17
45 27 18
44 27 17
43 27 17
45 27 18
47 28 18
46 28 18
47 29 18
45 28 18
46 28 18
45 28 19
48 29 19
47 28 18
43 26 16
48 29 18
45 27 17
43 27 17
46 28 18
47 28 18
45 28 18
46 31 22
72 88 99
90 127 168
70 92 131
78 99 133
79 100 135
73 92 128
76 97 127
50 62 83
41 50 66
55 69 90
66 87 115
64 82 109
63 77 102
39 26 27
44 23 20
44 23 20
35 16 13
43 22 20
46 43 54
70 89 119
63 80 107
66 84 112
65 84 111
65 83 109
58 75 101
61 79 104
60 78 95
70 90 119
61 76 100
56 71 94
52 66 87
57 73 95
50 64 85
50 64 85
57 73 96
55 71 94
54 69 91
58 74 98
56 70 94
58 76 102
62 78 104
60 75 99
59 73 97
58 74 99
57 72 96
63 79 104
68 87 115
51 64 86
43 62 66
123 122 123
126 126 127
124 125 127
122 124 127
120 123 127
119 122 127
117 121 127
116 121 127
114 120 127
113 119 127
112 119 127
111 118 127
110 118 127
109 117 127
109 117 127
108 117 127
107 116 127
106 116 127
105 115 127
105 115 127
104 115 127
104 114 127
103 114 127
102 114 127
102 114 127
101 113 127
101 113 127
100 113 127
100 113 127
99 112 127
99 112 127
99 112 127
98 112 127
98 112 127
97 111 127
97 111 127
97 111 127
97 111 127
96 111 127
96 111 127
96 110 127
95 110 127
95 110 127
95 110 127
95 110 127
95 110 127
95 110 127
94 110 127
94 110 127
94 110 127
94 110 127
94 109 127
94 109 127
94 109 127
94 109 127
94 109 127
94 109 127
94 109 127
94 109 127
94 109 127
94 109 127
94 109 127
94 109 127
94 109 127
94 109 127
94 110 127
94 110 127
94 110 127
94 110 127
94 110 127
95 110 127
95 110 127
95 110 127
95 110 127
95 110 127
96 110 127
96 110 127
96 111 127
96 111 127
97 111 127
97 111 127
97 111 127
98 111 127
98 112 127
98 112 127
99 112 127
99 112 127
100 112 127
100 113 127
101 113 127
101 113 127
102 113 127
102 114 127
103 114 127
103 114 127
104 115 127
104 115 127
105 115 127
106 116 127
107 116 127
107 116 127
108 117 127
109 117 127
110 118 127
111 118 127
112 119 127
113 119 127
114 120 127
115 120 127
116 121 127
117 122 127
119 122 127
121 123 127
123 124 127
125 125 127
127 127 127
134 134 136
134 155 186
139 162 197
138 161 195
143 166 200
148 171 206
149 172 207
136 159 194
143 167 202
145 167 202
149 172 207
149 172 207
140 163 198
140 163 198
141 164 198
147 170 204
148 171 206
146 169 204
151 174 208
152 176 211
145 168 203
143 166 200
143 166 200
148 172 207
154 178 213
159 183 218
152 175 209
144 167 202
147 171 206
150 173 208
149 172 207
155 178 213
154 177 212
162 186 221
152 175 211
156 179 215
151 174 209
157 181 216
154 177 212
152 176 211
154 177 212
156 179 215
165 188 223
161 184 218
168 192 227
159 182 217
159 183 218
164 187 222
168 192 227
150 173 208
164 188 223
168 192 227
157 181 216
153 177 212
156 179 215
156 179 215
167 190 226
159 182 217
168 192 227
168 192 227
165 188 223
166 189 225
167 191 226
179 203 239
163 186 221
165 188 223
170 194 230
170 194 230
164 187 222
166 189 225
166 189 225
163 187 222
173 197 232
174 198 234
174 198 234
169 192 227
168 192 227
174 198 234
173 197 232
174 198 234
170 193 229
144 167 202
152 176 211
155 178 213
141 164 199
146 169 204
144 167 200
153 176 212
149 172 207
142 165 199
153 177 212
140 163 198
141 164 199
143 166 200
159 182 217
139 162 197
148 171 206
133 156 190
141 164 198
129 152 186
134 157 191
132 154 188
139 162 197
146 170 204
141 165 199
135 158 193
133 155 189
138 161 195
152 176 211
149 172 207
140 163 197
123 145 179
129 151 185
136 159 193
134 157 191
130 153 188
129 151 184
132 155 189
131 154 188
137 160 194
131 154 188
133 156 190
129 152 186
129 152 186
117 140 174
127 150 184
140 163 197
132 154 188
122 145 179
132 155 189
125 147 180
126 148 181
118 140 174
131 153 188
126 149 183
130 152 186
132 155 189
129 152 185
119 141 175
123 146 180
121 143 177
125 147 181
127 149 183
118 141 175
117 139 172
123 145 179
120 142 176
121 143 176
110 132 166
120 142 176
122 145 180
117 140 174
109 131 165
121 143 176
123 145 179
116 139 172
114 136 170
120 142 176
107 130 163
115 137 171
111 133 166
124 146 180
121 143 177
108 130 162
105 128 162
117 139 172
115 137 171
106 129 162
117 140 174
105 127 159
104 126 159
118 140 174
112 134 167
97 119 152
108 131 165
105 127 159
112 134 167
115 138 171
113 135 168
103 125 158
102 124 157
114 136 170
111 134 167
108 130 163
108 130 163
107 130 163
122 144 179
102 124 157
108 130 163
110 132 166
106 128 161
116 139 172
103 125 158
112 134 167
107 129 162
104 126 159
103 125 158
107 129 163
108 130 163
110 132 166
104 126 158
109 131 165
112 134 167
112 135 168
100 121 154
105 128 161
100 122 156
100 122 156
111 133 167
101 121 153
71 74 86
50 35 27
48 29 19
50 30 19
50 30 19
50 30 20
49 30 19
48 29 19
49 30 19
49 30 19
46 28 18
47 29 18
48 28 19
48 29 18
44 26 17
48 29 19
49 30 19
48 29 19
45 27 17
44 27 17
46 28 18
48 28 18
48 29 18
42 26 17
65 60 60
97 121 144
79 107 152
81 104 144
92 113 147
85 108 141
80 101 134
67 85 113
53 64 90
46 55 77
58 76 100
70 89 120
53 69 97
47 50 62
42 19 14
42 21 14
40 17 13
42 18 16
50 31 31
55 61 82
64 82 110
68 88 117
61 76 102
73 93 124
66 84 112
64 83 110
60 78 102
58 76 101
46 58 78
38 48 64
38 48 63
23 29 39
21 24 31
30 37 48
39 48 63
44 54 71
47 60 80
47 59 76
51 63 82
49 61 80
45 55 72
54 68 91
56 72 95
57 70 93
55 68 90
58 72 96
61 75 99
58 73 97
51 63 84
96 97 101
128 127 127
125 126 127
123 124 127
121 123 127
119 123 127
118 122 127
117 121 127
115 121 127
114 120 127
113 119 127
112 119 127
111 118 127
110 118 127
109 117 127
109 117 127
108 117 127
107 116 127
106 116 127
106 116 127
105 115 127
104 115 127
104 115 127
103 114 127
103 114 127
102 114 127
102 114 127
101 113 127
101 113 127
100 113 127
100 113 127
99 112 127
99 112 127
99 112 127
98 112 127
98 112 127
98 111 127
97 111 127
97 111 127
97 111 127
97 111 127
96 111 127
96 111 127
96 111 127
96 110 127
95 110 127
95 110 127
95 110 127
95 110 127
95 110 127
95 110 127
95 110 127
95 110 127
95 110 127
94 110 127
94 110 127
94 110 127
94 110 127
94 110 127
94 110 127
94 110 127
94 110 127
94 110 127
94 110 127
94 110 127
95 110 127
95 110 127
95 110 127
95 110 127
95 110 127
95 110 127
95 110 127
95 110 127
96 110 127
96 110 127
96 111 127
96 111 127
96 111 127
97 111 127
97 111 127
97 111 127
98 111 127
98 112 127
98 112 127
99 112 127
99 112 127
99 112 127
100 112 127
100 113 127
101 113 127
101 113 127
102 113 127
102 114 127
102 114 127
103 114 127
104 114 127
104 115 127
105 115 127
105 115 127
106 116 127
107 116 127
107 116 127
108 117 127
109 117 127
110 118 127
111 118 127
112 119 127
113 119 127
114 120 127
115 120 127
116 121 127
117 121 127
119 122 127
120 123 127
122 124 127
124 125 127
126 126 127
129 128 127
128 135 148
112 134 168
113 135 168
123 145 179
132 154 188
113 135 168
125 147 181
111 133 167
124 146 180
119 141 175
122 144 177
114 137 171
114 136 170
122 144 177
120 142 176
121 143 177
127 150 184
119 141 175
129 152 186
122 145 179
131 154 188
126 148 183
121 144 177
127 150 184
123 146 180
133 156 190
130 152 186
131 154 188
124 146 180
131 154 188
127 150 185
132 154 189
122 144 177
125 148 183
127 149 183
126 149 183
128 150 184
137 160 194
133 156 190
131 153 188
124 147 180
126 149 184
140 163 198
129 152 185
147 170 204
147 170 204
128 151 185
140 163 198
132 155 189
137 160 194
135 158 191
153 176 211
145 169 203
140 163 198
123 145 179
132 154 188
142 165 199
141 165 199
144 166 200
131 154 188
138 161 195
139 162 197
138 161 195
153 176 211
147 170 204
142 165 199
145 168 203
146 169 204
160 184 220
138 161 195
146 169 204
142 166 200
146 170 204
149 172 207
135 158 193
151 174 209
146 169 204
150 173 208
151 174 208
140 163 198
123 146 180
126 149 183
132 154 188
112 135 168
119 141 174
124 147 180
114 136 170
131 153 188
126 149 183
111 133 166
112 134 168
119 141 175
120 143 176
119 141 174
125 148 181
123 146 180
119 142 176
114 136 170
115 137 170
118 140 174
111 133 166
112 135 168
118 140 174
108 130 163
117 139 172
108 130 163
103 125 158
109 131 165
107 130 163
115 138 171
99 120 153
110 132 165
113 135 168
105 127 161
108 129 162
112 135 168
94 116 149
99 121 154
106 128 161
105 127 159
108 130 163
103 125 158
108 130 163
104 126 159
102 124 157
99 120 153
104 125 157
91 114 147
97 119 152
94 116 148
107 129 162
95 117 151
99 121 154
108 130 163
95 116 148
92 114 147
97 119 152
104 126 159
101 123 156
96 118 151
103 125 158
93 115 148
108 130 163
91 113 145
103 125 157
100 121 154
100 122 156
96 119 152
91 112 144
97 119 152
91 113 145
93 115 148
102 124 157
97 119 152
90 112 144
98 120 153
97 119 152
97 119 152
82 104 136
94 116 149
86 107 139
87 109 142
98 120 152
94 116 148
86 108 140
86 107 139
92 114 147
84 105 136
89 111 144
86 107 139
89 110 143
87 109 142
88 109 142
89 111 144
90 111 144
91 113 145
87 109 140
91 113 145
100 122 154
85 106 139
83 104 136
87 109 143
83 105 138
90 112 144
82 103 135
88 110 143
85 107 139
88 110 142
88 109 142
86 107 140
90 112 144
84 105 138
90 112 144
80 101 134
88 109 142
84 105 138
84 105 138
81 102 135
82 103 135
78 99 131
78 99 131
79 101 134
81 102 134
81 103 135
81 102 134
91 112 144
78 99 131
82 104 136
80 96 124
60 58 66
49 36 32
44 27 18
43 27 17
44 26 17
49 29 19
47 29 18
46 28 18
45 28 17
45 28 18
44 27 17
47 29 18
47 28 18
43 26 17
40 25 16
45 26 17
47 29 18
47 29 18
46 27 18
42 26 17
46 28 18
45 28 18
45 28 18
50 30 19
65 62 61
87 110 139
69 95 145
70 90 122
77 99 131
68 90 117
69 94 121
64 80 110
58 69 99
61 73 104
61 82 108
61 83 106
45 57 78
38 25 28
53 28 23
54 26 19
51 23 20
41 22 21
44 27 28
55 70 92
63 83 113
68 88 118
68 88 117
62 80 106
62 80 105
67 86 115
57 74 99
52 66 87
53 68 89
35 44 56
14 17 22
13 15 18
14 17 21
24 30 39
42 52 67
31 37 49
35 43 56
31 37 46
28 33 42
30 34 42
32 37 47
39 46 59
51 61 77
51 64 85
51 64 84
52 65 83
62 78 104
60 76 102
59 65 76
127 126 126
126 126 127
124 125 127
122 124 127
121 123 127
119 122 127
118 122 127
117 121 127
115 121 127
114 120 127
113 119 127
112 119 127
111 118 127
110 118 127
110 118 127
109 117 127
108 117 127
107 116 127
107 116 127
106 116 127
105 115 127
105 115 127
104 115 127
104 115 127
103 114 127
103 114 127
102 114 127
102 114 127
101 113 127
101 113 127
100 113 127
100 113 127
100 112 127
99 112 127
99 112 127
99 112 127
98 112 127
98 112 127
98 111 127
97 111 127
97 111 127
97 111 127
97 111 127
97 111 127
96 111 127
96 111 127
96 111 127
96 110 127
96 110 127
96 110 127
95 110 127
95 110 127
95 110 127
95 110 127
95 110 127
95 110 127
95 110 127
95 110 127
95 110 127
95 110 127
95 110 127
95 110 127
95 110 127
95 110 127
95 110 127
95 110 127
95 110 127
95 110 127
96 110 127
96 110 127
96 110 127
96 111 127
96 111 127
96 111 127
96 111 127
97 111 127
97 111 127
97 111 127
97 111 127
98 111 127
98 112 127
98 112 127
98 112 127
99 112 127
99 112 127
99 112 127
100 113 127
100 113 127
101 113 127
101 113 127
101 113 127
102 114 127
102 114 127
103 114 127
103 114 127
104 115 127
105 115 127
105 115 127
106 116 127
106 116 127
107 116 127
108 117 127
108 117 127
109 117 127
110 118 127
111 118 127
112 119 127
113 119 127
114 120 127
115 120 127
116 121 127
117 121 127
118 122 127
120 123 127
121 123 127
123 124 127
125 125 127
128 127 127
127 126 127
99 116 143
94 116 149
86 108 140
93 114 147
87 109 142
91 113 147
94 115 147
89 111 143
89 111 144
94 116 148
90 112 144
101 123 156
88 109 142
97 119 152
91 113 145
96 118 151
95 117 149
92 114 147
99 121 153
105 127 159
98 119 152
109 131 165
98 120 153
98 121 154
99 120 153
98 120 153
106 129 162
102 124 157
93 115 148
111 133 166
101 123 157
109 131 163
100 122 156
111 133 166
102 124 157
99 121 154
106 128 161
99 121 154
112 134 167
105 127 161
102 124 157
104 126 158
109 132 165
104 125 158
116 139 172
117 139 172
105 128 161
115 137 171
112 134 167
109 131 165
114 136 170
113 136 170
118 141 174
118 140 172
119 142 176
104 126 159
120 142 176
108 130 163
115 138 171
116 139 172
124 147 181
113 136 170
119 142 175
109 131 165
118 140 174
117 140 174
110 133 166
115 138 172
121 143 176
114 137 170
114 136 170
114 136 170
123 145 179
122 145 179
113 135 168
127 149 184
114 137 171
125 148 181
121 143 176
90 112 145
92 114 148
98 120 153
97 119 152
89 110 143
96 118 151
94 116 149
96 118 152
92 115 148
81 103 136
88 109 142
91 113 145
98 120 153
88 110 143
98 119 152
87 109 142
90 111 144
86 108 140
86 108 140
90 111 144
94 116 149
88 110 142
88 110 143
89 110 142
88 111 144
90 112 145
86 108 140
84 106 138
86 107 139
82 104 136
81 103 135
82 104 136
78 99 131
82 104 136
83 105 138
82 104 136
81 103 135
83 104 136
79 100 133
82 103 135
86 108 140
82 103 135
75 98 131
78 99 131
77 98 130
77 99 133
77 98 130
81 103 135
79 101 133
81 102 135
81 102 134
84 105 136
80 102 134
79 100 133
75 96 129
84 105 138
79 101 133
76 97 129
77 98 130
83 104 136
80 101 133
78 99 131
79 100 131
77 97 129
75 96 129
77 99 131
78 99 131
74 96 129
79 101 134
75 97 129
74 96 127
78 100 133
78 99 130
78 99 131
75 96 129
76 98 130
77 97 129
74 96 129
75 97 129
80 102 134
78 99 131
76 97 129
77 98 130
74 96 127
75 96 129
74 95 127
79 100 131
76 97 129
73 95 127
75 97 129
75 97 129
75 96 127
76 98 130
75 96 127
75 97 130
74 95 127
75 96 127
75 96 127
74 96 127
75 97 129
74 95 127
75 96 129
74 95 127
73 95 127
74 95 127
75 96 127
75 96 127
75 96 129
75 97 129
74 95 127
76 97 127
73 95 127
78 98 129
75 96 127
73 95 127
75 96 127
73 95 127
74 96 127
74 95 127
73 95 127
74 95 127
74 96 129
74 95 127
74 96 127
75 96 127
74 96 127
73 95 127
74 95 127
70 85 110
57 55 63
45 33 27
46 28 19
45 28 18
46 28 18
46 28 18
47 28 18
43 27 17
46 28 18
48 30 19
47 28 18
46 27 17
41 24 16
48 28 18
42 25 17
45 27 17
47 28 17
48 29 18
45 27 17
47 29 18
43 26 17
48 29 19
45 26 17
46 28 18
92 96 105
99 124 165
74 99 145
80 101 133
66 87 113
52 69 90
55 75 100
68 82 113
73 80 108
59 64 84
70 88 123
60 79 111
46 53 92
44 32 37
45 21 13
59 33 29
46 21 18
55 30 27
57 61 77
71 92 119
61 83 108
64 85 108
66 88 113
59 76 101
63 83 109
70 89 119
65 84 110
66 83 111
53 69 90
10 12 14
10 11 13
8 9 10
10 11 12
9 11 13
41 50 65
53 67 87
48 58 75
23 25 30
18 16 18
17 15 16
28 29 33
43 51 64
56 68 90
59 73 97
65 81 107
62 78 103
69 88 117
57 71 95
100 100 102
128 127 127
125 126 127
123 125 127
122 124 127
120 123 127
119 122 127
118 122 127
116 121 127
115 120 127
114 120 127
113 120 127
112 119 127
112 119 127
111 118 127
110 118 127
109 117 127
108 117 127
108 117 127
107 116 127
106 116 127
106 116 127
105 115 127
105 115 127
104 115 127
104 115 127
103 114 127
103 114 127
102 114 127
102 114 127
101 113 127
101 113 127
101 113 127
100 113 127
100 113 127
100 112 127
99 112 127
99 112 127
99 112 127
98 112 127
98 112 127
98 112 127
98 111 127
97 111 127
97 111 127
97 111 127
97 111 127
97 111 127
97 111 127
96 111 127
96 111 127
96 111 127
96 111 127
96 111 127
96 111 127
96 110 127
96 110 127
96 110 127
96 110 127
96 110 127
96 110 127
96 110 127
96 110 127
96 110 127
96 110 127
96 110 127
96 111 127
96 111 127
96 111 127
96 111 127
96 111 127
96 111 127
97 111 127
97 111 127
97 111 127
97 111 127
97 111 127
98 111 127
98 111 127
98 112 127
98 112 127
99 112 127
99 112 127
99 112 127
99 112 127
100 113 127
100 113 127
100 113 127
101 113 127
101 113 127
102 113 127
102 114 127
102 114 127
103 114 127
103 114 127
104 115 127
104 115 127
105 115 127
105 115 127
106 116 127
107 116 127
107 116 127
108 117 127
109 117 127
109 117 127
110 118 127
111 118 127
112 119 127
113 119 127
114 120 127
115 120 127
116 121 127
117 121 127
118 122 127
119 123 127
121 123 127
122 124 127
124 125 127
127 126 127
129 128 127
115 120 129
76 97 130
74 96 129
76 97 129
79 101 133
78 100 131
76 97 129
75 96 127
76 97 129
76 97 129
78 99 131
74 96 129
81 103 135
81 102 134
81 102 134
79 100 131
77 98 130
78 99 131
77 99 131
78 99 131
79 101 133
78 99 130
78 99 131
75 97 130
81 103 135
79 101 134
81 103 135
78 100 133
78 99 131
80 102 134
81 103 135
78 99 131
81 103 135
76 97 129
84 106 139
81 102 134
75 97 129
84 105 136
84 105 138
81 102 134
85 107 139
87 109 140
79 100 133
79 101 133
84 105 138
84 106 138
88 110 143
88 109 142
83 104 135
95 117 149
91 112 144
84 105 138
86 108 140
80 102 134
87 108 140
89 111 143
87 109 142
85 106 139
86 108 140
82 103 135
96 118 151
84 106 139
89 110 143
87 110 143
87 108 140
95 117 149
96 118 151
90 112 144
94 116 149
81 103 135
93 115 148
104 125 158
95 117 149
99 120 153
91 112 144
87 108 140
99 121 154
93 115 148
99 121 153
79 101 133
80 101 133
78 99 131
77 98 130
75 97 130
77 98 130
78 99 131
73 95 127
75 97 129
74 95 127
75 96 129
75 96 127
76 98 130
74 96 129
74 95 127
75 96 127
77 98 130
76 98 130
75 96 127
76 98 130
75 96 129
76 97 129
74 95 127
76 97 129
75 97 129
74 96 127
75 96 127
74 96 127
75 96 127
73 95 127
76 97 129
74 95 127
74 95 127
75 96 127
74 96 127
75 96 127
74 95 127
73 95 127
73 95 127
76 96 127
75 96 127
75 96 127
75 96 127
73 95 127
74 96 127
74 96 127
74 96 127
74 95 127
75 96 127
75 96 127
73 95 127
74 95 127
76 97 127
74 95 127
74 96 127
73 95 127
74 96 127
75 96 127
74 96 127
74 96 127
73 95 127
74 95 127
75 96 127
73 95 127
74 95 127
74 95 127
74 96 127
75 96 127
75 96 127
75 96 127
74 96 127
73 95 127
75 96 127
74 95 127
73 95 127
76 97 127
75 96 127
74 95 127
74 95 127
75 96 127
74 95 127
74 96 127
75 96 127
73 95 127
74 95 127
74 95 127
74 96 127
73 95 127
74 96 127
75 96 127
74 96 127
74 95 127
75 96 127
75 96 127
75 96 127
74 96 127
75 96 127
75 96 127
74 95 127
75 96 127
75 96 127
75 96 127
73 95 127
75 96 127
74 95 127
74 95 127
74 95 127
73 95 127
74 95 127
75 96 127
75 96 127
74 96 127
74 95 127
74 96 127
75 96 127
75 96 127
74 96 127
75 96 127
74 95 127
75 96 127
76 96 127
74 95 127
73 95 127
74 95 127
74 95 127
74 95 127
75 96 127
74 95 127
67 81 105
57 55 62
43 31 28
47 28 18
44 27 17
43 26 17
45 27 17
47 28 18
43 25 16
47 28 18
44 27 17
44 27 17
45 26 17
46 28 18
41 25 16
46 27 18
46 28 18
44 26 17
41 24 16
47 29 18
44 26 16
41 26 16
47 28 18
42 25 17
51 35 27
80 85 97
77 100 144
76 102 145
74 95 124
50 80 107
56 85 111
69 91 120
99 115 161
90 98 136
78 88 121
72 93 121
61 76 112
38 43 83
47 38 51
60 30 26
52 26 21
57 32 29
52 39 44
34 47 54
35 53 58
49 67 81
62 81 103
59 78 103
64 85 109
59 78 102
62 83 107
67 88 115
67 88 117
23 29 37
18 20 23
17 20 22
21 24 28
15 17 20
7 7 7
20 23 28
58 73 96
28 28 33
17 14 13
21 15 13
22 15 11
25 20 19
28 25 28
56 68 89
68 87 115
65 82 106
71 90 122
65 80 107
64 70 84
127 125 125
127 127 127
125 125 127
123 125 127
121 124 127
120 123 127
119 122 127
118 122 127
116 121 127
115 121 127
114 120 127
113 120 127
113 119 127
112 119 127
111 118 127
110 118 127
110 118 127
109 117 127
108 117 127
107 116 127
107 116 127
106 116 127
106 116 127
105 115 127
105 115 127
104 115 127
104 115 127
103 114 127
103 114 127
102 114 127
102 114 127
102 113 127
101 113 127
101 113 127
101 113 127
100 113 127
100 113 127
100 112 127
99 112 127
99 112 127
99 112 127
99 112 127
98 112 127
98 112 127
98 112 127
98 111 127
98 111 127
97 111 127
97 111 127
97 111 127
97 111 127
97 111 127
97 111 127
97 111 127
97 111 127
97 111 127
97 111 127
96 111 127
96 111 127
96 111 127
96 111 127
96 111 127
96 111 127
97 111 127
97 111 127
97 111 127
97 111 127
97 111 127
97 111 127
97 111 127
97 111 127
97 111 127
97 111 127
97 111 127
98 111 127
98 111 127
98 112 127
98 112 127
98 112 127
99 112 127
99 112 127
99 112 127
99 112 127
100 112 127
100 113 127
100 113 127
101 113 127
101 113 127
101 113 127
102 114 127
102 114 127
103 114 127
103 114 127
103 114 127
104 115 127
104 115 127
105 115 127
105 115 127
106 116 127
107 116 127
107 116 127
108 117 127
108 117 127
109 117 127
110 118 127
111 118 127
111 118 127
112 119 127
113 119 127
114 120 127
115 120 127
116 121 127
117 121 127
118 122 127
119 123 127
121 123 127
122 124 127
124 125 127
126 126 127
128 127 127
129 127 127
88 103 127
74 95 127
74 96 127
74 95 127
74 95 127
74 96 127
73 95 127
74 95 127
74 96 127
74 95 127
74 96 127
74 95 127
74 95 127
73 95 127
74 95 127
74 95 127
74 95 127
73 95 127
74 95 127
73 95 127
76 96 127
74 96 127
75 96 127
74 95 127
73 95 127
74 96 127
74 95 127
73 95 127
74 95 127
74 95 127
73 95 127
74 95 127
74 96 127
74 95 127
74 95 127
74 95 127
74 96 127
75 96 127
76 97 127
76 97 127
75 96 127
75 96 127
74 96 127
73 95 127
73 95 127
74 95 127
75 96 129
74 95 127
74 95 127
74 96 127
77 98 130
75 96 127
72 94 127
76 96 127
74 95 127
76 98 130
75 96 129
71 93 127
75 96 127
75 96 127
80 102 134
79 100 133
75 96 127
72 94 127
75 96 127
76 98 130
73 95 127
78 99 131
75 97 129
77 98 130
77 98 130
78 99 131
82 104 136
76 97 129
77 98 130
78 99 130
81 103 135
80 101 133
75 96 127
73 95 127
74 95 127
74 95 127
74 96 127
74 95 127
75 96 127
73 95 127
75 96 127
73 95 127
75 96 127
75 96 127
73 95 127
74 95 127
74 95 127
74 95 127
74 95 127
75 96 127
75 96 127
74 95 127
74 95 127
74 95 127
75 96 127
75 96 127
73 95 127
74 95 127
75 96 127
73 95 127
74 96 127
74 95 127
75 96 127
74 96 127
75 96 127
74 95 127
75 96 127
74 96 127
74 95 127
74 96 127
74 95 127
73 95 127
74 95 127
74 95 127
74 95 127
74 96 127
75 96 127
73 95 127
74 96 127
74 96 127
74 95 127
74 95 127
74 96 127
74 95 127
75 96 127
75 96 127
74 96 127
75 96 127
75 96 127
74 95 127
73 95 127
75 96 127
75 96 127
76 97 127
73 95 127
74 96 127
73 95 127
75 96 127
74 95 127
74 95 127
74 95 127
74 96 127
74 96 127
75 96 127
74 96 127
74 96 127
74 96 127
74 95 127
74 96 127
73 95 127
74 96 127
73 95 127
74 95 127
75 96 127
75 96 127
74 96 127
74 95 127
74 95 127
75 96 127
75 96 127
75 96 127
74 95 127
73 95 127
74 95 127
74 96 127
75 96 127
74 95 127
75 96 127
74 95 127
76 96 127
74 96 127
74 95 127
73 95 127
74 95 127
74 95 127
74 95 127
73 95 127
74 95 127
74 95 127
75 96 127
74 95 127
74 95 127
73 95 127
75 95 126
75 96 127
74 95 127
74 96 127
75 96 127
74 96 127
73 95 127
75 96 127
74 95 127
75 96 127
74 95 127
74 95 127
76 97 127
73 95 127
74 96 127
75 96 127
75 96 127
69 85 111
60 61 72
47 32 24
47 28 18
43 26 17
44 26 17
40 24 16
41 25 16
40 24 16
46 28 18
45 27 17
44 26 17
47 28 18
43 26 17
41 24 16
42 25 16
46 28 18
40 25 16
39 23 15
39 23 15
47 28 18
43 26 17
43 26 16
47 29 19
58 44 37
103 117 133
77 95 124
79 102 137
62 87 113
36 73 100
39 77 103
77 101 131
118 136 195
119 134 192
92 108 147
68 90 119
54 66 108
50 52 98
56 52 73
53 31 30
51 24 15
55 43 45
40 58 55
18 49 30
25 55 39
56 80 94
59 80 100
58 82 102
65 87 112
65 85 111
64 84 112
67 89 119
60 77 100
13 15 16
23 27 32
14 15 16
14 15 17
13 14 15
8 9 9
18 21 24
30 32 38
18 14 13
26 20 19
19 13 9
24 15 10
26 18 14
30 23 22
35 33 38
63 77 102
67 82 110
59 73 98
61 71 95
100 100 102
129 127 127
126 126 127
124 125 127
123 124 127
121 124 127
120 123 127
119 122 127
118 122 127
116 121 127
115 121 127
115 120 127
114 120 127
113 119 127
112 119 127
111 118 127
111 118 127
110 118 127
109 117 127
109 117 127
108 117 127
107 116 127
107 116 127
106 116 127
106 116 127
105 115 127
105 115 127
104 115 127
104 115 127
103 114 127
103 114 127
103 114 127
102 114 127
102 114 127
102 113 127
101 113 127
101 113 127
101 113 127
100 113 127
100 113 127
100 113 127
100 112 127
99 112 127
99 112 127
99 112 127
99 112 127
99 112 127
98 112 127
98 112 127
98 112 127
98 112 127
98 111 127
98 111 127
98 111 127
97 111 127
97 111 127
97 111 127
97 111 127
97 111 127
97 111 127
97 111 127
97 111 127
97 111 127
97 111 127
97 111 127
97 111 127
97 111 127
97 111 127
98 111 127
98 111 127
98 111 127
98 111 127
98 112 127
98 112 127
98 112 127
98 112 127
99 112 127
99 112 127
99 112 127
99 112 127
99 112 127
100 112 127
100 113 127
100 113 127
100 113 127
101 113 127
101 113 127
101 113 127
102 113 127
102 114 127
102 114 127
103 114 127
103 114 127
104 114 127
104 115 127
104 115 127
105 115 127
105 115 127
106 116 127
106 116 127
107 116 127
108 117 127
108 117 127
109 117 127
109 117 127
110 118 127
111 118 127
112 119 127
112 119 127
113 119 127
114 120 127
115 120 127
116 121 127
117 121 127
118 122 127
119 122 127
120 123 127
122 124 127
123 125 127
125 125 127
127 127 127
130 128 127
108 115 127
75 96 127
74 95 127
75 96 127
75 96 127
77 97 127
75 96 127
73 95 127
75 96 127
74 95 127
74 95 127
74 95 127
75 96 127
74 96 127
74 95 127
74 96 127
74 95 127
75 96 127
74 95 127
73 95 127
74 95 127
76 96 127
73 95 127
74 95 127
74 96 127
74 95 127
75 96 127
75 96 127
73 95 127
74 96 127
75 96 127
74 95 127
74 95 127
76 96 127
74 95 127
74 95 127
74 95 127
72 94 127
74 96 127
74 95 127
73 95 127
74 96 129
73 95 127
74 97 130
75 96 127
74 96 127
73 95 127
75 96 127
75 96 127
72 94 127
74 95 127
74 95 127
74 96 127
75 96 127
74 95 127
74 96 127
75 96 127
75 96 127
75 96 127
74 96 127
72 94 127
74 96 127
74 96 127
74 95 127
73 95 127
71 94 128
74 95 128
73 95 128
73 95 128
75 96 127
75 96 127
75 96 127
73 95 127
73 95 127
74 96 127
73 95 127
73 95 127
73 95 127
75 96 127
75 96 127
73 95 127
74 95 127
75 96 127
74 95 127
74 95 127
73 95 127
74 95 127
73 95 127
75 96 127
74 96 127
74 95 127
75 96 127
75 96 127
73 95 127
73 95 127
76 96 127
74 96 127
73 95 127
73 95 127
74 95 127
73 95 127
74 95 127
74 95 127
74 95 127
74 96 127
74 96 127
74 95 127
76 97 127
74 95 127
74 95 127
73 95 127
73 95 127
74 95 127
74 95 127
75 96 127
75 96 127
74 95 127
73 95 127
73 95 127
73 95 127
75 96 127
75 96 127
74 96 127
75 96 127
75 96 127
73 95 127
75 96 127
74 95 127
75 96 127
76 96 127
74 95 127
74 95 127
75 96 127
73 95 127
74 95 127
73 95 127
74 95 127
73 95 127
74 95 127
73 95 127
74 96 127
74 95 127
74 96 127
74 95 127
73 95 127
74 95 127
74 96 127
74 96 127
76 97 127
74 96 127
75 96 127
74 96 127
74 95 127
75 96 127
75 96 127
74 95 127
74 95 127
75 96 127
75 96 127
74 96 127
74 95 127
74 95 127
74 95 127
74 95 127
74 95 127
73 95 127
73 95 127
75 96 127
74 95 127
75 96 127
76 96 127
75 96 127
74 95 127
75 96 127
74 96 127
75 96 127
75 96 127
75 96 127
73 95 127
75 96 127
73 95 127
75 96 127
74 96 127
74 95 127
74 95 127
73 95 127
74 96 127
74 95 127
75 96 127
76 96 127
75 96 127
75 96 127
74 95 127
75 96 127
75 96 127
73 95 127
75 96 127
74 96 127
74 95 127
74 95 127
75 96 127
74 95 127
74 96 127
75 96 127
75 96 127
74 96 127
68 87 115
58 56 64
49 35 28
46 28 18
44 27 17
43 26 17
42 25 16
45 27 17
44 27 17
46 28 18
43 25 16
45 27 18
44 26 17
43 25 16
41 25 17
43 26 16
44 27 16
43 26 17
43 26 17
42 25 16
42 25 16
44 26 17
45 26 16
42 25 16
59 52 51
101 116 131
92 107 124
61 83 102
64 97 124
41 89 122
55 100 122
76 114 136
124 149 219
113 134 195
74 91 124
71 91 123
79 91 156
103 107 199
87 83 150
77 81 116
66 74 89
59 76 91
34 77 54
26 69 38
21 73 31
37 72 65
62 84 112
65 87 117
62 82 108
60 81 106
59 82 108
64 88 114
49 64 83
12 13 14
21 23 26
16 17 19
16 18 20
14 16 17
15 17 19
10 9 9
22 17 15
24 17 14
24 15 10
25 16 11
31 21 18
25 14 8
29 18 11
34 30 32
67 85 112
74 94 127
65 81 110
59 67 83
128 126 125
128 127 127
126 126 127
124 125 127
122 124 127
121 123 127
120 123 127
119 122 127
118 122 127
117 121 127
116 121 127
115 120 127
114 120 127
113 119 127
112 119 127
112 119 127
111 118 127
110 118 127
110 118 127
109 117 127
108 117 127
108 117 127
107 116 127
107 116 127
106 116 127
106 116 127
105 115 127
105 115 127
104 115 127
104 115 127
104 114 127
103 114 127
103 114 127
103 114 127
102 114 127
102 114 127
102 113 127
101 113 127
101 113 127
101 113 127
101 113 127
100 113 127
100 113 127
100 113 127
100 112 127
99 112 127
99 112 127
99 112 127
99 112 127
99 112 127
99 112 127
99 112 127
98 112 127
98 112 127
98 112 127
98 112 127
98 112 127
98 112 127
98 112 127
98 112 127
98 112 127
98 112 127
98 112 127
98 112 127
98 112 127
98 112 127
98 112 127
98 112 127
98 112 127
98 112 127
99 112 127
99 112 127
99 112 127
99 112 127
99 112 127
99 112 127
99 112 127
100 112 127
100 112 127
100 113 127
100 113 127
100 113 127
101 113 127
101 113 127
101 113 127
101 113 127
102 114 127
102 114 127
102 114 127
103 114 127
103 114 127
103 114 127
104 115 127
104 115 127
105 115 127
105 115 127
106 115 127
106 116 127
106 116 127
107 116 127
107 116 127
108 117 127
109 117 127
109 117 127
110 118 127
110 118 127
111 118 127
112 119 127
113 119 127
113 120 127
114 120 127
115 120 127
116 121 127
117 121 127
118 122 127
119 122 127
120 123 127
122 124 127
123 124 127
124 125 127
126 126 127
129 127 127
129 127 127
83 101 127
74 95 127
73 95 127
74 96 127
75 96 127
75 96 127
73 95 127
73 94 126
74 95 127
73 95 127
74 96 127
74 96 127
74 95 127
74 95 127
74 95 127
74 95 127
75 96 127
74 96 127
75 96 127
74 95 127
73 95 127
74 96 127
75 96 127
74 96 127
74 95 127
76 97 127
74 96 127
74 95 127
75 96 127
74 95 127
69 89 128
68 88 128
67 88 128
67 87 128
62 82 127
72 93 128
72 93 128
74 96 127
73 95 127
74 96 129
76 98 130
75 96 128
78 99 131
75 96 129
74 95 127
75 97 129
75 96 129
74 95 127
75 96 128
74 95 128
75 95 127
74 95 127
74 96 127
73 95 127
73 95 127
76 96 127
75 96 127
75 96 127
75 96 127
75 96 127
73 95 127
73 95 127
70 93 128
62 89 128
62 89 129
56 85 129
56 85 129
58 87 129
68 92 129
71 94 128
74 95 127
74 96 127
73 95 127
74 95 127
75 96 127
75 96 127
76 97 127
73 95 127
75 96 127
74 96 127
75 96 127
73 95 127
74 96 127
74 96 127
74 96 127
74 96 127
74 95 127
75 96 127
74 95 127
75 96 127
75 96 127
75 96 127
73 95 127
74 95 127
74 95 127
75 96 127
74 96 127
75 96 127
73 95 127
72 94 127
74 95 127
74 95 127
74 96 127
75 96 127
74 95 127
73 95 127
75 96 127
74 96 127
75 96 127
74 95 127
75 96 127
74 95 127
73 95 127
75 96 127
75 96 127
75 96 127
74 95 127
74 95 127
76 96 127
76 96 127
74 95 127
76 97 127
75 96 127
73 95 127
74 95 127
73 95 127
75 96 127
75 96 127
74 95 127
74 96 127
72 94 127
75 96 127
73 94 126
75 96 127
74 95 127
74 96 127
74 96 127
74 96 127
73 95 127
74 96 127
74 95 127
73 95 127
74 95 127
73 95 127
74 95 127
73 95 127
74 95 127
76 97 127
74 96 127
74 95 127
74 96 127
75 96 127
74 96 127
74 95 127
75 96 127
73 95 127
75 96 127
74 96 127
72 94 127
74 96 127
73 95 127
73 95 127
74 96 127
74 95 127
73 95 127
74 95 127
73 95 127
73 95 127
75 96 127
74 96 127
75 96 127
74 95 127
75 96 127
75 96 127
74 95 127
74 95 127
76 96 127
74 95 127
74 95 127
76 96 127
74 96 127
76 96 127
74 95 127
75 96 127
73 95 127
74 95 127
75 96 127
74 96 127
74 95 127
74 96 127
73 95 127
74 95 127
73 95 127
74 96 127
74 95 127
75 96 127
73 95 127
74 95 127
74 95 127
75 96 127
74 95 127
75 96 127
74 95 127
75 96 127
73 95 127
71 89 118
62 67 83
39 26 20
41 25 17
44 26 16
39 24 15
41 25 16
45 27 17
44 26 17
44 27 17
38 23 15
44 26 17
40 23 15
43 26 16
45 27 17
42 25 16
41 25 15
44 26 17
48 29 18
40 24 16
49 29 18
47 28 18
42 25 16
42 26 16
73 70 69
95 109 123
87 107 127
62 93 109
46 89 115
33 88 125
41 84 91
61 111 113
115 138 196
73 93 138
60 78 108
74 94 127
101 110 197
103 114 223
101 108 207
85 98 154
69 86 115
49 84 78
25 84 38
26 87 39
21 75 32
42 86 65
67 91 117
56 83 107
50 73 92
27 53 61
31 54 67
47 72 91
26 38 48
16 18 19
10 10 9
13 13 14
23 26 29
14 15 15
18 20 22
21 27 30
31 25 23
31 22 18
31 21 16
35 25 20
32 22 18
33 20 14
37 26 21
41 34 35
70 88 117
73 94 125
63 81 107
90 87 85
129 128 127
127 127 127
125 126 127
124 125 127
122 124 127
121 123 127
120 123 127
119 122 127
118 122 127
117 121 127
116 121 127
115 120 127
114 120 127
113 120 127
113 119 127
112 119 127
111 118 127
111 118 127
110 118 127
109 118 127
109 117 127
108 117 127
108 117 127
107 116 127
107 116 127
106 116 127
106 116 127
106 115 127
105 115 127
105 115 127
104 115 127
104 115 127
104 114 127
103 114 127
103 114 127
103 114 127
102 114 127
102 114 127
102 114 127
102 113 127
101 113 127
101 113 127
101 113 127
101 113 127
100 113 127
100 113 127
100 113 127
100 113 127
100 113 127
100 112 127
100 112 127
99 112 127
99 112 127
99 112 127
99 112 127
99 112 127
99 112 127
99 112 127
99 112 127
99 112 127
99 112 127
99 112 127
99 112 127
99 112 127
99 112 127
99 112 127
99 112 127
99 112 127
99 112 127
99 112 127
99 112 127
99 112 127
99 112 127
100 112 127
100 113 127
100 113 127
100 113 127
100 113 127
101 113 127
101 113 127
101 113 127
101 113 127
101 113 127
102 113 127
102 114 127
102 114 127
102 114 127
103 114 127
103 114 127
103 114 127
104 115 127
104 115 127
104 115 127
105 115 127
105 115 127
106 116 127
106 116 127
107 116 127
107 116 127
108 116 127
108 117 127
109 117 127
109 117 127
110 118 127
110 118 127
111 118 127
112 119 127
112 119 127
113 119 127
114 120 127
114 120 127
115 121 127
116 121 127
117 121 127
118 122 127
119 122 127
120 123 127
121 124 127
123 124 127
124 125 127
126 126 127
128 127 127
131 128 127
105 113 125
74 96 127
74 96 127
75 96 127
73 94 126
76 96 127
74 95 127
74 96 127
74 95 127
73 95 127
74 96 127
74 95 127
75 96 127
73 95 127
73 95 127
77 97 127
75 96 127
75 96 127
74 96 127
75 96 127
73 95 127
75 96 127
74 95 127
74 96 127
74 95 127
74 95 127
75 96 127
74 95 127
71 93 128
67 88 128
51 69 126
43 59 126
48 65 124
50 66 126
50 68 127
42 58 123
65 85 126
73 93 129
78 99 131
76 97 129
76 99 133
79 102 135
80 102 135
77 99 133
79 100 133
74 94 125
75 95 127
72 91 121
77 96 128
76 95 129
79 96 129
81 97 132
79 97 131
75 94 126
78 97 129
75 96 127
74 96 127
75 96 127
74 95 126
74 95 127
72 94 128
66 90 127
51 81 126
53 81 124
41 73 122
38 74 127
39 73 126
39 74 128
53 82 126
58 86 128
71 94 128
74 95 127
74 96 127
74 95 127
73 95 127
75 96 127
74 96 127
76 97 127
74 95 127
75 96 127
74 96 127
75 96 127
73 95 127
75 96 127
74 95 127
73 94 126
75 96 127
74 96 127
75 96 127
74 95 127
74 96 127
74 96 127
75 96 127
75 96 127
74 96 127
77 97 127
74 95 127
75 96 127
74 95 127
75 96 127
73 95 127
75 96 127
76 96 127
74 95 127
74 96 127
74 96 127
74 95 127
74 96 127
73 95 127
75 96 127
75 96 127
74 95 127
74 95 127
75 96 127
73 95 127
75 96 127
75 96 127
73 95 127
75 96 127
75 96 127
75 96 127
73 95 127
75 96 127
73 95 127
74 96 127
74 95 127
75 96 127
73 95 127
73 95 127
74 96 127
75 96 127
74 96 127
74 96 127
74 95 127
76 96 127
75 96 127
75 96 127
75 96 127
74 95 127
75 96 127
75 96 127
74 95 127
74 95 127
73 95 127
74 96 127
75 96 127
74 96 127
75 96 127
73 95 127
74 95 127
73 95 127
74 95 127
74 95 127
75 96 127
74 95 127
76 96 127
75 96 127
75 96 127
74 95 127
74 95 127
74 95 127
73 95 127
75 96 127
74 95 127
75 96 127
75 96 127
75 96 127
75 96 127
74 95 127
73 95 127
73 95 127
74 96 127
73 95 127
74 96 127
74 95 127
73 95 127
74 96 127
74 96 127
75 96 127
74 95 127
75 96 127
74 96 127
73 95 127
74 95 127
73 95 127
73 95 127
75 96 127
76 97 127
74 96 127
74 95 127
73 95 127
77 97 127
73 95 127
73 95 127
74 95 127
74 95 127
73 95 127
75 96 127
75 96 127
73 95 127
74 96 127
74 95 127
75 96 127
74 96 127
74 95 127
70 88 115
59 59 68
50 35 28
41 25 16
47 27 18
46 27 18
46 28 18
44 26 16
41 25 16
43 26 17
42 25 16
44 27 17
41 25 16
49 29 18
48 29 18
43 25 16
46 28 17
40 24 16
42 25 15
42 25 16
48 28 18
46 28 18
46 27 17
48 29 20
69 69 70
98 116 135
92 110 134
57 100 111
64 106 137
47 93 132
37 89 81
59 134 110
59 95 113
34 61 101
49 72 107
81 101 136
97 108 201
99 112 223
94 104 184
69 81 99
54 67 83
29 83 47
33 101 48
35 96 50
30 92 43
48 98 73
67 91 116
55 79 101
30 85 96
13 66 69
18 65 69
40 64 83
53 70 94
21 24 28
11 11 11
23 25 29
16 18 19
21 24 27
20 28 30
19 50 46
31 27 17
40 28 21
40 28 23
29 15 6
31 17 10
33 21 16
34 20 12
50 50 57
72 93 125
80 101 133
56 68 86
121 119 118
129 127 127
127 126 127
125 125 127
124 125 127
122 124 127
121 123 127
120 123 127
119 122 127
118 122 127
117 121 127
116 121 127
115 121 127
115 120 127
114 120 127
113 119 127
112 119 127
112 119 127
111 118 127
111 118 127
110 118 127
110 118 127
109 117 127
108 117 127
108 117 127
107 116 127
107 116 127
107 116 127
106 116 127
106 116 127
105 115 127
105 115 127
105 115 127
104 115 127
104 115 127
104 115 127
103 114 127
103 114 127
103 114 127
103 114 127
102 114 127
102 114 127
102 114 127
102 114 127
101 113 127
101 113 127
101 113 127
101 113 127
101 113 127
101 113 127
101 113 127
100 113 127
100 113 127
100 113 127
100 113 127
100 113 127
100 113 127
100 113 127
100 113 127
100 113 127
100 113 127
100 112 127
100 113 127
100 113 127
100 113 127
100 112 127
100 113 127
100 113 127
100 113 127
100 113 127
100 113 127
100 113 127
100 113 127
100 113 127
101 113 127
101 113 127
101 113 127
101 113 127
101 113 127
101 113 127
101 113 127
102 114 127
102 114 127
102 114 127
102 114 127
103 114 127
103 114 127
103 114 127
103 114 127
104 115 127
104 115 127
104 115 127
105 115 127
105 115 127
105 115 127
106 116 127
106 116 127
107 116 127
107 116 127
108 117 127
108 117 127
109 117 127
109 117 127
110 118 127
110 118 127
111 118 127
111 118 127
112 119 127
113 119 127
113 119 127
114 120 127
115 120 127
116 121 127
116 121 127
117 122 127
118 122 127
119 123 127
120 123 127
121 124 127
123 124 127
124 125 127
126 126 127
127 127 127
130 128 127
125 123 124
72 90 117
74 95 127
74 96 127
76 96 127
75 96 127
74 96 127
75 96 127
75 96 127
74 95 127
75 96 127
75 96 127
74 95 127
73 94 126
72 93 126
71 89 126
68 86 125
67 85 125
72 93 127
72 92 126
74 95 127
75 96 127
74 95 127
73 95 127
74 96 127
73 95 127
76 96 127
72 93 127
66 86 125
57 76 126
37 52 123
30 44 120
18 30 122
20 33 120
30 45 123
32 46 122
45 62 129
58 77 126
70 90 129
76 98 131
76 98 132
78 99 132
84 108 144
77 98 132
81 101 134
76 97 131
71 88 118
77 92 125
86 98 134
86 98 134
88 98 135
92 100 138
89 99 137
83 97 131
76 94 126
74 95 128
74 95 127
75 96 127
74 95 127
72 94 127
66 91 128
49 78 122
44 74 123
24 64 124
16 60 126
11 57 126
14 57 124
31 69 126
30 68 127
50 80 125
64 89 127
71 94 127
74 96 127
75 96 127
72 94 127
74 96 127
74 95 127
74 95 127
74 96 127
74 95 127
74 95 127
75 96 127
74 96 127
74 96 127
74 95 127
75 96 127
74 95 127
74 95 127
75 96 127
76 96 127
75 96 127
74 96 127
76 96 127
75 96 127
74 96 127
75 96 127
74 95 127
74 95 127
74 95 127
74 96 127
74 96 127
74 96 127
73 95 127
75 96 127
76 96 127
73 95 127
74 95 127
74 95 127
74 95 127
75 96 127
74 96 127
74 96 127
75 96 127
74 96 127
75 96 127
73 95 127
74 95 126
73 95 127
74 96 127
74 95 126
74 96 127
76 96 127
73 95 126
74 95 127
75 96 127
74 95 127
72 94 127
75 96 127
73 95 127
74 96 127
74 96 127
75 96 127
73 95 127
73 95 127
75 96 127
73 95 127
73 95 127
74 96 127
76 96 127
74 96 127
74 95 127
73 95 127
74 95 127
74 95 127
75 96 127
74 95 127
72 94 127
74 96 127
75 96 127
75 96 127
74 95 127
74 95 127
74 95 127
74 96 127
73 95 127
73 95 126
74 95 127
75 96 127
74 95 127
74 95 127
75 96 127
74 95 127
76 96 129
76 95 128
73 95 127
74 95 128
74 96 127
75 96 127
73 94 127
74 96 127
75 96 127
74 95 127
73 95 127
74 96 127
73 95 127
74 95 127
73 95 127
74 95 127
73 95 127
74 95 127
74 95 127
73 95 127
73 95 127
74 95 127
75 96 127
73 95 127
74 95 127
75 96 127
75 96 127
74 95 127
76 96 127
74 95 126
76 96 127
74 96 127
74 96 127
74 96 127
74 96 127
73 95 127
73 95 127
74 95 127
74 96 127
74 96 127
73 91 122
72 89 120
70 84 115
73 89 119
62 64 78
49 38 37
38 23 15
43 25 17
42 26 17
48 29 18
41 24 16
42 25 16
42 24 16
41 26 16
42 25 16
40 24 15
44 27 17
42 25 16
42 25 16
40 24 16
43 25 17
44 26 16
39 23 15
41 24 15
41 25 16
38 23 15
46 29 22
71 65 73
99 120 148
89 115 143
70 109 127
70 104 137
54 80 120
47 110 97
47 125 100
43 86 113
19 56 106
50 75 109
81 102 132
77 92 126
88 98 139
60 73 63
60 75 65
32 36 48
32 87 47
39 115 56
28 101 43
32 108 47
52 96 85
79 98 127
51 85 109
19 91 97
20 101 104
10 88 85
30 78 88
68 91 121
43 54 69
25 28 32
18 19 20
23 26 29
16 23 22
18 56 47
25 80 68
35 56 50
39 23 12
42 24 14
41 26 18
43 29 21
44 32 27
46 36 34
69 85 110
63 83 108
72 92 122
78 79 84
130 128 127
128 127 127
126 126 127
125 125 127
123 125 127
122 124 127
121 123 127
120 123 127
119 122 127
118 122 127
117 122 127
117 121 127
116 121 127
115 120 127
114 120 127
114 120 127
113 119 127
112 119 127
112 119 127
111 118 127
111 118 127
110 118 127
110 118 127
109 117 127
109 117 127
108 117 127
108 117 127
107 116 127
107 116 127
107 116 127
106 116 127
106 116 127
105 115 127
105 115 127
105 115 127
104 115 127
104 115 127
104 115 127
104 114 127
103 114 127
103 114 127
103 114 127
103 114 127
103 114 127
102 114 127
102 114 127
102 114 127
102 114 127
102 114 127
102 113 127
101 113 127
101 113 127
101 113 127
101 113 127
101 113 127
101 113 127
101 113 127
101 113 127
101 113 127
101 113 127
101 113 127
101 113 127
101 113 127
101 113 127
101 113 127
101 113 127
101 113 127
101 113 127
101 113 127
101 113 127
101 113 127
101 113 127
101 113 127
101 113 127
101 113 127
102 113 127
102 113 127
102 114 127
102 114 127
102 114 127
102 114 127
103 114 127
103 114 127
103 114 127
103 114 127
103 114 127
104 115 127
104 115 127
104 115 127
105 115 127
105 115 127
105 115 127
106 115 127
106 116 127
106 116 127
107 116 127
107 116 127
107 116 127
108 117 127
108 117 127
109 117 127
109 117 127
110 118 127
110 118 127
111 118 127
111 118 127
112 119 127
113 119 127
113 119 127
114 120 127
114 120 127
115 120 127
116 121 127
117 121 127
118 122 127
118 122 127
119 123 127
120 123 127
121 124 127
123 124 127
124 125 127
125 126 127
127 127 127
129 127 127
131 129 127
83 92 109
74 94 124
74 95 127
74 96 127
74 95 127
74 96 127
73 95 127
74 95 127
73 94 126
75 96 127
74 95 127
70 91 126
70 88 124
58 71 117
55 65 118
52 62 117
54 62 117
59 71 118
61 70 117
67 81 120
71 87 123
73 93 127
75 96 127
76 96 127
74 96 127
74 95 127
69 89 126
58 77 122
41 56 118
21 33 121
10 20 113
1 10 117
5 14 114
7 18 114
13 24 113
29 42 117
51 69 131
68 88 131
75 97 134
77 98 130
73 93 125
75 95 127
80 100 132
76 98 131
77 98 133
71 88 119
70 80 110
82 86 120
93 97 136
98 100 141
99 99 140
96 99 138
96 102 140
88 97 131
77 93 124
74 93 125
75 96 127
74 95 127
70 92 126
60 88 128
44 73 117
20 61 125
13 58 124
7 53 123
7 51 119
5 51 119
9 53 120
15 57 119
33 68 121
50 79 122
64 89 126
73 95 126
74 95 125
71 93 119
70 93 120
72 93 120
74 96 126
74 96 126
73 96 126
75 96 127
73 95 127
74 95 127
74 95 127
74 96 127
74 95 127
75 96 127
75 96 127
74 95 127
75 96 127
74 95 127
75 96 127
73 95 127
75 96 127
74 95 127
75 96 127
75 96 127
73 95 127
74 95 127
74 95 127
74 95 127
75 96 127
74 96 127
75 96 127
74 95 127
71 94 125
72 95 127
71 95 125
70 94 125
72 95 127
75 96 127
74 95 127
75 96 127
75 96 127
74 95 127
74 96 127
74 96 127
74 95 127
75 96 127
74 95 127
75 96 127
73 95 127
75 96 127
75 96 127
74 95 127
74 96 127
74 96 127
75 96 127
73 95 127
74 95 126
73 95 127
74 95 126
72 94 125
75 96 125
74 95 126
74 96 127
75 96 127
73 95 127
74 96 127
73 95 127
75 96 127
75 96 127
75 96 127
74 95 127
73 95 127
75 96 127
75 96 127
74 95 127
72 94 127
75 96 127
73 95 127
74 95 127
75 95 126
75 96 127
73 95 127
75 96 127
73 95 127
75 96 127
74 95 127
73 95 127
79 97 132
80 97 134
86 99 141
81 96 137
84 98 138
85 99 138
82 97 137
78 97 131
74 95 127
73 95 127
74 95 127
74 95 127
75 96 127
74 95 127
75 96 127
74 95 127
74 95 127
73 95 127
74 95 127
74 96 127
74 96 127
74 95 127
74 95 127
75 96 127
74 95 127
73 95 127
74 95 127
75 96 127
74 95 127
74 96 127
73 95 127
74 95 127
74 95 127
74 96 127
74 95 127
74 95 127
75 96 127
74 95 127
74 95 127
74 95 127
73 92 124
71 83 112
68 78 106
65 68 94
66 66 91
67 72 98
55 52 67
45 33 32
42 25 17
38 23 14
41 26 17
41 25 16
42 25 16
40 25 15
43 26 17
39 24 15
43 25 16
43 27 17
46 27 17
45 27 17
39 23 15
39 23 15
41 24 16
46 28 18
43 25 16
38 22 14
40 24 15
43 26 16
46 29 20
81 80 103
90 110 146
75 98 126
59 94 114
80 96 133
52 47 93
57 85 98
55 118 111
38 76 123
11 51 108
37 63 96
64 81 106
62 79 70
60 75 36
61 78 38
56 64 65
29 24 36
29 56 39
43 127 62
33 110 50
32 101 51
67 92 112
77 98 128
45 113 128
25 109 113
11 105 105
12 112 115
21 92 99
61 82 109
66 82 110
57 76 98
24 61 55
22 64 55
21 74 62
22 86 71
20 76 61
36 86 83
53 56 64
48 36 29
48 30 20
47 34 27
49 40 36
59 74 89
58 79 99
64 85 109
54 69 86
104 102 102
130 128 127
128 127 127
126 126 127
125 125 127
123 125 127
122 124 127
121 124 127
120 123 127
119 123 127
119 122 127
118 122 127
117 121 127
116 121 127
115 121 127
115 120 127
114 120 127
113 120 127
113 119 127
112 119 127
112 119 127
111 118 127
111 118 127
110 118 127
110 118 127
109 117 127
109 117 127
108 117 127
108 117 127
108 117 127
107 116 127
107 116 127
106 116 127
106 116 127
106 116 127
106 115 127
105 115 127
105 115 127
105 115 127
105 115 127
104 115 127
104 115 127
104 115 127
104 114 127
103 114 127
103 114 127
103 114 127
103 114 127
103 114 127
103 114 127
102 114 127
102 114 127
102 114 127
102 114 127
102 114 127
102 114 127
102 114 127
102 114 127
102 114 127
102 113 127
102 113 127
102 113 127
102 113 127
101 113 127
102 113 127
102 113 127
102 113 127
102 113 127
102 113 127
102 114 127
102 114 127
102 114 127
102 114 127
102 114 127
102 114 127
102 114 127
102 114 127
103 114 127
103 114 127
103 114 127
103 114 127
103 114 127
103 114 127
104 115 127
104 115 127
104 115 127
104 115 127
105 115 127
105 115 127
105 115 127
105 115 127
106 116 127
106 116 127
106 116 127
107 116 127
107 116 127
107 116 127
108 117 127
108 117 127
109 117 127
109 117 127
109 117 127
110 118 127
110 118 127
111 118 127
111 118 127
112 119 127
112 119 127
113 119 127
114 120 127
114 120 127
115 120 127
116 121 127
116 121 127
117 121 127
118 122 127
119 122 127
120 123 127
121 123 127
122 124 127
123 124 127
124 125 127
125 126 127
127 126 127
128 127 127
131 128 127
118 118 121
72 92 123
73 95 127
76 96 127
74 95 127
73 95 127
75 96 127
74 95 127
74 95 126
74 96 127
70 90 126
61 75 119
55 67 116
42 46 108
36 35 102
39 36 104
40 33 100
39 28 101
54 52 109
55 53 108
63 66 113
68 78 119
70 86 122
74 95 127
73 95 127
72 92 127
60 79 125
47 65 122
21 33 111
4 13 114
0 9 108
0 9 107
0 9 113
0 8 104
2 11 101
9 18 104
26 38 104
57 75 121
68 89 126
74 96 130
71 93 127
74 96 129
75 95 129
93 114 148
80 97 134
73 83 120
76 78 118
81 81 122
98 96 139
110 107 153
107 105 150
109 104 145
107 103 142
97 88 113
96 89 112
81 86 110
77 90 119
75 93 123
68 91 126
51 78 120
33 65 115
13 52 112
4 43 105
5 46 109
5 49 115
5 48 113
5 48 114
9 49 111
26 59 109
40 70 115
55 78 100
63 86 104
61 86 93
57 82 82
61 85 93
62 87 96
62 98 110
58 99 104
56 101 100
63 100 110
70 98 120
72 96 125
74 96 127
74 95 127
74 95 127
76 96 127
75 96 127
75 96 127
74 95 127
75 96 127
75 96 127
72 94 127
74 96 127
74 96 127
74 95 127
74 96 127
74 95 127
73 95 127
75 96 127
74 96 127
74 95 127
73 95 127
72 94 127
67 95 124
57 94 118
56 94 117
55 94 117
57 93 118
65 94 122
65 96 123
70 95 124
73 95 127
73 95 127
75 96 127
74 96 127
73 95 127
75 96 127
75 96 127
73 95 127
74 95 127
72 94 127
73 95 127
74 96 127
73 95 127
74 96 127
74 95 127
75 96 127
73 95 127
74 95 126
72 94 118
72 94 117
70 93 106
72 95 109
72 95 116
74 95 121
73 95 123
74 95 127
74 95 127
74 95 127
74 96 127
75 96 127
74 96 127
75 96 127
75 96 127
74 95 127
74 95 127
74 95 127
75 96 127
74 96 127
74 95 127
74 95 127
74 96 127
73 95 127
75 96 127
75 96 127
73 95 127
74 96 127
74 95 127
77 95 130
86 98 142
93 100 149
95 101 155
95 100 159
100 102 165
99 101 161
92 100 151
85 99 139
80 96 133
75 96 129
74 95 127
74 95 127
74 95 127
75 96 127
76 97 127
74 95 127
75 96 127
73 94 127
73 95 127
74 96 127
75 96 127
74 95 127
75 96 127
74 95 126
73 95 127
74 95 127
74 96 127
74 95 127
75 96 127
74 96 127
73 95 127
74 95 127
75 96 127
74 96 127
72 94 126
68 89 120
66 87 118
62 83 113
66 87 117
64 82 110
66 77 106
61 62 87
63 59 84
62 51 74
59 48 70
58 42 62
54 38 52
50 33 35
45 26 17
39 24 16
42 25 16
42 25 17
45 28 18
41 24 16
41 24 15
45 27 17
42 26 17
44 26 17
44 25 16
42 25 16
41 24 16
44 26 17
43 25 16
39 24 15
46 27 17
40 24 15
38 23 14
41 24 15
41 25 19
80 80 102
88 111 137
86 112 151
76 89 128
79 85 127
45 38 103
61 93 110
63 106 105
33 61 111
26 64 119
49 71 102
59 68 77
60 73 59
63 82 42
65 84 62
44 49 65
24 17 29
20 18 24
31 75 45
22 87 35
34 62 54
59 76 96
63 83 108
42 113 127
15 125 128
18 119 121
18 123 122
22 70 80
30 36 56
49 61 87
56 72 92
34 92 86
29 105 87
27 95 79
21 86 70
22 77 65
111 148 178
81 103 133
71 88 114
64 80 98
49 72 71
35 64 53
57 81 87
63 84 106
71 91 115
68 77 90
129 126 125
129 128 127
128 127 127
126 126 127
125 125 127
124 125 127
122 124 127
122 124 127
121 123 127
120 123 127
119 122 127
118 122 127
117 122 127
117 121 127
116 121 127
115 120 127
115 120 127
114 120 127
113 120 127
113 119 127
112 119 127
112 119 127
111 118 127
111 118 127
110 118 127
110 118 127
110 118 127
109 117 127
109 117 127
108 117 127
108 117 127
108 117 127
107 116 127
107 116 127
107 116 127
106 116 127
106 116 127
106 116 127
106 116 127
105 115 127
105 115 127
105 115 127
105 115 127
104 115 127
104 115 127
104 115 127
104 115 127
104 115 127
104 114 127
103 114 127
103 114 127
103 114 127
103 114 127
103 114 127
103 114 127
103 114 127
103 114 127
103 114 127
103 114 127
103 114 127
103 114 127
103 114 127
103 114 127
103 114 127
103 114 127
103 114 127
103 114 127
103 114 127
103 114 127
103 114 127
103 114 127
103 114 127
103 114 127
103 114 127
103 114 127
103 114 127
103 114 127
104 114 127
104 114 127
104 115 127
104 115 127
104 115 127
104 115 127
104 115 127
105 115 127
105 115 127
105 115 127
105 115 127
106 116 127
106 116 127
106 116 127
106 116 127
107 116 127
107 116 127
107 116 127
108 117 127
108 117 127
108 117 127
109 117 127
109 117 127
110 118 127
110 118 127
110 118 127
111 118 127
111 119 127
112 119 127
112 119 127
113 119 127
114 120 127
114 120 127
115 120 127
115 121 127
116 121 127
117 121 127
118 122 127
118 122 127
119 122 127
120 123 127
121 123 127
122 124 127
123 124 127
124 125 127
125 126 127
127 126 127
128 127 127
130 128 127
130 127 126
78 93 116
74 95 126
74 95 127
74 95 127
75 96 127
73 95 127
74 95 127
75 96 127
74 96 127
65 82 121
45 49 108
40 44 102
28 22 97
25 12 90
26 9 86
33 9 87
39 14 89
41 18 87
49 31 95
54 43 100
59 57 105
59 59 105
69 82 120
76 96 127
70 90 125
50 66 118
41 57 113
11 20 102
2 11 107
0 8 103
0 8 99
0 8 103
0 8 97
2 10 89
11 21 99
33 48 116
50 68 117
65 85 121
71 91 125
68 86 119
77 98 131
85 106 141
93 113 161
83 92 153
64 64 135
62 58 130
72 63 133
90 82 151
97 90 151
102 91 137
113 94 125
115 86 106
109 81 98
107 75 84
93 79 96
87 81 100
87 79 97
68 84 116
41 68 111
20 52 103
6 42 97
5 48 112
4 42 98
4 44 103
5 45 104
4 44 104
4 37 88
16 51 105
37 67 95
41 68 79
48 73 62
48 74 60
37 65 33
44 71 48
47 74 59
43 105 81
34 106 66
41 108 77
40 103 76
51 105 92
63 97 111
71 97 122
74 96 127
74 95 127
76 96 127
75 96 127
74 95 127
73 95 127
75 96 127
74 96 127
75 96 127
74 96 127
74 96 127
74 95 127
75 96 127
73 95 127
75 96 127
75 96 127
74 95 127
75 96 127
72 95 126
62 94 120
42 94 111
38 91 106
27 91 100
31 93 104
26 87 96
33 91 103
52 94 114
57 94 117
69 93 124
76 97 127
74 95 127
74 95 127
75 96 127
74 95 127
74 96 127
74 96 127
74 95 127
74 96 127
74 95 127
74 95 127
74 95 127
75 96 127
74 96 127
74 96 127
73 94 121
70 92 106
66 91 93
63 94 93
54 100 81
50 97 75
55 97 84
59 100 94
69 94 110
69 93 115
74 96 127
75 96 127
74 95 127
75 96 127
74 95 127
76 96 127
75 96 127
73 95 127
74 95 127
74 95 127
74 95 127
74 96 127
74 95 127
73 95 127
74 95 127
75 96 127
73 95 127
73 95 127
73 95 127
73 95 127
78 95 130
82 97 134
96 100 152
104 103 166
106 102 175
105 101 175
106 101 178
108 103 177
102 101 165
97 100 153
88 100 140
80 97 134
74 95 128
74 95 127
74 95 127
75 96 127
73 94 126
72 93 125
72 92 124
72 91 123
72 93 125
75 96 127
74 95 127
74 95 127
75 96 127
74 96 127
74 95 127
75 96 127
73 95 127
75 96 127
74 95 127
74 95 127
74 95 127
74 96 127
74 95 127
71 92 122
61 82 112
56 77 107
53 73 100
44 64 90
44 63 89
48 63 88
49 53 76
53 44 65
51 30 48
53 26 43
52 24 41
50 23 38
52 25 37
49 27 30
43 26 19
44 26 17
39 24 16
35 21 14
42 25 16
37 22 14
41 25 16
36 21 14
43 26 17
37 22 14
40 24 15
39 24 15
39 24 15
40 24 15
39 24 16
43 25 16
38 22 14
40 23 15
44 26 17
39 23 15
43 30 27
85 92 109
87 114 141
92 117 163
94 96 156
82 70 139
61 57 139
75 133 148
62 105 107
33 43 85
34 52 77
43 49 56
66 68 64
71 90 88
88 128 130
87 114 129
68 76 101
33 24 41
27 21 34
15 24 25
9 26 21
23 40 38
24 46 41
51 72 84
42 93 119
25 146 152
16 141 146
26 128 136
14 44 67
15 16 43
26 30 59
47 49 59
51 73 70
27 93 78
35 115 98
26 107 88
32 84 77
90 93 100
97 115 143
76 96 126
57 91 87
32 84 41
25 74 30
31 76 39
49 74 74
60 74 94
86 85 85
131 128 127
129 128 127
127 127 127
126 126 127
125 125 127
124 125 127
123 124 127
122 124 127
121 123 127
120 123 127
119 123 127
118 122 127
118 122 127
117 121 127
116 121 127
116 121 127
115 120 127
115 120 127
114 120 127
114 120 127
113 119 127
113 119 127
112 119 127
112 119 127
111 118 127
111 118 127
110 118 127
110 118 127
110 118 127
109 117 127
109 117 127
109 117 127
108 117 127
108 117 127
108 117 127
107 116 127
107 116 127
107 116 127
107 116 127
106 116 127
106 116 127
106 116 127
106 116 127
105 115 127
105 115 127
105 115 127
105 115 127
105 115 127
105 115 127
104 115 127
104 115 127
104 115 127
104 115 127
104 115 127
104 115 127
104 115 127
104 115 127
104 115 127
104 114 127
104 114 127
104 114 127
104 114 127
103 114 127
103 114 127
103 114 127
103 114 127
104 114 127
104 114 127
104 114 127
104 115 127
104 115 127
104 115 127
104 115 127
104 115 127
104 115 127
104 115 127
104 115 127
104 115 127
104 115 127
105 115 127
105 115 127
105 115 127
105 115 127
105 115 127
106 116 127
106 116 127
106 116 127
106 116 127
107 116 127
107 116 127
107 116 127
107 116 127
108 116 127
108 117 127
108 117 127
109 117 127
109 117 127
109 117 127
110 118 127
110 118 127
110 118 127
111 118 127
111 118 127
112 119 127
112 119 127
113 119 127
113 119 127
114 120 127
114 120 127
115 120 127
115 120 127
116 121 127
117 121 127
117 121 127
118 122 127
119 122 127
119 123 127
120 123 127
121 123 127
122 124 127
123 124 127
124 125 127
125 126 127
127 126 127
128 127 127
130 128 127
132 129 127
98 105 119
74 96 127
73 95 127
74 95 127
73 95 127
74 96 127
73 95 127
75 96 127
69 88 124
56 68 114
44 50 108
37 36 104
28 19 95
32 16 92
39 19 94
33 5 77
38 5 78
38 4 76
37 3 73
43 12 82
46 19 85
58 52 102
65 69 113
74 90 124
71 92 127
57 75 118
26 38 106
8 17 102
0 8 98
0 7 92
0 7 89
1 9 88
16 28 95
25 42 101
36 60 107
48 71 114
72 103 127
79 111 129
87 113 134
80 104 130
90 111 146
85 101 151
86 100 160
68 68 151
51 45 140
43 31 137
50 37 137
70 57 149
80 67 149
85 64 124
102 66 90
111 65 72
111 65 69
110 60 59
107 63 65
106 63 62
96 75 86
78 69 88
51 63 99
18 50 101
6 43 99
4 41 97
4 40 94
4 39 91
4 39 91
4 39 93
4 38 88
13 45 85
24 53 64
31 60 47
31 58 23
30 57 20
28 56 10
29 58 13
28 57 9
13 107 35
13 111 34
13 110 35
21 108 46
31 111 62
51 101 92
58 96 104
73 96 125
74 95 127
76 96 127
75 96 127
74 95 127
74 96 127
74 95 127
74 95 127
74 95 127
75 96 127
75 96 127
74 96 127
74 96 127
74 95 127
74 95 127
74 96 127
74 95 127
73 96 127
65 93 121
46 93 109
36 90 103
17 86 90
11 89 91
10 85 86
12 89 90
17 84 89
27 83 92
45 93 111
64 95 123
68 94 124
73 95 127
72 94 127
74 96 127
73 95 127
73 95 126
73 94 126
74 95 126
74 96 127
74 96 127
74 95 127
74 95 127
75 94 126
77 94 125
73 92 121
70 92 109
61 90 87
53 94 71
40 101 61
38 109 61
37 111 57
40 106 61
44 107 75
49 103 85
63 98 107
73 95 125
74 95 127
75 96 127
75 95 126
73 95 127
75 96 127
73 95 127
73 95 127
73 95 127
74 95 127
73 95 127
73 95 127
74 96 127
74 95 127
73 95 127
75 96 127
74 95 127
75 96 127
74 95 127
73 95 127
84 98 136
101 103 156
106 104 163
114 104 181
117 105 188
112 103 188
111 103 188
114 105 187
119 106 187
110 105 170
105 104 158
88 99 141
75 94 127
74 95 128
74 95 127
68 88 120
64 83 116
51 66 99
57 74 107
58 76 108
61 79 110
62 80 111
72 93 125
75 96 127
74 96 127
73 95 127
74 95 127
74 96 127
75 96 127
75 96 127
75 97 130
76 97 129
75 97 129
74 96 127
69 89 120
57 77 104
49 68 93
34 53 77
25 42 63
20 37 57
15 32 51
24 39 59
24 29 46
32 22 38
40 21 36
45 18 32
44 16 30
45 17 31
46 18 30
46 20 25
42 24 18
39 23 15
41 24 16
39 24 15
40 24 15
40 24 15
39 23 15
39 23 15
38 23 15
35 21 14
38 22 14
39 23 15
40 24 15
37 22 13
39 23 15
43 25 16
36 21 13
40 24 15
35 21 13
36 22 14
45 34 28
67 71 86
84 90 133
93 94 118
108 112 161
102 111 160
89 86 137
106 106 138
62 71 70
29 38 76
44 52 59
55 65 62
76 72 48
99 123 127
100 146 178
71 88 117
62 76 103
33 29 36
32 42 37
10 28 20
17 35 32
11 36 23
17 49 29
31 60 51
41 58 83
19 69 114
20 96 134
19 59 104
17 17 52
8 8 45
17 15 44
55 37 33
68 48 38
39 47 39
46 87 87
58 98 114
65 87 110
67 79 100
68 86 109
75 96 124
47 92 68
40 104 50
37 102 44
39 100 48
30 69 35
43 46 54
122 119 119
130 128 127
129 127 127
127 127 127
126 126 127
125 125 127
124 125 127
123 124 127
122 124 127
121 124 127
120 123 127
120 123 127
119 122 127
118 122 127
118 122 127
117 121 127
116 121 127
116 121 127
115 120 127
115 120 127
114 120 127
114 120 127
113 119 127
113 119 127
112 119 127
112 119 127
112 119 127
111 118 127
111 118 127
110 118 127
110 118 127
110 118 127
109 117 127
109 117 127
109 117 127
108 117 127
108 117 127
108 117 127
108 117 127
107 116 127
107 116 127
107 116 127
107 116 127
107 116 127
106 116 127
106 116 127
106 116 127
106 116 127
106 116 127
105 115 127
105 115 127
105 115 127
105 115 127
105 115 127
105 115 127
105 115 127
105 115 127
105 115 127
105 115 127
105 115 127
105 115 127
105 115 127
105 115 127
105 115 127
104 115 127
104 115 127
105 115 127
105 115 127
105 115 127
105 115 127
105 115 127
105 115 127
105 115 127
105 115 127
105 115 127
105 115 127
105 115 127
105 115 127
105 115 127
106 115 127
106 116 127
106 116 127
106 116 127
106 116 127
106 116 127
107 116 127
107 116 127
107 116 127
107 116 127
107 116 127
108 117 127
108 117 127
108 117 127
108 117 127
109 117 127
109 117 127
109 117 127
110 118 127
110 118 127
110 118 127
111 118 127
111 118 127
112 119 127
112 119 127
112 119 127
113 119 127
113 119 127
114 120 127
114 120 127
115 120 127
115 120 127
116 121 127
116 121 127
117 121 127
118 122 127
118 122 127
119 122 127
120 123 127
121 123 127
121 124 127
122 124 127
123 125 127
124 125 127
125 126 127
126 126 127
128 127 127
129 128 127
131 129 127
115 117 122
75 95 126
73 95 127
74 95 126
74 95 126
74 96 127
74 96 127
74 95 127
65 83 122
61 76 121
54 63 118
41 44 108
48 52 109
48 42 101
46 36 90
50 34 91
43 13 78
37 5 72
39 4 74
38 4 72
39 4 72
43 22 78
57 56 101
64 75 112
70 88 121
48 64 113
34 48 101
14 24 96
0 6 80
0 7 89
6 15 93
19 33 91
37 58 95
55 88 110
72 113 128
96 146 140
90 136 134
79 122 126
96 132 143
98 128 143
96 116 155
82 92 158
64 62 158
58 49 167
32 17 137
31 20 138
32 21 142
37 27 141
48 33 135
69 46 104
81 52 97
90 45 60
101 46 41
106 48 41
117 53 42
109 52 45
101 59 58
94 63 70
49 52 81
25 43 82
5 37 88
4 36 85
4 37 88
4 38 88
4 36 84
3 33 78
7 37 75
11 41 58
14 45 48
27 53 27
27 54 10
23 51 1
23 50 0
24 49 0
24 46 2
4 88 26
1 99 17
0 109 15
4 109 21
8 109 28
23 99 49
53 99 94
59 100 105
72 96 123
75 96 127
74 96 127
75 96 127
72 94 127
74 96 127
74 95 127
74 96 127
73 95 127
71 93 126
67 90 124
67 90 121
69 92 124
69 92 124
72 94 126
72 94 127
69 96 125
52 89 111
33 87 99
9 84 84
4 79 77
2 79 76
8 75 75
14 81 85
14 84 89
35 84 100
47 89 111
60 91 120
73 95 128
78 97 131
76 95 126
75 96 127
74 95 127
74 95 127
74 95 127
74 95 126
74 95 127
73 94 127
74 94 126
78 81 112
80 79 110
80 72 100
76 73 92
65 79 78
48 95 74
34 103 50
21 108 42
19 115 43
19 118 44
18 119 43
25 118 49
39 110 71
46 104 83
54 99 96
73 96 125
74 95 127
74 95 127
75 96 127
74 96 127
73 95 127
74 96 127
75 96 127
75 96 127
74 95 127
74 95 127
75 96 127
75 96 127
74 96 127
74 96 127
74 95 127
74 96 127
72 94 125
76 95 130
95 101 144
108 105 161
120 106 174
122 107 184
120 107 186
118 106 188
114 103 183
119 106 186
121 106 185
126 109 182
113 104 164
96 99 145
82 97 133
75 95 126
66 86 118
54 70 102
47 61 93
43 57 88
38 51 82
42 56 89
42 55 87
53 69 102
57 73 103
67 86 118
74 95 126
75 96 127
74 95 127
76 98 131
81 104 140
87 111 149
87 111 149
84 108 145
79 101 135
73 93 124
63 84 114
46 65 90
25 42 61
15 33 51
9 25 42
6 22 38
8 24 40
8 25 41
14 24 41
20 21 36
28 19 33
36 15 27
43 16 29
43 16 29
43 16 28
42 18 24
43 22 21
39 24 15
41 25 15
42 26 17
41 24 15
41 24 16
44 26 16
40 24 15
37 22 14
41 25 16
37 22 14
33 19 13
34 20 13
37 22 14
45 27 16
42 25 16
40 24 15
35 21 13
36 21 13
40 23 14
58 47 45
101 114 135
123 140 169
117 129 155
105 125 158
101 137 151
81 99 119
98 95 114
64 62 59
43 53 103
68 96 112
90 112 115
82 92 66
88 102 114
66 77 112
41 35 75
47 50 84
54 56 32
42 64 36
29 52 33
25 41 42
26 60 43
23 62 38
27 64 42
16 32 31
24 32 50
40 22 46
32 14 35
14 12 52
16 17 63
24 20 49
71 45 33
78 55 42
63 41 27
43 51 60
74 95 121
74 94 125
78 97 126
83 103 135
83 104 136
58 110 87
48 127 61
42 122 52
41 123 50
36 73 39
54 57 53
132 129 127
130 128 127
129 127 127
127 127 127
126 126 127
125 126 127
124 125 127
123 125 127
122 124 127
122 124 127
121 123 127
120 123 127
119 123 127
119 122 127
118 122 127
118 122 127
117 121 127
116 121 127
116 121 127
115 121 127
115 120 127
114 120 127
114 120 127
114 120 127
113 119 127
113 119 127
112 119 127
112 119 127
112 119 127
111 118 127
111 118 127
111 118 127
110 118 127
110 118 127
110 118 127
109 117 127
109 117 127
109 117 127
109 117 127
108 117 127
108 117 127
108 117 127
108 117 127
107 116 127
107 116 127
107 116 127
107 116 127
107 116 127
107 116 127
107 116 127
106 116 127
106 116 127
106 116 127
106 116 127
106 116 127
106 116 127
106 116 127
106 116 127
106 116 127
106 116 127
106 115 127
106 115 127
105 115 127
106 115 127
106 115 127
105 115 127
105 115 127
106 115 127
106 115 127
106 116 127
106 116 127
106 116 127
106 116 127
106 116 127
106 116 127
106 116 127
106 116 127
106 116 127
106 116 127
106 116 127
107 116 127
107 116 127
107 116 127
107 116 127
107 116 127
108 116 127
108 117 127
108 117 127
108 117 127
108 117 127
109 117 127
109 117 127
109 117 127
109 117 127
110 118 127
110 118 127
110 118 127
110 118 127
111 118 127
111 118 127
112 119 127
112 119 127
112 119 127
113 119 127
113 119 127
114 120 127
114 120 127
114 120 127
115 120 127
115 121 127
116 121 127
117 121 127
117 121 127
118 122 127
118 122 127
119 122 127
120 123 127
120 123 127
121 123 127
122 124 127
123 124 127
123 125 127
124 125 127
125 126 127
127 126 127
128 127 127
129 128 127
131 129 127
127 125 125
80 98 126
74 95 127
75 96 127
73 95 127
73 95 127
75 96 127
76 97 130
74 95 129
73 89 133
68 85 127
67 81 129
62 74 116
70 84 128
64 63 110
65 61 113
60 49 103
47 23 83
37 7 69
34 3 65
38 3 72
37 8 69
48 33 84
59 62 103
65 82 120
54 71 114
42 57 101
25 36 92
7 15 81
7 15 92
24 38 90
40 62 97
81 122 123
80 123 125
96 150 135
108 169 147
103 163 142
109 166 145
112 163 151
113 153 157
99 122 154
68 69 154
44 36 139
34 20 141
30 17 141
28 24 136
26 36 136
25 41 130
33 41 130
42 41 104
67 43 76
75 45 61
81 40 42
90 40 33
97 43 35
106 46 36
105 49 41
83 47 50
66 46 56
40 44 72
9 33 75
4 33 76
3 29 69
3 30 72
3 31 74
3 27 65
10 36 69
13 38 42
16 43 33
21 44 1
21 45 0
23 46 0
28 48 0
36 57 0
43 61 0
4 71 31
2 83 24
1 87 17
0 100 14
0 99 14
14 99 35
31 98 61
47 99 86
69 96 118
76 96 127
75 96 127
73 94 127
74 95 127
74 96 127
73 95 127
71 93 125
64 88 122
65 88 121
51 78 112
41 71 106
50 77 111
51 78 112
56 81 114
61 84 116
61 88 115
35 88 101
18 79 84
3 78 76
2 69 66
9 75 76
24 79 88
36 84 100
47 92 116
58 91 125
67 93 134
73 94 133
86 99 144
82 96 137
80 95 131
78 97 130
74 95 127
74 95 127
74 95 127
74 95 127
74 89 121
80 75 106
83 66 97
86 54 83
87 50 79
85 47 74
83 43 65
67 59 61
55 65 43
33 88 38
19 106 38
11 120 39
11 120 39
10 118 38
11 117 38
17 122 47
30 104 63
45 103 86
67 95 117
74 95 127
74 95 127
75 96 127
75 96 127
73 95 127
73 95 127
75 96 127
75 96 127
74 95 127
74 95 127
74 95 127
75 96 127
75 96 127
75 96 127
74 95 127
74 95 127
74 95 127
81 97 131
96 99 145
109 101 158
131 109 182
132 109 186
124 105 181
126 106 184
115 98 168
115 99 171
110 94 161
117 98 164
108 95 150
95 95 141
89 97 137
65 83 113
51 67 98
41 53 85
32 43 75
25 34 66
23 30 60
24 32 64
26 36 67
35 47 78
45 60 91
57 75 106
71 91 123
75 96 127
77 98 132
91 115 155
99 128 175
102 130 176
107 138 190
104 137 191
99 126 171
91 116 156
68 89 122
38 55 77
13 28 45
5 21 37
6 22 37
5 20 35
5 21 36
5 21 35
7 21 36
10 21 36
21 18 32
29 17 30
37 15 26
35 13 24
38 14 25
39 17 23
40 20 20
35 20 14
39 23 15
39 24 15
37 22 14
40 24 16
40 24 15
41 25 16
36 22 14
41 24 15
38 22 15
35 20 13
39 23 14
41 24 15
38 23 14
37 22 14
39 24 15
43 25 16
40 24 15
40 24 15
38 25 19
93 103 117
148 174 206
170 193 230
159 183 219
148 171 202
123 139 164
110 131 157
95 96 131
79 94 124
65 80 88
88 98 133
79 103 127
79 89 123
71 68 118
38 19 85
48 47 94
67 71 55
61 77 53
37 58 44
31 25 55
24 36 55
30 73 53
34 82 60
7 22 22
23 36 45
47 23 38
53 16 24
52 45 70
43 56 92
89 106 95
99 79 59
102 69 51
49 46 44
24 31 34
41 54 67
81 103 135
83 104 135
79 99 131
80 102 134
73 83 105
53 92 59
46 121 55
34 93 39
28 54 24
74 82 78
132 129 127
130 128 127
129 127 127
128 127 127
126 126 127
125 126 127
124 125 127
124 125 127
123 124 127
122 124 127
121 124 127
121 123 127
120 123 127
119 123 127
119 122 127
118 122 127
118 122 127
117 121 127
117 121 127
116 121 127
116 121 127
115 120 127
115 120 127
114 120 127
114 120 127
114 120 127
113 119 127
113 119 127
112 119 127
112 119 127
112 119 127
111 118 127
111 118 127
111 118 127
111 118 127
110 118 127
110 118 127
110 118 127
109 117 127
109 117 127
109 117 127
109 117 127
109 117 127
108 117 127
108 117 127
108 117 127
108 117 127
108 117 127
108 117 127
107 116 127
107 116 127
107 116 127
107 116 127
107 116 127
107 116 127
107 116 127
107 116 127
107 116 127
107 116 127
107 116 127
107 116 127
107 116 127
107 116 127
107 116 127
107 116 127
106 116 127
107 116 127
107 116 127
107 116 127
107 116 127
107 116 127
107 116 127
107 116 127
107 116 127
107 116 127
107 116 127
107 116 127
107 116 127
107 116 127
107 116 127
108 117 127
108 117 127
108 117 127
108 117 127
108 117 127
108 117 127
109 117 127
109 117 127
109 117 127
109 117 127
109 117 127
110 118 127
110 118 127
110 118 127
111 118 127
111 118 127
111 118 127
111 118 127
112 119 127
112 119 127
112 119 127
113 119 127
113 119 127
113 120 127
114 120 127
114 120 127
115 120 127
115 120 127
116 121 127
116 121 127
117 121 127
117 121 127
118 122 127
118 122 127
119 122 127
119 123 127
120 123 127
121 123 127
121 124 127
122 124 127
123 124 127
124 125 127
125 125 127
126 126 127
127 126 127
128 127 127
129 128 127
131 128 127
133 130 127
94 102 115
78 94 116
76 93 118
76 94 120
74 94 124
76 97 129
79 100 132
76 97 128
74 95 127
74 93 127
73 95 130
70 89 121
70 90 122
69 85 119
74 87 125
57 52 98
49 33 83
42 18 75
33 3 61
32 3 59
33 6 63
43 25 78
56 58 98
78 95 124
72 93 121
65 85 116
43 59 107
52 69 105
42 59 105
57 78 109
69 100 110
96 141 130
113 170 142
113 173 145
108 170 146
110 172 146
110 171 145
118 177 148
116 163 151
98 124 150
70 82 137
38 29 131
24 23 115
22 34 120
23 40 124
23 48 124
20 54 118
20 60 121
25 58 114
38 56 96
52 52 76
75 45 48
80 41 41
90 39 32
90 39 32
99 42 34
90 45 41
79 47 54
45 48 75
35 51 83
17 41 79
5 31 73
5 32 73
6 30 68
14 37 73
21 46 67
23 44 45
23 46 20
18 38 1
24 46 0
32 50 0
47 61 0
57 70 0
65 73 1
6 46 45
4 55 34
2 79 21
0 83 13
0 96 13
2 95 16
17 92 39
50 96 87
60 98 107
72 96 125
75 96 127
74 95 127
74 95 127
74 95 127
72 94 126
62 86 118
50 77 111
37 67 101
34 65 102
29 58 91
27 59 94
32 64 100
35 65 101
43 71 104
42 79 101
22 76 85
9 66 65
2 71 68
5 70 69
22 72 78
50 87 111
67 93 129
80 97 145
81 98 149
83 97 151
86 97 152
89 99 150
87 97 145
84 97 137
82 97 134
76 96 128
74 96 127
73 95 127
74 95 126
80 76 107
82 55 83
90 39 67
95 19 46
92 13 38
92 17 43
89 18 41
83 27 37
59 50 36
52 63 35
31 87 35
11 116 37
9 112 36
9 109 35
9 112 36
9 113 36
20 111 51
37 106 77
54 98 101
71 93 123
71 90 123
74 95 127
75 95 126
74 95 127
75 96 127
74 95 127
74 95 127
75 96 127
75 96 127
73 95 126
74 96 127
75 96 127
75 96 127
73 95 127
72 94 125
80 94 132
86 95 138
112 101 165
115 98 169
127 101 185
124 100 185
125 100 182
120 95 173
106 86 151
90 73 127
86 72 123
98 82 134
87 76 122
81 83 122
68 80 114
54 69 100
38 50 81
28 37 66
21 28 58
19 26 55
18 25 53
20 28 58
18 25 52
23 31 60
29 39 68
44 56 89
60 77 106
75 96 131
93 117 156
107 137 186
118 153 212
118 154 216
123 163 233
125 166 235
113 147 206
112 143 196
85 110 151
39 57 81
14 29 45
5 19 32
5 20 35
5 19 32
5 18 31
5 19 33
5 20 33
5 18 29
19 16 28
24 16 27
32 15 28
35 13 23
32 12 21
35 15 22
38 19 18
36 22 14
38 23 15
39 23 15
42 24 15
39 23 15
35 21 14
38 23 15
38 22 14
32 19 13
34 20 13
40 24 15
39 23 15
35 21 13
36 21 14
37 22 14
37 21 14
36 21 13
36 21 13
32 19 12
46 33 29
120 126 157
143 160 190
157 177 209
175 202 236
177 204 236
183 207 243
183 208 243
176 199 235
175 198 234
152 172 203
140 156 194
125 151 195
126 140 178
113 131 171
78 86 154
95 111 154
122 143 171
97 117 139
86 101 128
57 61 81
76 71 134
79 99 131
78 119 135
43 100 97
57 88 110
33 28 79
48 39 76
78 94 125
81 102 130
91 129 132
92 119 123
90 116 133
65 117 152
41 56 69
64 82 106
81 102 133
78 99 130
79 100 133
77 98 130
81 94 129
85 39 94
72 32 70
46 63 50
49 55 49
113 113 113
132 129 127
130 128 127
129 127 127
128 127 127
127 126 127
126 126 127
125 125 127
124 125 127
123 125 127
123 124 127
122 124 127
121 124 127
121 123 127
120 123 127
119 123 127
119 122 127
118 122 127
118 122 127
117 122 127
117 121 127
116 121 127
116 121 127
116 121 127
115 120 127
115 120 127
114 120 127
114 120 127
114 120 127
113 119 127
113 119 127
113 119 127
112 119 127
112 119 127
112 119 127
112 119 127
111 118 127
111 118 127
111 118 127
110 118 127
110 118 127
110 118 127
110 118 127
110 118 127
109 117 127
109 117 127
109 117 127
109 117 127
109 117 127
109 117 127
109 117 127
108 117 127
108 117 127
108 117 127
108 117 127
108 117 127
108 117 127
108 117 127
108 117 127
108 117 127
108 117 127
108 117 127
108 117 127
108 117 127
108 117 127
108 117 127
108 117 127
108 117 127
108 117 127
108 117 127
108 117 127
108 117 127
108 117 127
108 117 127
108 117 127
108 117 127
108 117 127
108 117 127
108 117 127
108 117 127
108 117 127
109 117 127
109 117 127
109 117 127
109 117 127
109 117 127
109 117 127
110 118 127
110 118 127
110 118 127
110 118 127
110 118 127
111 118 127
111 118 127
111 118 127
111 119 127
112 119 127
112 119 127
112 119 127
113 119 127
113 119 127
113 119 127
114 120 127
114 120 127
114 120 127
115 120 127
115 120 127
115 121 127
116 121 127
116 121 127
117 121 127
117 122 127
118 122 127
118 122 127
119 122 127
119 123 127
120 123 127
121 123 127
121 124 127
122 124 127
123 124 127
123 125 127
124 125 127
125 125 127
126 126 127
127 126 127
128 127 127
129 128 127
131 128 127
132 129 127
107 107 109
85 86 80
81 87 88
77 88 100
76 88 101
78 95 121
73 93 122
80 102 133
76 95 124
72 92 123
69 89 123
70 92 124
70 92 125
70 92 123
71 89 123
69 81 112
51 48 89
44 31 75
31 6 58
32 3 57
31 4 57
43 29 73
64 66 100
85 105 127
96 121 139
99 129 145
87 117 137
85 112 135
88 115 139
91 121 131
102 137 133
117 166 141
116 172 142
114 170 139
114 173 143
108 168 143
112 169 139
116 173 140
116 167 139
89 116 134
61 74 117
36 43 112
22 30 114
21 50 117
19 57 111
18 66 109
17 65 107
17 69 110
18 67 110
22 68 107
29 58 85
49 56 76
71 48 53
79 38 34
81 35 27
94 41 31
89 42 35
78 50 53
68 61 76
47 66 100
37 62 101
25 46 80
23 47 84
25 48 83
39 56 98
37 56 88
35 49 64
48 60 58
38 46 39
41 54 15
50 59 5
61 70 0
79 83 0
85 86 0
7 29 49
5 44 40
4 58 30
1 80 19
0 84 12
1 85 13
16 88 38
39 92 73
61 96 107
73 95 126
74 95 127
75 96 127
73 95 127
73 94 127
60 85 117
45 71 104
28 57 89
22 52 85
13 45 78
13 48 84
12 46 81
12 44 77
18 50 83
21 54 87
26 59 85
20 68 81
7 64 65
4 64 61
17 68 72
43 79 97
66 89 125
89 98 148
90 99 155
90 99 157
89 98 157
89 99 157
92 100 156
94 100 152
90 97 141
84 97 135
77 95 129
73 93 125
74 92 123
76 81 112
83 56 83
92 29 56
95 17 44
97 9 34
90 6 30
84 5 28
96 6 31
91 9 31
79 20 30
58 50 32
37 63 30
27 88 34
11 91 30
8 103 33
9 104 33
8 102 32
11 107 37
21 106 51
37 96 75
61 83 107
66 79 116
63 71 110
66 78 115
67 81 118
72 92 125
74 94 126
74 95 126
74 95 126
74 96 127
73 95 127
75 96 127
74 95 127
73 94 126
74 95 128
76 93 127
86 93 137
96 93 153
115 97 177
119 95 187
123 95 196
125 98 199
124 96 195
118 90 176
111 85 160
90 70 127
64 53 93
64 54 91
69 62 102
72 71 110
65 77 110
46 59 89
31 40 69
18 24 51
19 25 52
19 25 54
18 25 54
17 24 51
21 24 53
22 25 56
27 26 57
40 42 73
61 70 103
83 98 136
101 125 169
127 158 216
136 175 243
136 179 253
134 178 253
133 176 251
140 181 253
129 165 226
105 135 185
64 86 118
31 47 68
15 30 47
5 18 31
5 18 30
5 18 31
6 19 32
7 20 32
11 25 39
17 23 37
20 15 27
28 12 22
31 11 21
29 10 20
35 21 19
37 31 15
37 29 13
41 25 16
41 25 16
38 23 15
38 23 15
40 24 15
34 20 13
39 23 15
40 24 16
41 24 16
37 22 14
39 24 15
37 23 15
35 21 14
38 21 14
41 26 16
39 23 14
34 20 13
30 16 11
46 34 31
99 101 126
154 176 210
163 183 219
172 196 229
169 195 226
183 208 246
175 202 236
184 208 245
181 205 243
187 211 247
186 208 244
188 212 249
188 212 249
176 200 238
181 204 246
183 207 244
188 212 249
180 205 242
184 209 246
166 190 224
172 196 232
173 197 233
166 194 228
163 197 226
157 184 218
143 163 204
156 177 215
149 172 207
153 175 211
133 155 189
139 162 195
142 167 202
132 160 196
128 152 185
127 150 184
118 139 172
122 144 178
115 136 168
109 131 163
116 138 171
124 140 175
105 115 151
115 132 166
72 89 105
127 125 123
132 129 127
130 128 127
129 128 127
128 127 127
127 127 127
126 126 127
125 126 127
124 125 127
124 125 127
123 124 127
122 124 127
122 124 127
121 123 127
121 123 127
120 123 127
119 123 127
119 122 127
119 122 127
118 122 127
118 122 127
117 121 127
117 121 127
116 121 127
116 121 127
116 121 127
115 120 127
115 120 127
115 120 127
114 120 127
114 120 127
114 120 127
113 119 127
113 119 127
113 119 127
112 119 127
112 119 127
112 119 127
112 119 127
111 119 127
111 118 127
111 118 127
111 118 127
111 118 127
110 118 127
110 118 127
110 118 127
110 118 127
110 118 127
110 118 127
110 118 127
109 117 127
109 117 127
109 117 127
109 117 127
109 117 127
109 117 127
109 117 127
109 117 127
109 117 127
109 117 127
109 117 127
109 117 127
109 117 127
109 117 127
109 117 127
109 117 127
109 117 127
109 117 127
109 117 127
109 117 127
109 117 127
109 117 127
109 117 127
109 117 127
109 117 127
109 117 127
109 117 127
109 117 127
109 117 127
110 118 127
110 118 127
110 118 127
110 118 127
110 118 127
110 118 127
110 118 127
111 118 127
111 118 127
111 118 127
111 118 127
111 118 127
112 119 127
112 119 127
112 119 127
112 119 127
113 119 127
113 119 127
113 119 127
113 120 127
114 120 127
114 120 127
114 120 127
115 120 127
115 120 127
115 121 127
116 121 127
116 121 127
117 121 127
117 121 127
118 122 127
118 122 127
118 122 127
119 122 127
119 123 127
120 123 127
121 123 127
121 123 127
122 124 127
122 124 127
123 124 127
124 125 127
125 125 127
125 126 127
126 126 127
127 127 127
128 127 127
129 128 127
131 128 127
132 129 127
125 121 119
88 79 53
81 72 47
87 79 58
81 80 74
78 88 95
71 89 109
75 94 123
61 78 103
56 71 93
55 68 89
58 73 96
65 84 112
71 91 122
74 95 127
74 93 125
60 66 99
38 27 66
34 12 60
29 3 53
32 5 57
41 29 68
76 86 108
101 125 136
112 143 152
114 150 158
109 146 157
92 123 143
89 117 138
82 106 124
94 122 129
104 138 129
95 132 119
106 151 123
104 153 124
101 155 126
92 140 114
99 150 120
114 163 127
82 112 106
68 88 107
37 57 98
20 39 101
18 59 106
16 61 98
15 60 95
16 66 103
16 63 99
17 67 104
16 64 101
20 67 100
32 57 83
50 47 59
66 39 40
76 34 28
79 34 27
82 37 31
79 52 56
63 60 77
56 70 98
49 69 100
47 67 101
57 72 116
68 73 136
79 78 146
88 83 155
95 83 167
75 70 115
64 63 85
70 65 78
82 78 43
87 84 12
82 80 0
88 86 0
19 24 39
12 27 42
5 48 28
2 58 23
1 71 13
0 85 12
12 78 30
33 87 63
59 94 103
73 95 126
73 95 127
74 95 127
73 94 124
66 88 120
48 74 106
31 60 92
17 47 79
12 46 81
12 42 73
11 41 72
12 44 77
12 44 76
12 45 79
14 45 77
12 46 70
9 53 64
5 60 65
5 58 57
27 67 77
55 74 100
71 86 122
86 94 142
93 100 152
94 101 156
92 99 154
92 98 153
92 97 150
94 93 141
87 89 129
85 88 124
73 91 121
72 92 122
76 91 123
77 70 99
80 37 63
86 20 46
84 5 27
91 6 29
84 5 27
91 6 29
82 5 27
93 6 30
85 6 27
75 17 28
57 39 29
35 66 30
10 88 28
7 87 28
8 95 31
8 92 29
10 99 35
22 77 50
36 68 73
45 51 85
53 53 98
49 45 91
55 57 100
56 63 101
61 69 107
67 82 116
72 93 125
73 94 127
75 96 127
74 95 127
73 95 127
74 95 127
75 96 127
76 96 127
87 94 140
105 94 157
114 94 176
127 98 198
124 95 203
121 93 201
120 93 201
123 94 201
121 91 190
112 83 167
90 68 132
71 55 102
59 50 91
63 63 100
65 71 106
60 67 100
38 49 77
21 28 54
17 23 48
18 24 51
17 23 48
17 23 49
19 23 52
24 19 49
29 18 50
29 18 48
39 24 58
46 33 67
67 63 103
86 91 137
124 146 206
140 172 236
141 182 253
136 176 247
133 173 244
138 177 246
143 181 244
130 162 212
84 108 139
46 62 85
15 27 43
5 18 30
5 17 28
14 27 41
25 42 61
38 54 74
33 49 69
37 48 68
36 39 56
36 26 38
29 12 21
29 16 18
34 29 14
45 49 13
39 39 11
38 27 13
34 20 13
38 22 14
35 21 13
37 22 14
39 24 15
38 22 14
33 20 12
38 22 14
38 23 15
36 21 14
35 21 13
34 20 13
34 20 14
33 20 13
36 21 14
34 20 13
35 20 13
34 22 16
111 122 149
150 172 209
159 182 220
169 193 230
180 204 240
165 187 226
184 209 249
180 205 242
177 202 239
183 205 244
178 202 237
179 204 239
187 211 248
189 215 250
190 215 252
182 206 243
185 210 248
187 213 250
182 207 244
188 213 249
186 211 249
183 206 239
189 213 250
185 210 246
191 216 253
183 207 242
184 209 244
188 213 250
186 211 246
186 209 244
187 211 246
185 206 243
182 205 241
182 205 240
183 205 243
183 206 242
186 209 245
184 208 243
189 214 250
180 203 239
186 210 246
183 208 244
187 212 248
106 116 121
133 130 127
132 129 127
130 128 127
129 128 127
128 127 127
127 127 127
126 126 127
126 126 127
125 125 127
124 125 127
124 125 127
123 124 127
122 124 127
122 124 127
121 124 127
121 123 127
120 123 127
120 123 127
119 123 127
119 122 127
118 122 127
118 122 127
118 122 127
117 121 127
117 121 127
116 121 127
116 121 127
116 121 127
115 121 127
115 120 127
115 120 127
114 120 127
114 120 127
114 120 127
114 120 127
113 120 127
113 119 127
113 119 127
113 119 127
112 119 127
112 119 127
112 119 127
112 119 127
112 119 127
111 119 127
111 118 127
111 118 127
111 118 127
111 118 127
111 118 127
111 118 127
111 118 127
110 118 127
110 118 127
110 118 127
110 118 127
110 118 127
110 118 127
110 118 127
110 118 127
110 118 127
110 118 127
110 118 127
110 118 127
110 118 127
110 118 127
110 118 127
110 118 127
110 118 127
110 118 127
110 118 127
110 118 127
110 118 127
110 118 127
110 118 127
110 118 127
110 118 127
110 118 127
110 118 127
110 118 127
111 118 127
111 118 127
111 118 127
111 118 127
111 118 127
111 118 127
111 119 127
112 119 127
112 119 127
112 119 127
112 119 127
112 119 127
113 119 127
113 119 127
113 119 127
113 119 127
114 120 127
114 120 127
114 120 127
114 120 127
115 120 127
115 120 127
115 120 127
116 121 127
116 121 127
116 121 127
117 121 127
117 121 127
117 122 127
118 122 127
118 122 127
119 122 127
119 122 127
120 123 127
120 123 127
121 123 127
121 124 127
122 124 127
122 124 127
123 124 127
124 125 127
124 125 127
125 125 127
126 126 127
127 126 127
127 127 127
128 127 127
129 128 127
131 128 127
132 129 127
129 126 124
95 78 38
87 67 23
89 72 28
89 74 38
75 74 68
63 68 74
50 62 79
54 66 82
37 44 54
36 43 52
39 46 56
45 54 65
51 63 84
65 81 108
68 81 109
62 71 98
49 48 77
32 16 48
23 2 44
32 13 56
53 51 77
91 101 117
115 144 146
118 150 155
100 131 145
76 99 128
61 78 111
53 67 106
60 76 110
50 59 97
56 72 97
68 88 96
72 100 92
78 113 94
76 113 90
80 121 97
77 116 90
80 118 91
71 98 84
51 69 89
34 59 93
17 50 98
16 62 100
16 63 97
15 59 93
15 60 94
15 60 95
16 62 98
15 60 95
15 62 97
17 56 86
27 47 67
58 43 49
67 30 26
73 31 24
74 38 34
65 45 51
72 66 81
62 78 107
67 87 119
72 81 130
96 91 164
104 92 185
118 97 212
123 99 225
119 95 213
124 96 227
117 93 200
120 95 172
110 90 122
106 89 78
84 80 14
89 87 0
43 26 25
30 25 27
20 34 31
8 55 19
1 65 15
2 70 13
22 83 45
32 78 61
61 92 108
73 96 126
74 96 127
74 95 126
75 95 126
60 83 115
38 63 94
20 46 75
11 39 67
12 43 74
11 41 71
12 43 74
12 44 76
11 42 74
11 40 69
11 41 72
11 39 66
8 45 62
6 51 59
10 55 58
26 63 72
46 71 93
59 74 104
72 89 126
68 88 123
83 94 138
88 95 142
88 90 136
87 88 134
89 84 129
81 67 101
75 74 102
71 81 112
64 85 111
75 83 113
76 56 82
69 24 45
80 6 27
88 5 28
84 5 27
80 5 30
73 4 31
68 4 34
68 4 29
79 5 29
75 7 26
60 24 26
39 51 27
15 73 26
7 91 29
7 84 27
13 85 36
17 69 41
25 55 54
39 52 76
45 38 84
44 34 83
41 33 79
43 34 82
45 38 83
48 43 87
55 61 97
63 76 110
71 91 125
74 95 127
74 95 127
74 96 127
73 95 127
75 96 127
78 89 126
95 90 140
113 93 164
133 99 195
133 98 203
127 96 203
123 95 203
123 95 201
124 94 197
133 99 203
129 94 191
113 82 161
85 65 124
80 67 118
66 69 103
60 71 101
52 63 91
33 41 66
19 22 43
17 21 45
16 20 43
15 19 41
21 22 49
23 16 42
33 14 46
34 13 45
39 12 47
41 12 49
41 17 52
54 33 72
72 59 101
98 103 154
104 115 169
131 162 226
132 165 226
135 166 225
133 165 224
136 169 221
135 166 212
94 119 143
63 83 105
24 37 51
9 21 33
19 32 47
43 58 78
47 64 86
49 65 89
55 73 100
60 77 106
50 63 85
49 51 70
45 39 55
34 24 32
39 42 21
38 47 10
38 54 6
41 37 12
34 20 14
38 23 15
32 20 13
35 21 14
32 18 12
39 23 15
38 23 14
33 20 14
36 22 14
37 22 14
34 20 13
34 20 13
35 21 13
34 20 13
29 17 11
35 20 13
35 21 13
38 23 15
89 93 111
146 165 207
160 182 223
171 197 237
173 198 233
173 199 239
180 205 245
182 207 244
189 214 250
186 209 246
188 212 250
177 202 237
179 206 240
186 211 250
179 202 241
185 209 246
183 208 246
182 206 241
188 213 252
190 215 254
191 216 254
189 214 252
189 213 250
181 205 241
183 208 245
184 204 245
189 215 253
183 206 241
183 207 243
178 202 237
177 201 235
185 208 244
187 212 248
184 207 246
180 203 240
184 207 244
185 209 247
177 199 232
187 211 248
186 210 247
181 205 242
181 207 240
182 204 240
107 109 109
133 130 127
132 129 127
130 128 127
129 128 127
129 127 127
128 127 127
127 126 127
126 126 127
125 126 127
125 125 127
124 125 127
124 125 127
123 124 127
123 124 127
122 124 127
121 124 127
121 123 127
121 123 127
120 123 127
120 123 127
119 122 127
119 122 127
118 122 127
118 122 127
118 122 127
117 122 127
117 121 127
117 121 127
116 121 127
116 121 127
116 121 127
115 121 127
115 120 127
115 120 127
115 120 127
114 120 127
114 120 127
114 120 127
114 120 127
113 120 127
113 119 127
113 119 127
113 119 127
113 119 127
113 119 127
112 119 127
112 119 127
112 119 127
112 119 127
112 119 127
112 119 127
112 119 127
111 119 127
111 118 127
111 118 127
111 118 127
111 118 127
111 118 127
111 118 127
111 118 127
111 118 127
111 118 127
111 118 127
111 118 127
111 118 127
111 118 127
111 118 127
111 118 127
111 118 127
111 118 127
111 118 127
111 118 127
111 118 127
111 118 127
111 118 127
111 118 127
111 118 127
111 118 127
111 118 127
112 119 127
112 119 127
112 119 127
112 119 127
112 119 127
112 119 127
112 119 127
112 119 127
113 119 127
113 119 127
113 119 127
113 119 127
113 119 127
114 120 127
114 120 127
114 120 127
114 120 127
114 120 127
115 120 127
115 120 127
115 121 127
116 121 127
116 121 127
116 121 127
116 121 127
117 121 127
117 121 127
117 122 127
118 122 127
118 122 127
119 122 127
119 122 127
119 123 127
120 123 127
120 123 127
121 123 127
121 124 127
122 124 127
122 124 127
123 124 127
124 125 127
124 125 127
125 125 127
125 126 127
126 126 127
127 126 127
128 127 127
129 127 127
130 128 127
131 128 127
132 129 127
134 130 127
97 86 62
83 63 19
78 59 17
85 65 22
58 47 25
48 47 40
38 41 44
33 38 42
23 24 22
21 21 20
22 23 22
26 28 30
32 37 40
55 65 86
65 75 96
60 61 85
46 41 75
32 18 49
28 16 51
45 39 68
73 78 96
100 114 121
123 153 152
104 129 140
73 92 117
47 59 99
31 36 83
27 30 80
25 26 79
19 18 70
30 32 77
30 34 73
35 46 69
57 81 80
56 86 73
56 87 70
56 86 70
63 91 71
53 75 73
38 61 77
20 44 82
14 49 83
14 57 88
15 60 93
14 55 84
14 55 85
16 63 97
15 58 91
14 56 88
16 55 87
15 56 85
29 50 71
44 38 45
64 30 26
68 30 24
70 43 46
67 63 79
67 69 88
66 85 117
79 90 132
105 94 173
126 104 209
138 105 237
138 105 249
134 102 251
132 102 254
133 103 254
133 102 243
135 102 223
129 99 172
118 93 122
96 83 50
80 77 0
65 28 12
62 28 14
40 38 20
24 39 15
5 57 13
6 67 18
29 74 55
43 83 79
68 93 117
73 95 126
74 96 127
74 95 127
72 93 125
53 76 106
31 56 86
14 43 72
10 37 64
10 38 65
10 36 62
10 38 66
11 40 69
10 36 62
11 39 69
10 37 65
9 35 59
9 38 58
8 47 57
11 58 61
18 64 67
35 68 83
39 72 88
44 77 96
42 78 95
51 81 102
63 81 109
60 66 93
63 60 88
64 44 72
59 44 67
57 48 68
64 73 97
67 85 113
68 78 106
74 49 75
76 21 43
76 5 25
75 5 34
61 4 41
59 4 42
57 4 46
50 4 48
60 4 51
64 4 46
63 4 36
59 20 31
39 39 24
18 63 24
8 73 24
7 84 27
12 69 33
22 54 48
34 43 67
37 30 71
35 26 69
39 28 73
39 28 74
37 27 70
38 28 72
37 28 69
47 43 86
56 62 101
66 79 114
73 94 126
74 96 127
72 94 126
74 95 127
74 95 127
84 93 133
99 89 145
124 93 172
138 97 193
131 96 193
128 98 198
116 96 191
119 96 191
115 97 190
123 99 193
128 101 192
125 90 173
102 74 142
78 71 117
51 54 81
52 59 82
32 34 48
25 25 39
15 13 26
13 11 23
13 12 25
14 13 28
21 17 41
32 14 45
35 13 45
42 11 49
39 10 43
40 10 44
38 10 42
37 10 42
46 16 53
57 39 76
89 90 135
103 119 164
114 131 176
113 137 180
121 146 190
126 152 192
109 136 163
101 126 149
70 89 110
33 46 62
31 45 63
52 69 93
62 81 109
77 98 129
72 93 125
76 99 134
73 96 131
70 89 120
66 78 106
50 55 74
47 51 61
40 50 28
42 69 6
43 69 4
42 47 9
37 26 13
34 20 13
39 23 14
37 22 14
35 22 13
38 23 15
38 23 15
34 20 13
35 20 13
35 20 13
33 20 13
39 23 14
36 21 14
33 20 13
35 20 13
37 22 14
35 20 13
37 23 16
80 83 102
126 140 183
150 173 212
168 203 237
169 195 230
172 196 234
178 203 242
174 200 237
172 198 230
184 209 247
181 205 243
183 210 247
181 207 244
183 209 250
186 212 254
186 212 253
182 209 247
183 209 248
180 205 244
186 211 250
184 209 247
185 210 247
181 204 240
183 208 245
186 210 248
186 205 243
185 205 242
186 210 248
180 204 245
183 207 243
186 212 249
184 209 247
185 209 247
185 209 248
172 200 231
182 209 242
178 204 235
181 206 242
188 213 250
181 206 242
187 212 249
185 209 244
166 185 213
110 108 105
133 130 127
132 129 127
131 128 127
130 128 127
129 127 127
128 127 127
127 127 127
127 126 127
126 126 127
125 126 127
125 125 127
124 125 127
124 125 127
123 124 127
123 124 127
122 124 127
122 124 127
121 124 127
121 123 127
120 123 127
120 123 127
120 123 127
119 123 127
119 122 127
119 122 127
118 122 127
118 122 127
118 122 127
117 121 127
117 121 127
117 121 127
116 121 127
116 121 127
116 121 127
116 121 127
115 121 127
115 120 127
115 120 127
115 120 127
115 120 127
114 120 127
114 120 127
114 120 127
114 120 127
114 120 127
113 120 127
113 119 127
113 119 127
113 119 127
113 119 127
113 119 127
113 119 127
113 119 127
113 119 127
112 119 127
112 119 127
112 119 127
112 119 127
112 119 127
112 119 127
112 119 127
112 119 127
112 119 127
112 119 127
112 119 127
112 119 127
112 119 127
112 119 127
112 119 127
112 119 127
112 119 127
112 119 127
112 119 127
112 119 127
112 119 127
112 119 127
112 119 127
113 119 127
113 119 127
113 119 127
113 119 127
113 119 127
113 119 127
113 119 127
113 119 127
113 119 127
113 120 127
114 120 127
114 120 127
114 120 127
114 120 127
114 120 127
114 120 127
115 120 127
115 120 127
115 120 127
115 121 127
116 121 127
116 121 127
116 121 127
116 121 127
117 121 127
117 121 127
117 122 127
118 122 127
118 122 127
118 122 127
119 122 127
119 122 127
119 123 127
120 123 127
120 123 127
121 123 127
121 123 127
122 124 127
122 124 127
122 124 127
123 124 127
124 125 127
124 125 127
125 125 127
125 126 127
126 126 127
127 126 127
127 127 127
128 127 127
129 128 127
130 128 127
131 129 127
132 129 127
134 130 127
93 88 74
78 58 17
65 49 15
66 51 16
51 40 18
36 31 16
20 18 14
17 17 12
16 15 10
16 15 10
17 16 11
17 16 12
20 20 16
31 36 40
57 66 75
66 75 100
62 69 93
42 38 58
38 38 69
45 45 72
80 92 101
102 123 122
101 120 121
79 95 111
42 48 84
14 12 59
9 4 58
9 4 60
10 5 64
9 5 60
9 5 63
11 8 62
19 19 61
22 28 61
35 53 60
43 69 61
47 75 61
45 67 57
41 57 67
31 46 70
18 45 82
14 45 77
14 55 83
14 54 82
14 54 84
14 56 86
18 56 91
18 50 83
23 53 90
29 47 87
22 49 84
33 46 75
46 34 43
56 34 38
69 44 45
64 55 67
71 72 92
66 82 109
69 84 121
82 84 136
123 102 196
147 108 236
147 107 254
141 105 254
137 104 254
134 103 254
138 104 254
139 105 254
144 106 254
152 109 238
133 100 177
111 88 97
87 76 28
71 27 5
72 27 5
61 31 8
46 40 7
22 55 15
30 70 48
42 80 77
62 90 106
75 95 126
74 96 127
73 94 127
74 95 127
72 93 125
52 75 105
33 57 86
12 38 65
10 36 63
9 33 57
10 37 64
10 36 63
10 36 62
10 36 61
9 32 57
9 32 55
9 35 60
9 36 50
14 53 62
15 58 63
17 63 66
23 69 74
21 67 72
22 67 72
24 66 73
32 71 82
32 65 76
47 65 86
40 44 60
45 29 47
46 30 48
48 47 65
52 66 86
63 83 109
72 77 106
70 44 68
65 21 43
67 4 34
51 4 47
48 4 56
35 3 64
34 3 68
35 3 67
37 3 67
36 3 53
42 3 53
45 12 40
40 22 34
22 57 23
5 67 20
8 66 27
13 65 35
28 39 56
35 27 67
34 24 64
37 27 70
36 25 67
38 27 71
35 24 64
36 26 68
34 24 62
38 29 71
47 47 83
55 63 95
71 89 122
75 96 127
74 95 127
72 93 124
75 95 129
82 87 127
106 89 149
114 81 153
119 86 166
121 99 187
117 107 200
110 109 199
100 105 191
106 109 199
105 106 191
112 105 190
118 92 173
92 76 136
62 51 85
39 40 56
31 30 41
24 21 29
14 6 9
11 3 5
10 2 4
10 3 7
14 6 17
22 9 27
32 10 38
39 10 43
38 10 42
35 9 39
33 8 36
36 9 40
36 9 40
40 10 44
42 15 49
51 31 67
67 61 95
77 83 121
93 109 150
89 106 140
86 104 128
88 109 132
78 99 113
62 79 97
37 51 66
41 55 75
62 81 108
76 97 128
72 92 122
71 92 124
72 92 122
69 89 119
71 92 122
75 96 129
60 73 98
56 68 85
50 71 46
50 82 24
43 68 6
38 50 6
34 30 10
38 24 14
35 20 13
33 20 13
34 21 13
35 21 13
37 22 14
29 17 11
33 20 13
31 18 12
36 21 13
36 22 14
36 21 12
35 21 13
34 21 13
33 19 12
32 19 12
38 22 14
72 72 87
130 145 187
146 172 216
162 192 227
180 206 246
179 205 243
182 208 248
178 204 244
181 208 248
184 211 251
182 209 248
188 214 253
184 211 250
181 208 247
184 209 251
173 195 239
179 207 247
188 215 254
184 209 249
181 207 245
181 207 245
184 210 248
185 211 249
187 214 253
183 209 247
188 215 252
187 214 252
190 216 255
186 212 250
184 209 246
183 209 246
180 205 243
185 211 249
181 207 243
182 209 244
182 208 243
175 200 234
172 197 231
181 206 242
177 202 238
176 201 234
183 210 245
136 150 168
130 127 124
133 130 127
132 129 127
131 129 127
130 128 127
129 128 127
129 127 127
128 127 127
127 127 127
127 126 127
126 126 127
125 126 127
125 125 127
124 125 127
124 125 127
123 125 127
123 124 127
122 124 127
122 124 127
122 124 127
121 124 127
121 123 127
120 123 127
120 123 127
120 123 127
119 123 127
119 122 127
119 122 127
119 122 127
118 122 127
118 122 127
118 122 127
117 122 127
117 121 127
117 121 127
117 121 127
116 121 127
116 121 127
116 121 127
116 121 127
116 121 127
115 121 127
115 120 127
115 120 127
115 120 127
115 120 127
115 120 127
114 120 127
114 120 127
114 120 127
114 120 127
114 120 127
114 120 127
114 120 127
114 120 127
114 120 127
113 120 127
113 120 127
113 119 127
113 119 127
113 119 127
113 119 127
113 119 127
113 119 127
113 119 127
113 119 127
113 119 127
113 119 127
113 119 127
113 119 127
113 119 127
113 119 127
113 119 127
113 119 127
113 119 127
113 119 127
113 120 127
113 120 127
114 120 127
114 120 127
114 120 127
114 120 127
114 120 127
114 120 127
114 120 127
114 120 127
114 120 127
115 120 127
115 120 127
115 120 127
115 120 127
115 120 127
115 121 127
116 121 127
116 121 127
116 121 127
116 121 127
116 121 127
117 121 127
117 121 127
117 121 127
117 122 127
118 122 127
118 122 127
118 122 127
119 122 127
119 122 127
119 122 127
120 123 127
120 123 127
120 123 127
121 123 127
121 123 127
121 124 127
122 124 127
122 124 127
123 124 127
123 125 127
124 125 127
124 125 127
125 125 127
125 126 127
126 126 127
126 126 127
127 127 127
128 127 127
128 127 127
129 128 127
130 128 127
131 129 127
132 129 127
134 130 127
108 103 96
64 48 15
70 53 16
55 42 14
32 26 11
21 19 10
15 14 9
15 14 9
16 15 10
15 14 10
16 15 10
15 14 9
16 16 11
25 31 28
53 73 74
67 91 102
71 117 116
58 100 98
53 88 94
61 89 96
68 92 92
90 112 105
71 84 94
56 61 86
21 22 63
9 5 52
8 4 54
8 4 56
9 4 59
8 4 57
9 4 57
9 4 61
9 5 56
16 18 56
27 37 57
40 62 56
46 71 61
48 72 64
47 63 77
42 65 88
29 57 86
14 49 77
11 45 68
13 52 80
14 50 79
19 48 80
27 43 80
33 42 83
42 39 87
52 33 85
51 38 89
51 38 84
52 31 68
59 37 62
58 50 69
64 68 87
70 80 105
63 83 115
72 84 122
91 87 150
132 98 207
158 111 246
150 106 245
148 107 251
143 105 249
144 106 254
145 107 254
147 107 254
155 110 254
160 112 254
146 105 212
116 88 124
82 72 37
74 27 5
75 28 5
73 27 5
59 35 9
46 44 22
47 66 55
55 87 98
68 91 118
73 94 127
72 94 127
73 95 127
73 94 126
69 91 123
52 74 102
34 56 81
11 33 56
10 37 64
9 31 53
10 36 63
8 31 53
8 30 53
8 32 56
8 31 53
8 30 52
10 33 53
11 41 53
16 53 62
19 65 68
19 65 67
19 62 65
18 60 63
18 62 65
19 62 66
18 59 63
20 59 65
27 55 65
30 42 54
32 31 44
35 26 42
43 43 62
57 69 93
65 83 109
68 78 106
70 57 84
62 22 50
55 4 44
38 3 58
28 3 66
24 3 75
23 3 67
23 3 69
24 3 70
24 3 71
29 3 67
33 5 56
25 27 40
15 47 30
7 60 23
14 56 34
20 37 43
31 33 59
38 27 69
34 24 63
33 23 61
33 24 62
35 26 67
34 25 65
32 23 61
33 23 59
34 24 63
43 40 79
51 53 91
63 78 109
73 94 125
72 93 127
70 92 123
72 91 123
79 79 121
78 66 112
94 71 132
107 90 167
99 99 174
90 101 180
94 116 203
91 115 203
92 113 198
93 115 199
94 110 189
92 96 166
75 74 125
51 49 80
32 36 51
22 22 29
18 16 22
17 13 18
15 9 13
11 3 4
9 1 1
10 2 6
17 4 14
35 8 35
30 7 31
34 8 37
32 8 35
34 8 37
34 8 37
29 7 31
39 10 43
37 9 40
39 16 46
46 38 66
64 71 102
65 76 105
69 84 111
75 93 116
73 91 116
69 89 104
50 66 83
58 75 95
66 84 109
64 83 108
67 87 115
70 91 119
68 88 118
69 90 119
71 92 125
72 93 123
72 92 124
76 96 129
64 82 105
56 78 66
52 83 34
44 77 7
39 61 3
35 36 9
35 26 11
28 17 11
34 21 13
35 20 13
35 21 14
36 22 14
40 24 16
33 19 12
37 22 14
34 21 13
36 22 14
30 17 11
32 19 12
33 20 12
30 18 11
33 19 11
36 21 13
54 51 55
136 155 194
143 167 223
162 190 233
174 201 242
169 194 232
173 197 238
172 195 240
181 207 249
177 203 245
182 209 251
183 207 246
181 208 247
180 206 245
180 205 246
181 204 251
186 213 253
181 206 249
186 213 252
183 210 249
183 210 249
181 208 245
185 211 250
183 209 247
187 213 253
187 213 253
182 209 247
187 213 252
182 207 245
186 212 250
185 211 248
182 207 244
182 207 245
184 210 248
184 210 248
179 204 241
181 207 244
183 209 247
183 209 246
175 201 236
180 204 240
188 214 252
149 158 169
135 130 127
133 130 127
132 129 127
131 129 127
130 128 127
130 128 127
129 128 127
128 127 127
128 127 127
127 127 127
127 126 127
126 126 127
126 126 127
125 125 127
125 125 127
124 125 127
124 125 127
123 125 127
123 124 127
122 124 127
122 124 127
122 124 127
121 124 127
121 123 127
121 123 127
120 123 127
120 123 127
120 123 127
119 123 127
119 122 127
119 122 127
119 122 127
118 122 127
118 122 127
118 122 127
118 122 127
117 122 127
117 121 127
117 121 127
117 121 127
117 121 127
116 121 127
116 121 127
116 121 127
116 121 127
116 121 127
116 121 127
115 121 127
115 121 127
115 120 127
115 120 127
115 120 127
115 120 127
115 120 127
115 120 127
115 120 127
115 120 127
115 120 127
114 120 127
114 120 127
114 120 127
114 120 127
114 120 127
114 120 127
114 120 127
114 120 127
114 120 127
114 120 127
114 120 127
114 120 127
114 120 127
114 120 127
114 120 127
114 120 127
114 120 127
114 120 127
115 120 127
115 120 127
115 120 127
115 120 127
115 120 127
115 120 127
115 120 127
115 120 127
115 120 127
115 121 127
115 121 127
116 121 127
116 121 127
116 121 127
116 121 127
116 121 127
116 121 127
117 121 127
117 121 127
117 121 127
117 121 127
117 122 127
118 122 127
118 122 127
118 122 127
118 122 127
119 122 127
119 122 127
119 123 127
119 123 127
120 123 127
120 123 127
120 123 127
121 123 127
121 123 127
121 124 127
122 124 127
122 124 127
123 124 127
123 124 127
123 125 127
124 125 127
124 125 127
125 125 127
125 126 127
126 126 127
126 126 127
127 127 127
128 127 127
128 127 127
129 127 127
130 128 127
130 128 127
131 129 127
132 129 127
134 130 127
106 103 101
55 42 16
48 37 12
38 29 10
26 22 11
14 13 9
15 14 9
14 13 8
14 13 9
15 14 9
16 14 9
17 18 12
23 35 24
28 50 36
47 92 74
69 144 120
79 162 143
64 145 124
64 133 121
72 141 124
79 138 127
55 76 110
37 40 100
16 14 86
7 4 88
7 4 74
7 4 61
8 4 56
8 4 52
8 4 54
8 4 55
9 5 60
8 4 52
11 10 54
23 29 55
38 55 59
46 68 68
57 79 85
51 69 87
51 68 94
36 57 84
22 52 78
12 44 67
11 42 66
22 42 74
35 40 80
45 36 81
59 28 84
58 29 84
63 27 86
66 26 86
63 26 84
62 30 80
61 33 75
63 51 86
61 71 100
64 81 109
63 82 109
72 80 122
96 86 151
118 85 177
136 92 206
134 93 212
142 99 228
146 102 233
146 101 236
152 104 239
151 105 240
152 105 242
151 104 230
139 100 207
98 77 115
89 74 62
70 27 5
69 25 4
58 21 4
67 28 7
58 48 42
56 65 69
68 89 110
71 93 122
69 91 120
70 92 123
68 89 117
69 91 121
68 89 119
54 77 107
37 59 87
16 38 60
9 31 53
8 30 52
7 27 47
8 30 52
8 30 53
8 27 48
7 27 48
8 28 50
11 39 52
14 48 57
17 56 60
17 56 58
18 62 64
18 62 64
17 58 60
18 61 64
18 61 64
17 57 60
16 53 57
18 54 60
21 50 57
24 36 48
33 33 48
41 46 66
54 69 94
69 88 119
60 78 105
61 54 82
50 35 72
36 7 56
28 6 63
26 7 61
27 8 58
27 9 57
25 8 55
26 7 61
24 5 64
22 2 63
24 5 63
18 18 55
15 35 38
11 52 32
18 50 39
19 31 39
32 28 59
29 21 56
32 23 61
34 24 63
29 21 55
30 22 58
31 21 56
33 23 61
34 24 62
29 20 53
36 29 64
48 51 83
60 75 104
68 88 119
68 86 116
71 90 122
64 84 113
71 76 112
76 76 123
83 79 140
93 104 181
93 113 192
90 117 203
91 119 207
88 117 207
88 117 207
90 118 207
88 113 195
75 92 153
57 69 110
40 48 73
31 41 56
30 39 52
29 37 50
27 33 44
19 19 26
16 12 16
11 5 7
9 0 0
12 1 5
20 4 16
22 5 22
32 8 35
31 8 33
35 9 38
29 7 31
32 8 34
32 8 34
34 8 37
32 8 36
42 24 54
51 48 77
59 71 100
60 76 102
59 75 97
55 70 95
53 71 86
50 64 82
52 65 86
61 77 97
70 90 114
62 79 100
70 90 117
70 90 117
66 86 112
69 88 117
68 88 116
68 87 118
68 87 115
64 80 106
65 84 97
49 73 52
44 71 24
34 60 4
37 52 6
37 29 12
39 24 14
30 18 12
32 19 12
34 21 13
32 19 12
38 23 14
28 17 11
36 21 13
31 18 11
30 18 11
38 22 14
30 18 11
31 18 12
31 19 12
34 20 13
31 18 11
55 47 47
109 124 148
147 172 218
160 187 233
165 193 229
170 197 237
172 198 238
172 195 243
174 199 242
179 206 247
182 210 252
180 204 242
185 211 251
184 211 252
181 206 250
184 208 252
185 209 253
185 212 252
183 210 250
188 215 255
181 208 248
183 208 247
182 207 246
185 211 251
183 210 248
182 209 249
179 205 244
182 208 247
183 210 248
178 204 241
175 201 236
176 202 238
182 208 248
184 210 249
185 211 251
183 209 248
178 203 241
175 199 238
184 210 249
183 209 247
182 207 245
184 211 248
135 138 144
135 130 127
133 130 127
132 129 127
132 129 127
131 129 127
130 128 127
129 128 127
129 127 127
128 127 127
128 127 127
127 127 127
127 126 127
126 126 127
126 126 127
125 126 127
125 125 127
124 125 127
124 125 127
124 125 127
123 125 127
123 124 127
123 124 127
122 124 127
122 124 127
122 124 127
121 124 127
121 123 127
121 123 127
120 123 127
120 123 127
120 123 127
120 123 127
119 123 127
119 122 127
119 122 127
119 122 127
118 122 127
118 122 127
118 122 127
118 122 127
118 122 127
117 122 127
117 122 127
117 121 127
117 121 127
117 121 127
117 121 127
117 121 127
117 121 127
116 121 127
116 121 127
116 121 127
116 121 127
116 121 127
116 121 127
116 121 127
116 121 127
116 121 127
116 121 127
116 121 127
116 121 127
115 121 127
115 121 127
115 121 127
115 121 127
115 121 127
115 121 127
115 121 127
115 121 127
115 121 127
115 121 127
115 121 127
115 121 127
116 121 127
115 121 127
116 121 127
116 121 127
116 121 127
116 121 127
116 121 127
116 121 127
116 121 127
116 121 127
116 121 127
116 121 127
117 121 127
117 121 127
117 121 127
117 121 127
117 121 127
117 121 127
117 122 127
118 122 127
118 122 127
118 122 127
118 122 127
118 122 127
118 122 127
119 122 127
119 122 127
119 122 127
119 123 127
120 123 127
120 123 127
120 123 127
120 123 127
121 123 127
121 123 127
121 124 127
122 124 127
122 124 127
122 124 127
123 124 127
123 124 127
123 125 127
124 125 127
124 125 127
125 125 127
125 126 127
126 126 127
126 126 127
127 126 127
127 127 127
128 127 127
128 127 127
129 127 127
129 128 127
130 128 127
131 129 127
132 129 127
133 129 127
134 130 127
124 121 118
44 35 17
44 34 13
27 21 12
20 16 12
16 14 11
13 12 10
14 13 8
12 12 8
14 14 9
15 14 9
23 37 26
41 84 62
60 138 104
63 151 116
72 174 140
70 178 143
68 177 144
67 168 149
57 131 150
45 88 153
35 53 153
16 19 159
12 10 134
7 3 140
8 4 115
7 4 111
8 4 77
7 4 65
8 4 50
8 4 51
8 3 48
8 4 56
10 6 56
23 29 56
31 38 60
47 65 74
53 71 83
59 76 98
55 72 102
41 63 90
27 51 75
14 39 61
21 40 71
25 35 67
53 31 82
57 24 76
64 24 83
67 25 84
65 24 83
68 24 84
63 23 81
67 24 84
66 30 85
62 38 83
62 60 97
64 77 106
64 81 109
70 73 115
90 75 135
98 73 152
112 75 165
105 71 161
106 72 166
111 76 176
124 83 193
126 85 195
127 84 198
134 90 205
124 84 189
120 84 181
94 71 115
62 57 36
57 21 4
59 22 4
62 23 4
58 23 7
60 39 31
63 56 61
68 80 102
63 84 108
62 86 111
66 87 114
66 88 115
63 87 110
67 89 117
54 76 101
45 67 92
31 52 74
12 31 52
8 27 47
7 26 45
8 29 51
7 28 49
7 25 43
7 28 49
10 32 52
10 35 45
16 53 60
17 57 58
16 55 57
18 60 62
17 56 59
16 56 60
16 53 58
17 53 60
16 53 57
16 54 58
15 50 54
19 49 55
26 37 51
36 51 67
48 57 81
58 76 102
62 83 110
68 89 119
54 61 91
40 30 68
31 15 50
27 11 46
29 14 39
30 17 31
32 17 31
29 14 39
27 13 40
27 11 43
24 7 56
19 2 57
19 7 61
13 25 39
21 39 46
28 48 52
24 33 45
31 24 58
32 22 59
27 19 52
31 22 59
30 21 57
30 21 56
31 22 57
28 20 55
29 20 53
30 21 55
33 26 60
47 52 82
63 77 107
71 91 123
67 89 117
71 91 122
70 92 125
69 88 133
69 84 143
80 100 177
85 114 205
87 125 222
88 122 217
88 123 217
91 120 208
89 117 204
82 107 184
72 95 156
58 77 121
44 59 86
35 48 67
33 46 63
33 46 61
33 45 60
31 42 58
28 37 48
20 22 29
17 14 19
11 4 5
8 0 1
12 1 7
20 4 18
27 6 28
29 7 31
29 7 31
26 6 27
30 7 32
31 8 33
31 8 33
32 9 34
35 20 46
47 46 74
57 72 101
60 76 104
58 73 99
60 78 101
57 72 96
59 74 98
62 75 97
58 74 92
55 72 77
57 71 87
56 71 83
62 70 87
59 70 91
67 80 105
63 77 104
67 84 114
70 87 115
68 85 110
58 73 91
48 64 57
44 64 43
45 68 28
42 58 23
47 49 31
43 34 25
31 19 13
36 21 13
30 18 12
30 18 12
34 21 13
32 19 12
29 18 11
34 20 13
32 18 12
32 19 12
31 19 11
29 17 11
31 18 11
31 18 12
31 18 12
49 41 40
104 116 137
145 167 211
149 174 216
169 198 237
170 197 235
178 206 249
174 199 245
175 201 244
171 194 234
177 201 242
177 201 241
180 207 248
180 207 248
179 205 248
183 208 252
184 210 251
179 205 245
182 210 250
183 210 250
183 211 252
183 209 249
181 205 244
183 209 248
183 209 249
184 211 252
185 212 253
180 206 247
180 207 247
177 204 241
179 206 243
177 203 240
184 211 252
184 211 252
179 207 250
184 211 250
185 212 252
186 213 253
184 211 250
178 205 244
181 207 247
182 208 247
119 119 120
135 130 127
134 130 127
133 129 127
132 129 127
131 129 127
131 128 127
130 128 127
129 128 127
129 127 127
128 127 127
128 127 127
127 127 127
127 126 127
127 126 127
126 126 127
126 126 127
125 126 127
125 125 127
124 125 127
124 125 127
124 125 127
123 125 127
123 125 127
123 124 127
123 124 127
122 124 127
122 124 127
122 124 127
121 124 127
121 123 127
121 123 127
121 123 127
120 123 127
120 123 127
120 123 127
120 123 127
120 123 127
119 123 127
119 122 127
119 122 127
119 122 127
119 122 127
118 122 127
118 122 127
118 122 127
118 122 127
118 122 127
118 122 127
118 122 127
118 122 127
117 122 127
117 122 127
117 121 127
117 121 127
117 121 127
117 121 127
117 121 127
117 121 127
117 121 127
117 121 127
117 121 127
117 121 127
117 121 127
117 121 127
117 121 127
117 121 127
117 121 127
117 121 127
117 121 127
117 121 127
117 121 127
117 121 127
117 121 127
117 121 127
117 121 127
117 121 127
117 121 127
117 121 127
117 121 127
117 121 127
117 121 127
117 121 127
117 121 127
117 122 127
118 122 127
118 122 127
118 122 127
118 122 127
118 122 127
118 122 127
118 122 127
118 122 127
119 122 127
119 122 127
119 122 127
119 122 127
119 123 127
119 123 127
120 123 127
120 123 127
120 123 127
120 123 127
121 123 127
121 123 127
121 123 127
121 124 127
122 124 127
122 124 127
122 124 127
123 124 127
123 124 127
123 125 127
123 125 127
124 125 127
124 125 127
125 125 127
125 125 127
125 126 127
126 126 127
126 126 127
127 126 127
127 127 127
128 127 127
128 127 127
129 127 127
129 128 127
130 128 127
131 128 127
131 129 127
132 129 127
133 130 127
134 130 127
126 122 120
41 32 29
41 28 20
30 18 31
23 13 30
25 12 38
21 12 28
17 12 20
17 13 16
13 12 9
21 31 21
40 80 58
60 136 101
75 180 137
74 185 145
70 180 145
68 178 145
64 168 148
47 120 157
36 85 164
26 56 166
15 20 176
10 7 179
6 3 177
7 3 180
7 3 169
6 3 147
7 3 121
7 4 92
7 3 63
7 3 46
7 3 43
8 4 53
7 3 48
26 29 64
39 50 75
48 62 82
53 69 94
59 76 103
58 74 99
47 64 88
39 58 82
26 44 69
29 32 63
45 28 73
58 24 77
61 22 77
62 22 78
63 23 81
65 23 82
64 24 80
67 25 85
65 23 81
61 22 76
65 27 83
65 48 91
63 57 96
62 75 102
60 67 104
71 64 113
68 52 115
65 46 108
68 47 114
74 54 123
84 57 137
100 66 162
103 66 163
89 55 138
93 60 147
88 61 142
73 55 122
61 51 66
50 45 30
63 23 4
59 22 4
56 21 4
61 23 5
59 34 25
60 55 60
64 80 104
62 84 106
59 81 102
63 85 109
59 81 103
61 84 109
63 86 110
63 85 113
57 78 106
39 58 81
22 40 60
11 30 48
9 27 46
6 23 40
7 25 43
6 24 41
8 24 41
15 34 49
13 40 52
16 51 55
16 53 55
17 54 56
15 49 51
16 52 59
18 49 73
18 49 74
18 43 73
19 45 79
16 43 65
15 46 60
16 50 55
24 48 58
36 55 71
54 72 95
60 81 109
61 82 109
64 85 113
53 62 88
42 37 64
32 18 36
32 18 28
35 22 23
33 22 20
33 22 19
35 22 20
33 21 20
29 16 26
25 11 39
22 8 37
20 3 57
19 11 51
22 35 50
33 43 59
29 32 54
30 24 55
26 19 51
30 21 54
23 16 44
28 20 52
28 19 51
28 19 53
26 18 49
25 18 48
27 18 49
34 29 62
46 52 82
59 74 105
68 88 118
70 91 123
72 94 131
76 105 161
72 110 185
70 111 200
72 116 217
71 116 223
78 125 234
79 125 232
84 125 224
89 125 219
80 109 187
69 90 147
56 73 114
38 52 75
34 48 65
33 46 64
34 47 63
33 45 62
33 46 63
33 45 62
31 43 58
28 38 50
25 31 42
16 16 20
9 2 2
9 0 2
16 3 12
23 5 23
26 6 29
24 6 26
26 6 28
23 6 24
29 7 31
26 6 28
30 9 32
31 17 39
43 39 64
48 58 81
56 70 94
58 74 102
54 69 94
60 78 104
60 75 100
60 71 87
68 77 93
61 65 73
53 56 65
56 44 51
56 44 51
54 46 54
52 50 66
57 60 76
63 70 97
73 88 117
99 117 152
84 95 125
83 89 110
72 92 81
77 92 92
71 87 79
65 72 62
42 39 31
36 24 19
30 18 11
30 18 12
31 18 12
28 16 10
35 21 13
28 16 10
31 18 11
29 17 11
32 19 12
31 18 11
27 16 10
30 18 11
30 18 11
29 18 11
38 26 21
88 91 107
134 152 193
145 169 216
171 200 239
171 199 237
169 196 237
170 197 239
178 205 249
181 208 251
179 205 246
171 193 232
184 212 254
179 207 248
179 206 248
184 211 254
178 201 241
181 206 247
180 206 247
176 203 244
180 208 248
183 210 251
183 210 251
179 205 245
185 212 253
181 208 248
180 207 247
184 211 252
178 204 243
182 208 248
180 207 245
178 205 243
182 210 251
183 211 255
184 211 253
182 209 250
179 206 247
182 209 249
183 210 250
179 206 246
181 208 248
175 198 234
106 105 106
135 131 127
134 130 127
133 130 127
132 129 127
132 129 127
131 129 127
131 128 127
130 128 127
129 128 127
129 128 127
129 127 127
128 127 127
128 127 127
127 127 127
127 126 127
126 126 127
126 126 127
126 126 127
125 126 127
125 125 127
125 125 127
124 125 127
124 125 127
124 125 127
123 125 127
123 125 127
123 124 127
123 124 127
122 124 127
122 124 127
122 124 127
122 124 127
121 124 127
121 124 127
121 123 127
121 123 127
121 123 127
120 123 127
120 123 127
120 123 127
120 123 127
120 123 127
120 123 127
119 123 127
119 123 127
119 122 127
119 122 127
119 122 127
119 122 127
119 122 127
119 122 127
118 122 127
118 122 127
118 122 127
118 122 127
118 122 127
118 122 127
118 122 127
118 122 127
118 122 127
118 122 127
118 122 127
118 122 127
118 122 127
118 122 127
118 122 127
118 122 127
118 122 127
118 122 127
118 122 127
118 122 127
118 122 127
118 122 127
118 122 127
118 122 127
118 122 127
118 122 127
118 122 127
118 122 127
118 122 127
118 122 127
118 122 127
118 122 127
119 122 127
119 122 127
119 122 127
119 122 127
119 122 127
119 122 127
119 123 127
119 123 127
119 123 127
120 123 127
120 123 127
120 123 127
120 123 127
120 123 127
121 123 127
121 123 127
121 123 127
121 123 127
121 124 127
122 124 127
122 124 127
122 124 127
122 124 127
123 124 127
123 124 127
123 125 127
123 125 127
124 125 127
124 125 127
124 125 127
125 125 127
125 125 127
125 126 127
126 126 127
126 126 127
127 126 127
127 126 127
127 127 127
128 127 127
128 127 127
129 127 127
129 128 127
130 128 127
130 128 127
131 129 127
132 129 127
132 129 127
133 130 127
134 130 127
129 126 123
34 31 35
38 18 47
34 12 56
34 12 59
32 11 57
29 11 48
30 12 52
21 11 29
17 13 19
30 53 38
57 125 89
78 178 131
78 188 144
75 185 145
73 183 145
69 176 147
43 106 150
27 60 167
14 25 170
7 5 188
6 3 172
7 3 193
7 3 189
6 3 181
7 3 188
7 3 185
7 3 160
7 3 114
6 3 69
7 3 48
6 3 42
7 3 44
9 6 46
23 26 58
39 49 75
53 70 94
58 75 101
54 69 94
58 74 98
53 69 92
46 62 84
47 53 84
39 34 66
50 25 69
53 20 68
54 20 68
55 20 71
60 22 75
60 22 74
61 22 77
63 23 78
59 21 74
64 23 78
67 24 81
64 36 86
61 56 93
57 61 90
61 72 108
64 60 110
64 54 113
61 44 110
59 43 110
63 45 113
70 50 121
70 48 119
69 47 119
72 49 123
69 50 121
68 49 118
66 51 105
54 48 79
53 50 47
53 20 3
54 20 3
54 20 3
55 21 5
56 36 30
57 58 66
57 71 91
59 79 103
54 74 95
59 80 107
62 83 108
61 82 108
62 83 109
62 84 111
58 79 106
55 74 100
42 61 86
32 48 69
21 37 57
18 34 53
14 29 46
15 32 51
25 41 60
25 47 64
25 51 64
18 50 54
15 50 53
16 51 57
17 47 64
19 45 82
20 39 87
22 39 105
22 35 106
23 37 107
23 36 111
20 33 93
20 40 78
30 51 71
43 63 82
57 75 99
62 80 105
63 84 112
58 75 99
50 59 78
37 31 45
31 20 19
33 22 17
33 22 17
32 21 17
31 20 16
33 22 17
29 19 15
32 21 17
29 16 26
25 12 30
24 10 41
24 14 56
34 38 63
38 46 69
37 43 67
32 28 56
24 17 46
20 14 40
23 16 44
27 19 50
25 18 47
24 16 44
25 17 47
25 18 46
27 20 49
31 27 55
49 55 84
62 80 110
67 87 116
71 96 134
75 107 166
75 114 191
74 122 227
72 125 240
69 123 241
68 122 241
69 122 241
72 125 241
75 125 238
82 123 227
77 107 190
58 70 133
40 49 92
36 46 80
32 41 63
34 47 68
31 44 59
34 46 61
32 43 56
32 43 58
31 42 57
32 44 58
25 32 43
18 19 25
14 12 16
8 0 2
12 1 7
19 4 19
23 6 25
24 6 25
25 6 27
24 6 25
26 6 28
26 6 28
25 10 29
35 21 46
41 45 67
46 57 78
49 62 84
52 67 92
57 74 98
58 75 101
72 89 114
75 86 104
67 64 75
65 51 56
54 35 40
48 29 29
50 30 35
47 28 33
43 27 32
49 37 47
67 64 80
88 94 116
115 126 155
101 113 135
98 107 130
100 114 135
99 111 127
83 89 103
68 72 74
48 41 42
36 24 18
33 19 13
33 20 12
28 16 11
31 19 12
28 17 11
30 18 11
29 18 12
31 18 11
31 18 12
33 20 13
33 18 11
33 19 13
26 15 9
31 18 11
34 20 14
76 80 94
121 132 167
150 174 217
163 192 230
160 189 217
170 199 240
173 202 244
168 194 237
173 200 242
179 206 249
173 196 238
175 202 243
177 205 247
178 205 248
181 208 251
182 209 251
181 205 246
178 201 241
179 203 244
179 208 248
180 207 248
178 205 245
176 202 242
176 202 242
176 203 243
176 204 243
183 210 252
181 208 249
183 210 252
176 203 242
180 207 248
180 207 248
181 209 250
182 210 253
185 213 255
180 207 247
180 205 246
176 203 242
182 209 250
181 208 248
167 188 219
81 81 87
135 131 127
134 130 127
134 130 127
133 130 127
132 129 127
132 129 127
131 129 127
131 128 127
130 128 127
130 128 127
129 128 127
129 127 127
128 127 127
128 127 127
128 127 127
127 127 127
127 126 127
127 126 127
126 126 127
126 126 127
126 126 127
125 126 127
125 125 127
125 125 127
124 125 127
124 125 127
124 125 127
124 125 127
123 125 127
123 125 127
123 124 127
123 124 127
122 124 127
122 124 127
122 124 127
122 124 127
122 124 127
122 124 127
121 124 127
121 124 127
121 123 127
121 123 127
121 123 127
120 123 127
120 123 127
120 123 127
120 123 127
120 123 127
120 123 127
120 123 127
120 123 127
120 123 127
120 123 127
119 123 127
119 123 127
119 123 127
119 122 127
119 123 127
119 122 127
119 122 127
119 122 127
119 122 127
119 122 127
119 122 127
119 122 127
119 122 127
119 122 127
119 122 127
119 122 127
119 122 127
119 122 127
119 122 127
119 122 127
119 122 127
119 122 127
119 122 127
119 122 127
119 123 127
119 123 127
119 123 127
119 123 127
120 123 127
120 123 127
120 123 127
120 123 127
120 123 127
120 123 127
120 123 127
120 123 127
120 123 127
121 123 127
121 123 127
121 123 127
121 123 127
121 123 127
121 124 127
121 124 127
122 124 127
122 124 127
122 124 127
122 124 127
122 124 127
123 124 127
123 124 127
123 124 127
123 125 127
124 125 127
124 125 127
124 125 127
124 125 127
125 125 127
125 125 127
125 126 127
126 126 127
126 126 127
126 126 127
127 126 127
127 126 127
127 127 127
128 127 127
128 127 127
129 127 127
129 128 127
129 128 127
130 128 127
130 128 127
131 129 127
132 129 127
132 129 127
133 129 127
134 130 127
134 130 127
118 116 114
44 35 56
36 11 64
35 10 67
36 11 67
35 10 68
38 11 70
36 11 66
32 11 56
26 21 42
40 69 60
72 157 115
79 181 133
76 174 128
76 183 140
73 178 145
60 145 149
33 74 160
15 29 151
5 2 158
6 3 172
6 3 180
6 3 180
6 3 161
6 3 178
6 3 174
6 3 177
6 3 171
6 3 145
6 3 107
6 3 67
6 3 40
6 3 44
9 7 45
28 34 69
44 56 80
56 73 97
60 79 106
58 76 101
59 78 101
56 73 101
52 68 92
46 54 80
51 40 78
61 24 76
52 19 66
53 19 67
58 21 73
56 20 69
56 20 70
59 22 73
54 20 69
65 23 79
59 21 74
58 21 74
59 29 75
58 38 79
63 74 104
67 84 117
62 68 110
67 61 117
65 49 115
67 48 118
64 45 112
63 44 113
64 45 112
66 47 116
66 46 117
67 46 116
66 47 115
62 50 105
53 53 78
55 58 62
48 18 3
51 19 3
49 18 3
51 21 7
51 35 33
56 60 76
61 79 105
63 84 112
59 78 104
60 81 110
64 85 115
64 84 115
63 82 111
72 93 124
66 86 116
59 78 106
55 74 100
44 61 86
38 54 76
31 46 66
28 42 62
32 46 65
34 48 68
35 52 70
33 58 71
24 56 61
15 49 56
19 47 76
20 34 96
25 34 117
25 27 129
27 28 138
26 25 135
26 25 132
26 27 131
23 26 117
25 32 113
30 42 97
43 54 90
55 69 97
58 74 100
54 69 91
49 56 73
45 45 56
34 25 24
29 19 15
31 20 16
30 19 15
30 20 16
30 19 15
32 20 16
26 17 14
30 19 15
29 19 16
26 15 20
23 11 30
29 24 55
38 41 75
45 54 78
54 67 92
37 40 65
30 25 54
23 17 44
22 15 41
22 15 41
23 16 44
22 15 40
21 15 41
23 17 42
28 23 53
37 36 65
56 66 95
65 83 113
70 94 129
76 107 167
78 119 200
78 129 238
73 126 241
70 123 241
67 121 241
67 121 241
68 121 241
68 116 241
70 113 239
72 104 233
60 59 204
51 41 175
42 23 144
40 26 128
38 29 117
36 35 95
33 39 75
27 38 53
26 36 49
24 33 45
24 34 45
27 36 48
27 36 46
21 24 29
17 18 22
14 10 11
14 4 10
18 4 18
21 5 23
19 5 21
23 6 26
23 6 25
23 6 25
30 8 32
30 16 37
40 37 59
39 41 61
48 61 84
52 66 89
60 77 99
62 80 107
63 83 112
63 70 89
68 65 81
65 47 55
55 34 39
49 25 29
49 25 30
48 24 28
46 23 25
45 23 25
41 21 24
47 34 41
59 51 62
92 95 110
114 124 146
110 123 148
107 121 148
88 99 121
66 67 78
40 36 39
38 28 25
29 18 13
30 18 11
32 18 12
31 18 11
31 18 12
34 20 12
29 17 11
33 20 12
32 18 12
30 18 12
30 18 11
29 17 10
29 16 10
27 16 10
31 18 11
24 15 9
49 44 46
106 116 147
122 134 172
164 192 236
165 194 228
166 195 235
173 203 247
174 203 247
170 200 242
175 203 245
170 195 237
178 206 249
175 203 246
179 207 250
179 207 249
178 202 243
182 208 251
180 204 246
179 205 245
180 206 248
174 202 243
179 206 248
171 197 238
176 203 244
179 206 248
180 208 250
179 207 248
184 212 254
182 210 252
180 207 249
182 210 252
177 204 245
175 203 245
180 208 250
177 204 246
176 202 243
181 209 250
179 206 247
178 205 246
182 209 251
156 172 197
59 63 69
129 125 122
135 130 127
134 130 127
133 130 127
133 129 127
132 129 127
132 129 127
131 129 127
131 128 127
130 128 127
130 128 127
130 128 127
129 128 127
129 127 127
128 127 127
128 127 127
128 127 127
127 127 127
127 127 127
127 126 127
126 126 127
126 126 127
126 126 127
126 126 127
125 126 127
125 126 127
125 125 127
125 125 127
124 125 127
124 125 127
124 125 127
124 125 127
124 125 127
123 125 127
123 125 127
123 124 127
123 124 127
123 124 127
122 124 127
122 124 127
122 124 127
122 124 127
122 124 127
122 124 127
122 124 127
121 124 127
121 124 127
121 124 127
121 123 127
121 123 127
121 123 127
121 123 127
121 123 127
121 123 127
121 123 127
121 123 127
120 123 127
120 123 127
120 123 127
120 123 127
120 123 127
120 123 127
120 123 127
120 123 127
120 123 127
120 123 127
120 123 127
120 123 127
120 123 127
120 123 127
120 123 127
120 123 127
120 123 127
120 123 127
120 123 127
120 123 127
120 123 127
120 123 127
120 123 127
121 123 127
121 123 127
121 123 127
121 123 127
121 123 127
121 123 127
121 123 127
121 124 127
121 124 127
121 124 127
121 124 127
122 124 127
122 124 127
122 124 127
122 124 127
122 124 127
122 124 127
122 124 127
123 124 127
123 124 127
123 125 127
123 125 127
123 125 127
124 125 127
124 125 127
124 125 127
124 125 127
125 125 127
125 125 127
125 125 127
125 126 127
126 126 127
126 126 127
126 126 127
126 126 127
127 126 127
127 127 127
127 127 127
128 127 127
128 127 127
128 127 127
129 127 127
129 128 127
130 128 127
130 128 127
131 128 127
131 129 127
132 129 127
132 129 127
133 129 127
133 130 127
134 130 127
135 130 127
115 111 110
35 31 52
33 10 63
34 10 63
34 10 64
36 10 66
33 9 61
38 11 70
37 14 70
31 30 64
35 70 71
54 132 103
66 161 119
62 159 122
69 168 126
64 147 122
44 98 136
19 36 149
6 4 147
6 3 162
5 2 149
6 3 159
6 3 166
6 3 166
5 3 164
6 2 159
6 3 172
6 3 169
5 2 151
6 3 113
6 3 82
6 3 39
6 4 37
23 27 62
40 51 81
44 59 87
60 79 105
59 79 105
59 79 102
61 81 109
55 74 98
56 74 100
53 57 87
52 39 76
50 20 64
51 19 63
51 18 64
57 21 72
48 17 65
54 20 69
51 18 65
55 21 70
63 30 81
60 29 78
65 47 91
62 42 87
69 61 97
67 77 110
66 83 113
65 75 113
66 62 118
65 55 110
64 47 113
61 41 106
62 41 108
62 40 104
63 43 108
64 44 112
65 45 114
61 50 106
63 59 104
55 59 82
54 63 74
44 17 3
44 16 3
44 18 5
46 31 27
55 48 55
57 64 81
60 79 107
61 79 108
62 80 109
63 83 113
76 95 131
80 100 143
86 108 155
78 98 140
73 91 131
76 95 136
67 85 119
52 68 93
49 65 89
45 61 84
38 53 73
38 52 73
44 59 81
54 73 97
38 58 74
21 48 56
19 42 69
21 37 99
26 28 125
26 26 131
25 24 130
28 26 140
27 25 137
27 26 138
24 22 123
25 24 125
25 25 123
29 31 116
38 42 113
50 61 102
61 75 101
59 70 94
48 52 66
34 26 26
28 18 14
27 18 15
28 18 14
28 18 15
25 16 14
30 19 15
26 17 14
27 18 14
27 18 14
26 17 14
28 17 16
24 14 22
29 23 48
42 47 76
63 79 107
61 74 104
50 60 88
37 37 66
25 22 46
20 17 38
24 17 45
20 14 38
19 13 36
18 13 34
27 27 49
31 33 58
49 57 85
63 78 108
69 88 121
68 90 131
77 108 170
82 129 229
79 130 241
74 127 241
71 125 241
71 124 241
70 123 241
70 116 241
66 98 237
62 65 234
61 49 231
57 22 231
52 10 212
50 9 205
47 9 186
43 12 161
40 16 145
33 19 110
30 32 76
25 32 45
26 35 49
31 40 52
35 47 56
50 68 72
58 77 77
51 66 62
52 65 62
38 40 42
38 36 43
26 13 28
19 6 21
22 5 24
21 5 23
21 7 24
24 13 31
41 39 63
45 50 72
54 68 94
57 72 95
55 70 94
63 80 107
58 74 100
61 74 98
62 62 80
57 44 54
60 34 40
54 29 33
47 24 27
47 24 27
40 20 23
44 23 25
42 21 24
31 15 17
30 16 18
41 27 31
87 86 100
107 115 136
109 124 149
104 118 144
88 98 120
65 66 77
33 23 20
25 14 9
21 10 5
22 12 7
29 16 10
29 17 11
25 14 9
26 15 10
29 17 11
32 19 12
29 17 11
32 18 11
29 17 10
36 21 13
30 17 11
26 15 9
28 16 10
28 16 10
36 28 27
101 114 139
131 149 187
157 186 229
157 185 218
168 198 238
165 193 236
169 199 240
175 206 249
176 206 249
169 198 238
173 201 243
181 210 254
180 208 252
174 202 244
172 195 236
180 208 250
179 202 243
177 204 245
181 211 253
181 210 251
181 210 253
175 202 244
179 207 250
182 210 253
179 209 250
179 208 249
177 206 248
178 205 247
178 207 249
177 205 247
177 205 247
180 208 250
180 208 249
175 203 243
180 208 250
178 206 248
180 208 250
174 202 242
179 207 248
154 170 197
42 48 48
107 107 106
135 131 127
134 130 127
134 130 127
133 130 127
133 129 127
132 129 127
132 129 127
131 129 127
131 129 127
131 128 127
130 128 127
130 128 127
130 128 127
129 128 127
129 128 127
129 127 127
128 127 127
128 127 127
128 127 127
127 127 127
127 127 127
127 126 127
127 126 127
126 126 127
126 126 127
126 126 127
126 126 127
125 126 127
125 126 127
125 126 127
125 125 127
125 125 127
124 125 127
124 125 127
124 125 127
124 125 127
124 125 127
124 125 127
123 125 127
123 125 127
123 125 127
123 124 127
123 124 127
123 124 127
123 124 127
122 124 127
122 124 127
122 124 127
122 124 127
122 124 127
122 124 127
122 124 127
122 124 127
122 124 127
122 124 127
122 124 127
122 124 127
122 124 127
122 124 127
121 124 127
121 124 127
121 124 127
121 124 127
121 124 127
121 124 127
121 124 127
121 124 127
121 124 127
121 124 127
121 124 127
121 124 127
121 124 127
121 124 127
121 124 127
122 124 127
121 124 127
122 124 127
122 124 127
122 124 127
122 124 127
122 124 127
122 124 127
122 124 127
122 124 127
122 124 127
122 124 127
122 124 127
122 124 127
123 124 127
123 124 127
123 124 127
123 124 127
123 124 127
123 125 127
123 125 127
124 125 127
124 125 127
124 125 127
124 125 127
124 125 127
124 125 127
125 125 127
125 125 127
125 126 127
125 126 127
126 126 127
126 126 127
126 126 127
126 126 127
127 126 127
127 126 127
127 126 127
127 127 127
128 127 127
128 127 127
128 127 127
128 127 127
129 127 127
129 128 127
130 128 127
130 128 127
130 128 127
131 128 127
131 129 127
132 129 127
132 129 127
133 129 127
133 130 127
134 130 127
134 130 127
135 131 127
96 96 95
47 43 62
31 9 58
32 9 61
33 9 62
31 9 58
32 12 63
31 16 63
30 31 73
26 41 72
24 68 75
37 112 95
26 99 88
37 117 98
33 101 85
41 106 113
24 53 112
11 18 134
5 2 137
5 2 148
5 2 157
5 2 146
6 3 163
5 2 155
5 2 139
6 3 163
6 3 165
5 2 156
5 2 156
5 2 138
5 2 72
7 5 41
19 21 52
38 48 79
53 67 97
62 80 109
65 84 111
62 82 110
62 82 111
58 76 101
63 82 109
60 77 106
54 57 90
54 37 76
49 20 62
47 17 59
50 18 64
47 17 60
50 18 65
47 20 61
57 33 77
59 43 84
69 65 104
71 68 109
77 77 120
75 79 118
66 73 108
75 94 127
69 88 116
73 93 124
63 74 107
66 62 113
64 58 112
60 45 100
54 36 93
57 36 95
60 44 102
59 42 98
62 52 104
61 59 104
60 65 98
60 72 96
60 75 94
42 15 2
40 15 3
41 20 12
48 39 42
53 54 67
62 77 105
67 88 119
67 87 116
67 85 118
80 99 140
90 111 163
90 112 168
92 116 177
92 116 176
92 116 176
90 112 168
80 97 144
74 91 132
67 85 118
47 62 86
48 63 86
56 73 98
50 65 89
54 71 97
53 74 98
41 63 84
28 43 91
24 28 116
26 24 128
26 25 133
25 24 129
25 24 130
25 23 126
25 23 125
23 21 112
25 23 125
22 20 113
24 24 114
30 33 104
45 54 102
60 74 104
55 67 88
36 34 40
31 22 21
26 17 14
27 18 14
26 17 14
25 16 14
29 19 14
29 18 15
29 18 15
26 17 14
29 18 14
27 17 14
23 15 14
25 17 19
30 31 63
41 49 99
57 78 130
57 77 119
53 69 110
45 55 86
32 36 61
29 29 51
24 23 43
22 20 41
20 17 37
29 29 52
36 40 63
44 49 76
54 67 96
62 77 106
66 83 117
70 94 142
72 108 183
83 130 230
81 132 240
79 131 241
78 129 241
76 128 241
73 120 238
67 87 238
61 58 231
57 22 236
52 6 225
51 3 225
48 3 218
46 3 202
50 3 207
46 3 190
46 4 190
42 12 154
36 12 131
30 27 79
33 44 54
61 81 83
71 97 95
97 135 127
104 146 138
109 154 143
104 144 132
90 118 109
71 88 85
64 73 75
33 28 36
23 11 26
26 17 34
30 23 42
41 37 60
52 59 87
57 71 98
63 81 109
64 81 109
62 79 105
63 82 106
63 81 109
65 75 99
57 52 65
56 36 43
48 25 29
51 27 30
51 27 30
44 22 25
49 25 28
42 21 24
35 18 20
38 18 20
33 15 17
34 19 21
58 52 59
102 109 127
113 125 149
108 121 145
87 95 113
60 56 61
37 29 28
21 10 5
20 9 5
21 10 6
22 12 7
30 17 11
27 16 11
31 18 11
25 15 9
25 15 10
29 17 10
27 16 10
27 16 10
26 15 10
29 17 10
27 15 10
30 17 11
31 18 12
29 19 14
69 70 83
126 141 177
144 166 208
164 193 237
155 183 221
165 194 238
170 200 244
174 207 249
166 203 239
163 195 232
178 207 252
177 207 252
175 204 248
177 205 248
178 206 249
178 203 246
178 206 249
174 207 242
175 208 245
177 207 247
178 209 249
178 206 249
179 209 251
178 208 249
175 205 245
174 204 243
173 204 242
179 207 250
182 211 254
177 204 247
178 207 249
182 211 254
178 206 248
178 206 248
176 204 245
182 210 253
178 207 249
178 207 249
180 208 250
130 140 160
42 36 41
70 76 76
135 131 127
135 131 127
134 130 127
134 130 127
133 130 127
133 130 127
133 129 127
132 129 127
132 129 127
131 129 127
131 129 127
131 128 127
130 128 127
130 128 127
130 128 127
129 128 127
129 128 127
129 128 127
129 127 127
128 127 127
128 127 127
128 127 127
128 127 127
127 127 127
127 127 127
127 126 127
127 126 127
126 126 127
126 126 127
126 126 127
126 126 127
126 126 127
126 126 127
125 126 127
125 126 127
125 126 127
125 125 127
125 125 127
125 125 127
124 125 127
124 125 127
124 125 127
124 125 127
124 125 127
124 125 127
124 125 127
124 125 127
123 125 127
123 125 127
123 125 127
123 125 127
123 125 127
123 125 127
123 124 127
123 124 127
123 124 127
123 124 127
123 124 127
123 124 127
123 124 127
123 124 127
123 124 127
123 124 127
123 124 127
123 124 127
123 124 127
123 124 127
123 124 127
123 124 127
123 124 127
123 124 127
123 124 127
123 124 127
123 124 127
123 124 127
123 124 127
123 124 127
123 124 127
123 124 127
123 124 127
123 125 127
123 124 127
123 125 127
123 125 127
123 125 127
123 125 127
124 125 127
124 125 127
124 125 127
124 125 127
124 125 127
124 125 127
124 125 127
124 125 127
125 125 127
125 125 127
125 125 127
125 125 127
125 126 127
125 126 127
126 126 127
126 126 127
126 126 127
126 126 127
126 126 127
126 126 127
127 126 127
127 126 127
127 127 127
127 127 127
128 127 127
128 127 127
128 127 127
128 127 127
129 127 127
129 128 127
129 128 127
130 128 127
130 128 127
130 128 127
131 128 127
131 129 127
131 129 127
132 129 127
132 129 127
133 129 127
133 130 127
134 130 127
134 130 127
135 130 127
135 131 127
86 88 90
53 49 68
32 9 59
30 9 60
30 9 58
30 12 57
25 30 64
20 41 65
17 59 72
15 71 78
13 75 78
13 79 77
15 86 83
14 85 82
14 84 80
14 64 81
11 43 100
7 26 108
4 2 130
4 2 129
4 2 129
5 2 138
5 2 156
5 2 146
5 2 140
5 2 143
6 2 158
5 2 145
5 2 141
6 4 136
17 18 100
20 23 65
32 39 67
47 59 89
64 83 113
65 84 112
70 91 121
72 93 124
70 92 123
74 95 126
74 96 126
69 88 118
61 69 101
52 41 77
45 21 60
44 17 56
45 16 55
43 16 55
47 18 59
53 35 74
63 60 96
74 83 120
74 89 124
78 98 135
77 97 134
74 94 129
75 96 130
78 100 136
78 99 132
77 98 131
72 89 123
67 75 114
64 67 110
61 56 102
63 56 104
61 54 101
59 49 99
58 58 101
62 65 103
64 69 110
67 79 114
63 76 99
62 79 102
39 21 15
38 22 17
47 38 41
59 62 77
64 76 100
66 85 115
66 84 114
73 92 126
83 101 144
93 113 167
99 122 185
92 117 182
93 120 191
92 120 191
94 121 191
96 122 190
99 123 187
92 112 168
81 98 143
65 82 117
60 77 104
64 82 110
59 78 106
63 83 113
58 77 107
44 56 105
31 38 111
25 24 125
24 23 123
25 23 126
24 23 123
24 22 119
23 21 114
24 23 121
22 20 109
31 44 116
33 48 117
39 61 128
44 74 127
51 76 121
64 93 121
62 80 100
41 44 54
27 18 16
25 16 13
28 18 14
26 17 14
25 16 14
24 15 13
25 16 13
24 15 12
25 16 13
24 16 14
24 16 15
21 18 35
17 22 68
15 31 112
20 42 140
24 46 143
29 53 141
30 52 141
41 59 120
42 55 98
35 41 66
31 34 54
30 33 52
34 38 59
31 33 53
42 51 74
48 59 83
61 77 107
59 73 101
54 68 96
54 70 110
63 93 158
69 108 189
84 131 232
82 128 229
81 130 233
79 128 237
72 99 225
65 63 230
51 17 213
50 3 212
49 3 207
51 3 225
45 3 203
47 3 199
47 3 200
46 3 192
47 3 188
44 3 181
35 9 132
44 43 93
71 89 101
107 146 140
119 166 154
125 179 167
124 180 170
122 180 172
120 176 167
121 172 159
108 147 134
79 100 93
66 79 75
45 50 53
28 26 42
36 37 55
45 50 72
55 68 93
59 74 102
66 83 112
64 81 110
64 81 110
64 80 109
66 84 114
59 61 80
55 45 57
50 26 30
47 24 28
44 22 26
46 24 27
35 18 20
33 16 18
38 18 21
36 18 19
31 15 16
31 14 16
35 21 22
62 57 64
101 104 122
121 128 146
118 127 146
95 101 116
77 74 81
37 29 28
24 16 14
17 8 4
17 8 4
16 8 4
21 12 7
26 16 11
28 16 10
26 16 10
27 16 10
30 18 11
29 17 11
28 16 10
26 15 9
23 13 9
23 13 8
27 16 10
22 13 9
28 17 11
55 53 61
112 127 158
150 177 221
151 179 222
154 182 223
168 198 243
162 193 235
173 205 249
165 201 238
168 202 241
170 199 243
173 202 247
174 204 248
178 208 253
176 205 249
174 200 243
173 201 241
177 210 249
176 208 248
178 210 251
173 205 243
176 205 248
176 206 248
173 204 243
177 207 249
179 209 251
173 203 244
173 203 244
181 210 253
176 205 248
175 204 247
175 204 247
178 207 250
179 208 250
176 205 248
179 207 250
178 206 249
178 206 248
180 209 253
109 115 128
34 24 37
32 44 46
102 102 105
135 131 127
135 131 127
134 130 127
134 130 127
134 130 127
133 130 127
133 130 127
133 129 127
132 129 127
132 129 127
131 129 127
131 129 127
131 129 127
131 128 127
130 128 127
130 128 127
130 128 127
130 128 127
129 128 127
129 128 127
129 127 127
129 127 127
128 127 127
128 127 127
128 127 127
128 127 127
128 127 127
127 127 127
127 127 127
127 126 127
127 126 127
127 126 127
126 126 127
126 126 127
126 126 127
126 126 127
126 126 127
126 126 127
126 126 127
125 126 127
125 126 127
125 126 127
125 126 127
125 125 127
125 125 127
125 125 127
125 125 127
125 125 127
124 125 127
124 125 127
124 125 127
124 125 127
124 125 127
124 125 127
124 125 127
124 125 127
124 125 127
124 125 127
124 125 127
124 125 127
124 125 127
124 125 127
124 125 127
124 125 127
124 125 127
124 125 127
124 125 127
124 125 127
124 125 127
124 125 127
124 125 127
124 125 127
124 125 127
124 125 127
124 125 127
124 125 127
124 125 127
124 125 127
124 125 127
124 125 127
124 125 127
124 125 127
124 125 127
124 125 127
125 125 127
125 125 127
125 125 127
125 125 127
125 125 127
125 126 127
125 126 127
125 126 127
126 126 127
126 126 127
126 126 127
126 126 127
126 126 127
126 126 127
126 126 127
127 126 127
127 126 127
127 126 127
127 127 127
127 127 127
127 127 127
128 127 127
128 127 127
128 127 127
128 127 127
129 127 127
129 127 127
129 128 127
129 128 127
130 128 127
130 128 127
130 128 127
130 128 127
131 128 127
131 129 127
131 129 127
132 129 127
132 129 127
132 129 127
133 129 127
133 130 127
134 130 127
134 130 127
135 130 127
135 131 127
124 121 119
55 54 56
58 54 70
31 9 58
28 8 54
30 11 58
25 23 59
18 45 63
13 64 69
11 73 72
11 81 79
10 75 73
11 77 76
11 78 77
10 74 74
11 80 79
11 77 76
10 64 88
8 42 109
5 14 117
4 3 125
4 2 122
4 2 125
4 2 120
5 2 136
5 2 141
5 2 137
5 2 147
5 2 147
5 2 140
8 6 139
24 29 95
27 33 75
51 65 93
55 72 98
70 90 121
77 98 131
77 98 132
76 98 131
81 104 137
80 102 136
78 100 133
82 105 139
76 90 124
58 61 92
47 30 64
39 14 49
41 15 51
42 17 54
52 42 78
66 67 104
74 91 125
77 98 131
75 96 130
73 96 129
73 95 128
76 99 133
74 96 134
75 98 131
76 98 134
81 104 139
79 99 133
72 85 121
65 76 112
58 63 99
61 63 100
58 59 99
56 57 95
64 70 110
64 72 110
63 79 107
62 80 110
65 82 113
63 79 107
41 37 43
40 35 41
52 57 73
58 69 91
64 78 104
63 78 105
68 86 117
89 106 149
100 119 174
103 126 191
97 123 191
95 122 191
93 120 191
92 120 191
92 120 191
94 121 191
98 123 191
102 125 190
95 113 171
82 99 143
71 86 121
66 86 117
69 90 122
66 84 113
58 76 112
45 57 112
33 35 121
22 21 112
23 22 117
23 21 113
23 21 116
23 21 114
22 22 111
34 45 127
50 91 127
54 104 134
61 123 147
67 141 143
68 139 151
73 148 150
77 147 145
73 128 125
48 69 68
29 26 22
24 17 13
24 15 12
23 15 12
23 14 12
24 16 13
21 14 12
26 16 13
21 13 11
20 16 25
13 20 75
10 21 94
3 27 153
4 28 146
5 32 164
1 29 168
2 29 161
10 36 157
11 36 149
21 41 125
27 41 95
37 47 74
45 54 78
45 56 78
41 50 71
54 67 91
58 73 100
54 68 94
58 74 101
54 68 95
44 59 92
41 60 101
52 81 150
62 97 183
66 104 183
64 104 192
62 97 194
59 60 206
58 31 216
44 4 188
48 3 205
47 3 204
48 3 202
48 3 209
47 3 196
46 3 188
44 3 182
41 4 184
37 3 160
45 15 154
68 62 149
110 143 143
130 179 165
127 183 172
123 180 172
120 179 172
119 178 172
119 178 172
119 174 166
105 143 131
97 124 108
68 79 71
47 53 55
42 48 60
41 50 68
48 59 80
56 68 93
57 71 97
58 74 102
59 75 104
65 82 109
63 80 109
68 85 114
56 55 74
50 33 41
41 21 25
44 23 28
42 22 25
39 20 23
41 21 23
36 18 21
31 15 17
35 17 19
33 16 18
32 15 16
32 18 19
49 40 48
86 85 98
104 109 130
103 108 125
106 110 123
82 81 90
56 52 54
24 18 17
19 11 7
17 8 5
14 8 5
19 14 13
25 19 18
23 15 13
25 15 10
29 17 11
24 14 9
26 15 9
27 16 10
22 12 8
26 14 9
29 15 10
29 14 9
28 14 9
28 14 9
40 34 37
84 89 110
140 166 207
152 182 225
161 192 236
170 202 249
165 196 242
163 198 238
170 205 247
169 205 245
172 204 247
175 206 252
173 204 248
170 200 244
175 205 250
174 204 248
171 202 243
179 210 254
173 206 244
178 210 252
175 206 249
174 206 246
170 202 241
176 207 249
171 202 242
166 199 235
176 206 249
175 206 247
170 200 241
179 208 252
170 199 241
178 207 251
175 204 248
174 203 246
176 205 248
173 201 244
179 207 250
181 210 254
176 204 248
106 113 128
27 23 40
24 19 18
45 55 70
82 87 89
135 131 127
135 131 127
135 130 127
134 130 127
134 130 127
134 130 127
133 130 127
133 130 127
133 129 127
132 129 127
132 129 127
132 129 127
132 129 127
131 129 127
131 129 127
131 128 127
131 128 127
130 128 127
130 128 127
130 128 127
130 128 127
129 128 127
129 128 127
129 128 127
129 127 127
129 127 127
128 127 127
128 127 127
128 127 127
128 127 127
128 127 127
128 127 127
127 127 127
127 127 127
127 127 127
127 127 127
127 126 127
127 126 127
127 126 127
127 126 127
126 126 127
126 126 127
126 126 127
126 126 127
126 126 127
126 126 127
126 126 127
126 126 127
126 126 127
126 126 127
125 126 127
125 126 127
125 126 127
125 126 127
125 126 127
125 126 127
125 126 127
125 126 127
125 126 127
125 126 127
125 126 127
125 126 127
125 126 127
125 125 127
125 125 127
125 125 127
125 125 127
125 125 127
125 126 127
125 126 127
125 126 127
125 126 127
125 126 127
125 126 127
125 126 127
125 126 127
125 126 127
125 126 127
125 126 127
126 126 127
126 126 127
126 126 127
126 126 127
126 126 127
126 126 127
126 126 127
126 126 127
126 126 127
126 126 127
126 126 127
126 126 127
127 126 127
127 126 127
127 126 127
127 127 127
127 127 127
127 127 127
127 127 127
128 127 127
128 127 127
128 127 127
128 127 127
128 127 127
129 127 127
129 127 127
129 127 127
129 128 127
129 128 127
130 128 127
130 128 127
130 128 127
130 128 127
131 128 127
131 128 127
131 129 127
131 129 127
132 129 127
132 129 127
132 129 127
132 129 127
133 129 127
133 130 127
133 130 127
134 130 127
134 130 127
135 130 127
135 131 127
134 129 126
69 72 76
46 41 45
42 49 64
28 9 51
28 8 52
24 19 54
19 39 63
12 68 71
10 74 72
10 76 74
9 67 66
10 74 73
11 78 75
11 79 77
10 73 70
10 76 75
11 77 75
11 76 77
9 65 80
7 36 98
5 10 107
3 1 106
3 1 107
4 2 125
5 2 134
5 2 140
4 2 131
5 2 140
4 2 120
5 3 138
10 9 120
25 30 91
44 56 91
54 68 95
66 84 114
72 91 125
77 100 132
79 102 136
78 100 133
78 101 136
71 90 121
72 94 126
74 96 128
77 98 130
68 74 108
56 46 81
46 28 62
38 15 48
50 33 70
67 65 100
71 84 119
79 101 135
71 92 124
73 95 128
71 92 124
70 93 126
74 98 133
73 95 130
74 97 131
74 96 130
82 104 137
82 101 134
71 86 121
67 79 113
66 80 113
60 70 100
58 65 99
64 76 109
64 75 109
66 78 113
66 77 112
67 79 112
66 81 114
69 85 119
39 41 51
51 58 74
58 68 89
56 70 93
58 71 93
59 73 97
73 89 121
95 114 161
105 125 184
103 126 191
101 125 191
97 123 191
96 122 191
95 122 191
97 123 191
98 123 191
98 121 186
99 121 182
100 117 173
91 107 157
77 93 137
66 84 119
70 91 123
66 85 113
57 73 115
43 51 111
27 29 114
22 20 111
21 19 107
24 22 118
21 19 106
22 22 111
39 59 119
59 110 141
76 163 152
78 173 155
80 182 164
78 183 164
79 184 164
80 182 162
82 180 160
82 175 153
66 126 109
49 83 68
26 31 25
21 13 11
21 13 11
20 13 11
19 12 10
23 14 12
19 12 11
23 17 24
15 20 68
8 25 118
3 25 140
0 27 158
0 26 154
0 26 158
0 26 156
0 27 159
0 25 147
0 25 151
2 23 129
17 36 123
26 41 95
54 69 97
51 64 89
61 77 105
56 72 99
56 71 98
61 77 105
59 75 103
57 74 104
38 51 77
30 45 81
27 43 90
39 62 122
46 73 134
41 69 142
43 65 145
47 26 186
46 7 193
44 3 192
46 3 195
44 3 185
46 3 194
40 2 170
36 4 170
36 4 165
23 9 163
27 8 164
26 10 155
27 20 139
52 56 141
105 144 154
131 183 171
128 184 172
125 182 172
123 180 172
121 180 172
123 181 172
121 175 164
104 144 132
86 108 95
71 76 61
62 65 63
62 68 78
54 58 79
53 59 83
55 65 89
62 76 104
63 79 107
64 80 108
63 81 109
63 79 107
66 80 107
53 53 69
49 37 48
43 22 26
42 22 26
40 21 25
39 20 24
37 19 21
34 17 19
32 16 18
33 16 17
29 14 16
26 13 14
26 14 15
42 34 45
58 56 76
72 73 88
89 93 102
86 90 99
66 64 69
51 49 53
33 29 31
16 11 10
9 4 3
13 8 7
14 13 14
29 29 29
39 40 47
36 33 37
24 17 16
30 20 15
22 13 9
26 14 9
29 12 9
32 11 8
34 12 9
33 9 8
34 10 9
31 10 8
36 20 21
68 66 82
121 142 179
145 174 219
155 184 230
161 193 239
167 198 245
167 200 245
169 205 247
169 202 246
170 203 246
169 200 244
171 201 247
173 203 249
167 196 240
173 203 248
171 200 244
175 206 250
178 209 254
178 210 254
172 205 244
177 208 251
171 202 244
171 202 243
170 202 242
180 210 255
168 200 240
168 200 239
173 203 245
181 211 255
178 207 252
174 203 247
179 208 253
176 206 250
179 208 253
177 206 251
172 199 244
174 201 246
174 202 247
99 103 114
28 20 39
32 21 25
40 48 54
51 60 60
74 77 74
131 127 124
135 131 127
135 131 127
135 130 127
134 130 127
134 130 127
134 130 127
133 130 127
133 130 127
133 130 127
133 129 127
132 129 127
132 129 127
132 129 127
132 129 127
131 129 127
131 129 127
131 129 127
131 128 127
131 128 127
130 128 127
130 128 127
130 128 127
130 128 127
130 128 127
130 128 127
129 128 127
129 128 127
129 128 127
129 127 127
129 127 127
129 127 127
128 127 127
128 127 127
128 127 127
128 127 127
128 127 127
128 127 127
128 127 127
128 127 127
127 127 127
127 127 127
127 127 127
127 127 127
127 127 127
127 127 127
127 126 127
127 126 127
127 126 127
127 126 127
127 126 127
127 126 127
126 126 127
126 126 127
126 126 127
126 126 127
126 126 127
126 126 127
126 126 127
126 126 127
126 126 127
126 126 127
126 126 127
126 126 127
126 126 127
126 126 127
126 126 127
126 126 127
126 126 127
126 126 127
126 126 127
126 126 127
126 126 127
126 126 127
126 126 127
127 126 127
127 126 127
127 126 127
127 126 127
127 126 127
127 126 127
127 126 127
127 126 127
127 126 127
127 127 127
127 127 127
127 127 127
127 127 127
128 127 127
128 127 127
128 127 127
128 127 127
128 127 127
128 127 127
128 127 127
128 127 127
129 127 127
129 127 127
129 127 127
129 128 127
129 128 127
129 128 127
129 128 127
130 128 127
130 128 127
130 128 127
130 128 127
130 128 127
131 128 127
131 129 127
131 129 127
131 129 127
132 129 127
132 129 127
132 129 127
132 129 127
133 129 127
133 130 127
133 130 127
133 130 127
134 130 127
134 130 127
134 130 127
135 131 127
135 131 127
131 127 124
91 92 94
52 51 66
49 41 56
38 46 55
24 9 43
23 7 46
21 29 55
16 48 61
9 63 63
10 72 69
10 73 71
10 71 69
10 75 73
10 70 68
10 71 69
9 69 68
10 73 71
10 71 69
10 70 68
9 68 66
7 44 81
4 14 94
3 2 101
4 2 124
4 1 110
4 2 121
4 2 114
4 2 124
4 2 119
4 2 126
10 9 115
23 27 115
47 57 114
57 73 102
62 79 111
73 93 126
78 98 130
75 97 130
79 102 138
77 100 136
75 97 130
76 97 130
74 96 131
73 95 130
71 92 122
75 94 126
66 71 102
51 48 77
39 24 54
51 46 78
73 85 121
80 100 133
72 94 125
73 94 127
76 98 133
68 90 122
73 95 128
72 93 127
74 96 129
74 97 131
75 99 133
78 100 134
89 111 148
79 98 130
76 93 128
68 81 117
67 82 115
66 81 114
68 83 115
65 80 112
66 78 112
66 79 112
67 83 116
69 84 117
69 86 117
48 55 72
49 60 79
60 74 96
57 71 94
62 79 105
61 75 99
71 85 118
93 109 154
106 124 178
106 127 189
105 127 191
102 125 191
101 125 191
103 126 191
100 124 189
99 121 185
98 120 179
96 113 166
102 118 172
89 101 146
76 88 131
63 77 113
61 80 108
63 83 111
55 73 103
39 47 104
24 24 104
17 16 90
18 17 93
17 16 88
20 19 97
32 49 108
60 115 134
84 180 158
84 186 161
80 185 164
77 182 164
75 180 164
75 180 164
76 181 164
79 184 164
82 186 163
81 176 150
78 159 131
42 71 58
26 28 23
18 12 10
19 12 10
19 13 10
19 12 9
17 12 15
14 18 59
8 23 101
1 26 143
0 26 151
0 27 156
0 24 147
0 26 156
0 25 151
0 25 146
0 25 151
0 24 147
0 23 137
7 28 132
19 38 120
39 56 110
61 78 107
66 84 116
67 87 118
64 83 113
62 79 110
62 80 110
66 85 117
52 70 103
34 50 83
27 46 94
30 52 104
32 56 108
30 51 104
35 43 128
39 19 159
39 3 178
41 2 178
41 3 180
41 2 176
38 3 174
34 5 165
22 9 157
9 12 143
8 12 139
3 14 137
5 13 130
8 21 130
25 40 132
61 90 147
90 131 155
121 170 164
131 185 172
130 185 172
130 185 172
130 185 171
131 183 167
116 154 140
75 75 70
62 45 44
66 41 52
63 33 53
60 31 59
58 34 63
64 41 72
58 52 77
60 74 102
68 88 118
63 81 109
64 82 110
63 81 110
56 60 79
43 30 37
43 23 26
37 19 23
38 19 22
36 18 21
40 20 23
36 18 20
26 13 14
31 15 17
24 11 13
25 12 14
20 10 10
25 19 28
49 47 62
56 58 66
52 53 64
55 58 67
53 54 61
47 46 53
22 21 23
14 11 11
9 7 6
16 12 12
16 16 18
40 49 59
39 47 57
36 37 50
37 36 50
38 32 39
30 19 16
30 11 9
29 8 7
35 8 8
33 7 7
34 7 8
32 7 7
33 7 8
34 10 11
59 44 54
94 100 126
142 169 213
154 185 232
165 197 245
162 192 239
168 200 248
169 203 248
166 200 242
172 206 251
174 207 253
171 202 249
174 205 252
172 202 248
171 202 248
172 202 248
173 203 248
169 202 242
175 206 251
173 206 248
168 199 241
178 208 254
176 207 251
174 205 248
171 202 244
165 198 236
171 202 245
175 206 250
177 207 252
173 202 246
175 205 249
175 205 250
178 208 253
178 208 253
169 196 241
169 196 242
171 198 244
177 206 252
93 100 111
29 23 48
31 29 47
27 38 30
25 39 26
11 20 29
57 55 51
86 89 87
128 124 122
135 131 127
135 131 127
135 130 127
134 130 127
134 130 127
134 130 127
134 130 127
133 130 127
133 130 127
133 130 127
133 130 127
133 129 127
132 129 127
132 129 127
132 129 127
132 129 127
132 129 127
131 129 127
131 129 127
131 129 127
131 129 127
131 128 127
131 128 127
130 128 127
130 128 127
130 128 127
130 128 127
130 128 127
130 128 127
130 128 127
129 128 127
129 128 127
129 128 127
129 128 127
129 128 127
129 127 127
129 127 127
129 127 127
129 127 127
128 127 127
128 127 127
128 127 127
128 127 127
128 127 127
128 127 127
128 127 127
128 127 127
128 127 127
128 127 127
128 127 127
128 127 127
128 127 127
128 127 127
128 127 127
128 127 127
128 127 127
128 127 127
128 127 127
128 127 127
128 127 127
128 127 127
127 127 127
128 127 127
128 127 127
128 127 127
128 127 127
128 127 127
128 127 127
128 127 127
128 127 127
128 127 127
128 127 127
128 127 127
128 127 127
128 127 127
128 127 127
128 127 127
128 127 127
128 127 127
128 127 127
128 127 127
128 127 127
128 127 127
128 127 127
129 127 127
129 127 127
129 127 127
129 128 127
129 127 127
129 128 127
129 128 127
129 128 127
129 128 127
130 128 127
130 128 127
130 128 127
130 128 127
130 128 127
130 128 127
130 128 127
131 128 127
131 129 127
131 129 127
131 129 127
131 129 127
132 129 127
132 129 127
132 129 127
132 129 127
132 129 127
133 129 127
133 130 127
133 130 127
133 130 127
134 130 127
134 130 127
134 130 127
134 130 127
135 131 127
135 131 127
135 131 127
122 119 117
74 76 80
49 56 63
53 49 54
39 40 49
30 39 48
27 15 48
20 15 45
15 38 54
9 58 60
9 66 62
9 65 63
9 66 64
9 67 66
9 66 64
9 63 60
10 69 68
9 69 67
10 71 69
10 72 70
10 69 66
10 70 68
9 59 75
6 33 85
3 4 97
3 1 85
3 1 101
3 1 104
4 2 113
3 1 108
4 2 111
5 3 117
14 16 125
42 52 116
53 69 106
67 86 118
82 103 136
80 100 132
71 91 123
74 96 127
74 96 127
69 88 118
72 94 128
70 91 124
75 97 130
70 91 121
74 94 124
66 82 100
70 83 100
52 51 69
53 53 76
61 65 90
65 83 115
70 92 124
75 96 128
75 95 128
75 97 131
70 91 123
71 91 121
70 91 127
71 92 124
71 93 127
72 93 128
75 97 130
76 98 133
82 105 140
72 91 123
67 85 117
69 87 120
71 90 122
68 86 118
70 87 121
68 85 118
67 83 116
67 82 115
69 87 119
67 84 118
57 70 92
65 82 110
64 80 107
64 82 109
61 78 104
68 82 110
72 87 120
89 102 145
96 112 158
98 115 163
107 127 186
104 123 180
103 123 182
107 126 184
104 125 182
99 119 172
92 111 162
82 95 143
80 90 131
75 84 127
63 72 117
57 72 103
55 73 101
65 84 113
55 71 103
34 42 92
27 28 103
19 18 97
19 18 97
20 19 101
30 42 107
54 99 124
83 172 153
88 192 164
84 188 164
80 184 164
77 182 164
76 181 164
77 181 164
77 182 164
79 184 164
82 187 164
87 192 164
89 185 152
60 115 94
41 69 56
17 15 12
17 11 9
16 10 9
18 11 9
17 14 24
9 19 78
1 25 137
0 27 154
0 25 145
0 25 145
0 26 150
0 25 142
0 23 138
0 24 145
0 25 149
0 22 135
0 22 127
0 22 132
16 37 132
31 51 123
58 78 117
62 80 110
66 86 117
59 76 105
65 84 114
66 86 118
63 81 113
56 77 115
42 61 101
31 53 100
29 51 100
31 53 105
31 49 104
30 31 117
37 16 151
36 2 166
37 2 158
37 2 159
32 3 151
23 8 158
17 9 148
4 14 138
2 14 130
0 15 134
0 15 130
0 14 128
0 14 127
2 16 123
9 24 125
20 38 115
74 108 149
116 160 157
137 188 171
135 183 166
131 181 165
121 150 141
97 100 102
78 49 63
67 20 42
63 8 37
64 6 39
63 4 39
65 8 42
61 10 42
61 30 59
61 43 73
59 60 86
66 81 110
65 83 110
62 79 107
56 65 85
43 37 48
36 20 24
40 21 24
34 17 19
36 18 20
33 16 18
33 17 19
33 17 18
25 12 14
25 12 13
27 13 14
25 13 15
21 16 23
29 27 34
33 35 43
34 36 44
35 35 43
35 36 41
29 28 32
19 17 20
16 15 17
17 15 17
17 17 19
21 23 27
38 46 57
49 59 77
39 46 67
36 37 53
36 30 45
35 20 19
34 8 8
34 8 8
34 7 8
33 7 7
32 7 7
35 8 8
34 7 8
32 7 7
36 13 15
81 80 101
128 151 191
147 178 225
159 191 239
157 189 236
165 198 245
163 195 242
167 202 246
162 195 239
168 199 245
168 199 246
172 204 252
172 203 250
167 199 244
168 199 245
174 205 252
176 207 254
168 200 243
173 205 249
168 199 242
168 198 242
174 205 250
165 194 236
174 206 252
171 202 246
172 203 247
175 205 250
178 208 254
178 209 254
175 205 251
173 203 247
169 198 242
174 204 249
171 200 245
173 201 247
175 205 250
164 191 238
93 97 108
22 15 41
39 59 71
29 39 25
18 24 42
12 17 42
41 64 59
36 35 41
55 63 76
72 76 80
116 113 112
132 128 125
135 131 127
135 131 127
135 131 127
135 130 127
134 130 127
134 130 127
134 130 127
134 130 127
134 130 127
133 130 127
133 130 127
133 130 127
133 129 127
133 129 127
132 129 127
132 129 127
132 129 127
132 129 127
132 129 127
132 129 127
131 129 127
131 129 127
131 129 127
131 129 127
131 129 127
131 128 127
131 128 127
131 128 127
130 128 127
130 128 127
130 128 127
130 128 127
130 128 127
130 128 127
130 128 127
130 128 127
130 128 127
130 128 127
129 128 127
129 128 127
129 128 127
129 128 127
129 128 127
129 128 127
129 128 127
129 128 127
129 128 127
129 128 127
129 127 127
129 127 127
129 127 127
129 127 127
129 127 127
129 127 127
129 127 127
129 127 127
129 127 127
129 127 127
129 127 127
129 127 127
129 127 127
129 127 127
129 127 127
129 127 127
129 127 127
129 127 127
129 127 127
129 127 127
129 128 127
129 128 127
129 128 127
129 128 127
129 128 127
129 128 127
129 128 127
129 128 127
129 128 127
129 128 127
130 128 127
130 128 127
130 128 127
130 128 127
130 128 127
130 128 127
130 128 127
130 128 127
130 128 127
130 128 127
130 128 127
131 128 127
131 128 127
131 128 127
131 129 127
131 129 127
131 129 127
131 129 127
132 129 127
132 129 127
132 129 127
132 129 127
132 129 127
132 129 127
133 129 127
133 129 127
133 130 127
133 130 127
133 130 127
134 130 127
134 130 127
134 130 127
134 130 127
134 130 127
135 130 127
135 131 127
135 131 127
135 131 127
130 126 123
92 93 94
59 63 69
49 53 65
50 63 61
57 38 35
24 38 37
27 30 36
19 8 36
16 14 39
14 40 52
8 55 56
9 67 65
8 63 62
8 60 58
9 67 65
8 61 59
9 67 65
9 64 60
8 60 57
9 69 66
9 65 61
10 70 68
9 66 65
8 57 64
7 44 75
3 7 80
3 1 96
3 1 103
3 1 101
3 1 100
3 1 90
4 2 103
15 18 108
36 45 110
48 62 114
62 79 112
77 99 135
86 108 146
75 97 129
76 97 130
76 98 130
71 90 121
72 93 123
68 88 117
74 95 126
66 83 103
60 68 70
61 66 63
56 57 41
57 58 44
55 53 35
47 41 23
50 48 43
60 68 73
67 82 101
61 78 105
70 91 123
76 97 130
79 100 134
66 87 118
74 94 126
67 86 115
77 98 130
72 92 127
72 92 126
71 92 127
71 92 121
67 88 121
67 83 116
65 81 111
67 85 118
69 87 120
69 87 120
70 88 121
66 85 118
69 88 122
68 81 116
65 74 113
69 88 116
65 83 111
67 87 115
68 89 119
69 90 120
70 87 118
74 89 123
82 95 135
78 89 118
80 92 119
85 95 125
92 105 148
100 115 163
93 110 159
91 107 151
85 104 147
78 94 132
75 92 135
58 66 101
57 62 95
63 73 113
54 66 100
51 64 89
53 64 86
46 52 71
34 34 72
23 21 61
19 16 78
17 15 77
21 22 90
35 60 99
79 158 143
95 200 164
89 194 164
86 191 164
83 188 164
81 186 164
80 185 164
81 186 164
81 186 164
83 188 164
85 190 164
84 182 154
73 153 130
64 130 115
40 79 79
22 25 21
15 9 8
16 10 8
15 10 12
9 13 44
5 22 108
1 25 142
0 24 142
0 24 140
0 24 140
0 23 138
0 23 137
0 20 126
0 24 141
0 23 136
0 21 130
0 23 140
0 19 115
0 20 124
24 43 116
45 64 115
64 84 116
63 82 113
65 84 116
65 84 116
68 87 120
63 82 113
63 82 114
47 68 107
34 55 103
29 50 101
31 52 103
29 49 101
31 38 116
33 12 144
38 2 167
36 2 157
33 2 153
24 7 153
12 10 137
1 13 121
0 13 120
0 14 126
0 14 124
0 14 125
0 14 127
0 13 123
0 13 120
0 13 118
2 15 122
27 46 116
78 109 137
97 131 138
118 153 139
95 117 113
96 89 95
77 36 59
68 9 42
63 1 36
61 1 34
63 1 35
65 2 35
57 1 32
61 1 34
60 1 34
65 8 42
59 39 66
64 63 93
66 85 115
63 81 108
57 70 92
49 50 66
34 23 28
38 20 23
35 18 21
30 15 17
26 13 16
29 14 16
30 15 17
23 11 13
21 10 12
20 9 10
18 10 12
17 11 12
24 23 28
31 30 35
36 31 38
38 32 39
33 26 32
37 29 35
30 24 28
22 18 21
18 15 16
20 18 20
27 32 38
45 56 70
45 57 75
33 38 54
31 31 46
35 26 38
30 8 9
34 7 7
31 7 7
33 7 7
31 7 7
34 7 7
33 7 7
34 7 7
31 7 7
35 9 10
56 45 57
103 117 150
139 169 215
147 180 225
152 184 231
154 187 233
165 198 247
163 196 243
166 199 246
168 200 248
166 198 245
166 199 246
168 199 247
168 199 247
171 203 250
170 202 248
171 203 249
172 204 251
171 202 248
171 202 247
172 204 250
172 202 248
171 203 248
171 204 250
172 204 250
173 204 250
171 202 248
174 205 250
174 205 250
169 198 243
173 203 248
176 206 252
174 204 250
170 199 246
162 189 236
172 201 247
174 203 250
103 109 127
19 11 39
30 51 57
28 27 18
20 26 42
19 16 28
27 49 44
35 31 50
31 23 43
43 24 25
45 46 52
58 57 64
80 81 84
96 96 97
120 117 115
134 129 126
135 131 127
135 131 127
135 131 127
135 130 127
134 130 127
134 130 127
134 130 127
134 130 127
134 130 127
134 130 127
133 130 127
133 130 127
133 130 127
133 130 127
133 130 127
133 129 127
133 129 127
133 129 127
132 129 127
132 129 127
132 129 127
132 129 127
132 129 127
132 129 127
132 129 127
131 129 127
131 129 127
131 129 127
131 129 127
131 129 127
131 129 127
131 129 127
131 129 127
131 128 127
131 128 127
131 128 127
131 128 127
130 128 127
130 128 127
130 128 127
130 128 127
130 128 127
130 128 127
130 128 127
130 128 127
130 128 127
130 128 127
130 128 127
130 128 127
130 128 127
130 128 127
130 128 127
130 128 127
130 128 127
130 128 127
130 128 127
130 128 127
130 128 127
130 128 127
130 128 127
130 128 127
130 128 127
130 128 127
130 128 127
130 128 127
130 128 127
130 128 127
130 128 127
130 128 127
130 128 127
130 128 127
130 128 127
131 128 127
131 128 127
131 128 127
131 128 127
131 128 127
131 129 127
131 129 127
131 129 127
131 129 127
131 129 127
131 129 127
131 129 127
132 129 127
132 129 127
132 129 127
132 129 127
132 129 127
132 129 127
132 129 127
132 129 127
133 129 127
133 129 127
133 130 127
133 130 127
133 130 127
133 130 127
134 130 127
134 130 127
134 130 127
134 130 127
134 130 127
134 130 127
135 130 127
135 131 127
135 131 127
135 131 127
135 131 127
131 127 124
103 102 103
70 73 78
56 61 67
51 55 64
48 47 52
40 40 61
49 41 43
49 26 38
20 39 28
31 26 33
22 10 36
16 17 41
9 38 45
8 54 54
7 57 56
8 61 59
8 59 56
8 60 58
8 61 58
8 60 58
8 59 58
8 60 59
9 62 59
8 58 55
8 62 60
10 70 68
8 56 59
8 40 64
6 13 77
3 1 82
2 2 74
3 2 85
4 3 89
11 12 88
16 20 97
34 43 99
46 60 108
59 76 114
68 89 120
87 111 148
102 128 166
86 110 144
74 95 126
70 91 122
70 90 122
74 96 129
71 90 118
63 73 80
53 55 43
50 46 17
49 42 11
46 38 5
46 38 3
47 39 4
49 39 4
47 39 6
50 48 26
53 56 50
59 69 84
65 77 108
63 77 112
66 81 112
64 75 105
60 68 99
63 76 108
62 80 107
62 80 107
59 77 111
48 62 102
42 53 98
64 85 119
66 84 116
69 87 120
67 84 119
69 87 120
70 90 122
64 79 112
68 82 115
71 75 109
75 70 110
79 55 98
70 91 121
71 93 125
68 89 116
68 88 118
68 88 117
60 75 105
62 74 103
62 72 99
50 56 64
52 58 64
64 74 95
73 81 111
71 83 117
65 77 111
65 80 110
55 72 99
48 68 95
50 63 94
46 55 87
53 57 88
41 43 73
38 38 58
36 32 44
31 24 31
30 24 33
27 20 27
24 15 33
22 13 31
22 14 43
22 22 64
47 84 91
89 180 150
95 200 163
94 199 164
90 196 164
88 194 164
87 192 164
87 192 164
87 192 164
88 193 164
87 191 163
90 194 163
86 182 148
65 134 116
36 81 98
30 65 80
18 23 30
15 12 14
12 8 7
12 9 12
8 16 58
1 20 109
0 24 132
0 23 129
0 22 131
0 22 130
0 23 134
0 23 138
0 22 132
0 22 135
0 21 129
0 22 130
0 19 114
0 21 127
0 20 115
9 27 107
37 56 112
61 80 114
70 90 121
65 85 117
64 84 115
67 87 119
64 84 114
62 81 111
56 75 109
43 63 102
34 54 101
28 49 96
27 46 92
29 38 107
30 11 134
31 3 140
29 2 139
24 5 141
14 9 135
3 13 127
0 14 121
0 13 116
0 13 119
0 12 113
0 13 114
0 14 121
0 12 113
0 12 112
0 11 103
0 11 102
0 11 101
20 32 93
54 74 105
69 77 84
80 83 90
74 33 54
64 8 38
57 1 32
61 1 33
61 1 34
58 1 32
59 1 32
59 1 33
60 1 32
59 1 33
56 1 30
54 8 36
57 37 63
61 59 85
65 81 111
60 75 100
53 59 78
42 40 52
32 21 27
30 15 19
29 15 17
28 14 16
26 13 14
21 10 12
23 11 13
24 12 12
15 7 8
20 12 13
22 19 23
27 20 24
36 23 30
35 20 27
38 18 25
40 19 27
40 19 28
34 16 23
35 19 26
24 15 19
26 21 24
40 48 57
49 59 76
50 65 86
36 45 59
27 24 35
30 13 18
32 7 7
32 7 7
33 7 7
32 7 7
31 6 7
31 7 7
35 7 8
29 6 6
31 7 7
32 7 7
36 14 16
73 74 93
122 146 187
139 169 215
151 182 230
160 193 242
155 188 235
164 196 245
162 195 242
164 196 243
168 200 249
169 202 250
169 201 249
169 200 248
167 198 245
169 201 248
172 205 252
172 204 252
166 197 244
169 201 246
168 201 245
174 207 254
171 204 252
169 203 251
173 205 253
173 205 253
171 203 250
172 204 250
172 203 250
173 204 250
168 198 244
173 204 250
168 198 243
170 200 247
172 201 248
172 201 248
174 205 252
92 93 108
31 29 31
27 40 32
26 20 24
20 30 39
48 36 21
35 24 21
33 29 30
26 33 34
43 17 16
33 45 35
35 27 24
25 44 43
47 50 59
47 50 56
57 62 68
68 71 74
89 90 92
115 113 112
120 118 116
130 126 124
135 131 127
135 131 127
135 131 127
135 131 127
135 130 127
135 130 127
134 130 127
134 130 127
134 130 127
134 130 127
134 130 127
134 130 127
134 130 127
133 130 127
133 130 127
133 130 127
133 130 127
133 130 127
133 130 127
133 130 127
133 129 127
133 129 127
133 129 127
132 129 127
132 129 127
132 129 127
132 129 127
132 129 127
132 129 127
132 129 127
132 129 127
132 129 127
132 129 127
132 129 127
132 129 127
132 129 127
132 129 127
132 129 127
132 129 127
131 129 127
131 129 127
131 129 127
131 129 127
131 129 127
131 129 127
131 129 127
131 129 127
131 129 127
131 129 127
131 129 127
131 129 127
131 129 127
131 129 127
131 129 127
131 129 127
131 129 127
131 129 127
131 129 127
131 129 127
131 129 127
131 129 127
132 129 127
132 129 127
131 129 127
132 129 127
132 129 127
132 129 127
132 129 127
132 129 127
132 129 127
132 129 127
132 129 127
132 129 127
132 129 127
132 129 127
132 129 127
132 129 127
133 129 127
133 129 127
133 129 127
133 129 127
133 130 127
133 130 127
133 130 127
133 130 127
133 130 127
133 130 127
134 130 127
134 130 127
134 130 127
134 130 127
134 130 127
134 130 127
134 130 127
135 130 127
135 131 127
135 131 127
135 131 127
135 131 127
135 131 127
131 127 124
115 113 112
95 95 97
74 77 81
55 60 66
53 58 63
48 52 62
49 47 61
42 29 46
49 27 26
31 47 34
51 30 43
41 24 57
25 39 32
36 32 34
18 13 24
13 14 32
10 36 44
7 50 49
7 54 52
8 58 56
6 49 47
8 58 56
7 51 49
8 60 57
8 58 54
9 62 58
7 54 51
9 65 61
9 61 59
7 54 51
8 54 56
13 41 60
17 25 69
6 7 51
5 7 56
10 12 65
7 9 63
12 15 78
29 39 91
47 62 99
51 68 98
59 79 108
68 92 118
95 133 151
87 140 135
84 126 131
55 107 86
60 104 96
59 98 100
65 92 106
57 66 73
52 54 42
41 36 7
46 37 3
48 38 3
45 37 3
47 39 3
46 37 3
48 39 3
46 37 3
43 35 3
48 40 9
51 43 29
70 73 82
86 95 133
79 82 125
80 75 124
63 62 97
56 53 87
66 75 103
76 91 120
60 71 126
28 33 111
51 61 125
73 90 128
65 82 114
67 85 118
69 88 121
65 83 114
68 87 120
69 86 119
69 69 105
78 62 99
86 48 89
92 47 92
64 83 110
66 86 115
71 92 123
67 88 119
71 91 121
62 79 109
52 65 93
43 50 73
41 49 64
37 43 53
47 55 74
49 59 84
59 69 100
55 66 96
49 61 88
44 57 81
40 58 84
43 57 88
44 53 84
36 34 54
35 28 43
28 17 22
24 13 16
25 14 17
25 13 17
25 13 17
24 13 16
26 14 17
23 13 19
23 16 30
46 77 68
69 130 105
92 186 147
97 201 162
94 194 156
94 198 161
89 188 155
92 194 160
92 195 160
90 191 157
87 183 147
83 176 147
80 163 134
54 104 91
21 47 69
12 35 72
19 33 50
28 34 42
19 19 23
11 11 22
6 17 68
2 21 111
0 21 114
0 23 131
0 23 129
0 20 119
0 21 126
0 21 128
0 20 119
0 21 125
0 21 126
0 19 119
0 19 116
0 20 120
0 19 114
7 25 114
41 59 109
64 84 118
64 83 113
69 89 119
63 82 114
64 84 116
67 87 118
64 83 114
61 81 114
49 68 105
41 60 97
29 48 91
26 42 82
24 33 84
27 23 94
44 28 110
47 32 109
33 30 107
21 28 99
8 21 99
4 17 116
0 13 120
0 12 111
0 13 113
0 13 118
0 13 115
0 12 110
0 12 104
0 11 96
0 9 86
0 10 92
3 11 77
21 30 76
42 33 53
55 13 38
59 3 33
59 1 33
64 1 34
60 1 33
62 1 33
59 1 32
59 1 32
62 1 34
58 1 31
55 1 30
61 1 32
57 1 30
54 14 40
54 46 71
68 83 114
65 82 107
60 74 98
49 53 71
40 38 49
26 19 23
22 11 14
23 12 14
20 10 12
16 8 9
16 8 9
16 8 9
16 12 14
27 24 32
32 24 32
35 19 25
39 16 24
40 16 24
42 16 25
41 16 24
40 16 23
41 16 25
41 16 24
38 16 23
36 23 31
43 41 52
51 64 80
44 55 69
37 44 58
27 17 23
30 9 10
29 6 6
29 6 6
29 6 6
28 6 6
27 6 6
31 6 7
30 6 6
31 6 7
30 6 6
29 6 6
31 8 9
46 36 45
106 123 158
133 162 208
152 185 233
153 186 235
158 192 241
159 192 241
160 193 242
164 198 247
162 195 243
163 196 244
167 199 248
165 198 246
165 197 245
166 199 247
166 198 245
169 202 249
171 204 252
169 202 249
172 204 252
173 206 254
170 204 252
169 203 252
169 203 252
172 205 253
173 205 253
167 199 246
168 199 247
170 201 248
170 201 248
170 201 247
170 201 248
168 197 245
167 197 243
171 202 249
175 206 254
86 87 99
28 22 26
33 42 29
30 21 46
31 33 44
30 36 32
27 25 21
38 23 22
26 34 43
45 34 34
31 49 26
22 30 8
6 24 4
28 17 47
56 55 70
51 64 67
44 55 51
51 57 63
37 60 70
49 57 65
53 58 65
67 70 75
77 80 83
87 89 91
108 107 106
120 118 116
121 118 117
133 129 126
135 131 127
135 131 127
135 131 127
135 131 127
135 131 127
135 130 127
135 130 127
134 130 127
134 130 127
134 130 127
134 130 127
134 130 127
134 130 127
134 130 127
134 130 127
134 130 127
134 130 127
133 130 127
133 130 127
133 130 127
133 130 127
133 130 127
133 130 127
133 130 127
133 130 127
133 130 127
133 130 127
133 130 127
133 130 127
133 130 127
133 129 127
133 129 127
133 129 127
133 129 127
133 129 127
133 129 127
133 129 127
133 129 127
133 129 127
132 129 127
132 129 127
133 129 127
133 129 127
133 129 127
133 129 127
133 129 127
132 129 127
133 129 127
133 129 127
132 129 127
133 129 127
133 129 127
133 129 127
133 129 127
133 129 127
133 129 127
133 129 127
133 129 127
133 129 127
133 130 127
133 130 127
133 130 127
133 130 127
133 130 127
133 130 127
133 130 127
133 130 127
133 130 127
133 130 127
134 130 127
134 130 127
134 130 127
134 130 127
134 130 127
134 130 127
134 130 127
134 130 127
134 130 127
134 130 127
135 130 127
135 130 127
135 130 127
135 131 127
135 131 127
135 131 127
135 131 127
135 130 127
134 129 126
126 123 120
115 113 112
89 90 92
82 84 87
67 69 77
57 61 67
52 57 63
41 50 64
50 55 62
51 37 39
51 51 57
25 36 44
44 41 55
42 27 42
49 18 15
30 37 17
36 32 39
28 21 39
25 35 30
34 30 32
18 17 21
15 17 33
9 26 36
6 48 47
7 52 50
7 52 50
7 53 51
7 53 50
6 48 46
7 52 49
8 60 58
7 52 50
7 53 52
7 54 51
9 63 60
7 54 51
13 55 57
23 49 68
22 33 66
26 33 68
19 25 61
22 29 64
30 39 79
29 37 74
41 56 88
50 65 98
50 71 95
43 76 83
45 101 71
57 131 74
50 140 59
33 129 34
28 124 30
33 118 40
41 120 56
40 99 48
45 73 39
41 43 5
46 37 3
39 34 3
40 35 3
42 35 3
43 36 3
42 35 3
46 38 3
44 36 3
45 36 3
47 37 3
48 39 9
57 51 36
117 122 152
135 140 195
114 110 159
98 86 135
92 94 134
116 132 171
123 144 178
102 119 176
94 111 176
86 99 162
83 102 135
71 90 121
66 84 116
70 90 123
69 88 119
69 90 122
70 75 109
81 60 99
82 43 84
89 44 87
88 43 86
64 84 112
69 89 120
69 89 120
65 85 113
68 88 118
57 76 103
50 64 88
43 53 78
42 50 70
36 43 60
40 48 71
40 49 73
44 54 83
44 55 83
42 53 78
40 53 77
38 51 76
37 48 74
33 35 55
28 22 31
24 13 16
23 13 16
24 13 16
23 12 16
24 13 16
23 12 15
25 13 17
22 12 15
23 12 15
22 12 14
28 23 23
46 76 65
69 135 109
75 149 119
80 164 126
83 171 135
73 148 118
71 142 117
73 148 123
78 160 127
69 142 110
67 137 116
66 132 114
42 85 82
10 30 62
7 27 66
27 47 67
38 48 60
27 31 39
20 25 41
8 17 57
2 19 90
0 21 117
0 18 102
0 19 111
0 20 119
0 21 122
0 21 125
0 19 114
0 21 122
0 19 117
0 19 114
0 17 104
0 19 115
0 18 106
5 22 109
29 47 108
60 79 114
65 84 116
58 77 109
61 80 112
66 86 117
62 82 113
58 77 109
60 79 111
54 72 104
51 70 102
36 50 77
38 55 56
47 66 45
59 75 44
59 71 44
61 71 49
65 85 34
46 68 54
45 66 46
22 38 81
13 29 97
2 13 98
0 12 105
0 12 108
0 11 104
0 11 97
0 10 93
0 10 98
0 9 82
0 9 83
0 7 72
10 10 56
30 14 48
51 8 33
55 1 29
55 1 29
59 1 33
55 1 30
53 1 28
58 1 30
55 1 29
52 1 28
55 1 30
59 1 32
59 1 31
52 1 28
52 3 29
53 25 51
61 61 86
62 79 106
63 80 106
55 68 91
45 49 64
33 32 40
30 23 29
19 11 13
19 11 13
16 9 10
13 7 8
13 9 11
26 25 32
33 23 31
37 18 25
39 16 24
40 16 23
41 16 23
39 15 23
39 16 23
40 16 24
38 15 22
39 15 23
39 15 23
38 16 24
40 27 36
39 37 46
40 50 61
37 41 52
29 19 24
30 7 7
28 6 6
30 6 6
25 5 5
30 6 6
27 6 6
29 6 6
31 6 6
31 6 7
31 6 7
30 6 7
30 6 7
32 13 15
83 91 117
120 147 188
143 175 224
151 185 234
155 189 239
157 191 240
158 191 240
158 193 240
162 195 245
163 197 245
167 200 250
165 198 248
165 198 248
168 201 250
165 198 247
170 203 253
167 199 247
171 204 253
170 203 252
172 205 254
170 204 253
171 204 253
167 201 250
170 204 253
173 206 255
172 205 253
171 203 251
172 203 251
175 207 255
168 200 247
174 206 254
168 198 245
164 193 241
174 205 253
169 199 247
91 95 112
28 20 20
34 38 29
37 22 51
52 26 26
19 38 37
28 32 26
36 27 31
9 14 64
26 33 28
34 45 34
47 51 54
18 21 25
18 14 27
46 45 50
45 62 62
57 51 44
59 59 44
3 48 22
15 33 41
32 26 49
41 44 50
56 44 42
62 41 42
45 53 54
43 57 52
54 59 65
58 66 67
65 69 73
79 81 84
81 83 86
93 92 94
102 101 101
117 114 113
116 114 113
123 120 119
128 124 122
129 125 122
134 130 127
133 129 126
135 131 127
135 131 127
135 131 127
135 131 127
135 131 127
135 130 127
135 130 127
135 130 127
135 130 127
134 130 127
134 130 127
134 130 127
134 130 127
134 130 127
134 130 127
134 130 127
134 130 127
134 130 127
134 130 127
134 130 127
134 130 127
134 130 127
134 130 127
134 130 127
134 130 127
134 130 127
134 130 127
134 130 127
134 130 127
134 130 127
134 130 127
134 130 127
134 130 127
134 130 127
134 130 127
134 130 127
134 130 127
134 130 127
134 130 127
134 130 127
134 130 127
134 130 127
134 130 127
134 130 127
134 130 127
134 130 127
134 130 127
134 130 127
134 130 127
134 130 127
134 130 127
134 130 127
134 130 127
134 130 127
135 130 127
135 130 127
135 130 127
135 130 127
135 131 127
135 131 127
135 131 127
135 131 127
135 131 127
135 131 127
135 131 127
135 130 127
134 129 126
128 124 122
126 122 120
120 117 115
111 109 108
99 99 100
87 90 97
72 75 80
57 59 77
57 62 69
33 36 53
46 48 56
46 42 36
51 55 60
74 62 90
44 46 51
41 53 63
14 25 51
17 23 38
37 16 14
27 25 46
14 16 48
46 47 61
61 56 69
38 23 20
27 48 30
33 36 41
23 15 24
30 35 32
32 38 39
19 21 17
13 16 23
13 22 32
6 36 38
6 47 45
6 47 46
7 49 48
6 50 47
7 52 50
6 46 44
7 51 49
7 52 49
7 54 51
7 53 52
6 45 44
9 56 55
24 62 70
41 68 88
44 58 86
48 61 92
40 51 81
41 52 83
44 55 89
47 60 94
53 67 101
50 72 94
36 86 61
29 104 39
23 113 21
20 127 12
21 123 14
19 122 11
21 130 12
21 131 12
20 120 14
23 119 17
28 99 9
36 65 6
42 46 4
40 34 3
37 31 3
41 34 3
42 35 3
42 34 3
40 33 3
42 35 3
40 33 3
41 33 3
41 32 3
60 54 33
91 95 94
154 171 215
152 169 216
136 146 193
142 157 202
159 184 229
160 187 230
149 174 231
137 162 218
122 147 197
88 110 144
68 87 121
68 89 121
66 87 119
71 90 120
68 77 109
73 59 95
85 46 87
84 42 85
81 39 81
84 41 83
63 83 109
62 83 111
68 89 119
63 83 112
67 88 119
69 89 122
51 65 91
41 51 77
41 51 75
40 48 70
37 46 69
43 52 78
44 54 82
44 54 83
41 52 78
42 53 81
42 52 81
34 37 57
28 22 31
24 13 16
25 13 16
24 13 16
23 13 16
23 12 15
23 12 16
24 13 16
22 12 15
24 13 16
22 11 15
22 12 14
24 14 16
25 20 20
34 55 47
51 100 75
57 111 83
52 109 87
43 86 71
34 67 56
55 99 97
54 104 95
52 99 94
44 86 90
38 77 80
27 58 64
15 44 66
8 28 58
30 45 65
45 58 78
45 57 77
43 54 78
25 38 78
5 23 98
0 18 101
0 17 94
0 17 99
0 21 121
0 18 109
0 19 111
0 18 103
0 16 98
0 17 103
0 17 107
0 17 107
0 19 116
0 15 91
7 23 91
41 59 106
57 75 109
57 76 107
60 79 114
58 75 107
56 74 105
57 76 107
56 74 105
54 73 104
53 71 105
56 74 85
58 78 70
62 84 25
70 94 20
72 100 14
70 95 12
74 101 12
72 100 12
72 98 12
70 96 14
63 87 25
46 66 43
13 27 95
2 14 95
0 11 99
0 11 103
0 11 104
0 10 87
0 8 72
0 8 75
0 7 70
0 5 56
6 6 55
30 6 45
50 2 31
55 1 29
54 1 29
56 1 31
51 1 28
56 1 30
53 1 28
57 1 30
48 1 25
52 1 28
48 1 25
53 1 28
58 1 30
50 1 27
49 16 40
51 47 71
60 76 102
51 63 85
51 63 83
44 53 71
36 41 54
24 23 32
25 23 29
19 14 16
17 14 16
13 11 14
23 20 25
23 17 22
39 22 29
40 15 22
38 15 21
39 15 23
39 15 22
39 15 22
40 16 23
39 15 23
39 15 23
38 15 23
38 14 22
37 14 20
37 15 23
34 23 31
32 32 41
38 37 46
25 14 15
26 5 6
27 6 6
25 5 5
27 5 6
26 5 6
28 6 6
29 6 6
27 5 6
28 6 6
26 5 6
28 6 6
28 6 6
27 6 7
46 32 49
100 117 154
144 176 227
141 173 222
146 179 229
158 193 244
156 190 240
162 196 248
159 194 243
161 195 245
160 193 243
165 199 249
166 199 249
168 201 252
168 201 251
165 198 248
166 199 248
165 198 247
169 202 252
166 200 249
171 204 254
171 205 254
168 203 252
170 204 253
172 206 255
169 201 250
166 197 245
160 190 237
165 197 244
169 201 249
171 203 252
173 206 254
169 200 248
170 202 250
167 197 245
116 129 154
19 25 19
38 36 28
33 15 33
49 22 21
32 13 60
28 38 32
48 61 72
38 57 86
18 30 26
39 44 46
31 38 42
14 20 28
11 8 35
35 35 44
43 25 22
50 25 20
60 36 25
14 36 9
11 9 2
31 31 39
28 27 38
37 28 27
47 28 28
19 35 30
20 42 26
51 57 63
61 81 65
38 72 43
50 57 60
52 57 63
55 29 52
52 46 54
45 48 54
43 29 42
53 46 54
37 41 47
51 60 64
62 66 71
61 60 63
66 65 67
70 75 74
90 81 79
104 103 103
103 99 100
99 98 100
117 115 113
116 113 112
115 113 112
123 120 118
126 122 120
123 120 118
128 124 122
130 126 123
132 128 125
130 126 124
133 129 126
132 128 125
135 131 127
135 131 127
135 131 127
135 131 127
135 131 127
135 131 127
135 131 127
135 131 127
135 131 127
135 131 127
135 131 127
135 131 127
135 131 127
135 131 127
135 131 127
135 131 127
135 131 127
135 131 127
135 131 127
135 131 127
135 131 127
135 131 127
135 131 127
135 131 127
135 131 127
135 131 127
135 131 127
134 130 127
134 130 127
135 131 127
134 129 126
134 129 126
135 130 127
128 124 122
132 128 125
123 120 119
125 121 119
120 117 116
120 118 116
113 111 110
119 116 115
114 112 111
109 107 107
98 97 98
86 87 90
74 77 81
75 78 81
68 71 76
59 63 69
59 64 69
53 58 64
52 58 65
52 35 42
44 43 52
26 32 36
19 36 42
19 25 45
40 33 47
17 8 20
27 9 23
35 9 11
49 51 57
53 39 41
35 31 29
5 48 48
24 33 44
5 20 32
39 24 28
39 24 48
29 33 73
50 56 80
38 36 45
36 43 40
33 43 37
54 60 68
25 9 13
38 29 32
26 37 36
20 22 17
23 26 31
24 42 53
16 42 48
8 42 44
6 44 42
6 47 45
5 41 40
6 45 43
6 45 43
6 47 46
6 43 42
6 49 47
6 44 43
7 49 46
17 51 55
38 67 83
51 72 103
56 73 103
58 76 107
57 75 108
60 77 108
50 65 99
63 81 113
54 79 101
36 95 56
23 104 24
17 113 11
18 114 10
20 125 11
19 124 11
20 127 12
19 120 11
20 123 11
19 123 11
20 124 11
19 120 11
21 106 10
29 83 8
35 37 3
39 33 3
40 33 3
38 32 3
36 30 3
37 32 3
43 35 3
42 34 3
39 32 3
43 34 3
43 34 8
75 75 64
140 163 193
168 199 245
168 197 246
169 199 247
163 195 242
169 201 251
163 196 244
144 174 222
111 138 180
82 103 138
68 89 119
69 89 121
68 87 119
63 80 110
72 69 101
72 40 74
77 37 74
77 38 75
83 41 82
80 40 82
70 91 122
68 89 118
68 89 119
68 89 118
67 88 118
68 89 119
64 83 113
53 68 97
41 52 77
39 48 75
36 44 68
38 48 72
40 49 76
41 50 76
36 45 70
36 43 68
37 44 68
30 28 41
23 14 18
22 12 15
22 12 14
21 11 14
21 11 14
24 13 16
22 12 15
21 11 14
20 11 13
22 11 14
21 11 14
23 12 15
21 11 14
21 11 13
23 25 24
39 77 66
41 86 73
40 88 78
32 62 63
36 44 81
46 46 109
54 48 130
53 49 127
54 51 135
51 52 126
42 48 109
24 40 82
19 38 62
37 54 76
53 70 96
62 79 109
56 73 99
33 48 94
17 34 95
0 15 83
0 16 94
0 18 105
0 17 101
0 19 114
0 18 101
0 16 97
0 18 108
0 17 104
0 17 100
0 16 100
0 15 90
0 16 97
17 32 90
45 63 107
63 82 115
59 77 106
65 85 118
61 81 113
59 78 111
57 75 106
59 77 110
58 76 108
58 75 97
61 82 49
62 85 23
69 92 11
72 96 11
74 99 12
73 100 12
73 100 12
68 94 11
69 94 11
72 98 12
70 94 11
69 94 14
50 72 33
21 35 77
3 14 92
0 11 97
0 9 87
0 10 91
0 8 77
0 9 82
0 6 61
0 4 43
9 4 46
36 2 32
46 1 26
50 1 27
57 1 29
54 1 28
52 1 27
47 1 25
54 1 29
48 1 25
51 1 27
46 1 24
48 1 25
52 1 28
44 1 23
51 1 26
43 6 28
49 35 58
49 58 78
49 60 78
50 61 83
40 49 63
42 49 66
36 41 54
27 29 38
35 40 53
36 43 56
25 27 34
30 31 39
35 24 32
38 16 24
39 15 22
37 14 21
37 15 21
36 14 21
37 15 21
37 14 21
38 14 22
37 14 21
39 15 22
37 14 21
38 15 22
38 15 22
35 15 22
31 23 29
28 24 29
23 13 16
24 5 5
28 6 6
25 5 5
23 4 5
26 5 5
25 5 5
26 5 5
24 5 5
27 6 6
24 5 5
27 6 6
29 6 6
36 7 29
50 12 82
87 74 151
119 145 191
141 174 222
149 184 235
152 187 239
154 188 239
162 197 249
154 188 238
160 195 246
164 198 250
164 198 249
163 197 248
163 196 247
165 199 249
166 200 250
164 198 247
166 200 250
169 203 253
165 199 248
165 199 250
169 204 254
171 205 255
167 202 252
171 204 254
168 202 252
162 195 243
165 197 246
162 193 241
170 202 251
162 193 241
168 200 249
169 201 249
170 202 250
173 206 255
109 123 147
17 32 21
37 44 32
31 13 29
42 22 26
45 1 82
25 35 30
54 66 74
44 60 76
17 27 25
41 47 52
0 15 11
8 15 18
9 8 26
40 40 45
41 6 0
60 13 18
49 17 23
44 49 50
21 19 20
30 33 37
14 17 62
12 22 46
34 47 35
81 60 101
41 46 51
41 48 42
34 47 28
45 66 39
50 53 39
50 55 60
38 22 34
23 33 15
14 41 11
19 48 7
33 26 19
10 30 21
4 32 28
43 51 59
20 28 35
26 15 50
53 39 51
58 31 44
51 56 63
39 29 45
27 50 35
46 75 51
54 64 70
53 58 64
53 58 64
53 50 59
53 58 64
57 61 67
62 66 72
56 61 67
61 66 71
64 68 72
69 72 76
69 72 77
70 73 78
78 80 83
82 83 86
77 79 83
75 77 81
80 82 85
82 84 87
81 82 85
82 84 87
85 87 89
82 84 87
88 89 92
81 83 87
84 86 88
89 90 92
89 90 92
86 87 90
85 86 88
87 88 90
84 85 88
86 88 90
79 81 85
74 76 80
78 80 83
78 81 84
77 80 83
72 75 79
76 78 81
65 69 74
63 67 72
65 68 73
59 63 69
60 65 71
58 63 69
60 64 69
53 58 65
53 58 64
51 57 63
52 57 63
52 57 63
51 57 63
51 57 63
49 55 67
50 55 67
51 56 63
47 58 60
39 56 53
36 38 39
47 51 57
50 56 64
31 43 67
48 45 56
38 24 23
24 16 12
9 39 39
18 45 39
22 30 40
24 14 32
25 18 27
35 33 39
54 76 104
41 28 26
32 38 3
13 39 26
37 45 51
14 23 31
51 40 50
44 27 49
26 25 66
42 44 60
37 39 44
32 41 36
44 51 50
55 49 56
23 9 10
38 32 41
21 33 27
25 30 27
42 54 68
44 62 83
29 52 65
20 47 55
9 42 44
5 40 39
5 39 37
5 41 38
6 43 42
5 42 40
5 39 38
6 45 44
6 42 41
12 47 49
34 65 77
52 77 102
62 83 114
66 86 117
67 88 119
63 83 114
62 81 111
67 87 117
69 89 119
43 90 72
30 103 38
20 114 14
17 110 10
19 117 10
18 112 10
18 116 11
20 124 11
17 109 10
19 118 11
19 121 11
19 121 11
20 125 12
19 117 11
23 106 10
30 65 6
35 36 3
39 33 3
39 33 3
38 31 3
35 29 2
38 31 3
39 32 3
40 32 3
38 30 3
40 31 3
60 57 41
113 131 152
160 193 242
166 201 254
164 198 249
162 197 250
165 201 254
141 174 223
121 152 197
87 111 148
72 93 124
69 91 123
70 91 123
70 92 123
71 83 116
64 54 90
65 36 76
58 34 86
52 35 97
53 34 92
56 36 99
67 88 119
67 87 118
69 90 120
66 86 117
67 88 118
64 83 114
65 84 113
57 72 101
46 58 83
35 44 67
34 41 62
33 40 61
35 42 65
35 44 67
31 37 57
30 37 59
31 34 52
24 18 25
23 12 15
21 11 14
21 11 14
23 12 15
21 12 14
22 11 15
21 11 14
21 11 14
22 12 14
21 11 14
20 11 13
21 11 14
21 11 13
20 11 13
21 16 17
27 41 38
38 74 78
46 63 109
55 45 138
51 39 133
63 36 159
61 35 158
60 35 160
60 35 158
60 35 155
55 36 148
43 30 119
44 43 112
54 65 111
61 79 108
65 86 118
62 81 113
53 72 108
30 47 98
7 23 91
0 15 85
0 14 86
0 16 95
0 16 97
0 16 94
0 16 96
0 15 92
0 15 94
0 16 96
0 14 86
0 13 84
5 20 93
25 40 94
59 77 113
66 85 115
62 78 111
64 84 117
66 85 118
63 82 116
60 78 109
67 86 119
62 81 109
61 80 74
67 89 27
70 93 11
70 96 12
68 90 11
70 95 11
68 92 11
70 92 11
68 95 11
65 89 11
67 92 11
64 88 11
69 94 11
65 89 13
47 66 33
21 35 74
0 9 86
0 9 85
0 7 67
0 6 59
0 5 53
0 5 51
0 4 41
14 1 25
34 1 24
49 1 27
55 1 29
48 1 25
44 1 24
49 1 25
48 1 26
44 1 22
50 1 26
49 1 25
51 1 27
42 1 21
45 1 24
40 1 21
41 1 22
38 5 24
47 35 57
51 56 76
56 68 90
48 57 76
52 64 84
50 62 83
47 58 77
43 52 69
39 46 61
40 46 62
40 48 63
41 40 51
32 18 26
37 14 21
37 14 21
35 14 20
35 14 20
38 15 22
37 14 21
36 14 20
34 13 20
37 14 20
37 14 21
36 14 21
36 13 21
39 15 22
36 13 20
32 18 26
32 27 34
26 17 20
23 5 5
21 4 4
22 4 4
24 5 5
21 4 4
22 4 5
23 4 5
25 5 5
23 4 5
21 4 5
24 5 5
28 5 24
50 8 86
74 11 143
77 27 151
104 114 173
125 154 202
146 181 233
147 182 234
150 185 235
153 186 238
157 192 244
159 194 247
157 192 243
160 195 247
158 193 243
164 198 250
162 197 247
161 194 244
165 199 250
166 199 250
166 199 250
164 198 248
164 198 248
166 202 253
168 203 254
169 203 254
167 201 251
164 198 247
166 198 248
165 198 247
169 202 252
165 197 246
160 192 240
169 202 250
166 198 247
167 200 249
168 200 249
127 145 175
24 40 30
38 37 25
39 13 19
37 24 27
39 4 51
20 23 28
29 40 40
28 38 47
23 26 30
36 43 48
0 13 9
11 40 31
20 35 35
37 39 46
32 6 2
70 1 15
64 7 34
59 64 92
81 92 98
35 39 43
21 23 49
8 16 21
16 34 13
54 40 59
33 41 58
20 37 51
20 26 16
32 33 5
41 38 19
80 71 68
61 56 55
36 41 42
23 38 24
37 28 7
35 20 9
11 32 18
24 26 48
19 20 53
17 6 16
20 5 48
41 32 46
46 32 43
47 51 56
57 70 59
41 78 26
29 70 32
59 74 84
54 60 66
46 48 55
25 9 23
19 34 22
21 46 27
50 57 62
53 57 65
52 57 63
38 45 58
43 49 61
51 57 63
51 57 63
52 61 68
52 57 63
52 57 63
53 58 63
51 57 63
52 57 63
52 57 63
53 58 63
52 57 63
51 57 64
52 57 63
53 57 63
52 57 63
53 58 63
51 57 63
52 57 63
51 57 63
52 57 64
52 57 63
52 57 63
51 57 63
51 57 63
52 57 63
51 57 63
52 57 63
51 57 63
51 57 63
51 57 63
50 54 61
51 55 62
51 57 63
53 58 64
57 64 70
53 59 65
51 57 63
51 57 63
52 57 63
61 58 69
64 57 71
53 57 63
51 57 63
32 39 77
30 35 78
65 27 52
40 46 45
25 54 41
49 52 55
48 53 59
45 52 62
11 27 58
26 34 46
17 38 9
12 30 22
11 26 28
29 47 48
24 50 55
30 30 46
21 17 44
36 42 54
41 56 71
51 83 85
33 51 26
24 35 26
40 42 48
49 25 27
55 39 50
29 18 49
14 4 32
18 30 21
31 43 37
33 45 38
48 50 53
23 21 21
22 11 11
25 43 51
18 29 27
25 30 28
46 60 76
58 76 105
51 71 95
44 69 87
21 48 56
9 37 39
6 34 33
4 33 32
4 34 33
5 39 37
5 39 37
8 41 39
13 39 42
28 56 66
46 71 90
62 83 111
62 81 111
69 89 120
65 85 113
65 84 114
65 85 116
67 86 117
59 85 107
34 99 47
18 104 13
19 119 11
17 108 10
17 105 9
18 110 10
17 109 10
17 111 10
18 113 10
17 105 10
18 115 11
17 107 10
19 120 11
17 109 10
18 116 11
23 80 8
31 44 4
37 31 3
32 27 2
39 33 3
34 29 2
35 30 2
34 28 2
35 29 2
36 28 2
36 28 2
48 44 25
97 114 133
153 192 250
151 189 246
152 191 248
143 180 235
137 172 225
106 134 178
87 110 148
74 96 130
69 90 122
69 91 122
69 88 119
67 88 120
55 68 106
41 46 110
21 28 106
16 29 119
14 30 122
16 31 124
20 31 124
67 87 118
69 89 121
68 89 119
68 88 119
67 86 116
69 91 122
70 90 122
62 80 110
58 75 104
49 63 88
41 50 72
32 39 58
24 30 44
24 29 43
22 26 40
25 29 45
24 22 32
20 12 15
19 10 13
20 11 13
22 11 14
19 10 13
21 11 14
20 10 13
21 11 14
19 10 13
19 10 13
19 10 13
22 11 14
21 11 13
19 10 12
18 9 12
21 11 13
29 35 49
42 47 95
56 41 141
59 35 154
61 34 152
60 34 157
59 34 159
56 32 146
58 33 151
55 31 145
57 32 148
59 34 154
56 38 146
58 53 128
62 68 121
64 81 117
67 88 120
61 81 114
44 62 105
15 31 92
2 15 72
0 13 76
0 13 74
0 14 82
0 14 85
0 12 80
0 15 94
0 14 86
0 11 76
0 13 80
2 16 88
24 40 95
39 57 108
67 86 118
63 82 116
64 82 116
67 87 119
64 83 119
63 80 114
63 82 115
61 79 113
67 86 92
66 87 35
67 89 12
62 81 10
70 92 11
66 88 11
66 90 11
67 90 11
66 88 10
69 91 11
67 91 11
68 91 11
69 91 11
69 92 11
58 78 9
58 79 12
33 49 48
6 16 66
0 9 81
0 9 82
0 7 68
0 6 55
0 4 41
0 2 26
14 3 28
35 1 24
43 1 23
44 1 24
50 1 27
49 1 25
50 1 26
46 1 24
40 1 22
47 1 24
46 1 24
46 1 24
48 1 25
41 1 22
42 1 22
39 1 20
38 6 25
48 33 54
51 61 82
52 64 85
52 65 87
52 64 85
49 60 79
60 75 99
53 64 84
51 65 85
55 68 91
47 56 73
39 34 47
37 18 26
36 14 20
37 14 21
34 13 19
34 13 20
34 13 19
35 14 20
33 12 19
35 13 20
36 14 21
34 13 19
33 13 19
35 13 20
32 12 18
34 13 20
36 20 28
31 29 39
29 23 29
22 7 8
23 4 5
18 4 4
24 5 5
21 4 4
20 4 4
22 5 5
22 4 4
21 4 4
23 5 5
24 5 10
46 7 67
65 10 124
73 11 145
78 12 158
90 56 167
105 121 174
123 153 199
146 181 234
147 180 232
152 187 240
158 194 248
157 192 244
152 187 239
159 195 246
162 197 250
157 192 243
164 199 252
163 198 250
162 196 248
159 193 244
165 200 252
164 198 249
162 197 248
166 200 252
165 200 251
162 196 246
169 203 254
165 200 250
167 202 252
164 197 247
168 201 251
162 195 244
169 203 254
165 199 249
165 198 248
163 195 244
164 196 246
135 155 191
31 36 34
37 52 30
59 16 18
38 33 36
35 9 13
28 30 30
17 29 19
29 38 44
45 51 57
44 50 56
3 13 11
16 66 46
22 68 50
37 50 44
25 24 24
50 5 17
21 4 49
12 11 69
60 66 79
44 49 55
33 36 46
22 27 31
14 23 15
33 28 38
55 51 76
31 39 61
23 30 34
29 32 25
69 56 66
76 63 76
55 51 50
45 52 56
44 50 54
38 24 20
28 14 9
27 17 7
26 11 6
22 5 11
16 1 2
29 25 30
24 40 29
31 45 37
43 50 51
40 46 38
22 25 22
6 11 47
4 9 65
55 64 77
50 54 59
34 32 38
19 35 24
12 35 16
67 58 78
54 48 81
32 35 54
11 9 33
21 25 42
51 56 63
50 63 69
55 86 95
49 66 72
52 57 63
51 57 63
32 33 52
23 22 44
50 54 62
52 57 63
56 59 65
66 62 72
63 61 69
52 57 63
51 56 63
50 56 63
49 52 59
53 57 63
56 56 65
57 57 64
51 57 63
51 57 63
51 57 63
52 57 63
50 55 64
46 40 64
47 45 65
52 57 63
52 57 63
51 56 63
33 21 32
30 15 26
49 53 60
54 59 66
75 88 98
58 64 69
41 40 45
48 51 57
52 57 63
54 43 55
44 35 43
30 33 25
42 46 48
36 41 61
35 27 55
68 3 37
42 24 36
18 64 53
42 60 60
44 49 56
43 48 55
22 29 42
26 50 40
2 67 16
17 54 31
36 27 31
37 13 16
24 35 39
23 23 41
17 13 37
38 43 51
27 38 47
63 104 100
39 59 47
33 44 39
51 38 41
63 6 3
43 31 37
21 19 42
12 4 21
5 25 3
30 44 36
36 42 44
37 43 45
9 19 15
16 21 19
22 47 57
12 19 23
26 34 33
47 63 81
51 71 93
51 68 90
43 65 82
31 51 65
17 38 43
11 32 34
8 27 29
9 32 33
6 27 27
8 31 32
20 45 52
27 48 59
47 70 91
54 75 99
61 83 109
65 85 115
64 85 114
64 85 115
62 82 110
68 89 120
61 87 110
48 91 79
21 101 20
17 112 10
18 115 10
17 107 10
17 106 9
18 112 10
16 104 9
17 107 10
16 106 10
17 108 10
17 108 10
17 106 10
17 110 10
16 100 9
19 116 11
19 103 9
27 60 5
29 31 2
30 27 2
32 27 2
37 30 3
33 27 2
32 27 2
34 28 2
37 29 2
31 24 2
36 30 12
82 99 121
120 156 209
123 159 213
120 155 207
105 136 182
100 129 172
83 107 144
75 96 128
69 90 121
71 92 123
68 89 121
61 81 118
47 67 120
25 44 116
11 30 122
8 26 114
7 28 124
7 28 125
7 28 125
7 28 126
65 85 116
68 87 118
65 85 116
63 82 111
68 87 117
60 77 104
61 79 108
57 73 101
60 78 105
50 64 87
42 54 76
34 42 59
28 34 49
27 32 48
27 33 46
24 30 44
26 28 38
18 10 13
18 10 12
20 10 13
21 11 14
20 10 13
20 10 13
19 10 13
18 10 12
18 9 12
19 10 12
19 10 13
20 10 13
17 9 12
19 10 12
18 9 11
22 12 27
39 24 85
56 32 140
55 32 145
58 33 149
59 33 151
56 32 145
56 32 145
59 34 152
51 29 133
57 32 145
55 31 144
57 32 148
57 32 144
55 31 139
59 46 134
64 75 120
66 85 117
69 88 121
58 78 114
43 60 97
18 33 84
5 17 69
0 10 69
0 13 80
0 13 83
0 11 73
0 12 74
0 10 65
1 13 81
4 16 78
15 27 82
43 61 103
60 79 116
63 81 114
64 84 116
62 80 113
64 82 117
61 79 112
66 83 116
63 81 115
59 75 107
61 79 58
61 79 12
64 84 10
60 79 10
65 88 10
61 80 10
69 93 11
65 87 10
64 85 10
66 91 11
63 84 10
67 91 11
64 86 10
66 89 11
64 87 10
59 80 9
55 74 24
20 31 45
2 9 61
0 7 69
0 6 61
0 4 38
0 3 30
0 3 34
8 7 26
36 4 25
43 1 22
47 1 24
43 1 22
43 1 22
42 1 22
42 1 22
41 1 21
47 1 24
37 1 19
43 1 22
42 1 22
40 2 21
36 1 19
38 1 20
36 8 25
49 45 64
53 66 89
55 70 95
54 68 89
54 66 88
59 74 96
54 68 93
55 70 94
51 63 83
59 74 97
54 64 84
39 32 42
33 14 19
33 13 19
35 13 19
32 12 18
31 12 18
34 13 19
32 12 18
30 11 17
34 12 19
33 12 18
33 12 19
32 12 18
33 12 19
30 11 18
36 13 20
34 16 23
34 32 42
33 33 42
26 17 21
22 5 6
18 4 4
20 4 4
20 4 4
21 4 4
20 4 4
20 4 4
23 5 5
20 4 4
34 6 40
56 9 102
72 11 147
73 11 146
73 11 148
77 20 149
89 66 159
121 148 199
138 171 222
133 166 215
146 181 234
149 185 237
154 190 244
152 186 239
154 189 241
158 193 247
160 196 249
159 195 248
159 194 246
164 200 253
162 198 250
162 197 249
165 200 252
164 199 251
165 200 252
167 202 254
164 198 249
162 196 247
161 196 246
160 194 244
158 191 240
166 200 251
168 202 253
167 201 252
166 200 250
163 196 247
165 199 250
165 199 250
151 177 221
36 42 41
48 76 46
50 14 15
42 42 48
35 9 11
26 23 20
13 26 13
34 39 43
44 50 56
43 48 55
18 23 24
14 57 38
16 58 39
23 43 30
9 19 30
23 13 24
18 4 36
7 6 58
24 27 51
45 50 56
49 54 60
45 49 56
34 39 43
47 60 57
72 69 91
78 58 92
41 46 55
45 49 54
54 54 39
52 55 31
43 41 43
48 53 59
48 53 59
41 41 44
34 35 39
22 15 14
29 6 6
35 4 3
27 7 7
34 37 38
7 27 4
7 29 5
34 42 40
40 45 47
23 22 19
5 8 39
1 5 53
41 46 66
49 55 61
47 53 59
44 50 55
42 48 51
38 42 55
7 25 41
4 22 37
4 2 19
24 23 37
46 52 59
40 51 57
12 36 41
6 36 41
17 37 42
49 54 61
15 14 33
7 5 26
46 51 59
51 56 62
49 51 58
42 38 44
41 31 36
38 34 39
49 51 57
29 25 37
21 13 27
34 29 39
44 41 46
44 43 49
52 57 63
53 57 63
51 56 63
52 57 63
40 34 58
27 3 54
33 16 57
48 53 59
33 51 43
24 46 33
24 16 22
22 11 20
44 48 55
10 9 25
4 2 19
21 17 23
23 17 17
34 33 35
44 54 54
23 44 35
8 43 20
20 28 14
35 39 36
48 53 60
51 43 54
34 4 17
19 16 19
7 48 38
14 39 40
12 11 43
19 19 44
45 51 57
28 47 37
5 51 14
30 44 38
32 14 16
32 6 8
31 31 36
22 24 36
22 23 35
42 47 53
33 42 46
21 36 44
9 16 79
5 37 26
50 27 25
52 3 0
48 40 46
15 15 38
10 4 13
4 26 1
32 44 39
50 55 62
36 44 47
7 16 11
14 27 24
21 38 51
18 29 29
33 43 51
51 70 90
50 70 93
47 66 86
45 63 82
37 55 70
30 45 56
21 36 45
18 34 41
12 28 31
15 28 33
23 39 47
29 47 59
40 59 75
36 53 69
52 72 95
55 75 97
54 74 98
59 80 107
58 78 103
61 82 109
57 77 102
55 84 96
35 95 51
16 95 12
17 105 9
16 102 9
17 105 9
16 100 9
17 107 10
16 105 9
16 104 10
17 105 10
16 100 9
16 104 9
17 109 10
16 99 11
15 93 18
14 91 20
16 100 10
23 74 7
28 36 3
29 26 2
37 30 2
27 23 2
30 25 2
34 27 2
31 25 2
33 26 2
31 25 2
35 31 16
68 85 107
89 117 159
87 115 157
80 105 143
81 106 145
74 97 130
71 93 124
71 92 125
68 88 120
69 89 120
64 85 121
39 59 119
13 33 112
7 27 118
7 26 117
6 25 112
7 28 125
7 27 119
7 26 117
7 26 114
57 81 122
64 82 112
60 77 104
60 79 107
59 76 105
62 79 104
61 77 104
57 74 99
56 71 94
52 66 88
46 57 78
44 55 75
39 48 65
37 46 64
33 41 57
38 48 66
22 21 29
23 14 18
21 11 14
20 10 13
19 10 12
19 10 12
18 10 12
18 9 12
18 9 12
20 10 13
30 13 14
30 13 13
31 13 13
34 15 15
26 12 13
24 12 14
28 15 49
47 27 118
55 31 138
53 30 138
54 30 138
57 32 147
56 32 143
52 29 131
55 31 137
58 31 145
54 30 137
50 28 131
53 29 134
53 29 132
53 30 134
51 30 128
62 56 136
61 74 115
58 78 109
64 84 116
54 72 104
37 53 92
13 25 69
8 18 64
2 11 65
0 11 67
0 9 63
1 10 64
1 10 63
3 11 58
21 34 83
36 52 85
53 71 105
62 81 115
60 77 110
62 79 113
58 69 102
56 54 86
59 56 86
58 55 84
57 53 86
63 70 96
59 64 36
60 76 11
59 76 9
56 76 9
61 80 10
62 83 10
59 79 9
59 79 9
60 80 10
65 86 10
63 85 10
58 77 9
62 83 10
58 78 9
56 74 9
63 85 10
54 72 11
37 52 33
3 12 63
0 6 51
0 6 54
0 4 39
0 3 30
4 7 29
13 17 28
35 23 39
41 6 26
36 1 19
41 1 22
39 1 20
35 1 18
42 1 22
40 1 21
39 2 20
38 8 22
38 27 28
29 44 30
23 52 29
20 56 29
29 43 29
36 49 45
46 60 75
61 76 98
61 79 104
55 69 92
58 71 93
55 69 90
56 71 96
55 69 93
56 69 94
59 75 101
54 64 84
40 36 49
31 12 18
31 12 17
31 12 18
32 12 18
32 12 17
33 13 19
31 12 17
35 13 20
31 12 18
32 12 18
30 11 17
28 11 16
30 11 17
29 11 16
30 11 17
29 12 18
36 34 43
45 51 65
30 28 36
22 11 14
16 3 3
16 3 3
20 4 4
19 4 4
18 3 4
17 3 3
20 4 4
18 4 5
42 7 62
58 9 109
67 10 134
66 10 134
75 11 151
71 11 142
71 19 141
94 90 163
119 148 198
133 167 218
141 176 229
150 187 241
152 189 243
154 189 244
153 189 243
156 191 245
156 191 245
157 193 246
157 192 245
160 196 249
158 194 246
157 192 244
164 200 253
162 197 249
160 195 247
162 196 248
164 200 252
163 198 249
158 192 242
159 193 244
163 198 250
162 197 247
161 195 246
165 199 250
166 201 253
164 198 249
163 196 247
165 199 250
162 194 242
37 42 46
42 70 41
52 9 9
44 46 52
32 14 17
22 14 11
11 23 8
40 47 49
48 54 60
46 52 58
39 45 50
20 49 38
15 50 33
18 33 25
8 17 27
10 18 26
15 12 31
5 4 40
25 26 47
44 48 54
48 54 61
47 52 59
42 56 54
16 66 24
21 74 29
53 56 54
42 44 52
42 52 38
41 69 2
45 74 2
43 56 33
46 50 55
46 51 58
47 51 57
30 30 41
14 9 24
16 8 19
26 4 5
30 11 10
37 41 44
10 21 10
5 20 4
33 41 39
64 56 43
80 60 28
65 50 27
29 29 39
40 45 54
46 51 60
44 47 62
37 35 66
42 42 66
48 53 58
7 19 31
6 16 25
10 12 20
36 40 49
45 51 58
40 46 51
19 30 23
16 29 20
16 32 31
42 48 54
33 36 45
33 35 44
49 54 60
49 53 59
46 50 56
30 24 28
17 0 2
17 0 2
35 30 35
16 12 21
13 7 17
24 21 30
35 36 40
42 47 51
52 72 77
53 73 79
51 57 63
50 55 62
41 41 55
19 6 36
30 18 40
37 33 32
9 33 10
5 36 11
25 38 32
39 42 48
38 41 48
4 3 16
2 1 13
13 12 15
11 9 9
12 35 14
4 46 8
0 44 8
0 41 15
10 35 19
43 46 51
47 51 57
35 37 41
6 6 4
3 4 1
6 25 19
7 20 30
5 3 32
9 9 34
43 49 54
35 39 32
28 32 21
36 42 41
29 12 14
26 8 10
35 38 43
30 32 38
35 39 45
45 50 56
42 50 56
10 16 71
4 6 83
2 26 35
37 16 11
46 9 7
42 47 46
17 35 17
10 9 14
29 48 42
62 70 81
48 54 60
24 35 35
7 12 7
11 27 25
23 36 42
26 34 33
46 63 79
57 77 102
51 71 94
50 70 90
43 62 81
42 61 78
43 61 81
44 62 79
38 54 70
34 50 63
36 50 65
42 60 78
40 59 75
45 63 82
48 66 85
52 72 94
52 71 95
57 77 102
61 82 109
60 81 108
56 76 101
64 85 112
59 85 102
29 93 38
16 101 9
15 94 8
14 91 8
16 99 9
16 99 9
16 102 9
17 107 10
16 101 9
15 97 11
15 96 22
13 84 36
9 59 54
9 57 63
7 45 68
5 34 72
7 41 75
10 47 51
21 27 21
26 23 5
26 22 3
25 21 2
29 25 2
29 23 2
31 24 2
29 23 2
29 21 2
37 37 30
58 72 92
69 91 123
70 92 126
65 84 115
65 85 116
69 89 120
71 92 124
67 87 120
65 85 115
61 81 112
49 68 118
16 35 113
6 25 110
7 26 116
6 24 106
6 25 111
6 26 119
6 26 118
7 27 121
7 27 120
45 78 141
57 78 109
61 79 107
61 78 104
56 73 96
61 78 103
55 70 95
56 73 96
55 72 99
53 68 93
53 69 93
50 64 87
54 70 93
55 70 94
53 68 91
53 67 90
37 44 59
19 13 16
17 9 11
19 10 12
17 9 11
16 9 11
15 8 10
24 11 12
33 14 14
62 23 17
68 25 18
77 28 19
89 31 21
81 28 20
69 25 18
64 23 20
64 28 72
57 29 117
50 29 128
52 28 128
54 30 138
51 28 131
56 30 137
52 29 131
54 30 136
53 29 132
56 31 142
51 29 132
51 28 130
51 28 130
54 30 140
50 28 129
51 35 122
53 60 108
52 70 96
47 64 93
51 70 96
45 61 86
33 45 74
14 24 54
13 23 56
7 14 45
4 10 39
4 10 42
7 12 38
10 18 51
25 35 69
39 51 77
46 61 91
51 65 96
58 65 95
51 37 65
55 28 53
53 18 44
51 13 37
48 10 33
50 13 37
48 16 38
50 25 31
53 47 17
56 59 14
60 75 10
56 72 8
61 80 9
58 75 9
56 76 9
61 81 9
56 74 9
58 78 9
60 77 9
58 77 9
59 81 9
61 82 9
59 77 9
56 73 9
36 52 38
5 12 54
0 5 51
0 4 41
0 4 39
7 12 43
20 28 51
41 53 77
48 50 72
40 24 44
35 1 18
37 1 19
36 1 19
38 1 20
36 1 18
36 11 22
27 32 24
17 74 33
12 101 39
9 109 40
7 112 40
8 113 42
7 118 42
15 102 45
27 99 61
44 91 83
51 75 89
62 79 104
57 71 91
55 70 92
59 75 101
59 76 101
57 70 93
60 75 100
51 60 78
41 36 49
30 15 21
30 11 16
29 11 16
28 11 16
30 12 17
28 11 16
31 12 17
26 10 15
29 11 16
29 11 16
31 11 17
31 12 17
28 11 16
28 10 16
29 10 17
30 15 22
40 41 55
48 59 78
51 59 77
29 26 33
23 15 19
17 4 4
16 3 3
17 3 3
16 3 3
15 3 3
17 3 4
22 4 11
41 7 71
65 10 130
71 11 142
66 10 132
68 10 135
71 11 143
65 10 132
75 31 147
91 94 158
129 160 214
129 163 213
142 177 230
145 181 235
152 189 244
151 187 242
152 188 243
152 188 241
157 194 248
155 191 245
157 193 247
158 194 247
158 194 248
160 195 249
164 200 254
156 191 243
161 196 249
160 196 248
158 192 244
161 196 249
164 199 252
161 196 248
166 201 254
160 194 246
167 202 255
164 198 250
162 197 248
163 198 250
160 194 245
162 196 247
61 76 83
23 60 26
43 14 15
48 43 51
32 19 23
19 12 6
12 21 5
36 41 43
47 54 61
46 52 57
47 53 60
32 47 46
9 33 22
14 27 19
7 14 22
7 15 23
25 29 40
8 9 28
30 33 42
43 48 56
47 51 58
49 54 62
36 56 46
14 61 21
15 65 22
20 50 25
44 47 54
42 52 38
34 59 1
36 58 1
34 51 15
46 50 56
46 50 56
47 51 58
17 15 25
12 8 20
12 7 20
16 5 10
29 26 28
38 41 45
30 35 35
22 29 26
39 44 46
71 52 23
77 55 22
71 52 21
56 50 41
48 53 61
45 50 59
19 11 64
11 0 66
13 2 62
43 43 61
29 34 40
22 26 31
37 42 47
41 44 52
36 30 45
33 29 36
21 23 12
21 25 12
27 32 22
44 50 56
40 46 53
46 49 54
49 53 58
49 55 61
45 50 56
31 28 32
11 0 2
13 1 3
36 34 38
28 29 35
19 19 24
36 39 45
44 48 55
54 81 83
54 101 108
55 101 107
52 69 73
46 51 58
44 48 55
37 30 38
35 3 4
36 2 2
29 10 3
6 27 9
32 43 41
44 49 56
39 43 48
20 22 27
19 20 26
30 33 37
25 29 26
3 32 4
0 39 2
0 35 3
2 30 12
28 38 36
41 46 51
46 52 58
37 42 46
2 4 1
2 3 0
19 24 25
13 16 27
3 2 21
19 20 36
43 48 48
27 28 19
26 26 18
40 35 36
27 18 22
30 26 29
42 46 52
47 52 58
47 53 60
46 53 58
40 47 52
10 12 65
4 5 77
4 22 32
32 19 15
39 21 22
24 43 22
13 40 0
20 25 24
66 81 99
66 78 93
49 54 60
18 29 29
10 11 7
8 36 36
27 38 35
38 51 55
58 78 104
64 85 115
64 84 112
61 82 109
62 83 111
57 78 104
65 85 113
62 81 109
55 75 100
56 76 101
56 76 100
64 84 112
65 86 114
56 76 101
59 80 108
61 82 110
60 82 109
60 82 108
60 82 108
64 85 115
66 86 115
63 83 111
55 89 92
29 94 39
14 90 8
16 104 9
15 96 9
15 97 9
15 93 8
15 95 8
15 97 9
14 89 16
10 69 37
6 38 69
2 16 95
1 6 107
0 2 116
0 2 109
0 2 114
0 3 112
1 3 103
5 5 91
11 10 70
20 17 21
24 21 5
27 23 2
29 23 2
31 25 2
28 21 2
26 20 2
44 47 46
60 76 101
69 90 122
69 89 121
66 86 116
69 88 119
68 88 118
67 87 118
65 85 116
63 81 110
53 73 113
26 45 110
7 24 105
6 25 110
6 25 111
6 24 108
6 24 108
6 25 109
6 23 103
6 24 108
6 24 102
36 74 150
49 76 122
63 83 111
66 86 115
67 87 115
64 81 107
64 84 110
64 83 111
65 84 114
64 82 109
60 79 105
62 81 106
66 86 115
65 85 113
63 84 114
62 81 110
47 58 78
24 22 28
15 8 10
15 8 10
15 8 10
15 8 10
31 13 12
58 21 16
84 30 20
97 34 22
97 34 21
99 34 22
96 33 22
97 33 21
95 33 21
91 31 22
93 33 34
78 31 64
62 29 96
50 28 128
53 28 127
51 28 129
53 29 131
50 27 122
48 27 125
51 28 126
50 26 121
52 29 132
47 26 120
47 27 123
49 27 124
51 28 127
48 29 118
50 49 107
47 62 95
48 65 91
42 58 85
34 48 75
32 44 69
31 44 67
31 42 64
19 27 45
17 24 48
23 33 55
30 40 60
31 41 69
35 46 74
43 56 85
40 49 78
48 40 65
48 19 42
48 10 33
46 9 31
48 10 32
49 10 32
47 9 31
50 10 33
47 10 32
48 10 32
46 13 29
46 23 24
53 52 17
61 76 11
56 73 8
55 72 8
57 74 8
55 71 8
59 77 9
53 71 8
61 80 9
56 75 9
56 76 9
57 75 9
54 72 9
56 75 9
32 45 32
7 14 46
0 4 42
1 5 37
7 12 46
16 22 47
36 47 72
54 71 100
53 66 85
45 45 67
37 12 30
36 1 19
33 0 17
31 0 16
29 19 21
20 65 31
13 101 39
6 112 40
6 115 41
7 118 41
7 118 41
6 116 41
7 119 42
6 118 42
7 116 42
12 111 48
26 96 61
50 87 91
60 77 102
59 74 98
58 72 96
56 69 91
61 78 103
56 71 94
53 64 85
44 44 60
31 17 23
29 11 16
27 10 14
25 10 14
30 12 17
29 11 17
27 10 15
24 10 14
28 10 16
26 10 14
25 10 15
28 11 16
26 10 15
25 9 14
27 10 16
32 20 30
44 46 62
45 54 71
51 63 83
37 41 53
27 26 35
17 9 11
11 2 2
13 2 2
11 2 2
13 2 2
12 2 2
18 3 21
50 7 97
66 10 128
65 10 129
56 8 114
66 10 128
64 9 131
63 9 126
66 10 128
72 43 138
100 110 172
129 163 215
131 166 216
145 182 237
147 184 239
148 184 239
148 184 237
150 187 241
152 187 242
153 189 243
155 192 247
155 191 245
159 195 250
158 195 249
156 192 245
155 191 244
157 193 246
160 196 249
162 198 252
158 193 246
155 189 241
163 199 253
162 198 252
159 194 247
164 200 253
163 199 252
161 196 249
164 200 253
159 194 246
164 199 252
85 102 120
24 64 28
40 33 25
44 41 48
32 24 27
17 12 5
10 18 4
27 34 29
47 53 58
46 53 58
47 53 58
34 41 44
17 24 23
19 27 22
7 14 18
5 12 18
31 38 46
32 35 44
44 49 57
44 50 57
48 54 61
46 53 59
40 53 51
13 51 19
13 55 19
16 49 21
37 41 45
40 45 46
30 48 7
27 45 1
30 42 14
47 52 58
52 56 60
48 53 57
28 28 36
10 6 16
9 6 16
23 21 27
35 36 40
39 42 46
44 49 53
42 45 50
45 50 55
50 42 28
60 44 17
49 36 15
53 50 43
49 54 59
44 48 56
11 2 53
9 1 58
5 10 76
9 20 75
37 46 66
49 55 62
46 51 58
26 14 32
22 0 25
23 0 25
21 6 20
17 20 10
19 22 13
45 50 56
48 53 60
71 72 77
92 94 100
83 86 92
45 51 56
39 42 48
23 21 24
24 21 24
38 41 47
43 47 53
40 44 50
34 46 43
25 45 34
28 53 42
36 66 63
30 51 50
34 42 44
50 55 62
49 54 60
34 16 18
33 2 1
33 2 1
31 4 4
26 31 29
41 47 51
42 49 54
34 43 47
24 39 38
28 38 39
27 28 28
16 13 9
16 14 8
4 22 3
3 26 6
25 35 33
39 46 49
40 48 51
42 48 51
35 44 33
25 32 17
16 19 17
33 38 43
30 34 39
17 18 26
32 36 42
33 36 36
21 21 14
45 13 15
75 2 16
68 10 22
46 45 52
46 50 56
44 49 56
48 53 59
49 54 60
41 46 58
6 7 62
3 5 54
13 26 26
26 25 26
32 33 33
14 41 2
14 38 4
36 43 43
81 99 119
61 71 82
45 50 55
27 28 42
16 9 15
11 34 35
36 43 34
57 73 95
65 84 113
64 86 115
67 87 116
67 88 118
67 88 118
67 89 120
65 85 115
65 86 115
64 85 113
66 87 116
66 89 119
64 85 114
66 85 115
65 86 117
63 84 112
66 87 118
65 86 114
68 89 118
69 89 120
68 89 118
67 88 117
68 90 121
60 89 102
32 78 45
13 83 7
14 91 8
14 93 8
13 85 8
14 90 8
15 96 9
13 81 15
8 54 53
2 12 99
0 2 99
0 1 103
0 1 103
0 2 108
0 2 109
0 2 105
0 2 113
0 1 101
0 2 113
0 2 111
5 5 87
15 14 37
24 19 4
25 20 2
24 19 1
24 20 5
32 30 18
56 66 77
70 90 120
70 91 122
71 92 123
69 90 120
66 87 119
69 90 120
67 88 118
69 88 118
66 86 118
42 61 112
11 27 92
6 23 102
6 22 102
6 23 102
6 25 110
6 24 108
6 25 108
6 23 102
5 22 101
6 22 101
35 74 151
43 73 130
57 80 115
61 81 107
65 85 114
67 85 112
65 86 115
65 86 115
69 89 118
69 89 118
65 85 113
68 87 115
69 89 121
68 88 117
67 89 119
67 89 117
56 72 95
31 34 46
17 11 14
17 9 11
17 9 11
44 17 14
74 26 18
90 31 20
95 32 21
94 32 21
93 32 21
91 32 20
97 33 21
92 31 21
92 31 20
91 31 20
92 31 20
94 31 21
86 32 48
66 28 73
57 29 118
50 27 125
50 27 120
47 25 115
48 26 122
49 26 118
49 26 120
48 26 117
46 25 114
52 28 127
48 26 119
45 25 115
46 26 119
46 39 106
51 64 97
49 68 95
48 66 92
47 66 92
52 72 97
51 69 99
43 57 82
40 55 80
48 65 91
47 63 93
47 63 92
53 69 98
52 69 97
50 60 86
45 29 54
49 13 34
42 8 28
48 9 32
46 9 31
47 9 31
45 9 30
46 9 30
47 9 30
48 9 32
47 9 31
47 9 31
44 9 28
47 18 27
49 45 17
48 60 9
53 70 8
61 79 9
50 67 8
57 75 9
53 71 8
55 73 8
55 74 9
54 72 8
54 69 8
51 68 8
46 63 8
32 44 15
6 11 28
0 4 36
5 8 30
13 18 38
33 44 73
49 63 89
53 68 95
48 62 89
51 59 85
43 43 64
35 13 31
29 5 18
29 17 20
12 79 32
6 110 39
6 110 39
7 117 41
6 111 38
6 107 38
7 119 42
6 116 40
6 111 38
6 107 38
6 114 40
6 112 38
7 113 41
25 98 61
45 83 85
59 75 101
62 80 107
62 78 105
56 70 94
62 80 108
60 74 99
51 57 76
35 27 37
27 10 15
25 10 14
26 10 15
25 10 14
26 10 15
26 10 15
24 9 14
29 11 16
25 9 14
23 9 13
21 7 12
24 8 14
27 10 15
29 11 16
25 16 24
41 48 65
47 57 76
41 48 64
37 45 59
37 43 55
19 15 19
15 12 15
11 5 7
10 4 5
9 3 3
9 3 4
17 7 22
43 10 78
62 9 122
58 9 117
63 9 126
65 10 128
57 9 117
59 9 119
66 10 132
66 10 135
77 54 144
109 122 187
118 150 199
132 166 218
137 173 227
145 181 235
142 179 233
151 188 244
151 188 244
150 187 243
154 191 247
156 193 249
160 198 254
153 189 243
159 196 251
160 197 253
157 194 249
157 193 247
156 192 246
158 195 249
157 194 247
160 196 250
158 194 247
159 195 248
161 197 252
161 197 251
159 195 248
162 198 252
158 194 247
159 195 247
117 142 175
18 50 26
33 38 26
54 64 86
37 38 44
15 8 5
10 17 4
20 27 20
44 50 56
46 51 56
48 54 59
47 53 59
41 47 52
26 32 33
11 15 15
4 8 12
31 35 39
41 47 53
46 51 58
45 51 57
46 51 58
45 52 57
44 50 55
18 39 23
9 43 14
20 41 27
34 41 42
36 41 43
32 39 30
16 26 4
32 37 31
82 73 61
95 84 70
90 78 64
49 47 46
14 14 18
9 7 13
33 36 41
48 52 59
46 50 55
46 51 57
45 50 55
46 50 54
40 39 36
34 27 17
36 30 24
40 42 44
45 48 53
41 44 51
12 8 34
3 12 59
0 19 79
0 21 88
3 23 80
37 45 64
39 42 51
17 4 22
16 0 19
19 0 20
21 1 22
16 13 14
32 35 37
42 46 52
47 52 58
51 56 62
63 70 78
61 66 73
48 53 59
44 49 55
45 49 55
44 48 54
44 48 54
48 53 59
37 47 46
16 36 22
16 38 22
16 37 21
17 37 25
20 37 38
40 49 54
43 49 54
47 53 58
35 31 35
23 1 0
23 1 0
31 19 21
40 45 49
43 49 54
30 43 44
6 30 23
4 29 22
5 30 23
9 15 10
12 9 6
16 12 7
15 17 10
25 34 32
35 43 46
42 50 55
40 47 49
29 37 23
30 37 20
31 39 21
31 37 28
33 37 42
39 43 49
38 43 48
42 47 53
33 37 38
25 17 13
68 3 14
79 23 37
85 57 72
58 50 58
48 52 58
49 54 61
49 54 61
47 52 60
40 46 54
5 6 46
4 7 36
32 38 39
44 48 52
32 39 36
15 18 28
15 29 13
31 42 39
60 72 81
52 58 68
41 47 53
34 18 60
22 14 31
17 35 37
43 51 34
59 76 99
61 79 105
60 78 104
65 85 114
60 78 104
66 86 115
66 87 117
67 88 119
66 87 115
68 88 119
67 88 118
64 85 112
62 83 109
66 86 116
68 89 118
71 91 122
65 85 114
69 89 120
68 90 121
68 89 120
67 89 120
69 88 118
66 86 115
59 84 100
38 81 58
15 85 11
13 85 7
14 85 7
14 85 7
12 78 7
14 87 11
8 53 46
2 15 83
0 1 98
0 1 95
0 1 100
0 1 100
0 1 104
0 1 105
0 1 102
0 1 103
0 1 101
0 1 102
0 1 105
0 2 107
5 5 91
13 11 41
21 17 4
22 18 4
32 31 22
46 53 62
66 84 111
69 89 120
67 87 118
72 92 124
67 88 118
72 92 124
66 85 114
69 89 121
66 85 115
61 79 115
23 41 104
6 23 102
6 22 96
6 22 98
5 22 96
6 22 99
6 23 102
5 22 97
6 24 107
6 22 95
6 23 101
30 62 129
36 66 130
56 82 124
64 84 111
67 87 116
69 89 120
68 88 118
67 87 118
66 87 114
66 88 115
68 87 116
67 88 117
68 91 121
68 90 122
68 89 119
72 93 126
65 85 111
50 60 80
26 26 33
14 8 10
33 13 12
81 28 19
90 31 20
92 31 20
96 32 21
94 32 20
93 31 21
95 32 21
95 32 20
96 33 21
90 31 20
86 28 19
94 32 21
90 29 19
85 28 18
79 28 35
61 27 78
46 23 98
43 24 110
45 24 110
46 25 113
46 24 113
45 23 107
46 25 115
42 23 104
42 23 103
42 22 101
41 23 107
42 24 108
49 37 109
59 74 111
57 77 106
59 79 109
59 79 107
63 82 114
58 77 108
61 81 112
60 79 109
62 81 116
59 77 106
60 80 112
61 81 112
62 77 109
53 50 79
46 14 37
48 9 31
44 8 29
48 9 32
45 9 30
45 9 29
46 9 30
45 9 29
48 9 30
44 9 28
48 9 31
42 8 27
44 9 29
42 8 27
43 13 26
39 37 12
49 63 8
53 71 8
47 62 7
50 66 8
50 67 8
47 64 7
50 67 8
53 70 8
46 60 7
50 69 8
52 67 8
29 39 17
11 15 21
6 9 29
9 14 33
22 26 41
35 44 61
34 40 61
37 45 68
35 43 62
38 48 69
34 39 57
35 33 50
23 21 28
11 69 29
7 108 39
6 110 39
6 106 37
6 108 38
6 111 38
6 111 39
6 109 38
6 102 36
6 103 36
6 107 37
6 105 36
6 110 38
6 107 37
8 108 40
19 100 53
51 81 90
59 74 101
60 77 105
63 80 108
54 66 88
61 77 102
55 67 91
40 41 56
26 16 22
24 9 13
21 8 12
27 10 14
20 8 12
25 10 14
24 9 13
26 10 14
23 9 13
21 8 12
24 8 13
22 8 12
20 7 11
23 15 22
39 38 51
44 52 71
47 57 76
47 59 80
47 56 74
41 49 65
42 50 66
28 31 41
31 34 45
23 27 36
20 21 28
21 23 31
28 26 45
39 15 73
54 8 108
61 9 120
57 8 115
58 8 116
58 9 116
56 8 112
60 9 123
59 9 118
55 8 112
72 45 137
106 124 183
130 165 218
137 174 229
140 177 233
143 180 237
143 180 235
145 182 238
148 187 242
151 189 244
154 192 249
157 195 252
152 189 244
152 189 244
156 193 249
158 196 252
158 195 251
157 194 249
157 194 249
159 196 252
157 193 247
157 194 248
158 194 249
157 193 248
159 195 250
157 193 247
159 195 249
162 198 253
161 198 253
125 153 192
25 51 38
27 47 29
48 62 85
47 55 71
18 18 17
8 13 2
14 20 11
46 52 58
48 54 60
46 51 57
46 52 58
46 52 58
43 48 53
28 32 35
27 30 33
37 42 48
46 51 57
45 50 57
47 53 60
47 52 59
45 52 57
40 48 51
33 41 40
16 27 19
24 32 28
32 39 39
40 48 47
36 43 43
33 39 37
47 49 44
106 89 70
94 85 71
97 86 71
93 77 61
39 40 43
37 40 45
39 43 48
42 47 54
45 49 54
45 49 54
47 52 59
45 48 52
42 45 47
40 42 44
39 42 45
42 44 49
35 37 43
11 9 18
7 4 12
7 4 13
4 8 30
0 15 64
0 17 70
17 30 67
40 44 53
14 5 19
13 0 15
15 0 17
18 3 19
29 31 34
36 39 43
45 49 54
46 51 56
47 52 58
47 52 57
48 53 60
49 54 60
47 53 59
47 51 57
47 53 59
48 53 60
46 52 58
29 41 36
15 34 20
13 30 17
13 29 17
15 31 21
30 37 39
37 44 48
39 43 47
35 40 44
33 33 36
24 19 20
19 14 15
34 33 37
40 43 48
41 45 50
12 30 26
3 25 19
4 27 20
4 27 20
5 16 12
10 8 5
11 8 5
22 23 23
40 47 50
43 49 54
44 49 55
35 41 37
24 30 16
27 34 18
26 32 18
29 35 25
45 50 55
43 48 53
43 48 54
41 46 50
27 30 31
31 12 15
67 25 35
95 93 110
92 96 117
80 81 94
49 53 59
49 54 61
48 53 61
45 49 58
37 41 50
15 17 31
14 18 25
39 45 48
42 48 52
30 23 61
19 2 66
26 23 50
33 40 44
35 40 54
49 54 61
36 39 47
38 15 66
18 17 23
32 46 51
52 65 53
47 61 80
53 68 89
52 67 88
59 76 101
58 75 98
64 83 111
60 79 104
62 82 108
64 83 110
66 86 114
66 86 115
69 89 119
68 88 119
68 90 120
68 88 117
64 84 111
69 90 119
66 87 116
65 85 114
68 90 120
65 85 114
70 91 122
66 87 117
62 84 108
44 83 63
32 93 18
37 95 5
54 106 4
52 111 5
52 110 5
36 77 33
20 35 65
4 8 99
0 1 95
0 1 100
0 1 102
0 1 89
0 1 101
0 1 93
0 2 105
0 1 99
0 1 103
0 1 105
0 1 103
0 1 100
0 1 105
4 4 84
18 16 29
30 30 26
40 47 55
61 76 100
66 87 117
68 87 116
68 87 116
65 84 116
66 87 118
71 92 123
68 87 117
68 88 119
65 85 115
56 75 114
18 34 97
6 22 99
5 21 90
5 19 88
5 21 97
5 21 95
6 22 98
5 20 91
6 22 96
5 21 91
6 22 101
28 61 123
29 59 121
54 79 123
66 89 118
67 87 118
68 88 118
67 87 117
70 91 121
70 91 121
68 89 120
71 92 123
70 91 121
67 87 119
70 91 122
65 86 112
67 87 118
68 90 119
62 81 108
42 52 71
29 17 19
61 22 15
83 29 18
86 30 19
94 31 20
88 30 20
89 30 20
86 29 19
96 32 21
84 29 19
84 28 27
88 26 48
87 25 44
85 21 72
89 23 73
90 24 60
90 27 44
75 26 38
51 24 82
44 24 104
40 22 97
40 21 100
45 24 107
41 21 100
39 21 100
42 23 102
40 22 99
42 23 105
46 25 113
41 22 100
46 37 106
63 75 119
63 84 116
62 82 112
67 88 118
67 87 118
68 88 119
64 83 113
65 85 115
68 89 122
63 82 113
67 87 117
67 86 116
55 60 87
51 25 48
44 8 28
44 9 29
43 8 28
45 8 29
48 9 31
44 8 28
40 8 26
42 8 28
44 8 28
41 8 26
45 9 29
44 9 27
43 9 28
41 8 27
42 8 27
44 21 22
46 53 11
44 60 7
43 56 6
46 61 7
37 48 5
48 67 7
44 58 7
47 63 7
44 60 7
49 62 7
46 57 13
39 49 30
36 18 25
33 17 29
50 14 23
47 22 35
46 28 42
37 30 45
30 35 53
35 43 62
29 33 49
33 37 54
30 35 49
16 55 34
7 90 34
6 98 35
6 103 37
6 108 37
6 108 37
5 96 35
6 107 38
6 107 36
6 101 35
6 111 39
6 104 36
6 110 37
5 99 33
6 106 37
6 110 38
8 102 38
38 88 76
54 69 93
60 75 101
64 81 111
61 78 103
63 81 106
57 75 91
49 61 76
34 33 43
22 10 14
23 8 12
22 8 12
21 8 12
23 9 13
19 7 11
25 9 14
23 9 13
22 8 12
22 8 12
19 7 11
21 10 15
38 37 50
48 55 75
55 69 91
55 69 95
54 68 92
56 69 92
55 68 92
49 59 82
48 59 80
53 65 88
53 65 86
48 60 80
43 53 71
46 54 77
45 28 84
50 9 98
52 7 102
54 8 108
56 8 113
51 8 102
58 10 115
56 22 113
57 34 117
62 52 127
71 67 142
66 79 128
89 118 160
111 145 193
126 161 212
137 174 230
142 180 237
146 185 242
149 187 244
147 185 242
149 187 243
152 190 248
153 191 248
152 189 246
154 192 249
154 192 248
153 191 247
154 191 247
154 191 247
157 194 250
153 189 244
153 189 244
158 196 252
158 195 250
159 196 252
161 198 254
155 192 247
160 197 252
159 196 251
147 180 228
36 59 54
24 48 27
53 69 92
56 71 94
37 40 44
8 15 4
11 16 6
44 50 54
46 52 58
47 53 59
50 55 62
48 53 59
45 51 56
24 38 31
25 40 32
41 48 52
45 51 57
47 53 59
48 53 59
49 55 61
46 53 57
44 51 54
45 52 57
42 49 52
41 49 51
44 51 55
45 51 56
49 55 61
44 51 55
54 54 49
94 77 58
92 77 58
106 87 66
94 76 60
47 47 48
46 51 56
47 53 60
48 52 58
46 51 58
48 53 59
48 53 60
45 50 56
45 51 57
47 52 58
46 50 57
45 50 59
18 17 25
7 4 12
5 3 10
6 4 11
6 4 11
3 7 29
0 12 52
11 22 57
36 39 46
28 29 35
10 3 12
11 3 12
27 26 33
37 40 46
41 45 50
47 52 59
48 54 61
47 51 58
44 49 54
48 54 60
48 53 59
48 53 59
49 54 60
49 54 61
46 52 58
47 52 58
30 39 39
11 25 14
11 25 14
12 27 15
26 35 33
43 50 55
41 47 52
45 51 57
46 51 57
39 42 47
37 41 45
38 41 46
41 45 51
44 48 53
41 47 53
5 21 17
3 21 15
3 21 16
2 20 14
4 11 8
8 6 4
10 10 8
39 43 47
43 48 53
45 51 57
46 50 56
33 38 35
19 24 13
23 28 15
22 28 15
33 38 35
48 52 58
44 49 55
47 51 56
49 53 60
63 61 79
68 43 60
76 68 77
99 99 116
94 95 113
87 84 97
51 55 61
49 53 60
49 53 59
47 52 60
44 49 58
39 44 54
38 43 50
40 47 52
41 43 56
18 4 56
18 1 60
32 29 56
33 40 48
36 44 54
46 52 58
42 37 58
31 11 55
21 24 29
43 51 47
53 65 68
51 66 87
54 70 93
58 75 100
54 70 92
63 82 108
60 78 104
63 82 110
64 84 112
61 81 109
66 86 116
62 82 108
65 85 113
68 87 116
58 77 103
62 82 109
68 88 119
64 85 112
64 84 111
67 88 116
65 86 113
68 89 118
63 83 109
71 93 119
75 100 85
88 124 35
93 140 6
98 144 2
99 144 2
107 152 2
103 148 2
104 150 3
93 132 13
65 91 40
36 53 65
5 8 91
0 1 97
0 1 94
0 1 100
0 1 98
0 1 97
0 1 99
0 1 95
0 1 99
0 1 97
0 1 98
0 1 99
0 2 99
16 19 75
39 43 56
58 73 95
55 70 93
66 83 110
65 82 110
64 82 109
60 77 104
69 88 119
69 88 118
63 81 109
65 82 111
67 84 114
47 64 104
16 31 91
5 19 86
5 19 86
5 19 87
5 19 84
5 21 93
6 23 104
5 21 90
5 21 91
6 22 96
5 18 83
28 60 122
27 55 108
49 76 123
66 85 115
70 90 122
66 86 116
68 88 119
69 90 122
68 88 119
70 92 124
70 92 124
66 86 116
66 88 118
67 86 116
68 89 118
68 88 116
66 86 117
67 88 118
53 67 92
60 44 50
78 27 17
92 31 20
88 30 19
87 29 19
87 29 19
88 30 20
86 28 19
85 27 23
86 21 77
81 12 140
81 7 179
80 3 202
79 4 197
77 2 205
78 4 189
74 5 176
75 9 152
66 16 119
41 17 98
41 23 102
42 22 100
41 21 96
43 23 103
38 20 91
37 20 91
44 24 107
38 20 96
36 20 92
37 21 94
43 33 102
59 71 110
65 84 115
66 86 118
71 91 123
69 90 119
67 87 116
66 85 112
67 87 118
68 89 120
67 87 119
69 87 118
65 83 115
52 42 67
41 10 28
44 8 29
44 8 28
44 9 29
43 8 29
44 8 28
41 8 27
44 8 28
43 8 27
43 8 27
40 7 24
42 8 26
42 8 27
42 8 26
44 8 27
39 7 23
42 10 26
43 34 16
43 57 7
44 59 7
44 60 7
44 60 7
43 59 6
50 68 8
43 57 6
38 49 6
50 53 7
64 31 11
87 23 19
93 12 15
100 10 13
100 10 12
104 11 14
101 12 14
87 20 27
74 25 34
52 39 52
45 53 74
44 50 72
28 41 47
12 81 38
6 100 35
6 102 36
6 102 36
6 101 35
6 100 34
6 100 34
6 101 35
6 98 34
6 101 35
6 105 35
5 96 32
6 105 36
6 106 36
5 93 30
5 100 35
6 107 36
16 98 49
49 75 86
59 83 100
66 109 100
65 124 95
68 151 94
70 158 92
67 152 90
51 103 58
43 77 48
30 40 26
19 10 12
22 8 12
18 7 10
18 7 10
18 6 10
17 6 9
19 7 11
18 6 10
21 13 18
37 38 52
48 56 76
62 79 106
59 75 100
58 73 98
58 73 98
60 76 103
61 76 102
61 78 107
65 83 112
61 79 106
64 80 107
59 74 100
60 77 104
63 80 107
60 56 106
52 12 100
51 8 102
52 7 106
53 8 104
53 21 109
61 63 126
74 94 152
82 125 173
84 133 180
90 141 191
87 137 184
89 138 185
76 113 152
92 131 174
107 144 192
125 161 213
140 178 234
144 182 239
144 183 240
148 187 245
146 184 242
144 181 238
150 188 246
155 194 253
153 192 249
155 194 252
147 184 239
151 189 245
152 190 247
155 192 249
151 188 243
152 189 245
154 192 248
154 191 247
156 194 250
157 195 251
157 195 251
160 197 254
158 196 252
53 72 79
11 33 14
45 56 68
59 75 100
43 49 54
24 28 27
7 12 3
38 43 45
45 50 56
46 51 56
46 52 58
49 55 61
37 46 46
5 25 7
5 26 7
15 34 19
44 52 56
48 54 60
48 54 61
50 55 62
48 54 60
46 53 58
45 51 56
46 53 58
47 52 57
47 53 58
47 53 58
46 52 57
49 55 62
46 49 51
42 37 28
44 36 27
58 48 35
46 39 31
48 47 47
48 53 59
49 54 60
47 52 57
49 55 60
48 53 56
47 52 58
48 53 60
46 51 57
48 52 58
47 52 60
43 47 54
15 14 21
5 3 9
5 3 9
6 3 10
6 3 10
4 4 14
1 11 41
25 31 46
36 40 48
30 32 39
28 29 35
24 24 29
30 31 37
40 43 49
38 41 47
44 48 55
47 52 58
48 53 59
47 51 57
47 53 59
45 51 57
45 50 56
46 52 58
43 49 54
44 49 55
40 46 50
32 38 40
16 24 21
9 18 11
18 25 22
32 37 39
41 46 50
47 53 59
42 48 52
43 49 54
42 46 52
30 25 30
25 16 20
24 17 21
31 27 31
39 43 48
14 24 22
2 18 13
2 16 12
3 19 14
11 14 13
9 9 9
26 28 30
36 39 43
39 43 47
45 50 55
39 44 48
34 39 40
17 21 11
18 22 11
24 29 20
41 45 48
44 50 56
46 50 56
50 52 60
77 70 101
82 76 119
82 76 118
87 78 103
86 80 95
75 73 81
50 49 59
46 50 57
48 52 60
49 54 61
49 54 62
49 54 61
46 51 60
45 49 56
43 49 56
27 24 49
17 1 54
16 1 54
28 27 47
27 33 39
43 49 58
47 52 59
35 23 54
29 15 47
30 36 37
37 45 29
55 71 87
57 76 101
63 81 108
60 80 104
59 77 103
65 85 113
65 85 113
61 81 106
63 83 111
63 83 110
63 82 109
64 83 109
62 82 108
67 88 118
64 86 114
61 80 107
63 84 111
68 89 118
68 90 120
68 88 119
64 84 111
66 87 114
75 100 91
82 114 50
100 139 13
98 140 1
105 146 1
103 148 2
104 149 2
101 145 1
104 147 1
104 147 1
108 152 2
102 147 3
105 148 5
61 87 41
17 26 75
0 1 92
0 1 82
0 1 85
0 1 98
0 1 84
0 1 93
0 1 88
0 1 96
0 1 94
0 1 85
0 1 90
7 9 89
39 49 80
46 56 72
54 69 90
59 74 96
55 69 91
57 72 96
62 79 105
59 75 101
59 75 99
57 72 97
61 77 105
61 78 105
45 60 93
10 25 87
5 20 88
5 20 90
4 18 78
5 20 89
5 20 90
4 18 80
5 18 78
4 17 78
5 19 86
5 19 85
28 60 119
28 56 113
48 70 111
68 87 118
69 90 122
68 88 119
66 85 115
66 87 117
70 89 119
64 84 113
66 85 114
66 86 115
67 87 116
70 90 120
64 82 109
65 85 112
59 77 105
59 77 102
64 75 98
75 38 36
80 27 17
80 28 18
79 26 18
82 27 18
82 27 18
80 26 19
79 23 49
79 14 110
78 3 193
74 1 207
78 1 216
76 1 214
75 1 208
74 1 207
75 1 207
75 1 207
71 1 192
75 2 201
62 6 170
48 17 121
38 20 89
38 20 92
38 21 94
36 20 92
35 19 86
34 19 88
37 20 94
39 22 100
36 20 92
49 49 103
59 74 107
68 89 119
67 88 117
68 88 120
68 88 117
69 90 124
69 91 124
68 88 120
67 88 121
69 89 119
66 86 115
65 77 107
46 21 41
43 8 28
42 8 27
40 8 26
39 7 26
43 8 27
40 8 25
40 8 24
43 8 27
39 7 25
40 7 24
39 8 25
39 7 24
37 7 23
39 8 24
39 8 25
38 7 24
37 7 23
39 23 18
36 46 7
38 51 6
37 48 5
39 52 6
38 49 5
40 54 6
44 55 7
63 46 9
90 22 11
95 10 11
101 10 12
102 10 12
102 10 12
99 10 12
99 10 12
101 10 12
102 10 12
98 10 12
94 13 16
81 33 46
63 66 89
35 69 66
8 85 35
5 86 30
5 95 33
5 94 33
6 102 36
6 94 33
6 101 36
5 97 32
5 88 30
6 101 35
6 104 35
6 106 36
5 91 31
5 89 30
5 100 33
6 101 35
5 89 31
18 108 50
59 143 86
70 159 92
72 167 89
72 172 90
71 174 91
71 173 90
68 166 87
70 171 89
67 165 85
63 147 77
48 98 54
23 27 19
15 7 8
16 6 9
15 5 8
13 5 7
13 4 7
20 14 19
23 20 29
45 57 73
53 68 88
50 69 85
57 77 98
58 78 101
63 79 107
55 68 93
62 78 105
64 80 107
62 78 106
60 76 104
62 78 105
62 77 103
57 71 96
63 81 108
64 72 112
54 33 102
45 10 91
44 8 89
56 46 111
78 105 160
85 132 184
87 140 193
88 142 195
88 145 201
90 147 204
89 145 201
90 145 198
93 147 198
91 142 190
82 126 167
97 140 187
106 139 186
136 174 231
140 179 236
143 183 241
146 185 244
144 184 242
147 186 244
149 188 247
151 189 248
150 188 246
149 187 245
145 182 238
149 186 243
155 193 251
155 194 252
150 187 243
154 192 249
150 187 243
153 191 248
156 194 251
153 190 247
148 185 239
153 190 247
67 81 104
10 30 14
38 47 53
56 68 86
38 45 52
34 39 42
6 10 3
28 32 33
43 49 54
47 52 58
46 52 58
50 55 62
30 42 39
5 23 6
5 26 7
5 26 7
24 37 30
50 54 61
47 53 58
51 59 63
53 63 69
51 59 63
48 53 58
48 53 58
48 53 59
48 55 60
49 55 60
47 52 56
50 55 59
49 53 57
45 42 38
42 35 26
45 39 31
46 39 30
44 45 45
47 52 57
46 50 54
47 52 58
49 54 59
50 55 61
48 53 60
49 54 60
44 49 55
44 49 57
44 48 55
42 47 54
28 29 34
6 3 10
4 2 7
4 2 8
4 2 7
7 7 13
13 17 28
27 31 38
35 40 49
33 37 46
39 43 51
41 46 54
37 41 47
46 51 57
43 46 53
48 54 59
47 51 58
44 50 57
47 52 59
48 54 60
49 54 61
45 51 57
46 51 56
45 51 56
46 51 56
38 39 44
31 23 28
26 16 21
25 15 19
33 32 36
40 45 48
40 44 49
43 48 53
42 47 53
45 50 57
22 14 18
15 4 7
17 5 8
16 4 7
16 5 8
24 20 23
19 23 24
11 18 17
8 13 12
20 24 25
24 26 28
25 28 30
32 36 40
39 43 47
41 46 51
40 45 50
38 43 47
31 34 37
18 20 19
14 16 13
26 29 30
41 45 50
41 46 50
45 47 54
66 60 80
84 77 118
76 74 119
78 75 119
85 73 108
47 41 56
48 50 54
47 48 53
49 53 59
48 53 60
50 55 62
46 50 57
47 52 58
44 50 55
43 48 55
42 48 53
19 10 46
15 1 49
14 1 45
31 32 44
20 23 25
41 46 53
47 51 58
34 16 55
31 21 47
31 37 38
45 55 35
63 82 109
67 87 116
67 87 117
65 86 114
65 84 112
67 88 117
64 84 112
67 87 116
70 90 121
70 90 120
68 88 115
65 86 113
66 88 114
64 84 109
61 83 107
64 85 112
68 88 118
68 89 120
67 88 118
66 87 117
63 83 110
70 92 105
86 122 27
96 137 3
102 144 1
98 139 1
96 135 1
99 141 1
96 135 1
98 140 1
105 147 1
93 131 1
106 151 2
104 149 1
102 143 1
96 136 2
71 102 22
19 28 73
2 4 73
0 1 88
0 1 82
0 1 77
0 1 86
0 1 84
0 1 88
0 1 93
0 1 96
0 1 91
3 6 87
26 33 84
44 53 66
54 67 88
52 65 83
48 60 77
51 64 85
56 71 95
58 74 98
56 69 91
60 77 102
60 76 103
57 71 93
50 65 97
12 26 78
5 18 78
4 17 79
4 17 79
4 16 74
4 18 79
5 19 82
4 18 80
4 17 79
5 19 87
5 18 82
27 57 113
29 52 99
55 75 108
67 86 115
67 87 117
66 86 116
63 80 108
64 84 112
63 81 109
67 86 115
58 75 101
65 85 112
64 83 110
60 76 102
60 77 104
59 75 100
48 62 85
63 80 107
61 61 75
75 33 28
78 27 17
87 29 18
76 26 16
79 27 17
78 25 18
81 21 54
76 6 166
75 1 210
74 1 207
71 0 198
72 0 200
72 0 201
70 0 191
70 0 194
74 1 205
72 0 202
72 0 196
73 0 201
73 0 199
68 2 180
51 13 135
31 15 74
34 18 85
39 21 93
34 19 86
39 21 97
37 20 93
37 20 93
33 20 80
55 62 110
65 85 117
65 84 115
66 85 115
67 87 115
70 90 121
70 91 122
68 87 117
66 86 115
70 90 120
70 90 121
67 86 117
60 64 89
41 15 33
39 7 25
38 7 24
40 7 25
37 7 24
39 7 25
39 7 25
39 7 25
42 8 26
41 8 26
41 8 26
37 7 23
39 7 24
37 7 24
38 7 24
35 7 23
30 6 19
37 7 23
31 11 17
36 38 8
42 56 6
36 49 5
36 50 5
38 50 6
36 47 5
59 33 8
88 14 10
102 10 12
103 10 12
97 9 11
98 10 12
96 10 11
91 9 11
100 10 12
99 10 12
96 10 11
94 9 11
90 9 11
94 9 11
85 29 32
43 67 55
5 91 32
5 91 32
5 84 29
5 90 31
5 91 32
5 94 32
5 92 32
6 94 33
5 90 30
5 91 30
5 91 31
5 93 32
5 91 30
5 94 31
5 96 31
5 98 34
26 120 49
49 145 71
68 165 86
70 166 86
69 168 88
70 169 88
71 171 89
67 164 85
69 168 86
70 169 87
69 171 88
68 168 87
71 173 89
56 134 68
25 45 26
11 6 9
12 9 12
11 8 11
11 13 14
17 37 28
23 66 45
23 79 49
18 85 47
22 84 50
18 80 43
23 82 51
33 80 64
42 67 74
54 70 91
56 69 96
61 78 104
57 73 99
62 77 102
61 77 105
60 76 104
63 80 108
65 81 112
56 56 101
46 31 89
54 57 109
77 113 157
89 142 192
88 145 201
87 145 204
84 142 204
84 142 203
86 144 204
87 144 202
87 143 201
92 148 204
89 142 194
92 143 194
87 136 183
83 124 168
117 156 210
137 176 234
140 179 238
138 176 234
139 177 235
139 176 236
123 151 210
91 106 163
76 83 139
75 80 138
62 62 118
64 65 122
101 119 176
116 141 197
143 178 235
150 189 246
146 184 240
151 189 247
152 190 248
154 193 252
149 186 243
153 192 249
101 124 166
17 35 24
30 38 37
40 49 61
31 39 47
38 42 47
16 18 19
33 36 37
44 49 55
46 51 58
48 53 59
49 55 61
28 39 34
5 22 6
5 23 6
5 24 6
6 24 8
43 51 52
44 69 38
47 77 43
49 68 66
54 67 76
50 58 62
47 53 58
48 54 60
48 54 60
47 52 58
48 53 59
48 53 58
46 50 53
44 44 45
33 29 24
29 23 17
30 25 20
40 41 42
43 45 47
46 49 53
46 50 56
48 53 59
48 52 57
49 54 60
46 51 58
47 52 58
43 48 55
43 48 54
39 43 49
33 37 44
13 12 17
5 4 8
4 3 7
7 6 10
17 19 25
24 27 34
32 36 43
33 37 44
39 44 52
43 49 56
44 49 56
45 50 57
45 50 57
46 52 57
47 53 59
45 49 55
47 52 58
48 53 59
49 54 60
50 55 62
46 52 58
48 53 60
42 48 53
38 32 38
30 11 18
28 8 14
28 8 14
28 8 15
31 12 18
40 39 45
44 50 55
43 49 54
46 51 56
32 32 36
14 4 7
14 4 6
14 4 6
14 4 6
15 4 7
15 6 7
33 36 40
29 34 37
29 33 35
32 36 40
34 39 44
40 45 49
38 43 47
45 51 57
44 50 56
40 45 50
41 44 49
33 37 40
35 38 41
32 36 38
38 41 45
43 46 51
45 48 54
39 43 49
82 70 99
90 79 118
75 68 103
87 77 115
68 58 82
37 36 44
42 42 50
43 44 51
45 48 55
48 52 58
48 53 60
49 54 61
47 52 59
44 48 55
46 51 59
41 45 55
16 5 45
13 1 40
17 8 43
40 46 51
40 45 51
42 46 54
40 43 55
27 10 47
40 39 52
19 26 21
51 64 62
69 90 120
67 87 116
69 90 117
69 89 117
67 89 117
67 88 117
68 90 121
67 88 116
68 89 118
67 90 118
69 90 118
66 88 116
64 86 113
62 84 110
65 87 112
65 87 112
61 82 106
64 85 110
61 84 108
63 84 107
62 85 95
84 115 35
89 126 2
89 127 1
92 130 1
98 138 1
93 132 1
92 132 1
90 128 1
95 134 1
99 139 1
94 133 1
100 142 1
105 149 2
101 143 1
99 139 1
98 139 3
62 90 32
11 18 74
0 1 80
0 1 70
0 1 89
0 1 78
0 1 75
0 1 90
0 1 82
0 1 84
0 1 86
1 2 82
17 22 82
54 70 96
57 74 96
62 81 108
58 76 98
58 74 100
56 72 96
56 73 93
59 73 98
61 78 103
62 79 105
59 75 102
57 74 101
29 43 85
4 17 76
4 18 79
4 16 74
4 17 76
4 17 80
4 17 78
4 16 73
4 18 79
4 18 77
4 16 72
21 48 93
33 56 104
58 80 116
62 81 109
68 88 117
67 86 116
67 88 119
63 81 109
66 85 115
58 75 100
66 84 113
60 77 103
60 76 103
63 80 108
57 74 100
54 69 92
58 74 99
43 55 73
54 49 60
67 26 19
74 25 16
79 26 17
74 24 16
75 24 17
80 22 48
71 6 153
73 1 199
71 0 198
73 0 196
73 1 204
70 0 194
71 0 191
69 0 188
72 0 193
67 0 182
71 0 197
65 0 179
70 0 191
71 0 190
68 0 182
65 3 175
45 11 116
35 17 83
32 17 79
33 18 83
35 19 87
31 16 75
36 19 88
40 33 89
61 72 115
70 90 122
66 86 115
68 89 120
67 86 119
69 89 122
67 88 117
68 88 118
68 87 119
69 89 120
67 86 117
68 87 117
56 59 85
39 11 28
37 7 24
41 8 27
34 6 21
40 7 26
38 7 24
40 8 25
38 7 24
41 8 26
38 7 24
41 8 25
38 7 24
36 7 23
34 6 21
36 7 21
34 7 22
35 7 22
29 6 19
34 9 21
33 38 8
30 41 4
33 45 5
28 38 4
28 38 4
52 29 6
85 14 10
99 9 11
94 9 11
89 9 10
93 9 11
98 9 11
98 10 11
91 9 10
94 9 11
93 9 11
93 9 11
95 9 11
92 9 11
96 9 11
90 9 10
62 33 17
16 72 26
5 85 30
4 77 27
5 82 30
6 89 30
5 91 32
5 93 31
5 89 29
5 84 28
5 90 30
5 95 32
5 95 31
5 85 29
5 97 33
5 88 29
20 104 41
56 144 71
67 156 81
63 151 78
68 163 85
70 170 87
66 158 81
64 158 82
65 160 83
67 164 82
67 162 82
64 157 81
64 163 82
68 168 86
62 157 76
51 129 65
26 49 36
27 32 42
18 37 30
14 64 32
13 81 36
12 86 36
12 85 37
12 83 35
12 82 35
12 83 36
12 83 36
11 79 34
13 82 37
26 74 51
44 70 77
62 77 104
60 76 104
65 82 112
61 77 106
64 81 110
62 79 106
60 75 104
60 72 104
55 59 104
72 106 150
87 140 183
91 147 202
87 145 204
84 142 204
83 141 204
81 140 203
82 141 204
84 142 203
84 141 200
87 144 203
92 147 201
90 144 195
94 147 198
89 141 189
91 135 181
122 160 214
133 171 229
137 175 234
111 137 194
67 71 131
36 26 82
22 5 61
20 3 59
20 3 57
20 3 58
21 3 61
21 3 59
25 9 65
64 65 121
120 146 204
145 181 240
151 191 250
153 192 252
148 187 244
154 193 253
150 188 247
130 160 213
22 27 32
26 36 33
32 39 49
27 35 47
40 46 52
36 40 44
36 41 44
47 52 58
45 51 57
49 53 59
47 53 59
40 48 47
23 35 26
9 25 11
4 19 5
4 20 5
31 60 19
41 91 6
39 88 6
41 88 8
49 75 53
58 68 74
44 50 53
49 54 59
48 53 58
47 52 57
47 52 58
48 53 58
44 48 52
41 43 45
35 36 35
28 27 25
35 35 36
38 39 40
45 49 53
47 51 55
48 52 58
47 51 57
48 53 59
46 51 57
46 51 56
48 53 58
46 51 58
44 49 55
40 44 49
32 34 39
22 24 27
21 22 25
10 10 11
17 18 21
27 30 34
32 39 38
37 52 37
38 58 36
40 57 41
41 55 47
46 52 55
46 52 59
47 53 60
48 53 60
46 52 59
48 54 60
46 51 57
47 52 59
48 53 60
48 53 58
49 55 60
50 55 61
42 42 47
26 9 15
25 7 12
26 7 13
25 7 12
24 6 12
24 6 12
29 16 22
42 46 53
46 51 57
42 47 52
23 19 22
12 3 5
13 3 6
14 4 6
14 4 6
13 3 6
13 4 6
37 41 45
38 42 47
44 50 55
43 49 54
44 49 55
45 50 55
44 49 55
44 50 56
43 48 53
46 51 57
45 50 56
44 49 55
41 46 51
42 46 51
44 48 54
44 49 56
44 48 53
38 37 51
42 36 52
73 61 85
44 34 44
61 55 73
41 34 51
30 28 34
31 30 35
41 43 49
48 52 59
46 51 57
46 50 57
49 53 60
45 49 57
46 50 57
42 46 55
39 41 54
12 2 38
11 1 37
29 27 46
42 47 53
45 50 57
44 48 56
34 30 48
28 17 44
41 45 51
17 23 12
61 78 88
69 90 121
71 92 123
68 89 120
66 87 116
68 91 121
66 86 114
69 91 121
65 86 115
66 86 116
69 90 119
66 88 114
69 89 118
69 90 120
67 89 117
69 92 121
66 88 114
59 80 103
66 87 114
62 83 109
62 84 104
75 104 55
84 119 2
88 122 1
93 131 1
90 125 1
93 131 1
96 135 1
100 138 1
93 132 1
90 126 1
93 130 1
95 133 1
92 128 1
91 128 1
97 138 1
98 137 1
94 133 1
87 122 7
42 60 45
1 3 75
0 1 71
0 1 79
0 1 78
0 1 84
0 1 83
0 1 78
0 1 71
0 1 80
0 1 79
24 32 89
59 78 110
56 75 97
59 77 99
59 78 102
63 81 106
63 83 108
62 81 108
65 85 111
66 85 115
63 81 106
64 82 111
60 77 105
41 56 97
7 19 71
4 16 73
4 16 73
3 13 63
4 16 72
4 16 74
4 14 66
4 16 73
4 15 69
4 16 71
21 45 83
46 69 109
66 86 118
70 90 119
69 89 120
66 86 113
63 83 110
67 86 117
63 82 111
64 84 113
63 81 109
60 77 103
62 80 106
61 79 107
62 79 105
62 80 108
57 75 101
59 75 101
66 53 62
68 26 18
72 25 15
78 27 17
77 26 17
74 22 35
72 11 122
73 0 199
74 1 203
64 0 175
70 0 188
71 0 194
68 0 181
64 0 175
67 0 179
67 0 180
69 0 184
65 0 174
69 0 187
67 0 181
70 0 187
66 0 173
65 0 170
62 3 160
36 13 94
29 15 71
29 15 74
29 16 73
28 16 70
38 30 88
54 60 105
65 83 113
65 82 114
67 87 118
69 89 119
66 86 114
65 83 113
66 85 116
66 85 115
69 87 116
70 90 122
66 85 113
65 83 111
53 56 79
36 8 26
33 6 21
36 6 23
39 7 25
35 6 23
39 7 25
35 7 23
39 7 25
39 7 24
38 7 23
36 7 23
37 7 24
37 7 24
38 7 23
31 6 20
31 6 19
34 7 21
32 6 19
26 6 16
20 18 7
23 30 3
20 27 3
25 33 3
34 23 4
85 14 10
97 9 11
94 9 11
90 8 10
87 8 10
95 9 11
95 9 11
91 9 10
96 9 11
91 9 10
90 9 10
92 9 11
94 9 11
89 9 10
87 9 10
88 9 10
90 10 11
51 36 16
5 84 30
4 78 27
5 80 28
4 76 26
5 84 29
5 81 28
5 85 29
5 90 31
5 85 29
4 82 27
5 82 26
5 94 31
4 80 26
12 93 35
49 135 66
63 150 78
66 159 82
68 165 86
67 160 83
64 155 79
65 160 81
64 156 80
65 155 79
65 158 81
63 157 80
63 159 80
58 150 73
65 161 80
60 155 74
56 150 72
54 127 74
32 78 56
15 80 38
12 83 35
12 83 36
12 82 35
11 79 34
12 83 36
12 81 34
12 84 36
12 79 34
12 83 35
11 78 33
11 75 31
18 76 42
48 76 83
61 75 103
62 77 106
58 72 101
61 75 105
59 70 102
56 70 97
54 68 97
76 114 151
86 135 177
95 151 203
92 149 204
90 147 204
86 144 204
83 142 204
84 142 204
82 141 204
84 142 204
85 143 203
85 144 204
90 147 202
92 149 204
93 147 198
93 144 193
84 132 179
97 136 184
117 152 208
73 84 139
32 19 76
20 3 58
20 3 57
20 3 57
20 3 57
20 3 57
20 3 56
19 3 56
20 3 55
20 3 56
19 3 53
34 23 77
86 98 155
137 173 231
147 186 246
147 186 245
150 190 250
148 188 247
144 182 239
54 63 85
17 28 23
36 44 52
25 34 48
40 46 54
42 47 52
47 52 57
46 51 57
45 51 57
46 51 57
49 54 60
41 45 45
36 40 42
44 50 52
14 27 17
3 16 3
30 70 5
35 80 5
35 80 5
37 83 5
37 80 9
53 69 56
45 51 52
43 49 53
49 55 61
47 52 58
48 53 59
47 50 54
44 49 54
46 49 53
45 48 52
46 49 52
43 46 50
44 47 51
47 51 56
47 52 57
48 53 59
46 50 54
49 54 60
46 51 56
48 52 57
47 52 57
45 49 55
44 49 54
42 46 51
39 43 47
36 40 44
31 34 39
35 39 44
34 38 42
33 45 36
37 60 30
38 62 31
39 62 31
37 61 31
39 62 31
38 53 36
44 50 54
47 52 57
47 51 58
47 52 58
49 54 60
45 49 55
49 54 61
46 50 56
49 54 60
48 53 59
45 50 55
33 25 30
26 7 12
21 6 10
23 6 11
24 6 12
19 5 10
22 6 11
24 8 14
37 37 42
40 44 50
44 49 54
15 10 13
9 2 4
10 3 5
11 3 4
11 3 5
11 3 5
18 12 15
44 49 54
44 49 56
41 45 51
45 51 57
47 52 58
47 52 58
45 50 56
45 51 57
46 52 58
48 53 60
45 50 57
46 51 58
46 50 57
44 48 53
45 50 57
45 48 54
43 47 54
41 40 56
35 32 49
35 32 47
32 29 43
30 30 44
31 30 39
29 30 34
40 42 47
42 46 53
45 49 55
47 51 57
45 50 56
46 51 57
45 50 56
45 50 57
41 45 52
25 24 35
10 2 32
17 10 39
37 42 49
46 51 58
46 51 57
41 44 52
26 19 40
33 30 48
30 34 34
37 44 43
69 89 116
68 89 120
66 88 116
68 91 122
67 89 119
64 86 114
67 87 118
68 89 116
69 90 121
69 89 117
66 86 115
67 87 117
69 89 118
66 88 116
69 91 122
68 89 117
63 86 110
61 83 104
64 86 111
62 83 107
64 86 84
79 107 26
89 125 1
82 116 1
85 118 1
86 122 1
93 131 1
89 125 1
91 127 1
88 125 1
93 130 1
86 120 1
94 131 1
91 129 1
91 128 1
86 119 1
92 128 1
91 130 1
92 131 1
68 97 20
8 12 65
0 1 72
0 1 67
0 1 66
0 1 74
0 1 75
0 1 79
0 1 79
0 1 78
0 1 81
24 33 89
58 78 103
62 82 110
63 85 111
62 83 110
60 82 107
66 87 114
62 82 105
65 85 114
67 88 118
66 87 117
61 80 107
67 85 114
63 83 114
24 37 79
7 20 74
4 16 70
3 12 57
4 14 65
3 13 64
3 13 62
4 14 68
3 15 65
3 13 61
29 48 81
54 76 110
65 85 115
64 83 113
65 86 116
65 86 116
66 86 114
65 85 114
63 82 110
63 83 114
64 82 111
65 83 111
66 86 116
62 81 109
65 85 116
64 82 110
65 83 113
60 77 105
69 57 69
59 23 17
64 21 13
65 22 14
69 22 15
67 13 80
66 1 176
63 0 176
69 0 191
72 0 193
66 0 180
67 0 185
69 0 189
70 0 185
65 0 175
69 0 186
67 0 176
65 0 174
69 0 185
63 0 167
64 0 169
67 0 175
63 0 165
61 0 162
47 6 122
26 12 68
28 15 71
25 14 67
29 19 71
43 47 86
61 78 110
65 83 112
64 82 112
66 85 116
66 85 115
66 83 112
63 80 110
67 85 117
64 83 113
66 86 119
67 87 118
66 86 115
64 83 111
53 56 81
33 12 26
35 7 20
45 11 24
48 12 23
51 14 25
51 14 25
49 13 23
46 12 23
40 9 22
36 7 21
37 7 22
33 6 20
33 6 19
34 6 20
34 7 21
31 6 18
27 5 17
29 6 18
28 9 20
21 20 18
18 23 12
15 19 11
18 20 14
51 15 11
93 9 11
94 9 11
91 9 11
87 8 10
83 8 9
91 9 10
91 9 10
84 8 10
86 8 10
88 9 10
83 8 10
89 9 10
85 8 10
84 8 10
83 8 9
85 9 10
81 8 9
75 18 12
21 62 23
4 71 24
5 84 29
5 78 26
4 77 26
4 74 25
4 72 24
4 75 25
4 76 25
5 81 28
5 85 28
4 74 25
5 87 30
30 107 46
65 153 80
68 159 82
63 154 79
64 155 81
69 166 84
60 143 74
65 155 79
66 159 81
57 143 72
52 128 63
59 149 76
58 152 73
51 136 64
54 146 69
60 156 75
48 136 64
39 121 57
13 81 35
12 79 35
11 74 32
12 80 34
11 78 34
12 82 35
11 79 33
12 80 34
12 80 34
12 81 35
11 77 33
12 80 34
11 79 34
11 73 31
14 70 35
43 75 79
62 78 109
56 66 98
54 63 97
53 63 94
57 66 98
57 79 105
79 123 158
84 137 173
91 147 194
89 145 195
90 147 203
88 145 204
87 145 204
86 144 204
85 144 204
84 141 199
84 141 199
86 142 199
87 141 198
92 148 202
95 148 199
93 146 194
81 129 171
72 111 151
56 62 112
26 15 66
21 3 59
20 3 56
19 3 54
18 3 51
19 3 54
20 3 58
20 3 56
19 3 55
19 3 54
19 3 52
19 3 54
19 3 53
22 7 58
68 73 129
144 183 244
145 186 247
146 186 247
147 187 248
150 191 253
76 96 129
18 25 23
41 47 52
25 32 43
27 32 39
43 48 54
45 50 56
45 50 56
47 52 58
47 52 58
51 56 61
39 42 44
35 40 41
39 43 46
38 44 45
15 28 14
26 59 4
35 76 5
36 80 5
34 76 5
37 82 5
39 77 14
32 39 39
38 43 47
46 52 57
46 52 57
46 51 57
47 52 57
46 51 56
46 50 55
46 51 56
45 50 55
49 53 58
47 51 55
46 51 57
47 51 56
47 52 57
47 52 58
48 52 58
50 55 61
48 53 60
47 52 57
47 51 57
44 49 55
44 49 54
45 50 56
43 47 52
40 45 50
41 45 51
40 47 46
38 58 33
36 58 29
35 56 28
35 56 28
36 57 28
34 54 27
34 55 27
35 50 35
47 53 57
47 51 57
47 52 58
46 51 57
47 52 58
47 52 58
45 50 55
43 48 54
42 47 53
46 51 57
30 23 28
19 5 9
20 5 10
19 5 9
17 5 9
16 5 10
10 5 10
8 5 12
10 9 15
13 13 19
26 27 33
20 20 23
7 2 3
7 2 3
10 3 4
9 2 4
11 4 6
29 30 33
41 45 51
41 44 50
45 49 55
45 50 56
45 50 56
48 54 60
49 54 60
45 51 56
48 53 59
44 49 55
46 51 57
47 51 57
47 52 59
47 51 57
44 47 55
44 49 57
43 45 52
37 37 51
35 31 49
36 32 50
37 33 52
38 36 51
43 44 52
42 45 51
39 43 49
45 49 56
44 47 55
45 49 55
47 52 59
48 53 60
47 51 59
44 49 56
35 38 47
20 20 29
10 9 17
26 38 36
17 55 27
33 54 45
46 51 58
40 43 50
17 12 25
43 46 55
18 24 19
49 60 74
65 87 117
68 90 120
71 92 122
70 91 122
69 91 122
68 90 118
70 93 125
68 90 120
67 87 117
70 91 120
69 91 122
67 89 116
71 91 122
67 89 118
69 91 120
64 86 112
68 90 119
65 87 113
70 92 119
66 87 113
69 95 70
77 107 9
90 123 1
86 121 1
76 106 1
84 118 1
83 115 1
84 117 1
81 113 1
84 119 1
89 122 1
84 117 1
87 124 1
90 126 1
95 132 1
93 131 1
93 132 1
91 128 1
89 123 1
86 124 3
26 37 41
0 1 74
0 1 73
0 1 74
0 1 72
0 1 66
0 1 67
0 1 69
0 1 73
1 3 78
30 40 87
58 79 102
59 80 103
60 80 107
64 86 114
65 85 113
63 84 112
64 86 113
63 83 112
61 81 107
67 88 120
67 87 118
64 85 113
64 83 114
46 63 98
23 35 77
5 16 64
3 13 60
3 13 61
3 14 62
3 13 62
4 16 73
4 14 65
3 12 57
44 64 92
63 84 114
63 83 111
63 82 112
66 85 116
66 87 117
68 89 121
67 86 116
68 88 120
65 85 115
67 85 115
63 82 110
63 82 113
64 84 114
69 90 122
64 83 112
66 86 116
63 80 107
67 73 97
69 31 26
55 19 12
64 22 14
65 18 33
66 8 122
70 0 192
65 0 178
64 0 176
61 0 169
70 0 183
67 0 176
68 0 181
65 0 173
67 0 180
63 0 169
67 0 176
60 0 162
63 0 166
60 0 153
63 0 164
65 0 169
66 0 167
59 4 154
51 4 128
26 11 68
24 14 60
31 24 70
47 53 91
57 70 105
57 73 101
60 76 106
62 79 109
59 75 105
60 76 106
60 76 104
64 83 116
62 80 110
63 82 114
65 84 114
65 85 115
66 85 116
63 80 109
60 65 90
49 19 31
56 16 25
58 17 25
57 17 25
56 17 25
59 17 26
57 17 25
57 17 25
56 16 25
52 15 24
44 11 22
34 7 20
30 6 19
34 6 20
32 6 19
29 5 18
28 5 17
28 5 17
31 17 29
37 44 55
39 49 59
35 45 51
48 51 60
73 10 13
90 9 10
80 8 9
85 8 9
87 8 10
92 9 10
87 8 9
90 9 10
89 9 10
85 8 10
88 8 10
83 8 9
79 8 9
91 9 10
79 8 9
82 8 9
81 8 9
84 8 9
74 8 8
44 37 16
4 71 26
3 63 21
4 72 24
4 67 22
4 75 25
4 77 26
4 73 24
4 72 24
4 74 24
4 80 25
4 75 25
12 77 29
50 116 57
55 129 66
59 136 69
63 148 77
60 145 76
62 148 76
64 157 80
54 134 66
60 147 75
53 131 65
53 139 68
52 134 67
55 142 70
56 144 70
46 128 60
51 140 65
38 119 54
12 78 33
11 77 33
11 78 33
11 76 31
12 80 34
11 75 32
11 76 32
11 77 33
11 79 33
10 72 30
11 73 31
11 77 32
11 77 33
11 74 31
10 70 29
10 68 30
16 70 38
50 73 90
59 71 102
56 66 99
56 64 98
53 65 92
53 84 108
69 116 142
83 140 168
86 142 183
78 133 170
84 140 188
89 146 199
91 148 204
90 147 204
89 145 199
85 138 191
83 134 185
80 130 183
77 121 172
84 132 184
92 144 192
87 136 184
84 129 173
51 68 111
18 3 51
18 3 52
20 3 55
19 3 53
20 3 58
18 3 50
19 3 55
19 3 54
19 3 53
18 3 52
18 3 50
19 3 53
18 3 50
19 3 53
18 3 49
26 14 63
86 102 157
143 184 245
142 183 244
144 184 245
146 188 250
110 138 188
26 30 33
43 50 54
33 39 45
20 23 28
41 47 53
47 51 57
47 52 58
49 54 60
48 54 60
46 51 54
34 38 40
40 45 47
35 39 41
36 41 42
34 42 39
26 58 4
30 67 4
30 67 4
33 71 4
31 68 4
30 66 4
28 47 20
26 31 34
42 47 53
44 49 54
46 52 58
46 51 57
46 51 57
46 51 57
47 52 57
47 52 57
47 52 57
46 50 55
47 52 58
48 52 57
48 54 59
46 51 57
49 54 60
48 53 58
46 51 55
48 52 58
47 53 59
45 50 56
45 50 56
45 49 55
48 54 60
41 46 52
42 46 51
42 53 45
34 54 26
31 50 24
34 53 26
34 54 26
35 56 28
34 54 27
30 47 23
32 50 25
40 48 47
46 52 58
47 52 59
46 51 56
45 49 55
45 50 55
45 50 57
43 47 53
44 49 55
43 47 53
31 29 34
15 4 7
16 4 7
14 4 7
10 4 8
7 5 11
6 5 11
6 5 10
7 5 11
7 5 11
7 5 12
13 12 17
15 13 15
5 1 2
7 3 4
8 4 5
23 23 25
36 38 42
39 42 47
40 44 50
46 51 56
46 51 57
47 52 58
47 52 59
48 52 58
47 52 57
48 53 60
46 51 56
46 51 57
47 53 60
47 51 57
45 48 55
44 48 54
44 48 56
40 41 48
29 29 37
26 23 35
27 24 39
32 29 43
37 38 45
41 44 51
43 47 53
46 51 57
48 52 57
47 52 58
47 52 59
47 52 58
49 54 61
49 53 59
46 50 57
42 45 52
33 36 44
17 29 25
13 52 23
11 56 21
20 55 31
45 49 56
38 41 49
23 23 31
38 42 48
19 24 21
59 74 94
71 93 124
69 91 122
67 89 120
69 88 119
69 90 119
72 93 125
72 93 123
70 92 125
65 86 113
65 86 116
68 90 119
69 89 118
71 93 124
68 90 119
70 91 122
68 89 118
69 90 120
68 89 119
66 87 117
72 94 119
75 104 44
77 105 2
81 114 1
81 111 1
74 103 1
87 121 1
88 123 1
83 116 1
86 120 1
81 113 1
83 115 1
80 114 1
88 124 1
85 117 1
82 113 1
79 110 1
85 119 1
92 128 1
84 118 1
91 129 1
53 76 27
5 8 65
0 1 67
0 1 57
0 1 68
0 1 65
0 1 67
0 1 65
0 1 62
1 3 65
35 48 92
60 81 107
62 84 112
67 89 119
65 85 113
59 80 106
61 83 110
57 76 102
65 84 115
65 85 116
60 78 105
64 86 115
60 79 110
60 79 106
63 82 112
50 67 101
15 26 63
4 12 52
3 11 54
3 11 51
2 11 51
3 12 57
3 11 51
3 11 52
57 77 105
63 83 114
59 78 107
60 80 109
65 84 113
63 84 115
65 85 116
64 83 115
63 82 111
69 89 121
65 85 115
64 84 117
62 81 111
66 86 116
65 85 114
67 87 120
68 88 120
64 83 114
64 74 97
65 33 33
56 20 12
61 20 13
65 18 44
66 4 156
61 0 166
63 0 172
64 0 169
66 0 182
65 0 169
66 0 176
66 0 181
65 0 180
62 0 168
61 0 162
63 0 169
65 0 168
60 0 158
61 1 162
56 7 146
36 27 85
35 33 77
30 41 60
28 44 54
21 50 31
20 41 34
24 39 45
36 52 63
46 59 83
51 62 90
53 65 94
52 65 91
60 75 104
57 71 100
62 79 111
60 75 104
61 78 109
61 80 110
64 82 111
60 78 105
61 76 105
62 55 76
58 19 29
55 16 24
58 17 25
58 17 26
54 16 23
57 17 25
56 16 25
55 16 24
54 16 24
57 16 25
57 17 25
55 16 24
47 13 22
38 9 20
31 6 19
28 5 17
26 5 16
23 5 15
28 6 18
43 40 57
61 78 100
61 77 99
59 76 97
65 55 72
80 9 12
73 7 8
81 7 9
86 8 10
81 7 9
83 8 9
77 7 9
81 8 9
92 9 10
91 9 10
76 8 9
83 8 9
81 8 9
77 8 8
77 8 9
78 8 9
81 8 9
81 8 9
80 8 9
55 21 12
19 60 22
4 71 25
4 59 22
4 60 21
4 70 24
4 69 23
4 66 21
4 69 24
4 70 24
4 74 24
3 63 21
26 93 40
60 133 68
56 130 67
62 147 77
63 149 77
60 143 74
60 145 75
57 139 70
58 140 70
57 137 71
53 135 65
55 141 69
55 140 70
46 125 58
43 124 56
45 129 58
34 110 47
15 81 33
11 75 32
11 74 32
11 74 32
10 71 30
11 77 32
11 75 31
11 73 30
11 74 31
10 70 29
11 77 32
10 70 29
11 74 32
10 68 28
11 72 31
10 70 29
11 71 30
10 66 28
28 70 57
63 76 107
62 76 108
61 74 107
59 74 107
53 88 107
62 108 127
64 121 132
77 136 158
69 124 151
69 122 152
83 138 181
92 147 195
92 148 201
89 141 187
80 127 171
76 119 167
68 104 148
62 94 139
74 113 163
71 108 152
80 123 166
62 87 129
23 13 58
17 3 50
19 3 52
18 3 50
20 3 53
18 3 50
18 3 51
19 3 55
18 3 50
19 3 52
18 3 51
19 3 52
17 3 46
18 3 50
17 3 48
18 3 49
17 3 47
28 18 63
116 147 204
139 181 242
141 182 245
137 177 238
137 177 236
34 41 55
41 46 51
40 45 51
25 28 33
40 46 53
46 52 58
47 53 59
47 52 59
49 54 59
44 49 55
35 39 41
37 43 44
37 41 42
35 40 41
38 44 43
32 51 24
27 58 3
29 65 4
30 65 4
30 66 4
30 65 4
30 63 7
26 32 34
43 48 54
43 48 53
42 48 52
45 49 55
45 50 55
49 54 60
46 51 57
49 54 59
47 52 57
50 55 61
50 54 60
47 52 57
46 52 58
48 52 58
45 49 54
49 54 60
47 52 57
46 51 57
45 50 55
48 54 61
47 52 57
48 53 59
44 49 54
46 51 56
42 47 52
39 50 43
30 47 23
31 50 25
30 46 23
29 47 22
30 46 22
29 45 22
26 40 19
26 41 20
39 47 44
43 48 54
43 48 53
44 48 54
42 46 50
43 46 51
45 50 55
43 47 52
38 41 46
36 39 43
33 34 38
21 13 16
10 3 5
9 3 7
6 5 10
6 4 9
6 5 10
6 4 10
6 4 9
6 5 10
6 5 10
6 5 11
13 12 15
13 13 14
15 15 16
23 24 25
31 33 37
31 33 37
39 42 47
40 44 49
44 48 54
42 47 52
46 51 58
46 51 58
45 49 54
46 51 56
47 52 58
49 54 60
47 51 56
46 50 56
47 52 58
45 49 55
43 47 53
44 47 54
36 37 44
32 33 40
25 24 30
25 25 31
32 33 40
38 41 47
45 48 57
43 47 54
47 51 59
45 49 57
44 48 54
45 50 56
47 52 58
46 51 56
44 48 55
43 47 54
40 43 51
35 42 46
14 49 23
10 53 19
10 52 19
17 48 26
45 50 56
42 46 52
36 38 45
25 30 29
38 45 51
69 88 117
70 90 120
68 90 118
69 90 121
70 91 120
71 92 123
69 92 123
69 90 120
70 91 124
70 91 122
70 91 121
70 91 123
70 92 123
71 93 124
71 92 124
71 93 126
67 89 116
65 86 116
69 91 120
69 91 121
73 95 118
75 101 43
73 100 1
77 106 1
72 103 1
73 102 1
80 111 1
81 112 1
80 112 1
79 109 1
86 119 1
82 114 1
81 111 1
77 109 1
81 112 1
69 97 1
87 123 1
86 119 1
77 109 1
79 112 1
86 121 1
57 80 16
4 6 52
0 1 51
0 1 67
0 1 58
0 1 63
0 1 61
0 1 65
0 1 64
11 15 70
52 70 105
68 89 121
66 88 118
63 84 110
60 81 106
62 83 107
64 85 116
62 83 113
57 77 106
56 74 103
52 70 97
61 82 111
56 75 105
59 76 106
56 74 103
49 65 93
35 47 73
17 27 58
10 17 45
3 9 40
2 10 49
2 10 48
2 9 42
2 9 44
54 72 99
59 77 106
56 75 104
57 76 105
57 75 104
60 80 110
63 83 113
65 84 116
62 81 113
65 84 115
66 86 117
67 88 119
57 73 103
65 86 118
67 87 118
68 89 119
63 83 116
64 85 115
60 75 103
58 45 56
60 24 19
54 18 12
63 15 61
59 1 166
61 0 165
61 0 165
60 0 166
66 0 175
63 0 170
64 0 174
61 0 167
56 0 148
60 0 157
61 0 160
60 0 157
55 0 141
45 13 112
35 33 74
22 51 33
21 55 28
20 52 27
21 54 28
20 52 27
21 54 28
20 53 27
20 52 27
21 51 29
26 52 38
35 54 62
47 58 84
56 69 98
53 65 94
64 82 113
59 74 106
56 69 99
58 73 100
63 81 111
65 84 115
62 79 108
54 37 51
57 17 26
53 16 23
52 15 22
57 16 24
56 16 23
55 16 24
56 16 24
53 16 23
54 16 24
53 15 23
52 15 22
55 16 24
56 16 24
54 16 23
49 14 22
32 7 17
27 5 17
25 4 14
25 5 16
29 16 28
56 65 90
66 85 112
64 83 108
67 86 115
72 51 67
88 10 12
83 8 9
76 7 8
77 7 9
81 7 9
85 8 9
82 8 9
82 8 9
81 8 9
80 8 9
79 7 9
76 7 8
73 7 8
80 8 9
76 7 8
71 7 8
72 7 8
77 8 8
70 7 7
58 13 9
13 47 17
3 60 20
4 61 21
3 60 21
3 61 20
4 65 21
3 67 21
3 63 21
4 63 21
3 65 21
3 66 21
33 97 44
57 130 66
53 121 61
64 146 74
56 132 67
59 140 72
55 131 66
56 134 67
57 141 70
55 135 69
48 119 59
51 130 63
51 133 64
47 125 60
37 115 48
42 122 53
26 91 39
10 72 29
11 78 33
10 68 29
10 71 29
11 75 31
11 74 31
9 65 27
10 68 29
10 71 30
11 76 32
9 66 28
10 68 29
10 72 30
10 69 29
10 68 29
10 70 30
10 67 28
10 67 28
14 66 35
50 76 90
69 87 118
70 90 119
55 75 101
59 97 120
59 107 119
54 101 109
37 85 82
49 100 109
60 109 131
64 113 141
82 133 172
79 126 166
79 125 165
73 112 148
61 92 130
53 78 118
46 66 104
43 59 101
62 92 134
62 92 126
36 39 84
19 4 53
20 3 57
17 3 48
19 3 53
17 3 48
18 3 51
18 3 50
18 3 50
17 3 47
19 3 52
17 3 47
18 3 50
18 3 51
17 3 47
16 2 42
17 3 45
17 3 47
18 3 48
63 70 122
134 174 236
134 175 237
134 176 237
134 176 237
68 84 119
42 48 54
43 48 55
39 43 49
42 47 53
49 54 60
48 53 59
48 53 60
48 54 60
46 51 56
25 29 30
32 35 36
38 42 43
37 41 43
38 44 44
35 44 38
24 51 4
27 58 3
28 60 3
30 65 4
26 58 3
28 60 4
22 31 23
38 43 47
41 46 50
45 50 55
44 49 54
44 50 55
48 54 59
46 51 55
46 51 57
48 52 57
46 51 57
47 52 56
47 52 57
47 53 59
46 51 56
47 51 56
47 52 59
48 53 59
49 54 59
48 53 58
47 51 57
45 51 56
44 49 54
44 50 55
43 48 52
45 50 53
36 43 40
28 44 21
29 45 22
25 39 18
27 43 20
27 42 20
29 45 21
28 44 21
24 38 18
32 42 32
42 47 51
41 45 50
40 44 49
41 45 51
44 48 53
40 44 49
40 44 48
39 42 47
34 38 42
31 32 36
23 23 26
12 9 11
6 4 8
6 4 9
6 4 9
5 4 9
6 4 9
5 4 9
6 4 8
6 4 9
6 4 9
11 10 14
27 28 32
31 34 37
28 30 33
36 38 43
35 39 44
37 40 44
40 45 50
44 49 55
44 48 53
46 50 56
48 52 58
48 53 60
48 53 59
47 51 57
46 51 57
45 50 57
47 52 58
45 50 58
45 50 56
46 51 57
42 45 52
42 46 53
39 41 48
35 37 45
36 38 45
36 38 45
40 43 50
44 48 54
45 50 57
44 48 54
47 52 59
47 52 59
46 51 57
47 53 59
47 52 59
46 51 56
46 52 59
43 49 55
25 48 35
9 49 18
9 44 16
9 45 17
26 48 36
45 50 57
40 44 51
41 45 52
17 21 19
52 62 76
68 88 118
68 89 120
69 91 122
68 90 120
65 86 115
70 93 123
66 87 118
67 88 118
71 92 122
65 85 115
68 90 118
70 91 124
67 87 116
70 91 121
67 87 119
68 89 120
69 90 121
71 93 123
68 90 119
69 90 122
68 90 112
71 98 38
75 102 1
79 111 1
80 110 1
77 106 1
75 105 1
81 113 1
71 98 1
83 115 1
82 116 1
76 105 1
74 103 1
81 112 1
83 115 1
83 116 1
75 106 1
72 101 1
81 114 1
77 110 1
83 115 1
54 79 14
3 5 54
0 1 56
0 1 58
0 1 59
0 1 65
0 1 61
0 1 64
2 4 62
37 49 89
64 84 116
65 86 118
61 81 110
69 91 121
60 80 109
59 79 108
58 78 108
59 77 107
59 78 107
58 76 107
57 75 101
50 66 96
54 70 99
49 65 93
47 62 88
47 61 86
38 50 73
32 42 66
13 18 37
8 13 33
4 9 30
4 8 27
4 8 28
6 12 37
43 59 84
47 64 90
42 55 81
53 70 98
52 70 96
59 77 105
60 78 107
57 74 104
60 79 108
61 80 109
60 79 110
62 81 112
62 79 109
62 81 114
63 82 114
63 83 113
63 81 112
65 84 116
58 75 106
63 73 99
54 33 36
50 17 11
57 10 72
60 0 162
59 0 156
57 0 155
58 0 156
60 0 164
57 0 153
62 0 165
59 0 159
61 0 166
60 0 157
59 0 156
49 1 129
39 24 92
22 51 33
21 53 27
20 52 27
19 49 26
20 53 27
20 53 27
21 54 27
20 51 26
20 51 26
19 50 26
19 50 26
19 49 25
22 53 32
32 53 53
52 68 91
54 68 96
61 75 104
59 74 106
64 81 113
60 75 105
67 85 114
66 85 114
55 39 55
52 15 23
51 15 22
51 15 22
51 15 22
51 15 22
53 15 23
51 15 22
53 15 22
54 15 23
52 15 22
51 14 21
53 16 23
54 16 23
46 14 20
52 15 22
49 14 21
47 13 20
28 6 15
23 4 14
27 10 22
44 42 62
61 75 102
67 86 114
65 84 112
66 84 110
68 37 48
71 6 8
76 7 8
77 7 8
80 7 9
73 7 8
78 7 9
67 6 7
82 8 9
69 6 7
70 7 8
73 7 8
68 6 7
76 7 8
75 7 8
73 7 8
70 7 8
66 7 7
71 7 8
66 7 7
59 11 8
17 36 14
3 61 21
3 54 19
3 59 20
3 63 21
3 57 19
3 56 18
3 65 21
3 61 20
3 53 18
5 64 21
45 108 53
53 122 62
54 122 63
54 124 64
57 136 70
51 121 61
52 127 66
52 126 64
50 123 61
52 129 63
49 127 62
45 116 56
47 125 62
38 113 49
42 119 53
29 94 38
15 76 30
10 69 28
11 74 31
9 65 28
10 67 28
10 73 31
10 69 28
10 71 29
10 69 28
10 69 29
10 72 31
11 73 31
10 66 27
10 69 29
10 68 29
9 65 28
10 70 29
10 65 27
9 59 25
8 58 25
36 70 66
69 91 121
68 85 115
55 76 100
51 89 100
41 82 83
38 84 80
28 70 62
22 63 52
37 78 85
51 93 111
74 121 157
74 115 149
74 115 154
62 93 126
54 81 113
30 39 70
32 42 73
33 42 80
42 61 95
42 58 91
26 19 64
17 3 48
18 3 50
17 3 46
17 3 48
19 3 52
16 3 46
17 3 49
17 3 47
17 3 49
17 3 46
17 3 47
17 3 45
16 3 45
17 3 46
17 3 46
17 3 45
17 3 45
16 3 43
30 23 67
109 142 199
128 169 230
126 166 226
130 172 234
117 154 212
35 38 47
46 52 57
44 50 56
43 48 54
46 52 59
47 52 58
45 50 55
45 50 55
46 51 56
28 34 32
25 30 29
29 33 34
31 34 35
32 36 38
38 47 44
33 50 19
23 50 3
25 54 3
24 51 3
24 53 3
23 51 3
18 25 16
29 33 34
38 43 47
40 46 47
45 50 55
44 49 52
46 52 57
46 51 56
46 51 55
44 49 54
45 50 54
45 51 56
48 52 57
47 51 57
47 52 57
47 51 57
46 52 57
46 51 56
44 49 54
46 51 56
47 52 57
46 51 56
44 49 53
44 49 53
45 50 54
45 51 55
40 45 46
25 38 20
25 39 19
25 40 19
23 36 17
23 35 16
22 34 16
23 36 17
20 31 16
34 40 38
38 42 46
40 45 49
40 45 50
39 44 48
40 44 48
41 44 48
37 41 45
32 34 38
35 38 43
28 30 34
24 25 27
20 20 23
5 4 8
5 4 8
5 4 8
5 4 8
6 4 8
5 4 8
5 4 8
5 4 8
5 4 8
11 10 14
40 44 49
35 37 42
38 42 47
42 46 51
39 43 48
40 44 50
43 47 51
41 46 51
46 51 58
46 50 56
44 48 54
48 53 58
46 51 57
48 53 59
45 49 55
49 54 61
45 49 55
45 49 54
44 50 56
44 49 56
45 49 56
42 46 53
44 48 54
43 48 55
42 47 53
42 45 51
45 48 55
45 49 55
42 47 54
46 51 57
46 51 57
46 51 57
46 51 57
45 51 56
46 51 58
47 52 58
45 50 56
40 50 52
10 46 18
8 41 15
9 45 16
8 41 15
38 49 48
44 49 55
42 45 51
31 35 38
27 31 31
62 80 105
66 87 117
66 88 119
65 87 118
64 84 115
69 90 120
71 93 124
68 89 118
70 91 122
68 90 123
68 87 117
67 88 120
69 91 123
69 90 120
71 91 124
84 105 138
86 108 138
96 118 150
89 113 147
89 111 143
90 113 146
104 128 155
97 123 103
75 102 29
69 97 1
74 102 1
80 111 1
75 100 1
70 99 1
68 95 1
68 96 1
73 103 1
76 104 1
76 106 1
73 101 1
56 80 3
41 62 6
27 45 9
23 40 10
19 36 11
20 36 11
30 51 9
37 57 13
8 14 44
1 3 50
0 0 48
0 0 53
0 1 57
0 1 59
0 1 55
24 32 79
47 63 101
66 86 117
59 79 109
62 82 112
63 82 114
62 80 109
58 79 108
63 83 114
59 78 109
53 71 101
51 67 96
52 71 99
60 78 108
49 66 94
44 58 84
36 48 72
42 56 82
35 47 70
31 42 62
33 43 60
18 25 38
17 23 37
17 21 36
10 15 30
20 26 42
48 64 89
41 56 79
51 69 97
56 75 103
61 80 110
55 73 103
54 73 104
59 78 106
61 79 108
64 86 117
61 81 113
61 79 109
66 86 116
68 87 117
65 83 114
66 86 117
63 80 110
67 85 117
67 87 117
67 86 118
60 58 74
53 26 25
46 9 61
59 0 161
59 0 159
53 0 143
56 0 150
54 0 144
53 0 142
54 0 145
50 0 136
47 0 129
54 0 145
50 2 134
34 29 76
22 48 33
20 50 26
19 51 26
18 48 25
19 51 26
19 50 26
19 51 26
18 48 25
19 50 25
18 46 23
20 52 27
19 49 25
19 49 25
18 46 24
18 46 23
29 55 45
62 83 107
66 85 116
63 80 110
65 84 113
68 86 117
67 84 114
59 59 82
49 18 25
49 14 21
47 14 20
49 14 21
48 14 21
52 15 22
49 14 21
50 15 22
50 14 21
50 14 21
54 15 23
50 14 21
52 15 22
55 16 23
50 14 21
49 15 21
50 15 22
50 15 22
41 11 18
23 7 16
31 25 39
54 68 92
65 84 113
66 85 113
64 81 107
68 85 114
67 39 50
69 6 8
73 7 8
73 7 8
72 7 8
72 6 8
70 7 8
72 7 8
74 7 8
78 8 9
69 6 7
72 7 8
77 7 9
74 7 8
71 7 8
71 7 8
68 6 8
66 7 7
67 7 7
56 6 6
60 11 9
19 39 18
4 60 21
3 56 18
3 58 19
3 52 17
3 56 18
3 54 18
3 51 16
2 49 16
3 64 21
5 59 19
33 83 39
51 120 62
50 117 60
58 135 68
60 141 72
51 122 63
55 113 87
66 120 120
73 121 148
65 103 137
71 112 156
67 114 145
56 101 106
47 108 76
29 89 38
25 87 34
11 64 26
10 71 29
10 70 29
10 68 28
10 67 28
10 67 28
9 62 26
9 64 27
10 68 27
9 61 25
9 65 27
9 63 26
9 65 27
9 60 25
10 66 28
10 70 29
9 60 25
9 64 27
8 58 25
8 55 23
17 60 38
68 87 115
69 89 118
56 75 101
34 65 71
41 80 84
20 58 40
9 43 23
12 46 32
23 53 52
37 76 84
51 85 108
66 103 136
62 98 129
48 72 97
40 58 81
29 38 63
10 5 36
14 11 42
26 33 61
34 44 76
17 5 46
16 3 45
17 3 47
16 2 44
16 3 47
16 3 46
17 3 47
17 3 48
16 3 45
17 3 47
17 3 47
17 3 46
16 3 45
14 2 40
17 3 45
17 3 46
16 2 43
14 2 38
16 3 43
18 5 47
88 111 165
122 163 226
125 167 229
126 169 232
125 168 231
72 92 124
44 50 55
44 50 56
47 53 59
48 53 59
46 51 57
48 53 59
47 52 58
46 51 56
43 47 52
14 18 16
29 32 34
32 37 38
33 38 40
44 49 53
46 50 45
24 47 7
20 43 2
22 48 3
18 40 2
23 50 5
19 26 18
29 34 33
38 42 44
36 41 43
44 50 54
42 46 50
44 50 53
45 50 53
46 51 55
45 50 54
46 51 56
46 51 56
46 52 57
45 50 55
48 53 59
44 49 54
47 52 57
47 52 57
47 52 58
43 48 53
47 53 58
47 53 59
44 49 54
43 48 51
43 48 53
38 43 45
39 44 46
32 39 36
21 31 18
20 31 14
22 34 16
20 33 15
21 34 16
19 29 15
25 32 25
34 39 40
35 39 42
37 41 44
39 43 46
40 45 50
42 46 51
41 45 50
38 42 47
37 40 44
37 40 44
36 39 44
29 31 34
19 19 22
5 3 7
5 4 8
4 3 7
5 4 8
5 3 7
5 4 8
6 4 8
5 4 8
6 4 8
19 20 24
32 35 39
37 40 45
34 37 42
40 44 50
41 44 49
44 48 53
45 50 56
46 50 57
44 48 54
47 52 58
45 49 54
47 51 56
44 49 54
46 51 58
45 51 58
46 50 55
46 52 58
47 51 57
47 51 58
46 51 57
44 49 56
46 51 57
44 49 55
46 51 57
46 51 57
45 49 56
46 50 57
46 51 58
46 51 57
45 49 55
47 52 58
46 50 56
44 49 54
47 53 59
45 51 56
45 51 57
43 47 53
22 45 30
8 42 15
8 44 16
8 44 16
14 41 22
46 51 55
47 51 58
39 43 49
16 20 19
45 55 65
64 85 114
68 89 119
69 89 121
67 87 117
64 85 115
64 85 114
65 85 115
66 86 116
68 89 121
66 87 116
70 90 121
66 86 118
68 89 119
80 101 131
84 105 136
69 89 116
71 90 120
75 99 133
73 95 126
75 97 128
74 96 127
75 97 130
72 93 123
84 106 131
83 107 96
85 113 38
67 94 1
70 96 1
76 106 1
76 102 1
78 108 1
77 107 1
76 107 1
62 88 3
33 52 7
15 30 10
13 27 11
13 27 11
13 27 11
13 27 11
13 28 11
13 28 11
13 27 11
13 27 11
12 25 15
6 14 33
1 3 49
0 0 53
1 2 57
22 29 79
46 61 95
63 83 113
66 85 115
65 84 114
66 86 118
63 82 111
65 85 119
65 85 116
62 83 116
60 78 109
65 85 117
61 81 111
60 80 108
61 80 109
56 74 106
55 75 105
58 76 108
50 65 93
51 66 94
55 72 102
45 60 86
45 59 86
41 55 81
40 54 79
44 59 84
42 57 83
59 77 105
53 70 98
58 78 109
60 79 110
59 77 105
61 79 109
64 83 114
62 83 113
60 80 108
62 81 111
62 81 112
64 82 113
62 81 110
62 80 108
65 83 113
63 80 108
62 79 107
67 85 116
63 79 109
67 86 116
64 79 108
52 49 62
53 18 84
54 1 148
61 0 163
56 0 148
51 0 141
52 0 146
54 0 149
51 0 136
52 0 139
57 0 150
51 1 137
40 19 96
21 51 29
18 48 24
19 50 25
19 48 25
19 49 25
19 50 25
19 49 25
20 50 25
19 49 25
20 51 26
19 50 25
19 49 25
18 48 24
18 46 24
18 47 24
18 47 23
18 47 24
27 53 42
62 78 106
63 80 109
65 81 112
65 81 109
63 78 106
46 32 43
44 13 19
46 14 19
48 14 21
51 15 22
48 14 20
50 15 22
47 14 20
48 14 20
50 15 21
49 14 21
50 14 21
55 16 23
52 15 22
46 13 19
48 14 21
47 14 21
46 13 20
50 15 21
49 14 21
40 25 37
50 59 82
63 80 107
61 79 107
64 82 112
64 82 110
65 85 113
61 48 64
68 7 9
69 6 8
65 6 7
68 6 7
70 6 8
66 6 7
78 7 9
71 7 8
65 6 7
69 6 7
75 7 8
68 6 8
67 6 7
64 6 7
64 6 7
56 5 6
64 6 7
59 6 6
61 6 7
50 13 13
37 54 50
8 46 22
4 55 20
3 52 17
3 58 19
3 50 16
2 52 16
2 49 16
2 51 16
3 54 17
4 52 17
29 76 35
47 105 53
44 104 53
47 108 55
60 112 103
80 117 174
97 143 226
89 135 221
90 138 229
91 139 231
89 136 227
89 135 224
91 137 224
85 126 199
71 111 161
38 81 69
13 67 31
9 63 26
10 68 29
10 66 28
9 61 25
10 67 28
9 60 25
9 66 27
8 58 25
9 64 27
9 60 25
9 64 26
9 65 27
10 68 29
9 61 26
9 61 26
9 59 25
8 57 24
10 64 27
8 57 25
21 61 44
61 86 105
69 89 119
61 83 111
36 67 76
37 74 76
18 46 38
9 39 23
11 37 29
16 45 43
29 58 67
39 67 86
45 77 96
49 78 106
36 55 80
28 40 60
15 16 40
7 6 24
12 11 35
18 23 50
22 22 56
16 4 46
16 3 44
16 2 43
16 2 43
17 3 47
16 2 45
15 2 43
16 3 46
16 2 43
15 2 40
16 2 44
14 2 40
17 3 47
17 3 46
15 2 41
16 2 44
14 2 37
15 2 39
16 3 44
16 3 44
67 82 131
108 146 203
108 147 203
117 158 219
110 148 205
91 121 170
40 43 49
46 50 57
47 53 59
44 49 55
47 52 58
45 51 56
45 50 55
44 49 54
41 45 50
28 34 35
22 27 26
36 41 44
40 46 50
41 48 53
64 69 68
27 36 29
21 41 9
20 43 2
17 39 2
18 35 7
19 26 20
30 36 34
34 40 38
39 45 45
40 46 48
41 46 50
42 47 50
43 49 53
45 50 54
48 53 58
47 51 57
47 52 56
45 49 53
46 50 56
48 52 58
44 49 53
47 52 57
49 53 59
48 53 60
45 49 54
45 50 54
46 51 56
42 47 51
43 48 51
42 47 50
41 46 49
36 41 42
36 40 41
25 30 27
19 27 17
18 26 14
13 21 11
13 19 11
20 25 20
25 29 28
27 31 32
34 37 39
38 43 45
38 43 48
39 43 47
40 43 47
40 44 49
40 44 48
39 43 47
35 39 44
32 35 39
31 34 37
26 28 31
5 4 7
4 3 6
4 3 6
5 3 7
4 3 6
4 3 7
4 3 7
5 3 7
5 4 8
27 29 33
36 40 45
41 45 49
40 44 49
41 46 51
41 44 50
44 49 54
44 48 53
43 47 52
46 51 57
45 50 57
46 52 57
46 51 57
46 50 57
44 48 53
47 51 57
49 54 59
47 51 57
44 49 54
45 50 56
46 51 57
46 49 54
49 54 60
47 51 57
43 48 54
45 50 56
47 51 57
45 50 56
46 51 58
47 52 58
43 48 53
45 50 55
46 51 56
45 50 56
42 48 53
44 51 55
46 51 57
38 47 49
10 39 17
7 38 13
7 37 13
7 34 12
27 39 35
46 52 58
47 51 58
34 39 43
23 26 26
56 73 97
57 78 104
67 88 117
66 88 118
64 84 114
66 88 119
65 85 114
69 91 121
64 84 114
68 88 119
67 87 115
65 86 115
70 89 119
82 102 130
70 90 115
75 96 127
66 86 115
74 96 128
67 86 113
65 83 110
71 93 125
69 90 123
70 91 122
67 88 118
71 91 121
75 96 126
79 101 124
84 109 62
71 96 2
64 88 1
70 99 1
70 98 1
64 90 1
38 57 5
16 30 10
12 25 10
12 26 11
12 26 10
12 26 11
13 27 11
13 27 11
13 26 11
12 26 10
13 27 11
13 27 11
13 27 11
13 28 12
10 21 19
10 15 43
18 23 65
53 71 106
60 78 110
63 83 115
64 84 115
68 88 120
66 86 119
66 87 119
62 82 112
68 89 121
64 84 116
60 79 109
59 77 109
68 88 120
66 87 120
62 82 112
63 82 115
63 83 113
64 83 115
60 79 109
64 83 114
65 86 116
63 83 115
63 82 112
63 82 112
61 80 111
62 81 113
57 75 106
61 80 107
64 84 115
54 71 97
62 80 109
57 76 103
59 77 107
62 80 111
63 82 112
63 83 112
65 85 114
63 82 110
59 74 99
61 79 107
63 80 109
65 83 114
63 77 105
67 85 115
63 80 110
62 78 102
64 79 106
64 83 113
59 70 93
51 46 84
51 7 131
54 0 142
48 0 130
47 0 131
51 0 141
45 0 123
53 0 137
56 0 150
51 0 137
36 13 89
19 45 25
17 47 23
18 48 24
19 49 25
19 49 25
19 50 25
17 46 23
19 48 24
18 48 24
18 47 23
18 46 23
18 47 23
19 48 25
18 47 24
18 45 22
18 47 24
17 44 22
16 41 21
16 39 20
40 59 65
62 77 105
67 85 116
59 74 102
58 67 90
37 14 19
37 11 15
40 12 18
49 14 20
44 13 20
46 13 19
49 14 21
48 14 20
51 15 21
49 14 20
44 13 19
47 14 20
48 14 21
50 14 21
50 14 21
47 13 20
46 13 19
44 13 18
49 14 21
44 13 19
45 28 39
46 54 73
52 64 86
50 62 81
49 62 77
42 61 62
31 49 39
29 47 32
29 33 12
34 30 10
35 24 9
51 17 8
65 12 8
61 5 7
69 6 8
65 6 7
68 6 7
68 6 7
54 5 6
66 6 7
66 6 7
60 6 7
66 6 7
55 5 6
54 5 6
57 6 6
49 5 5
51 22 26
52 64 80
38 62 67
22 51 43
4 36 15
2 40 12
2 37 11
2 41 12
2 41 12
2 45 14
2 38 11
4 42 15
27 67 33
41 88 44
45 98 57
74 114 155
90 132 213
93 141 232
89 138 232
86 136 232
85 135 232
84 135 232
83 134 232
85 135 232
86 136 232
85 132 224
88 134 219
91 131 208
65 108 148
11 60 30
9 61 25
10 68 29
8 59 24
8 59 24
8 58 24
9 63 27
9 61 26
8 55 23
9 60 25
10 67 28
9 60 25
8 54 23
9 60 26
8 55 23
8 54 23
9 59 25
7 48 20
7 48 21
14 51 32
64 86 109
68 87 115
61 82 105
37 62 75
27 54 61
25 53 57
15 38 34
13 35 33
14 38 36
23 46 55
30 54 71
35 61 79
38 62 83
32 52 67
26 42 61
16 23 41
13 17 36
12 17 32
25 39 58
22 24 53
15 2 40
15 2 41
15 2 41
16 3 45
16 2 42
17 3 47
16 2 44
16 2 44
16 2 43
16 2 44
16 2 44
15 2 40
16 2 43
14 2 40
14 2 38
15 2 40
14 2 39
13 2 35
14 2 37
15 2 40
39 46 81
78 108 152
85 115 162
85 117 164
87 118 166
93 127 176
40 47 61
47 53 58
45 50 56
47 52 56
47 52 57
42 48 53
45 51 56
44 49 53
41 47 50
43 47 50
20 28 24
26 34 32
30 41 41
68 75 71
85 89 93
33 40 38
26 32 26
22 32 17
14 22 10
14 20 12
23 29 23
37 43 42
35 42 41
39 45 45
42 49 50
45 49 52
46 52 55
44 49 52
47 52 58
46 51 57
45 50 56
46 51 56
44 50 55
46 50 55
47 51 55
46 50 54
48 53 58
46 51 57
44 49 54
45 50 55
43 47 52
45 50 54
45 50 55
41 46 49
39 44 47
41 46 47
39 44 46
32 37 37
32 37 36
28 31 30
19 22 21
20 23 21
21 24 21
26 30 30
28 31 31
30 34 35
37 41 44
35 39 42
38 43 47
39 43 47
40 44 48
38 43 47
37 41 44
37 41 45
33 37 40
27 29 32
31 35 38
25 26 29
17 17 20
5 5 7
3 2 5
4 3 6
4 3 6
4 3 5
4 2 5
4 3 5
14 14 17
34 37 42
34 37 40
34 38 41
35 37 37
44 49 44
41 47 47
40 43 46
45 50 55
44 49 54
46 51 55
45 50 56
45 50 54
48 52 57
47 52 58
44 49 55
45 50 55
45 49 55
47 52 58
44 48 54
46 51 56
46 50 57
48 52 58
46 51 58
47 51 56
47 52 59
45 49 55
44 48 55
46 50 56
48 52 59
47 52 58
47 51 58
45 50 56
47 52 58
42 46 50
44 50 55
44 49 54
40 47 51
28 44 36
7 38 14
7 34 12
7 34 12
12 34 19
44 50 56
48 53 59
44 48 54
23 26 28
44 50 53
62 80 108
64 84 114
64 85 114
64 84 114
64 84 112
66 86 115
64 85 116
63 83 113
67 86 116
65 85 115
64 84 115
63 82 109
81 101 130
73 93 120
69 89 118
68 88 117
66 88 119
70 90 121
70 90 120
68 88 118
68 89 117
69 89 119
72 93 124
69 90 120
71 92 123
69 89 117
78 100 132
92 116 149
86 112 78
67 91 1
63 89 1
58 81 1
36 53 6
12 24 9
12 25 10
12 24 10
12 24 10
12 25 10
12 25 10
12 26 10
12 26 10
12 26 10
12 25 10
13 26 11
12 26 10
13 27 11
13 27 11
13 26 11
13 26 16
42 56 75
52 68 96
50 67 96
49 64 97
55 70 101
62 80 113
60 78 110
60 77 109
64 83 115
60 78 109
61 81 111
60 78 108
65 84 116
63 84 115
66 88 119
65 84 116
64 83 114
64 83 112
62 81 112
68 89 121
66 85 115
64 84 115
64 84 117
62 82 111
61 81 113
64 83 115
65 85 118
62 80 108
57 75 101
57 75 100
49 65 86
59 74 100
60 79 105
62 80 108
60 77 104
64 83 112
64 83 111
64 84 113
65 84 113
59 74 102
62 79 105
66 83 113
62 80 107
58 74 99
59 75 101
62 78 104
57 68 90
60 72 96
56 66 87
51 59 79
52 55 86
49 18 114
54 0 146
48 0 129
44 0 120
48 0 132
51 0 134
46 0 124
49 0 129
47 1 125
27 36 52
18 46 23
19 49 25
18 47 24
19 48 24
19 48 24
18 47 23
17 45 22
17 44 22
17 45 22
17 44 22
16 42 21
18 48 24
18 46 23
18 46 23
17 43 21
16 42 21
17 44 23
15 39 20
17 42 21
20 40 28
58 77 102
62 77 104
66 86 118
45 39 52
37 11 16
33 10 14
34 10 14
42 12 18
41 12 17
41 12 17
47 13 19
46 13 19
47 14 20
43 12 18
47 14 20
52 15 22
47 14 20
42 12 18
42 12 17
47 13 20
47 14 20
45 13 19
40 12 16
41 12 17
42 17 24
33 32 42
35 45 51
28 45 33
19 39 12
18 38 10
19 39 10
18 38 10
18 36 9
18 37 10
18 37 10
18 37 10
17 34 9
29 28 9
59 12 8
59 5 7
65 6 7
55 5 6
54 5 6
59 6 6
62 6 7
57 5 6
50 5 5
53 5 6
47 5 5
49 5 5
53 5 6
46 29 36
39 55 66
36 55 62
28 43 45
18 39 33
1 21 7
5 23 12
2 22 7
3 24 10
3 25 8
5 24 13
14 31 25
29 56 40
45 88 61
78 111 168
98 143 229
94 142 232
88 137 232
84 135 232
83 134 232
81 132 232
80 132 232
81 132 232
82 133 232
83 134 232
85 135 232
87 133 224
86 132 217
88 127 200
58 97 132
18 66 46
8 56 23
9 60 25
8 59 24
8 59 24
9 62 26
10 66 27
8 56 24
9 64 27
8 57 23
9 61 25
8 57 24
8 55 23
8 56 23
8 56 23
7 51 21
7 52 22
6 45 19
18 55 38
62 83 107
68 89 116
69 90 119
43 65 86
24 48 58
26 49 59
18 40 43
17 38 42
18 35 44
24 44 58
31 53 73
29 49 68
32 53 74
29 50 68
26 43 64
21 33 50
20 31 48
19 31 47
24 38 60
21 24 52
13 2 37
13 2 37
14 2 40
14 2 40
15 2 41
14 2 39
16 2 43
15 2 40
15 2 41
15 2 40
15 2 43
14 2 40
15 2 40
14 2 37
14 2 38
14 2 39
13 2 37
14 2 39
14 2 38
13 2 36
36 42 73
60 83 117
61 84 117
63 87 124
63 86 120
65 91 127
51 68 96
43 48 55
45 49 55
46 51 57
47 52 57
45 50 55
47 52 57
47 54 59
43 49 53
45 50 55
44 49 52
19 28 24
8 20 11
59 68 65
65 71 78
36 43 41
34 40 37
30 35 32
22 26 20
23 30 23
29 36 31
35 41 39
36 43 42
42 47 51
41 46 47
39 45 46
46 50 54
45 49 54
44 49 52
46 51 56
45 50 54
46 50 55
46 51 56
45 50 55
43 48 52
48 53 59
44 49 54
46 50 56
44 49 53
44 48 53
46 51 55
45 51 56
43 48 53
42 47 49
43 48 52
38 43 45
42 47 49
32 37 37
31 35 36
32 36 36
28 32 32
30 34 34
27 31 31
32 36 36
34 38 40
37 42 44
36 41 43
41 46 50
39 43 46
38 43 47
39 43 47
35 39 43
37 42 47
38 42 46
39 42 47
31 34 37
27 29 33
25 27 30
20 21 23
10 10 12
4 3 5
4 3 5
3 2 5
4 3 5
5 4 6
18 19 22
27 30 33
22 23 23
52 56 42
83 90 62
85 92 65
91 101 72
89 99 69
79 86 60
57 63 50
43 49 50
44 49 54
45 50 55
48 51 56
46 51 56
46 50 54
48 53 58
45 50 55
45 49 54
45 50 55
46 50 55
42 46 50
45 49 53
46 51 58
45 49 54
44 49 56
46 51 57
46 51 58
43 48 53
49 54 60
45 51 56
47 51 58
44 49 56
43 49 54
44 50 54
45 51 57
38 43 47
40 45 49
38 44 46
14 35 20
6 30 10
6 31 11
6 27 9
30 45 39
45 51 55
46 51 58
44 49 55
39 42 38
61 74 90
57 77 102
64 85 112
60 80 105
62 82 111
62 82 111
64 85 114
66 84 114
67 88 118
66 86 116
64 84 114
66 88 119
81 102 129
72 92 121
69 88 115
67 86 113
70 90 120
68 88 118
67 89 121
70 91 122
69 92 124
70 91 121
71 92 125
70 90 119
71 93 123
71 91 122
68 90 119
72 93 124
73 94 124
90 113 145
80 104 68
56 79 1
32 48 5
10 22 9
10 21 8
11 23 9
11 23 9
11 22 9
11 22 9
12 25 10
11 23 9
12 25 10
13 26 10
12 25 10
12 25 10
13 26 10
12 25 10
12 25 10
12 26 11
12 25 10
15 28 16
35 46 63
42 55 82
56 72 100
46 61 89
52 69 99
53 69 99
56 74 105
59 77 108
63 82 113
63 83 113
62 81 110
66 85 116
56 74 105
64 83 116
64 84 116
69 90 123
61 81 113
62 82 112
65 86 117
65 86 119
68 88 120
67 86 117
60 78 105
65 86 118
66 86 116
66 86 118
63 83 113
47 63 81
52 69 90
55 73 99
52 71 93
50 68 88
58 75 99
56 73 96
59 76 102
59 76 102
59 76 102
56 72 94
59 77 103
58 75 100
60 75 100
60 75 100
58 73 98
58 71 94
54 67 88
51 62 83
52 61 80
46 52 67
45 51 66
45 51 67
41 24 75
47 3 127
44 0 123
46 0 126
43 0 119
49 0 131
42 0 116
47 0 129
39 8 101
17 45 23
17 46 23
17 45 23
17 44 22
18 47 24
18 44 23
17 45 22
17 44 22
18 47 24
17 46 23
17 45 22
17 45 23
17 43 22
16 43 21
16 43 21
18 46 23
19 47 24
16 42 21
16 41 21
16 41 21
13 34 17
45 64 71
59 73 101
63 80 109
29 19 27
28 9 12
34 10 14
33 10 14
40 12 17
41 12 18
41 12 17
44 13 18
42 12 18
45 13 19
48 14 20
42 12 18
48 14 20
38 12 16
46 13 19
41 12 17
39 11 17
42 12 18
43 12 18
41 12 17
47 13 20
42 14 18
24 32 22
18 37 11
18 38 10
17 36 9
18 37 10
18 37 9
17 36 9
17 37 10
17 36 9
17 36 9
18 37 9
17 36 9
16 34 9
18 35 9
42 19 7
58 8 7
58 5 6
50 5 5
57 5 6
53 5 6
53 5 6
50 5 5
52 5 5
48 4 5
47 5 5
45 18 21
41 46 54
31 51 56
39 56 66
35 55 62
30 50 53
19 32 35
13 25 23
15 29 28
26 38 43
17 29 30
31 43 51
23 39 41
38 63 65
80 112 168
100 146 232
95 142 232
89 138 232
86 136 232
84 134 232
81 132 232
80 132 232
80 132 232
80 132 232
81 132 232
82 133 232
84 134 232
86 136 231
90 138 229
91 136 220
95 139 220
58 93 135
12 53 30
8 59 24
7 52 21
9 61 26
8 53 22
9 60 25
8 53 22
8 55 23
8 55 23
8 55 23
8 54 22
8 54 22
8 53 22
8 53 23
7 48 20
7 47 20
7 50 22
21 52 42
72 94 124
69 89 119
67 86 114
59 79 104
28 51 64
27 50 63
23 43 55
19 36 47
22 41 53
23 42 57
29 51 68
28 48 67
30 51 72
30 51 72
24 40 60
24 39 57
20 34 50
20 34 49
29 48 69
24 31 60
13 2 36
14 2 40
14 2 39
14 2 39
15 2 40
15 2 40
14 2 38
14 2 41
13 2 36
14 2 38
15 2 42
14 2 36
14 2 38
14 2 39
13 2 35
13 2 35
12 2 35
14 2 38
13 2 37
14 3 38
39 47 77
59 81 113
60 82 111
58 79 108
57 79 107
58 79 109
50 69 94
40 45 55
47 52 59
46 51 56
48 53 58
46 52 57
46 52 56
46 51 56
46 51 54
43 49 51
44 49 53
43 48 50
37 44 45
34 43 44
41 48 53
38 43 44
33 39 36
34 39 38
33 39 34
31 38 34
33 38 37
34 40 38
38 43 44
40 45 47
44 49 53
43 48 52
45 49 54
44 48 52
46 51 54
46 51 57
44 49 54
46 50 55
47 52 57
46 50 56
43 46 49
47 52 58
48 53 58
45 49 53
44 48 52
45 50 55
46 50 55
46 51 55
43 48 51
45 49 54
45 49 54
39 45 48
41 46 50
39 43 45
36 40 42
37 41 43
34 38 40
38 42 44
34 39 39
36 40 42
39 44 46
38 42 45
37 41 44
38 42 45
40 44 47
40 44 47
37 42 46
37 41 45
38 43 47
33 37 40
36 40 44
33 36 38
31 35 38
28 30 32
23 25 27
19 20 21
14 14 15
9 9 10
12 12 13
13 13 14
22 24 26
25 28 30
21 22 19
72 78 55
95 106 75
89 103 76
85 101 76
84 100 76
84 100 76
90 104 76
95 105 74
56 62 45
44 49 49
42 47 51
41 46 50
44 48 53
47 52 57
44 48 53
47 52 57
46 51 56
44 48 54
46 51 57
45 50 55
47 52 57
44 48 53
44 49 54
43 46 51
46 50 56
45 50 54
46 51 57
46 50 54
49 54 60
44 49 54
44 49 54
47 52 57
45 49 54
40 44 48
39 45 48
33 39 39
22 31 28
6 29 11
5 28 10
5 27 9
13 26 18
41 47 51
42 47 52
46 52 59
35 38 41
53 60 60
66 86 114
65 86 115
66 87 115
66 86 116
69 89 118
65 85 114
63 83 111
66 86 115
61 83 109
69 90 120
64 85 112
78 97 124
68 89 114
65 84 112
70 92 123
68 88 116
69 90 119
67 88 120
66 87 117
71 92 123
70 90 121
74 96 129
70 91 122
72 94 128
69 90 121
73 95 128
74 95 126
71 91 120
74 94 123
76 96 127
61 80 99
51 72 12
12 24 8
10 21 8
10 22 9
10 22 9
11 22 9
11 23 9
11 23 9
12 24 10
11 22 9
11 23 9
11 24 9
12 25 10
12 24 9
12 24 10
12 25 10
12 24 10
12 25 10
11 23 10
12 25 10
18 30 24
41 53 78
48 62 89
55 70 100
53 69 98
53 70 98
52 67 98
55 73 103
59 77 108
58 75 107
63 82 112
64 83 116
54 71 100
70 90 122
61 80 111
64 84 114
65 85 114
66 88 119
63 81 111
66 87 117
68 87 118
62 81 111
64 85 117
65 86 118
64 85 114
69 89 119
60 62 115
48 63 82
56 74 96
50 64 82
50 67 87
61 80 106
57 74 99
59 76 102
62 80 107
59 73 101
61 78 104
54 68 89
61 79 109
62 78 104
59 75 100
61 77 101
55 68 90
61 73 98
56 70 94
49 55 75
49 57 77
56 66 92
46 51 66
47 51 66
43 44 64
40 14 96
41 0 118
44 0 122
45 0 127
36 0 101
41 0 114
41 0 113
27 19 64
17 45 22
18 48 24
16 43 22
18 44 22
17 44 22
17 46 23
17 44 22
17 44 22
16 44 22
17 43 21
14 39 19
15 41 20
18 45 22
16 43 21
16 42 21
17 43 22
16 41 20
16 39 19
15 37 18
14 36 18
14 36 18
29 47 44
61 77 106
58 70 98
30 18 24
27 8 11
26 8 11
36 11 15
37 11 16
39 11 16
39 11 16
38 11 16
39 11 16
36 11 15
41 12 17
43 12 18
39 11 16
42 12 18
41 12 17
40 12 17
40 11 17
43 12 18
40 12 17
42 12 18
40 13 16
22 31 11
16 35 9
18 37 10
17 35 9
18 36 9
17 35 9
17 35 9
17 35 9
18 37 9
17 34 9
17 36 9
17 35 9
17 36 9
16 34 9
16 33 9
16 34 9
27 26 8
46 5 5
51 5 5
52 5 5
51 5 5
50 4 5
44 4 5
42 4 4
45 4 5
43 6 7
51 41 53
51 71 87
50 73 89
51 70 88
48 68 84
50 68 84
51 71 89
53 73 93
44 64 77
48 68 84
51 72 88
46 70 79
55 74 91
65 87 130
96 136 215
98 144 232
93 141 232
89 138 232
87 136 232
85 135 232
82 133 232
82 133 232
81 132 232
82 133 232
82 133 232
83 134 232
85 135 232
89 138 232
90 139 232
93 139 226
92 134 213
87 124 197
40 69 92
8 54 23
8 52 22
8 52 22
8 53 23
8 54 23
7 50 21
7 49 20
7 51 21
7 52 21
8 54 22
7 47 20
7 51 21
6 42 17
7 50 21
7 51 22
6 40 17
34 61 62
66 88 114
69 91 119
65 85 111
65 86 113
48 68 89
28 49 66
24 45 57
23 43 58
23 43 55
25 46 61
25 44 60
28 50 67
27 47 66
27 47 67
25 43 62
28 46 66
23 40 57
26 43 63
28 47 68
27 41 66
14 5 38
13 2 35
13 2 36
13 2 38
13 2 36
13 2 35
12 2 33
14 2 38
14 2 37
14 2 37
13 2 37
13 2 35
12 2 33
13 2 35
12 2 33
12 2 33
12 2 34
13 2 33
12 2 33
15 9 38
47 58 85
58 78 106
57 75 100
56 75 102
54 71 95
51 69 90
48 65 84
42 54 69
47 52 57
44 50 55
47 52 58
47 52 58
47 52 58
45 51 55
43 49 52
41 46 48
44 49 53
43 47 50
45 50 55
44 49 55
45 50 55
42 47 50
40 45 44
38 44 43
36 41 41
38 43 42
38 43 42
39 44 44
37 43 43
42 47 50
43 48 52
45 49 55
43 48 52
47 52 56
46 51 55
45 49 54
45 50 54
46 51 55
44 49 53
45 50 55
45 49 53
46 50 55
43 47 50
45 50 55
46 51 56
45 50 55
47 51 54
43 47 51
43 48 53
44 49 54
42 47 51
42 46 50
40 44 47
39 44 46
41 45 48
42 46 49
36 40 42
39 43 46
40 46 50
40 44 48
42 46 51
39 44 49
39 44 47
41 45 48
45 49 54
40 44 48
43 48 53
40 45 50
34 39 42
35 39 44
35 39 43
40 43 47
32 35 38
30 33 37
34 37 40
27 29 32
26 27 28
21 23 24
23 25 27
21 23 24
20 22 23
13 13 12
84 90 61
95 106 76
86 102 76
81 99 76
77 97 76
77 96 76
78 97 76
83 100 76
91 104 76
93 102 71
53 58 48
44 49 52
45 49 54
47 52 58
44 48 52
44 49 54
43 48 53
47 52 57
49 54 59
45 50 55
46 51 56
43 48 53
47 51 56
47 53 58
45 49 54
44 49 54
47 53 59
43 48 53
43 48 52
45 50 55
48 53 58
45 50 55
44 50 54
44 49 51
39 44 47
35 41 44
27 33 33
18 25 22
5 24 9
5 25 9
7 25 11
36 44 45
46 51 58
45 50 55
42 47 53
19 24 42
58 72 84
66 85 113
67 87 116
69 88 119
68 89 119
65 84 112
69 87 116
68 87 115
66 86 114
67 88 118
67 88 117
61 79 100
69 88 111
69 88 117
63 83 111
67 87 115
64 83 111
70 92 122
74 96 128
72 93 125
73 95 128
67 88 116
70 92 122
73 95 129
69 90 120
70 90 122
70 90 121
69 89 119
71 91 121
67 88 118
71 91 118
60 78 102
30 43 46
9 19 9
9 18 7
9 19 7
10 21 8
11 22 9
10 21 8
11 23 9
11 23 9
11 22 9
11 22 9
11 22 9
11 24 9
11 23 9
10 22 9
12 25 10
12 25 10
12 24 10
12 25 10
11 23 9
12 23 10
37 52 66
56 74 103
50 67 95
55 72 97
58 76 109
56 73 104
63 82 112
56 73 103
60 80 110
60 79 108
59 78 109
61 80 114
64 83 115
63 85 116
62 83 114
63 83 115
68 89 121
66 87 117
68 89 121
65 85 116
63 83 115
67 88 120
65 87 118
63 84 115
55 63 109
48 21 117
58 77 100
54 72 96
60 77 101
56 73 95
56 75 99
61 80 107
64 82 112
59 74 103
64 83 111
64 81 111
66 84 113
61 75 103
59 75 100
63 81 109
61 76 103
60 75 102
57 70 96
61 75 102
66 84 114
62 77 103
60 73 99
55 65 90
53 63 87
62 75 107
51 51 89
46 16 112
44 0 117
35 0 102
36 0 101
36 0 101
39 0 107
25 24 56
14 38 19
16 43 21
16 42 21
18 47 23
16 41 20
17 44 21
16 42 21
17 45 22
15 41 20
16 41 21
16 42 21
14 38 19
16 42 21
16 42 21
17 44 22
15 40 20
15 39 20
15 39 19
15 40 20
13 32 16
12 31 15
16 33 23
62 78 105
60 74 102
25 12 17
26 7 10
24 7 10
28 8 12
30 9 13
43 12 18
36 11 15
38 11 16
45 13 18
43 12 18
44 13 19
39 11 16
43 12 18
41 12 17
40 11 16
38 11 15
38 11 16
36 10 15
40 12 17
35 12 15
23 25 11
17 36 9
17 35 9
18 37 9
16 34 9
17 34 9
17 35 9
17 34 9
17 35 9
17 35 9
17 36 9
17 34 9
17 36 9
17 35 9
17 35 9
15 33 8
16 32 8
16 33 8
27 22 7
47 4 5
44 4 5
45 4 5
50 4 5
40 3 4
38 4 4
37 5 6
48 33 44
58 70 91
60 79 103
62 83 106
62 80 106
58 75 98
58 77 99
61 84 106
57 78 99
59 78 101
59 82 105
58 77 99
60 81 104
51 70 96
84 116 181
100 143 225
97 144 232
93 141 232
91 139 232
88 137 232
86 136 232
85 135 232
85 135 232
84 135 232
84 134 232
85 135 232
85 134 229
84 130 219
86 134 226
91 138 228
94 141 229
97 143 227
96 137 214
75 106 166
23 58 53
8 54 22
7 52 21
8 53 22
7 49 20
7 50 20
7 51 21
7 48 20
8 52 22
7 48 19
6 45 19
7 45 19
6 45 19
6 39 17
6 41 17
8 44 21
48 73 86
66 87 116
69 90 118
64 85 111
68 90 120
60 81 108
36 56 72
27 48 65
24 46 60
22 40 55
24 44 61
25 44 61
25 45 61
24 42 58
23 42 57
27 45 65
25 43 59
19 33 49
26 45 63
23 40 57
27 45 64
15 12 37
13 2 38
13 2 36
11 2 31
12 2 34
14 2 37
13 2 37
13 2 35
12 2 33
13 2 35
12 2 34
12 2 33
11 2 29
11 2 31
11 2 30
12 2 32
12 2 33
11 2 29
11 2 30
25 21 52
58 74 103
62 82 110
62 82 111
56 76 100
55 74 98
60 79 104
57 76 97
52 69 88
43 48 54
46 51 57
47 51 57
46 51 56
46 50 56
44 49 54
45 51 54
44 50 55
46 51 55
42 46 49
47 51 56
43 47 51
48 52 57
43 47 50
42 46 47
41 47 47
41 45 46
39 43 45
37 42 42
41 47 47
44 49 53
42 48 50
44 49 52
44 49 51
44 48 52
46 51 54
44 49 52
46 51 54
44 48 52
46 50 55
47 50 55
45 49 53
46 50 55
46 51 55
44 49 54
46 50 55
44 50 54
45 49 54
44 49 54
42 47 50
44 49 53
46 51 56
44 49 54
44 49 53
43 47 52
43 48 53
42 46 50
44 48 52
40 44 47
41 45 49
44 48 53
39 43 46
42 47 52
38 43 46
40 44 48
44 48 53
40 44 48
39 43 46
37 41 44
38 43 47
39 44 48
40 43 46
36 40 44
39 42 46
37 41 45
31 35 38
31 35 38
35 38 41
27 29 32
27 29 31
29 31 34
27 30 32
20 23 19
47 53 41
99 107 75
91 104 76
84 100 76
78 97 76
75 96 76
74 95 76
76 96 76
80 98 76
88 102 76
99 109 76
66 70 53
41 45 46
44 49 54
45 49 54
45 49 54
43 47 51
40 44 47
46 51 56
44 48 52
46 51 56
44 49 53
46 50 55
47 51 55
45 50 54
46 51 56
45 48 53
46 51 57
48 52 56
46 51 57
45 49 54
47 51 57
40 45 50
41 46 50
41 45 49
35 40 42
34 40 43
31 36 37
13 18 15
4 18 7
11 23 15
29 38 37
44 49 52
42 48 52
45 50 57
21 25 44
25 33 55
70 87 114
65 85 110
64 83 111
66 86 116
70 91 118
67 87 115
68 88 115
68 88 116
66 86 112
68 89 118
67 88 117
61 78 103
73 90 121
74 93 121
72 92 122
69 88 118
72 93 122
71 92 120
71 93 122
68 87 115
68 89 117
74 95 127
71 92 120
66 85 116
71 92 124
71 91 122
71 92 122
70 91 118
68 88 116
69 89 118
69 89 118
62 81 107
50 67 83
14 24 17
9 19 7
8 17 7
10 21 8
9 19 8
10 20 8
10 21 8
12 24 9
11 23 9
10 21 8
11 22 9
11 23 9
11 22 9
11 23 9
11 23 9
11 23 9
12 23 9
11 23 9
11 23 9
11 22 9
21 35 32
62 81 107
63 82 113
60 78 108
58 76 104
61 81 112
64 83 111
63 83 111
59 80 106
59 78 107
68 89 121
63 83 110
58 77 104
63 84 116
63 84 114
62 83 114
63 83 112
63 85 113
61 80 109
67 87 116
63 84 116
63 85 114
62 83 112
64 81 116
53 33 123
50 21 125
63 83 110
64 84 112
62 80 107
63 83 111
62 80 108
64 83 112
62 82 111
65 84 114
63 82 109
62 78 107
67 87 117
63 79 106
66 86 118
66 83 115
65 82 111
66 84 113
64 82 111
64 80 112
57 71 98
61 75 104
62 75 105
62 79 108
60 73 100
63 79 110
63 79 109
57 61 103
41 16 101
31 0 91
35 0 101
36 0 102
35 1 98
23 30 45
16 41 21
15 39 20
15 40 20
14 37 18
15 40 20
16 41 20
18 45 22
17 43 21
16 41 21
16 42 20
15 38 19
16 41 20
16 41 20
16 42 21
14 38 18
14 37 18
14 37 18
13 35 18
14 37 18
14 35 18
12 31 15
15 32 22
57 70 99
63 79 108
27 19 28
20 6 8
25 7 10
28 8 11
30 9 13
35 10 14
36 11 15
37 11 15
39 11 16
43 12 18
40 11 17
41 12 17
37 11 15
34 10 14
37 10 15
38 11 16
40 11 17
39 11 16
34 10 14
28 21 12
16 34 9
17 36 9
16 34 9
17 35 9
17 35 9
16 34 9
17 34 9
16 33 8
16 34 9
17 34 9
17 35 9
15 32 8
16 34 9
17 35 9
15 32 8
16 33 8
16 33 8
15 32 8
16 34 9
32 17 6
38 3 4
37 3 3
45 4 5
38 3 4
34 3 4
42 28 36
58 62 83
60 78 103
63 79 102
60 75 96
59 75 98
66 88 116
58 72 95
59 75 98
61 81 107
62 80 106
58 76 100
63 81 109
60 78 103
69 90 136
87 120 187
98 143 223
97 142 225
96 143 232
95 142 232
92 140 232
90 139 232
89 138 232
88 137 232
88 137 232
87 137 232
86 135 227
83 127 210
84 128 212
80 119 192
88 132 214
92 134 214
98 143 227
96 139 212
82 114 179
39 67 93
6 44 19
7 50 20
6 46 19
6 42 17
7 46 19
7 46 19
5 40 16
6 42 17
7 47 20
6 44 18
6 42 17
6 40 16
5 38 16
6 42 18
25 52 47
61 84 107
63 83 110
66 88 115
66 88 115
62 82 110
64 86 112
51 68 92
31 49 64
20 36 47
21 39 51
21 37 50
17 31 42
19 35 47
21 38 52
17 31 41
21 36 49
16 28 42
22 38 54
19 33 47
24 39 53
45 64 86
37 46 70
10 1 29
13 2 35
11 1 30
11 2 32
12 2 34
12 2 32
13 2 35
12 2 32
13 2 36
12 2 32
12 2 33
11 2 31
11 2 30
12 2 33
11 2 30
12 2 31
10 2 29
12 4 31
37 43 70
63 82 110
64 84 113
62 81 106
65 85 112
62 79 105
64 84 109
59 77 101
61 80 103
55 69 91
46 52 57
46 52 57
47 52 56
47 52 56
44 49 53
45 49 53
45 50 55
45 50 54
45 49 53
44 48 52
45 49 53
46 51 55
44 48 49
40 45 47
43 48 50
43 48 51
45 48 49
41 46 50
43 48 52
41 47 48
44 48 52
45 49 52
43 47 48
42 46 49
41 46 49
43 48 51
45 49 53
45 48 52
44 48 52
42 47 50
45 50 55
46 50 55
47 51 56
46 51 56
44 49 52
45 49 52
45 49 53
46 50 54
47 52 57
42 47 51
44 48 51
43 48 52
42 46 50
40 44 47
42 47 51
43 47 52
43 47 50
41 45 48
42 46 50
38 42 45
42 46 50
44 48 53
42 47 51
40 44 48
43 46 50
43 47 51
43 47 51
39 43 46
42 46 50
42 47 52
39 42 45
36 38 41
41 45 50
36 40 43
36 39 43
34 38 41
38 42 45
35 38 42
34 37 39
35 38 41
27 30 30
27 34 22
64 74 48
99 109 76
90 104 76
83 100 76
75 91 70
66 78 57
64 72 51
68 80 59
81 97 73
89 103 76
100 109 76
58 64 48
40 45 44
43 47 51
41 45 49
45 49 53
43 47 51
44 49 54
46 50 54
46 51 56
46 50 54
46 50 56
46 49 53
48 52 58
47 51 56
45 50 56
45 50 55
44 48 53
44 48 52
45 49 54
44 48 53
43 48 54
45 49 54
44 50 55
41 46 50
39 45 48
32 38 39
28 33 33
15 19 17
14 17 15
29 34 35
40 46 50
45 50 55
47 51 57
33 38 49
2 7 34
53 68 91
70 91 120
69 90 119
67 87 115
67 88 119
69 89 117
69 90 119
67 87 116
68 88 117
69 89 117
64 82 110
62 81 108
56 72 99
71 92 120
78 99 126
73 94 122
66 84 113
71 92 120
64 85 111
69 89 118
69 89 118
71 92 121
68 88 117
68 89 118
68 89 119
72 93 124
74 94 126
69 89 120
70 91 120
71 92 122
68 88 117
73 93 124
60 79 104
64 83 109
22 34 32
8 18 7
9 19 8
9 20 8
10 19 8
9 20 8
10 21 8
10 20 8
11 22 9
10 21 9
9 19 7
11 22 9
11 22 9
11 24 10
11 22 9
10 21 8
11 21 9
11 22 9
12 23 9
11 23 9
11 21 11
54 73 96
63 84 113
66 86 116
63 84 113
61 83 107
62 83 111
67 88 115
66 86 115
61 81 105
63 83 111
62 84 111
64 86 116
64 86 115
59 80 106
64 86 114
64 85 116
59 80 107
62 82 111
63 83 113
59 79 107
63 84 109
64 85 113
53 50 112
41 18 105
46 20 114
66 87 117
65 83 112
69 89 120
64 84 114
66 85 114
66 86 118
64 80 112
61 80 106
65 84 113
69 86 118
66 86 115
65 84 114
62 76 104
65 85 116
64 84 113
61 78 108
61 79 110
66 82 115
68 86 120
63 78 114
67 85 119
65 82 112
64 79 113
65 79 115
58 71 103
62 77 109
57 62 110
40 22 94
32 4 90
29 0 82
34 1 97
18 27 33
16 40 20
17 43 21
16 42 21
17 44 22
15 39 19
16 41 20
14 36 18
16 41 20
16 41 20
15 41 20
16 40 20
15 38 19
16 41 20
16 41 20
15 38 18
15 39 19
14 37 18
13 33 16
13 35 17
13 34 17
12 32 16
13 31 17
58 74 98
65 83 114
35 33 47
12 4 5
18 6 8
25 7 10
28 8 11
31 9 13
30 9 12
34 10 15
37 11 16
37 11 15
40 12 17
34 10 14
32 9 13
38 11 15
37 11 15
40 11 16
34 10 14
33 9 14
35 14 15
17 32 8
16 33 8
17 34 9
17 34 9
16 33 8
16 32 8
16 32 8
16 34 9
16 33 8
16 34 9
17 35 9
16 32 8
15 32 8
16 33 8
16 33 8
15 30 8
16 33 8
16 32 8
15 31 8
14 29 7
15 28 7
39 7 5
31 3 3
31 3 4
34 14 18
39 33 45
48 55 72
59 66 88
50 58 75
55 66 87
55 69 90
60 75 97
58 72 96
63 76 100
58 70 92
60 75 99
62 80 105
65 82 109
58 74 96
58 76 99
72 93 144
82 115 177
93 135 210
87 128 200
92 138 221
97 144 232
96 143 232
95 142 232
94 141 232
93 141 232
93 141 232
92 140 232
88 132 215
82 120 192
79 116 184
76 109 168
74 105 162
87 125 194
91 132 202
97 138 214
75 110 166
49 74 117
9 47 25
6 41 17
6 45 18
6 42 17
6 45 18
6 44 18
7 47 19
6 46 19
6 42 17
6 40 16
4 30 13
6 43 18
5 37 15
11 37 24
53 74 93
58 80 104
62 84 111
57 77 101
52 71 93
56 77 100
52 72 95
56 76 100
44 61 80
30 47 59
14 26 33
10 23 27
13 26 33
17 30 39
15 27 37
11 22 30
15 26 36
13 24 35
14 26 36
24 38 52
41 56 76
55 74 99
51 66 93
21 19 45
10 1 29
10 1 30
13 2 34
10 1 28
10 1 27
12 2 33
10 1 29
12 2 32
11 2 30
10 1 28
10 1 29
12 2 32
11 2 31
10 1 27
9 1 27
10 1 27
22 18 48
57 74 100
64 83 109
67 86 116
62 81 109
65 85 113
61 79 105
61 79 105
66 86 114
64 83 110
62 80 105
52 62 74
46 51 56
47 52 57
44 49 54
45 49 53
45 50 53
42 46 49
45 49 55
49 54 58
45 49 53
47 51 55
45 50 53
43 48 52
43 49 51
42 46 49
43 48 51
39 44 45
42 48 49
44 50 51
43 47 51
44 50 51
46 50 53
45 50 53
43 47 50
46 50 54
43 47 50
44 48 52
46 50 55
43 46 50
44 49 53
43 47 50
43 47 50
45 49 54
47 51 55
43 48 52
46 51 57
43 48 52
45 50 55
46 51 56
44 48 52
43 47 51
43 47 51
42 46 49
44 48 51
43 47 51
42 47 50
45 50 55
43 48 51
44 48 52
43 47 52
41 44 48
41 45 48
43 46 50
41 45 49
44 49 53
44 48 52
42 46 49
41 45 51
42 46 51
38 43 47
37 40 43
39 43 47
41 45 50
36 40 43
37 41 44
36 40 42
36 41 45
36 40 43
32 36 37
36 39 42
34 40 32
28 36 23
60 66 42
101 110 76
93 105 76
79 87 61
67 66 41
67 64 38
68 64 38
66 64 38
73 77 51
94 106 76
97 103 72
43 47 35
41 45 46
43 47 51
45 49 53
44 48 52
45 49 54
44 49 54
41 45 49
44 47 52
44 49 53
45 49 54
42 46 51
43 48 52
43 48 53
46 51 56
43 47 51
46 50 55
44 48 52
44 48 53
43 48 53
42 46 51
44 48 53
42 47 52
37 42 46
39 43 47
36 41 44
30 35 36
22 26 25
20 25 25
36 41 44
44 50 54
44 50 56
39 44 53
2 7 29
20 27 51
70 91 121
70 90 117
70 90 120
67 87 115
70 90 119
69 90 120
68 89 119
70 91 120
67 85 112
69 89 119
64 84 108
69 85 110
59 74 102
70 91 119
79 98 126
73 95 123
76 97 129
76 97 128
69 90 115
69 89 115
70 92 120
71 91 118
74 94 125
74 95 128
75 96 129
74 96 129
66 87 118
73 94 126
72 92 121
71 91 121
72 92 122
71 90 119
63 81 105
59 77 99
28 40 43
8 16 6
8 17 7
9 18 7
8 17 7
9 18 7
10 21 8
10 20 8
10 20 8
11 22 9
10 21 8
10 20 8
11 22 9
10 21 8
11 22 9
11 22 8
9 19 8
10 21 9
11 22 9
11 22 9
10 19 8
44 61 71
61 81 108
64 84 110
65 86 113
64 85 111
66 87 109
61 80 108
65 87 112
64 85 112
65 85 113
68 88 118
66 88 116
61 83 111
61 82 108
60 81 108
61 82 110
57 77 103
63 83 112
59 80 105
60 84 113
60 83 111
57 77 106
48 28 108
49 21 122
45 19 109
66 86 117
65 83 112
68 87 120
65 84 115
65 85 117
67 85 117
68 87 118
68 85 121
69 90 122
66 84 118
67 87 119
67 85 116
65 83 115
67 83 118
67 86 119
65 80 113
62 80 110
62 77 113
60 75 109
61 75 109
62 77 109
58 68 106
60 71 104
58 69 105
52 60 95
55 65 101
46 52 87
46 51 85
38 36 76
30 17 69
22 3 62
17 31 30
13 35 18
15 40 20
15 40 20
15 38 19
16 42 20
14 35 17
15 39 19
14 38 19
14 37 18
15 38 19
15 38 19
15 38 19
15 38 19
13 34 17
16 40 20
15 40 20
15 38 19
13 34 17
13 34 17
13 35 17
12 29 14
15 28 20
56 69 97
65 82 115
41 48 65
16 4 6
18 5 7
24 7 10
28 8 12
30 9 12
32 9 13
28 8 11
27 8 11
34 10 14
37 11 16
38 11 16
32 9 13
36 10 14
31 9 13
36 10 15
36 10 15
31 9 13
24 21 11
15 31 8
16 33 9
16 33 8
16 34 9
16 33 8
16 33 8
16 32 8
17 35 9
16 33 8
16 32 8
16 34 9
15 30 8
14 29 7
15 31 8
14 30 7
16 33 8
15 31 8
14 30 7
15 30 7
14 29 7
14 29 7
19 14 5
20 3 3
19 12 14
30 23 28
38 34 45
42 43 57
45 48 63
47 53 64
43 45 57
53 63 82
47 56 71
57 71 93
51 63 79
50 60 78
50 65 79
57 74 96
55 69 86
52 66 84
54 68 96
62 82 126
64 92 139
70 104 155
76 113 171
86 126 193
93 137 217
100 146 232
100 145 232
98 145 232
97 144 232
99 145 232
97 143 229
89 130 207
84 122 192
71 100 152
60 82 121
66 94 142
67 94 140
82 117 177
82 118 179
70 99 153
55 80 128
20 47 51
5 39 16
6 43 17
6 45 18
6 41 17
6 46 19
5 38 15
5 38 15
5 36 14
5 39 16
5 37 15
5 35 14
9 33 21
31 55 60
53 73 96
52 72 93
49 70 86
45 63 80
44 62 77
51 70 92
45 63 81
38 57 70
40 56 73
26 38 48
30 43 53
14 22 27
8 16 18
4 9 12
5 10 14
6 11 14
5 9 12
5 9 13
18 26 34
25 36 49
36 49 68
39 53 72
46 63 83
41 51 73
10 5 26
10 1 29
9 1 26
10 1 29
9 1 27
10 1 28
9 1 26
10 1 29
9 1 26
10 1 28
10 1 27
10 1 26
10 1 27
8 1 22
11 2 30
16 12 36
47 58 85
62 80 109
61 78 105
64 84 114
60 79 104
65 84 113
67 86 114
66 85 113
69 88 119
66 85 113
67 85 113
61 77 100
45 50 56
44 49 53
46 51 56
46 50 54
46 50 53
42 46 50
43 47 51
47 50 53
46 50 54
44 48 53
45 48 52
44 48 52
43 46 49
45 49 52
42 47 51
43 47 49
43 47 50
45 50 54
42 47 49
43 47 51
43 49 52
42 48 50
42 47 51
42 46 49
47 51 54
45 50 55
44 49 52
44 48 52
45 48 52
44 48 53
43 47 51
44 49 54
44 49 52
45 48 51
44 48 54
44 48 53
43 48 53
43 46 50
44 47 52
41 46 50
43 47 51
43 47 51
44 47 52
44 48 52
44 48 52
44 49 53
42 47 51
45 49 54
45 49 54
43 47 51
44 48 53
42 46 49
43 48 50
41 44 48
39 43 47
43 46 50
43 47 51
38 42 44
40 43 47
39 43 47
37 40 42
39 43 45
37 40 43
39 43 46
39 43 46
37 41 44
41 44 47
36 40 42
39 43 45
33 38 29
34 40 29
49 54 36
103 110 74
96 104 72
58 55 31
39 37 21
25 23 13
34 33 17
34 32 19
62 60 37
99 107 73
70 78 54
35 40 31
43 48 49
40 45 48
41 45 48
45 49 53
43 47 51
43 46 50
45 48 52
42 46 50
44 48 52
44 48 54
45 49 53
45 49 54
43 47 51
45 50 54
45 49 55
42 46 51
44 49 53
44 48 52
45 50 55
44 49 54
44 49 53
41 45 49
41 45 48
40 45 50
34 38 39
29 34 35
28 33 33
29 35 36
37 43 48
43 49 55
40 45 51
10 14 32
1 5 27
56 73 98
69 89 118
67 85 115
70 90 119
67 88 117
70 90 118
67 85 111
68 88 119
70 91 120
67 87 113
66 86 113
69 88 117
62 80 104
56 70 94
63 82 104
73 95 122
77 97 123
75 96 123
74 94 120
63 86 111
68 89 112
68 88 116
70 90 118
80 100 129
76 97 126
74 94 124
71 92 123
69 89 121
77 98 129
71 91 121
68 89 117
76 97 128
69 88 119
65 83 110
63 82 107
37 52 64
7 16 6
7 14 6
9 18 7
8 17 7
9 19 8
8 17 7
9 19 7
10 21 8
10 21 8
9 19 8
10 19 8
10 20 8
9 19 7
10 21 8
10 20 8
11 22 9
9 19 8
10 21 8
11 22 9
11 21 9
34 49 50
62 82 97
64 85 107
66 88 112
66 87 112
66 87 115
66 88 115
64 85 113
69 89 117
65 86 112
68 88 113
64 86 115
62 82 113
66 89 118
62 84 110
66 87 113
61 83 109
64 85 112
58 79 106
63 85 115
60 83 110
58 64 112
42 18 101
43 18 106
46 19 114
67 88 120
64 82 114
69 89 122
67 84 115
64 82 113
65 85 115
66 85 118
69 89 123
66 84 115
63 83 113
65 83 116
64 82 113
64 81 117
64 79 111
63 79 115
66 84 117
63 78 114
65 80 114
60 70 106
62 73 114
62 78 114
50 57 91
54 62 100
57 68 103
48 55 88
43 47 83
42 44 80
43 43 80
30 28 59
24 22 48
23 18 47
13 25 22
15 38 19
12 33 16
15 39 19
15 39 19
14 37 18
14 37 18
13 34 17
14 37 18
15 40 20
14 36 18
12 33 16
14 36 18
14 36 17
14 35 17
13 35 17
13 34 17
12 30 15
12 31 15
12 31 16
11 28 14
11 30 15
15 27 23
61 78 110
67 85 117
60 73 101
19 8 12
16 5 6
25 7 10
24 7 10
23 7 10
27 8 11
33 9 14
35 10 15
32 9 13
33 9 14
38 11 16
29 8 12
33 9 14
31 9 13
31 9 13
33 9 13
31 10 14
15 27 8
15 31 8
15 32 8
15 31 8
17 35 9
15 30 8
17 34 9
15 31 8
16 32 8
15 32 8
14 30 7
15 31 8
14 30 7
15 31 8
14 30 7
14 29 7
15 31 8
15 30 7
15 31 8
14 28 7
14 29 7
12 26 6
11 22 7
24 20 25
26 27 31
25 22 27
33 29 36
41 42 54
43 48 63
47 53 66
47 52 66
49 62 76
53 67 87
54 67 87
52 65 82
54 68 87
53 66 84
59 75 98
55 70 89
55 71 88
43 58 82
57 77 117
59 85 126
47 71 97
63 94 139
68 101 151
87 126 193
91 132 205
95 137 209
97 140 219
95 138 215
94 138 216
90 135 202
88 129 190
74 105 157
63 86 130
47 62 87
52 69 100
64 87 131
68 96 144
80 118 175
69 102 154
51 75 121
16 38 47
5 36 14
5 37 14
4 35 13
5 37 15
4 32 13
5 35 14
4 30 12
4 32 13
5 36 15
5 36 15
9 31 20
31 51 56
49 68 88
48 68 87
51 71 93
42 63 77
46 65 84
38 57 71
36 53 67
42 59 75
36 50 66
35 50 63
31 47 59
23 35 43
21 32 40
17 26 33
18 27 34
12 17 23
15 23 31
16 23 31
18 25 35
26 37 48
24 35 47
29 40 55
40 56 74
38 50 70
45 59 80
35 44 66
13 9 29
7 1 21
9 1 25
8 1 22
8 1 24
11 1 30
9 1 24
11 1 29
9 1 25
8 1 22
8 1 22
7 1 22
9 1 25
11 8 27
42 51 76
58 74 99
61 79 108
59 76 102
61 78 106
61 78 105
60 77 102
65 84 111
63 82 110
64 84 112
61 79 106
65 84 112
62 81 107
54 66 82
45 50 55
46 51 56
45 49 54
45 50 54
44 49 52
40 45 49
44 48 52
45 48 53
41 44 48
44 48 50
44 48 52
46 51 55
42 46 47
42 46 50
44 48 52
45 49 53
40 45 47
43 47 52
41 46 49
44 48 52
44 48 51
42 46 49
44 48 52
44 48 52
46 50 55
45 49 54
46 50 53
46 50 55
46 50 54
47 51 56
45 48 52
44 48 51
45 50 54
42 47 51
43 47 51
45 50 54
42 46 51
44 49 53
44 48 51
45 49 54
43 47 52
45 50 54
43 47 51
44 47 51
43 48 52
43 47 51
43 48 52
42 45 49
41 45 48
43 47 51
44 48 52
42 46 49
43 47 51
43 47 51
41 45 48
41 45 49
40 45 48
43 46 49
43 47 50
42 45 49
37 41 45
38 41 45
39 43 47
38 42 44
37 41 43
33 37 39
35 39 40
35 40 39
30 35 27
33 39 28
33 39 28
52 66 35
72 77 49
28 29 17
22 23 13
20 20 10
24 24 12
25 25 15
45 48 32
64 69 49
25 34 22
38 43 34
40 44 46
44 49 53
43 47 49
41 44 46
45 49 53
42 47 51
42 46 50
45 49 53
43 47 51
45 49 55
46 50 53
44 47 51
46 51 56
42 46 50
42 46 50
47 51 56
45 48 53
45 49 53
43 47 51
43 47 51
41 46 49
42 47 51
40 44 48
37 41 45
37 42 45
36 42 44
34 38 41
33 38 42
39 44 48
45 50 57
20 24 38
1 4 25
36 47 69
71 91 120
68 89 118
70 90 119
70 90 119
60 78 107
42 57 97
22 33 76
13 23 71
7 15 63
11 21 78
12 22 73
22 34 80
41 57 96
24 30 46
45 66 84
64 87 114
67 87 108
61 81 99
68 87 106
53 67 79
55 69 73
48 64 71
56 72 87
68 87 105
76 97 123
69 89 114
69 87 111
71 90 119
71 90 119
67 87 115
66 86 116
68 89 115
67 86 114
66 83 111
53 66 88
18 27 28
8 18 6
8 16 6
9 19 8
8 16 6
9 19 7
9 19 7
8 17 7
9 18 7
9 19 7
9 19 7
9 19 8
10 20 8
10 20 8
8 17 6
10 20 8
9 18 8
9 18 8
9 19 8
9 18 7
9 17 7
32 45 48
69 90 120
68 88 113
66 86 113
69 90 119
65 85 110
67 88 116
62 82 109
64 84 110
68 89 119
66 86 113
68 90 119
64 86 114
65 85 113
68 90 119
68 89 117
68 89 116
66 86 115
61 84 112
63 85 110
61 83 112
49 46 105
43 18 104
37 16 88
42 18 101
65 87 116
66 85 115
70 90 122
69 88 120
68 89 121
69 91 122
64 81 112
63 81 112
65 83 116
68 86 122
64 81 114
66 84 119
64 80 116
61 76 112
60 74 108
66 83 115
63 79 113
60 75 110
60 71 109
61 73 107
57 71 106
53 62 99
51 58 95
51 59 92
52 59 95
49 52 90
42 43 81
44 47 84
45 50 85
41 48 76
32 34 64
24 32 47
13 35 17
14 36 18
13 33 16
14 36 18
14 37 18
14 37 18
13 35 17
11 31 15
13 34 17
12 33 16
13 34 16
14 36 18
13 36 18
13 34 16
11 30 15
13 34 17
14 36 18
11 29 14
10 26 12
10 26 13
10 26 13
31 45 51
65 82 114
68 82 114
65 82 111
36 40 55
18 6 8
20 6 8
22 7 9
27 8 11
27 8 11
27 8 11
31 9 13
32 9 13
30 8 12
27 8 11
30 9 12
32 9 13
34 10 14
27 8 11
29 8 12
28 14 12
14 30 8
15 30 8
14 30 7
15 31 8
16 32 8
16 33 8
15 31 8
15 31 8
15 32 8
15 30 8
15 31 8
16 32 8
15 31 8
14 30 7
15 30 8
14 28 7
14 30 7
15 31 8
15 30 8
12 26 6
14 29 7
12 26 6
12 25 6
37 38 47
47 51 68
50 58 77
50 59 77
51 60 79
57 68 91
51 58 76
54 67 87
54 68 87
53 65 84
52 66 84
52 68 83
57 72 95
57 73 93
61 80 102
53 70 83
51 67 85
50 66 97
48 68 104
47 69 98
32 52 66
39 61 80
58 87 125
79 113 174
79 114 174
86 124 193
83 120 185
79 116 171
77 113 170
73 108 159
76 109 162
61 89 128
52 71 102
39 53 71
40 54 76
50 70 105
52 77 118
66 101 138
61 88 132
51 79 120
21 40 52
3 25 10
4 32 12
3 23 9
3 26 10
4 30 12
3 26 10
4 30 11
3 24 9
3 23 9
12 31 23
25 42 46
34 53 62
37 54 66
41 57 73
40 58 74
37 54 68
41 59 75
39 55 70
42 60 76
46 63 81
42 59 77
39 56 73
40 55 74
38 54 71
42 57 75
42 58 77
35 50 66
43 58 79
36 49 66
34 47 61
46 61 84
41 57 76
40 54 75
38 52 71
40 54 73
43 58 78
44 59 80
44 59 78
37 47 67
19 19 39
8 2 22
8 1 22
6 1 18
9 1 25
8 1 22
7 1 20
8 1 23
7 1 20
6 1 18
7 2 20
17 15 34
31 35 57
52 65 89
50 65 90
52 67 91
51 67 89
56 73 98
54 69 93
52 67 89
60 78 105
53 69 94
56 72 98
61 79 107
63 83 110
63 83 110
63 81 108
50 57 67
47 51 56
45 48 52
45 49 54
45 50 53
45 49 54
45 49 54
42 45 49
44 48 52
42 46 48
43 46 50
45 49 53
43 47 51
41 45 47
43 47 49
42 45 48
45 50 55
43 47 50
43 47 51
44 47 51
46 50 54
41 45 49
42 46 49
43 47 50
45 50 53
42 45 47
45 49 53
41 44 47
41 44 48
45 48 51
45 48 52
43 46 49
42 45 49
43 46 50
41 45 48
43 46 48
42 46 51
44 48 52
40 44 46
45 49 53
44 48 52
43 47 52
42 46 49
42 45 48
45 49 54
40 44 46
43 47 51
42 46 48
43 47 51
39 42 45
42 45 47
43 46 50
40 44 48
45 49 53
44 47 51
43 47 51
43 46 49
41 45 49
39 42 45
40 44 46
40 44 47
36 38 40
38 41 43
38 42 44
39 42 45
38 42 42
33 37 38
30 34 33
33 37 29
33 37 26
33 38 27
34 38 27
28 34 23
22 22 13
20 19 11
20 20 11
20 20 11
21 21 13
15 18 16
33 39 29
34 39 29
36 39 37
40 43 45
44 49 54
43 47 50
42 45 49
41 45 48
43 48 52
42 47 50
43 46 50
44 48 53
45 49 53
46 51 57
42 46 50
43 47 51
45 50 54
44 48 53
41 45 49
44 48 52
43 47 51
44 48 53
45 49 54
42 47 50
42 46 50
41 45 49
38 43 46
40 44 47
32 37 40
37 41 45
39 44 49
37 40 45
26 31 43
1 4 23
12 17 36
64 84 110
72 92 124
69 89 117
62 81 112
21 32 72
2 9 56
1 7 48
1 7 49
1 9 59
1 8 55
2 9 63
2 10 69
2 10 67
2 10 68
2 10 69
5 21 71
25 44 72
64 82 110
51 68 95
61 79 92
47 65 34
44 60 17
45 62 12
54 70 74
66 85 107
67 87 114
73 94 119
64 86 109
64 83 111
59 77 103
50 68 92
52 68 93
57 75 99
60 76 101
47 36 54
42 48 66
19 27 29
9 19 6
7 15 6
9 18 7
8 17 7
8 16 6
7 16 6
8 17 7
9 18 7
9 18 7
10 19 8
8 17 7
9 18 7
9 18 7
8 17 7
10 20 8
10 20 8
9 18 7
9 18 7
9 18 8
8 17 7
35 50 57
67 87 113
68 87 115
68 88 114
66 86 111
67 87 113
66 86 112
67 87 118
67 87 113
65 85 112
67 87 114
66 87 113
66 88 115
66 86 113
66 88 116
67 90 116
69 91 122
67 87 115
66 87 115
66 85 112
66 88 118
42 32 91
42 18 101
42 17 99
38 16 95
42 91 68
48 89 78
49 87 82
59 82 103
67 87 118
68 88 119
65 83 118
69 90 123
68 87 119
66 86 119
65 83 117
67 85 119
63 79 114
63 79 113
66 82 116
62 77 109
65 85 118
58 69 107
64 80 114
62 76 112
58 72 104
62 73 113
62 75 113
58 69 105
58 70 106
59 70 107
53 64 98
56 67 102
52 62 96
56 68 102
55 66 100
53 63 95
21 41 32
12 32 15
13 34 17
13 35 17
13 33 16
12 33 16
12 32 16
13 35 17
12 31 15
12 33 16
13 34 17
13 34 17
11 30 14
12 32 15
11 29 14
12 32 16
11 29 14
12 31 15
10 27 13
10 25 12
10 22 12
49 64 85
65 83 113
66 83 113
66 82 112
59 72 98
28 25 33
13 3 5
17 5 7
17 5 7
24 7 10
24 7 10
29 9 12
26 7 10
26 7 11
29 8 12
30 8 12
28 8 12
27 8 11
26 7 11
28 8 12
21 16 9
14 28 7
14 29 7
13 28 7
14 30 7
12 26 6
14 30 7
13 27 7
15 31 8
15 31 8
15 30 8
15 31 8
14 28 7
15 31 8
13 28 7
14 29 7
13 27 7
14 30 7
13 28 7
13 27 7
14 28 7
13 26 6
13 27 6
12 25 6
43 57 66
58 71 95
58 68 90
63 78 105
61 74 99
57 70 91
62 81 107
58 72 95
61 82 108
60 78 99
57 72 92
60 77 99
58 76 95
57 75 95
61 81 105
56 76 95
56 74 93
51 67 93
47 61 94
29 44 60
14 25 25
23 39 47
50 74 110
59 89 133
72 104 161
70 104 156
74 108 165
63 95 139
57 86 128
60 91 130
59 89 126
58 84 124
45 63 95
36 52 77
31 46 69
47 67 103
61 88 135
56 86 127
59 87 135
41 60 101
31 46 70
12 22 19
5 16 9
3 20 9
2 16 7
2 16 6
4 23 10
2 15 6
3 15 8
9 18 17
17 27 30
25 36 41
36 50 59
26 40 47
30 45 55
34 48 61
39 57 68
43 60 79
43 62 80
46 62 81
48 65 86
49 68 90
53 73 98
48 65 84
44 61 81
54 72 97
50 67 92
49 66 88
47 65 85
49 65 87
50 67 89
48 62 85
46 61 85
52 68 94
43 55 74
43 57 78
39 50 71
35 46 63
32 42 58
31 40 56
30 36 53
13 13 25
4 3 12
6 1 16
5 1 15
5 0 16
4 0 11
6 1 16
5 0 14
4 1 11
15 16 28
25 29 43
38 47 66
44 54 73
38 47 67
45 56 78
48 61 81
50 63 88
52 67 92
57 73 97
57 72 97
58 75 102
56 73 99
58 74 100
61 80 107
63 82 108
64 84 112
60 76 97
48 52 57
44 49 52
45 50 54
44 47 51
43 46 50
42 45 49
44 48 53
44 49 53
43 46 50
43 47 50
38 43 45
44 49 53
43 46 50
43 46 49
38 41 45
43 47 51
44 48 52
43 47 51
42 47 51
43 47 52
44 48 51
44 48 51
43 46 49
47 50 54
43 46 49
42 46 49
42 46 49
43 48 51
47 50 55
47 51 56
45 49 52
45 49 53
41 44 48
41 45 48
43 47 51
42 46 49
44 47 51
43 46 49
43 46 50
43 46 50
44 47 51
42 46 49
43 47 51
40 44 47
46 50 55
43 46 50
40 43 46
39 42 45
45 49 53
39 42 45
42 47 50
44 49 53
42 45 48
41 46 50
42 46 50
43 47 51
39 42 45
40 43 45
37 40 44
40 44 47
37 41 42
39 42 45
39 42 43
34 37 37
35 38 38
36 40 40
29 32 32
28 31 27
30 34 24
29 34 24
31 35 24
28 31 22
19 19 13
13 13 8
15 15 9
19 20 13
27 30 21
33 37 25
34 38 27
36 40 35
40 44 44
39 42 44
42 46 49
41 44 48
41 43 45
42 45 48
44 48 51
43 47 51
42 46 49
42 46 51
44 47 52
44 48 52
43 47 51
43 48 52
39 41 44
44 46 50
42 45 50
45 49 53
41 45 49
42 46 49
42 46 51
42 46 49
39 43 46
40 45 49
39 43 47
39 43 46
32 36 38
36 42 44
38 43 47
36 40 48
5 9 27
2 6 23
50 67 92
69 87 114
69 88 117
32 44 73
3 9 50
1 6 43
1 7 48
1 7 46
1 8 51
2 9 64
1 9 58
1 9 60
1 9 60
2 10 67
2 10 65
2 10 69
2 10 69
2 11 71
19 36 73
29 52 90
40 57 48
62 86 9
67 91 17
60 82 13
62 88 15
60 79 95
44 69 86
49 62 82
52 67 85
45 65 86
49 69 89
4 25 32
12 36 47
37 59 75
63 50 41
63 12 33
68 69 93
32 43 47
8 17 6
8 16 6
9 18 7
9 18 7
9 18 7
9 18 7
8 17 6
9 19 8
8 17 7
10 20 8
9 19 7
10 20 8
9 18 7
9 18 7
8 17 7
9 18 7
8 16 7
10 19 8
8 16 7
8 15 6
42 57 70
69 89 118
70 90 120
70 91 123
69 89 117
64 84 115
69 89 122
67 88 117
71 92 121
68 88 116
70 91 119
66 89 117
68 89 121
67 86 112
68 90 120
66 87 117
66 86 115
66 87 116
64 83 112
66 88 119
67 87 118
36 26 79
42 18 102
36 16 91
40 17 100
38 83 66
36 79 65
34 74 68
35 77 67
44 87 76
56 86 98
64 85 117
70 89 121
67 86 118
65 85 118
66 85 116
66 87 120
67 85 119
66 86 117
65 83 115
67 87 121
67 87 118
66 83 116
62 76 114
64 80 113
64 79 115
62 79 112
66 84 118
66 84 118
64 82 110
66 84 118
63 78 111
63 79 112
62 77 109
66 84 115
63 79 112
62 75 109
38 54 66
13 34 17
11 30 15
13 32 16
11 30 15
12 31 15
12 31 15
11 30 15
12 32 15
11 30 15
12 33 16
13 33 16
12 31 15
10 27 13
10 27 14
12 32 16
10 26 13
11 28 14
11 28 14
9 24 12
23 35 38
61 78 105
65 83 112
67 87 118
65 83 113
62 78 106
54 67 91
20 15 20
18 5 7
20 6 8
21 6 8
24 7 10
28 8 11
26 7 10
19 5 8
30 8 12
24 7 10
24 7 10
24 7 10
26 8 11
22 6 9
21 17 9
14 30 7
15 31 8
13 28 7
14 29 7
14 29 7
16 32 8
13 26 6
14 29 7
14 29 7
14 29 7
14 29 7
13 28 7
14 30 7
13 27 7
14 27 7
13 27 7
14 29 7
15 30 7
14 28 7
13 27 7
12 25 6
12 25 6
11 22 6
44 59 70
62 77 103
65 81 107
61 78 103
63 81 106
62 77 103
63 82 109
64 84 112
63 83 108
67 87 113
60 78 101
62 82 108
60 77 104
61 80 104
56 73 92
61 80 103
61 81 104
46 61 89
32 41 65
22 38 51
15 27 31
17 30 39
28 45 68
45 68 104
52 78 122
59 87 135
50 80 113
51 77 115
47 73 106
45 70 99
48 75 109
46 69 105
42 64 96
34 51 81
32 48 78
44 66 103
50 73 113
44 67 105
47 73 109
31 47 82
25 39 53
23 32 38
16 24 26
21 29 33
12 20 21
14 23 24
6 13 11
12 18 19
19 29 32
17 26 30
20 31 34
27 41 48
32 47 55
36 53 65
39 54 68
37 54 67
47 64 82
48 65 82
42 60 77
51 70 92
47 66 86
54 73 98
49 68 91
60 80 106
62 82 109
53 73 97
48 64 86
53 72 96
54 71 96
51 68 92
52 68 93
50 67 91
47 63 86
43 56 78
43 56 78
38 49 67
43 56 78
37 48 66
25 33 48
28 35 49
17 21 30
19 23 34
14 17 25
9 10 16
9 10 16
5 4 10
4 3 8
8 9 14
7 9 13
18 20 28
15 17 26
27 33 45
37 46 63
42 52 72
38 47 65
43 54 76
48 61 84
44 55 78
55 70 93
52 66 90
59 75 101
64 83 111
55 69 95
61 78 106
65 83 112
63 80 107
62 82 109
62 81 107
53 63 80
44 48 53
44 47 50
44 48 53
43 47 51
43 47 51
44 48 52
44 47 50
41 45 48
42 45 47
42 45 48
41 45 49
41 45 47
38 41 45
42 45 48
40 43 45
38 41 44
42 45 46
44 49 53
44 47 50
43 47 50
41 44 46
43 47 50
40 44 46
41 45 49
41 44 48
42 46 50
42 46 49
43 47 50
44 47 51
45 48 52
45 48 52
43 46 50
46 50 54
43 46 50
46 48 52
44 48 51
46 51 56
45 47 51
42 45 49
42 46 48
44 48 53
46 51 56
42 45 48
43 46 49
43 46 49
42 45 48
43 47 51
37 40 43
40 43 46
40 42 45
41 45 49
43 47 51
40 44 47
43 47 51
41 45 48
41 44 46
38 42 44
44 47 51
39 43 45
35 38 39
35 38 39
35 38 38
37 40 41
34 37 37
32 35 34
24 26 25
30 32 29
25 28 22
31 35 24
32 36 25
33 36 25
27 31 21
23 25 17
25 28 19
28 32 22
31 35 24
31 34 25
34 38 34
34 37 38
34 36 36
40 44 46
38 42 44
41 45 48
39 43 46
40 43 46
44 47 51
45 49 54
42 45 49
42 46 49
44 47 51
43 48 52
43 46 49
41 44 48
42 45 47
44 48 52
41 44 47
40 43 46
44 48 51
42 45 48
42 46 50
43 46 51
38 43 45
41 45 49
37 42 45
34 39 43
38 42 47
35 39 44
37 42 48
10 13 29
0 3 18
35 46 68
68 88 117
65 84 113
18 28 64
1 7 45
1 6 42
1 7 47
1 6 43
1 7 49
1 8 54
1 7 49
1 8 57
2 9 60
1 8 53
1 9 59
2 9 61
2 10 66
2 10 70
2 10 67
2 10 67
7 17 79
72 95 86
72 102 7
77 106 5
76 104 13
75 104 10
84 104 130
61 102 116
57 67 80
41 51 51
69 113 142
56 81 83
3 35 45
26 59 73
111 149 185
101 94 100
73 26 48
116 138 174
42 56 57
10 20 7
9 19 7
8 17 7
9 19 7
7 15 6
9 18 7
8 16 6
8 15 6
8 16 6
8 16 6
9 18 7
8 18 7
8 17 7
9 17 7
9 18 7
10 19 8
9 18 8
9 19 7
7 15 6
11 20 10
63 82 105
70 91 122
65 84 111
69 89 118
68 87 117
65 86 113
68 88 117
66 86 113
67 88 118
68 90 119
69 90 119
71 91 121
68 89 119
70 91 120
69 91 123
67 88 117
70 90 119
67 89 117
67 87 117
69 90 120
66 87 116
40 34 84
39 16 94
39 16 95
42 17 100
14 36 71
14 36 70
14 35 69
14 36 70
14 36 70
15 37 68
30 53 80
46 66 100
65 84 118
70 90 122
69 90 120
69 87 120
69 88 120
65 84 118
65 83 114
65 84 118
67 86 116
67 86 118
69 87 121
69 88 120
68 87 120
65 83 117
65 83 116
68 85 119
67 87 120
66 83 120
65 82 114
67 85 116
66 84 116
62 79 112
65 81 113
67 86 118
59 77 107
20 36 32
11 28 14
12 33 16
11 30 15
10 27 13
11 29 14
11 30 14
12 31 15
12 30 15
13 33 16
9 26 13
10 27 13
11 28 13
11 29 14
10 27 13
11 28 13
9 25 12
8 21 11
9 23 12
50 66 86
59 75 101
61 76 102
61 75 104
59 72 99
64 83 109
58 74 101
50 61 83
28 21 29
16 4 6
18 5 7
22 6 9
25 7 9
21 6 8
24 7 10
22 6 9
24 7 10
21 6 8
23 6 9
22 6 9
20 5 8
19 15 8
14 29 7
13 28 7
14 29 7
13 27 7
14 29 7
13 27 7
13 27 6
15 30 7
13 27 7
15 30 7
13 26 6
13 28 7
13 27 7
12 25 6
13 26 7
13 26 6
13 26 6
13 26 6
14 28 7
12 24 6
12 24 6
12 24 6
11 23 6
40 56 62
63 80 105
66 83 112
64 84 111
61 77 100
64 79 105
63 83 109
62 77 104
67 83 112
65 83 109
63 82 107
62 82 108
64 84 110
64 83 109
62 83 107
65 86 111
63 83 109
48 62 87
33 47 78
25 41 61
19 32 46
21 35 50
29 47 72
33 51 86
39 60 99
42 64 103
38 61 97
38 60 93
36 57 91
37 61 95
38 61 95
39 60 97
37 57 93
34 53 88
35 53 87
41 62 101
42 64 105
40 63 102
38 60 96
36 53 90
40 57 73
43 58 73
37 52 64
38 53 63
39 56 68
37 53 64
43 59 77
41 58 73
36 52 63
42 58 71
46 64 80
43 59 74
46 62 79
47 65 83
49 65 84
51 69 88
55 74 96
54 73 95
55 74 98
57 76 99
60 79 104
56 75 99
57 75 100
49 66 86
56 74 99
56 75 98
58 76 102
58 75 102
59 78 103
54 69 94
57 74 100
59 75 102
53 70 94
49 64 88
53 69 96
46 61 82
50 65 88
46 59 81
46 59 81
37 47 68
35 44 63
41 53 71
39 48 69
27 32 48
33 40 57
30 36 50
28 36 49
30 38 51
30 37 52
35 43 61
38 48 67
46 58 78
39 49 70
44 56 77
48 61 85
52 65 89
50 62 86
52 66 89
58 75 100
52 67 91
56 73 98
57 74 98
59 76 102
60 77 104
65 84 112
63 82 110
61 79 106
59 76 101
65 83 108
51 58 68
43 48 51
42 46 50
45 49 54
44 48 53
44 48 52
43 46 49
40 44 46
42 46 48
41 45 47
45 49 53
42 45 48
39 43 44
41 44 47
41 45 48
43 46 49
42 46 49
42 46 49
42 45 47
43 47 49
43 46 49
43 47 51
40 42 44
42 46 50
43 47 50
44 48 51
42 44 48
40 43 46
44 48 53
45 49 53
43 46 49
43 47 51
40 43 44
45 49 54
44 47 51
41 44 46
42 45 48
45 48 52
43 46 48
43 46 50
41 45 49
43 47 51
43 47 52
40 44 46
40 44 48
43 46 50
41 44 48
40 43 46
40 44 47
42 45 48
39 43 46
41 43 46
39 42 45
41 44 48
43 46 50
41 45 48
42 45 48
39 42 45
40 44 46
38 41 42
35 39 39
38 42 42
36 39 39
34 37 37
33 34 34
32 33 32
30 32 29
26 28 25
24 27 21
25 28 19
26 30 20
27 30 20
32 35 24
30 34 24
29 33 24
33 35 30
32 35 33
33 35 34
38 41 43
38 40 41
41 45 48
40 43 45
41 45 49
43 46 48
42 45 49
43 46 51
39 42 44
43 47 52
44 47 51
41 44 48
42 46 50
44 47 50
42 46 50
45 49 55
43 48 51
43 47 51
42 47 50
42 46 50
41 44 48
43 46 50
43 47 51
39 43 46
38 43 46
38 42 46
34 38 41
32 37 41
34 38 43
17 22 33
0 3 19
15 22 39
64 82 111
69 89 118
22 31 61
1 5 35
1 6 38
1 6 38
1 6 41
1 7 46
1 7 46
1 7 45
1 7 50
1 8 55
1 8 55
1 8 57
1 8 55
2 10 67
2 9 64
1 9 61
2 10 67
2 10 66
2 10 68
28 41 86
89 121 46
82 114 9
86 117 18
86 119 25
153 182 192
177 205 245
178 205 244
172 199 237
178 205 245
152 179 214
67 104 127
140 170 206
172 200 240
77 72 77
85 84 96
118 143 171
22 33 25
10 20 8
8 15 6
8 16 6
7 14 5
8 16 6
8 16 6
8 16 6
8 17 6
9 18 7
8 16 6
8 16 6
8 16 6
8 16 6
9 18 7
9 17 7
8 16 6
8 17 7
8 17 7
8 23 10
14 31 21
70 92 120
70 90 120
69 90 119
68 88 115
66 85 114
70 91 121
70 90 118
69 89 118
65 85 109
72 92 122
66 87 119
70 91 121
68 89 120
69 89 117
68 88 119
72 93 124
68 89 120
69 89 119
70 90 121
69 89 118
72 93 122
46 44 94
28 12 70
33 14 79
35 15 87
14 35 69
14 35 69
14 35 69
14 36 70
14 34 67
14 35 67
14 34 67
13 33 65
19 39 71
47 65 98
66 86 117
68 89 121
70 90 121
64 82 113
68 88 120
70 88 120
69 89 120
65 83 114
68 88 121
70 90 121
68 87 122
70 89 120
64 83 115
70 91 124
67 87 116
66 85 116
68 87 118
68 85 115
67 85 114
63 83 111
69 88 118
63 80 111
66 85 116
57 77 101
15 31 23
9 25 12
8 23 11
11 29 14
10 27 13
9 25 12
12 31 15
11 28 14
10 27 13
9 25 12
10 25 12
10 26 13
9 24 12
10 26 12
9 24 11
7 19 9
9 22 12
38 52 63
62 79 106
55 68 92
55 70 96
58 74 103
58 74 99
53 66 92
46 56 76
54 66 89
44 52 72
27 25 34
15 6 8
18 5 8
18 5 7
18 5 7
15 4 6
20 5 7
16 4 7
18 5 7
20 5 8
17 4 6
22 13 18
26 32 34
12 25 6
13 27 7
13 27 7
12 27 7
12 25 6
14 28 7
13 26 7
12 26 6
14 29 7
14 27 7
13 27 7
13 26 6
12 26 6
12 25 6
13 28 7
13 26 6
13 26 6
12 25 6
12 24 6
12 24 6
11 23 5
11 23 6
10 20 5
48 65 78
63 83 109
68 86 114
68 86 115
65 83 112
66 86 115
66 86 115
63 82 110
64 83 110
65 85 113
64 85 110
65 86 116
66 86 114
67 90 117
65 84 110
66 86 115
66 87 117
61 80 108
29 40 65
31 47 76
26 41 67
29 46 71
29 47 75
30 48 79
36 56 91
36 57 97
41 65 109
39 60 99
37 58 95
38 59 97
40 62 102
38 59 98
39 61 101
40 61 101
39 60 99
39 61 102
40 62 102
39 60 100
38 59 97
36 54 85
55 75 98
54 74 97
52 70 89
53 72 94
58 77 99
52 72 94
51 70 90
56 77 101
50 67 84
53 73 93
59 79 104
53 73 94
55 72 95
57 76 101
56 73 97
57 76 99
59 80 104
59 77 101
63 82 109
60 80 105
60 79 106
57 76 100
55 74 97
65 86 114
60 81 105
61 80 105
57 75 102
58 75 103
60 78 106
59 79 104
63 83 112
62 80 108
57 74 101
55 72 97
54 69 95
60 79 106
57 72 98
56 72 97
52 67 92
53 68 92
52 66 91
49 63 87
52 65 90
51 65 91
49 63 87
50 65 88
50 64 87
49 62 84
50 63 89
48 61 83
57 73 97
55 71 94
57 72 98
57 73 100
56 72 98
56 73 100
58 75 101
55 71 96
62 78 105
61 78 104
60 78 102
62 81 109
63 81 109
65 84 111
62 80 109
67 87 116
63 81 108
62 81 108
65 86 113
64 82 107
47 52 59
43 46 50
45 49 53
42 47 51
43 46 50
44 48 51
42 46 49
39 43 45
41 44 47
41 44 46
41 44 46
40 44 47
39 43 46
43 46 49
41 45 47
44 47 50
41 44 47
42 45 49
40 44 45
43 46 48
43 46 49
41 44 47
41 45 47
41 44 48
41 45 47
43 47 50
45 48 51
46 50 54
38 41 43
41 44 45
44 47 50
42 45 48
43 46 49
42 46 48
39 42 44
47 51 54
39 43 44
42 45 48
42 46 49
43 47 50
42 46 50
39 42 46
41 45 49
42 45 49
44 48 53
43 46 51
41 44 47
45 48 52
41 45 48
43 46 48
39 42 44
40 42 45
42 45 49
43 46 49
40 43 46
38 42 45
39 42 44
40 43 46
39 43 45
35 39 41
38 41 42
33 37 37
34 36 37
36 39 37
34 35 34
30 32 30
28 31 27
29 30 28
24 25 22
25 26 22
28 30 25
28 30 25
27 29 25
29 30 27
31 33 30
33 35 34
36 39 40
40 42 43
33 35 35
40 43 44
38 40 41
42 46 49
39 42 45
41 45 48
41 44 48
45 48 52
41 45 49
43 45 49
44 47 51
42 46 49
43 47 51
43 45 48
43 47 50
44 47 51
41 44 47
41 45 49
43 47 50
40 44 47
40 43 46
42 44 47
42 46 50
41 45 48
34 38 41
38 41 45
33 37 42
22 25 32
1 4 19
6 10 25
61 79 106
67 87 114
27 38 65
1 5 33
1 6 41
1 5 35
1 5 35
1 7 43
1 6 39
1 7 46
1 8 51
1 7 48
1 8 52
1 8 50
1 9 57
1 8 54
2 9 62
1 9 59
1 9 60
2 10 66
2 10 66
1 9 62
2 10 64
37 51 91
133 170 113
125 161 101
149 181 168
175 204 248
181 211 255
178 207 252
173 201 244
174 202 244
169 197 239
173 201 244
171 199 241
172 202 247
117 125 145
137 156 185
85 104 116
10 21 8
8 15 6
8 15 6
6 13 5
7 14 5
8 15 6
7 14 5
7 15 6
7 15 6
8 16 6
6 12 5
7 15 6
8 15 6
9 18 7
8 17 7
9 35 15
12 63 28
14 77 34
15 91 41
15 90 41
15 95 43
17 98 46
24 97 54
34 95 70
44 91 83
60 87 104
70 91 121
66 86 117
69 91 120
70 92 123
70 90 122
67 87 115
68 89 120
70 91 121
69 90 119
69 89 120
69 91 121
66 86 115
70 90 121
67 86 117
70 91 121
71 91 122
55 60 104
31 13 76
32 14 82
36 15 84
14 35 68
14 35 68
14 35 68
14 35 68
14 34 66
13 33 64
14 35 68
13 33 65
14 34 66
13 33 65
30 51 82
64 84 115
68 87 118
66 87 117
69 90 123
69 88 119
70 90 123
69 87 118
65 85 116
64 85 114
69 89 119
65 84 116
66 85 114
67 86 118
64 84 112
67 87 117
68 87 116
64 82 112
64 83 112
66 84 116
63 82 113
65 83 112
61 79 109
64 83 112
53 71 92
15 29 23
9 26 12
9 25 12
10 26 13
9 25 12
9 23 11
8 24 11
9 24 12
10 26 13
7 19 9
8 21 10
6 17 8
8 22 11
8 20 10
13 24 19
34 47 58
55 71 97
46 57 77
51 62 83
52 62 85
51 64 86
45 56 74
38 46 60
41 48 64
45 54 72
32 37 49
31 36 48
31 33 44
15 12 14
12 6 8
12 4 6
13 3 5
14 3 5
12 4 5
9 3 4
12 5 7
20 18 23
25 23 31
26 30 37
10 22 5
12 25 6
13 27 7
13 26 6
13 27 7
13 27 7
13 26 6
13 27 7
14 29 7
12 25 6
12 25 6
13 26 6
11 24 6
13 26 6
12 24 6
13 25 6
11 22 5
11 23 6
11 22 5
11 22 5
11 22 5
11 23 6
12 23 9
59 78 102
65 83 110
67 88 117
63 82 110
63 81 108
64 84 113
68 88 117
68 88 116
65 82 109
68 89 118
64 83 111
61 81 107
69 91 119
65 87 114
65 86 113
64 84 109
64 84 110
62 81 105
40 55 82
34 53 90
31 49 80
30 48 79
30 47 78
36 57 96
36 56 94
39 61 104
37 57 95
39 61 103
39 60 101
39 61 103
38 58 98
40 62 105
37 57 95
39 62 105
41 63 104
38 59 98
35 56 95
38 60 100
35 54 90
40 56 80
63 83 110
62 80 106
57 78 101
59 80 105
61 81 107
61 82 109
59 79 103
69 89 114
56 76 95
61 78 100
64 84 109
61 81 107
63 83 110
62 81 108
61 81 108
64 84 111
61 80 107
63 84 112
63 84 111
62 81 106
61 81 107
62 80 109
65 85 113
65 86 115
65 85 113
62 82 108
63 84 112
65 87 115
62 82 108
60 79 106
62 80 108
62 81 108
62 80 109
58 75 102
62 80 110
61 79 107
62 80 108
57 74 99
64 82 109
60 77 106
62 81 109
56 73 99
65 83 111
63 82 111
61 79 106
59 75 103
59 75 102
63 81 110
60 77 103
60 75 101
60 77 107
61 80 108
59 76 101
62 80 108
63 82 110
63 82 110
61 80 106
65 83 112
61 79 107
60 79 102
61 78 102
64 82 110
60 78 103
67 86 114
62 81 109
66 86 116
65 85 112
64 84 109
63 83 110
61 80 104
61 78 100
45 50 54
42 46 50
41 44 49
41 43 46
41 44 48
41 43 46
41 44 47
39 42 44
42 45 48
39 43 46
38 41 43
39 41 44
43 46 50
41 44 47
39 42 45
42 44 47
40 43 46
40 43 46
40 43 45
42 45 47
41 43 46
38 41 44
44 47 51
40 42 45
43 46 50
42 46 49
42 46 49
44 46 49
40 43 45
40 43 47
41 44 47
42 45 48
40 42 45
39 42 45
42 45 49
42 45 48
45 49 52
41 45 49
43 46 49
42 45 49
41 44 47
43 46 48
44 48 52
41 43 46
44 47 51
40 43 47
41 44 46
41 44 48
42 45 48
41 44 48
40 43 46
40 43 46
38 41 44
42 46 49
39 42 45
38 42 45
38 41 45
38 40 41
35 37 40
39 42 44
33 35 35
35 38 40
36 38 38
31 33 33
35 36 36
30 31 29
28 30 29
27 28 26
32 33 31
28 29 27
32 33 32
34 35 33
32 34 33
34 36 35
32 34 33
39 42 43
38 41 41
40 43 45
36 39 40
44 48 52
41 42 44
44 47 51
42 44 48
38 40 43
42 45 48
39 42 45
41 44 47
40 42 45
45 48 52
41 44 46
42 45 48
39 42 44
42 44 48
41 44 48
38 41 45
40 42 45
40 42 45
42 46 49
41 46 50
41 44 47
42 46 50
40 44 47
32 36 40
20 22 29
4 7 20
4 8 23
51 66 88
67 87 114
50 66 94
1 6 32
1 4 28
1 5 31
1 6 36
1 6 36
1 6 40
1 7 46
1 6 38
1 6 41
1 7 48
1 7 44
1 8 52
1 8 56
1 8 52
1 8 56
1 9 61
1 8 54
1 9 61
1 9 59
1 9 63
1 9 62
1 9 62
103 125 177
171 203 250
171 202 249
171 202 249
172 203 250
174 206 253
169 199 244
170 200 245
166 196 240
168 199 245
169 199 245
167 198 245
139 169 211
91 112 140
49 65 81
11 20 11
9 17 7
8 16 6
7 14 5
7 14 5
7 14 5
7 14 5
7 14 5
6 12 5
6 13 5
7 15 6
7 15 6
7 16 6
10 47 20
13 74 33
14 85 37
14 85 38
14 88 40
15 94 42
15 92 41
16 96 43
16 95 42
16 99 44
16 101 45
16 99 45
17 100 46
29 93 63
62 90 109
72 92 124
69 90 121
69 90 122
69 89 120
67 87 118
69 90 120
71 92 124
68 87 116
68 89 118
65 84 115
69 90 121
70 90 120
71 92 122
69 89 118
67 86 117
30 15 72
30 12 74
28 12 69
13 33 64
14 35 68
14 34 65
13 32 62
13 33 64
13 33 63
13 33 65
13 32 62
12 31 59
13 33 64
13 32 62
21 41 71
59 80 109
70 90 121
65 84 116
69 90 120
69 90 120
66 86 116
68 88 118
69 87 119
67 85 117
67 88 117
66 85 115
66 85 113
66 87 117
63 83 111
64 83 112
63 83 111
62 79 107
63 83 111
66 87 115
58 75 103
59 79 104
55 74 98
55 72 94
49 64 83
19 32 33
8 20 11
8 23 10
8 22 11
7 21 10
6 17 8
6 17 8
7 19 9
7 20 9
7 19 9
7 19 9
5 15 7
10 17 14
34 43 54
37 47 61
49 62 82
38 47 63
37 45 61
39 47 64
38 45 60
33 41 54
34 42 54
33 41 54
35 42 55
26 30 38
20 21 28
19 20 26
16 16 21
8 8 10
8 7 10
10 9 11
7 7 9
8 8 10
14 14 17
17 18 22
23 26 32
26 28 36
33 37 48
12 22 7
10 22 5
12 25 6
12 25 6
12 26 6
12 25 6
13 27 6
12 25 6
12 26 6
11 23 6
12 25 6
13 26 6
11 22 5
12 24 6
11 23 6
12 25 6
11 23 6
10 21 5
11 23 6
11 23 5
10 21 5
11 23 5
16 28 17
61 80 106
69 87 116
65 84 113
68 88 118
66 85 113
65 85 113
66 87 116
69 90 120
66 86 115
65 86 114
50 76 88
33 65 58
23 56 39
18 56 33
12 50 22
13 51 23
16 53 29
26 59 45
32 59 57
28 50 73
35 55 93
34 53 89
33 52 89
35 56 95
37 57 97
34 54 91
36 57 97
38 59 98
38 60 102
36 56 95
36 57 97
38 60 101
38 60 101
35 56 95
34 53 89
37 58 99
38 60 101
36 56 94
32 49 81
60 80 107
68 89 120
67 88 117
67 87 116
84 108 135
90 113 143
88 110 139
88 108 138
85 108 138
82 104 132
77 97 124
74 94 120
73 90 118
80 100 131
72 93 124
64 83 112
66 86 115
65 85 113
63 83 111
64 84 114
66 87 118
68 89 119
63 82 108
68 88 118
62 80 106
66 87 114
63 83 113
66 85 112
63 82 111
65 84 113
62 82 111
62 80 111
65 85 114
62 81 109
64 83 111
65 84 112
62 83 109
66 84 113
62 81 109
70 90 120
61 79 106
64 82 108
62 79 108
66 86 115
65 83 112
62 81 108
62 79 108
67 86 114
64 81 109
66 85 114
66 85 115
67 88 117
70 90 121
62 81 111
65 84 113
63 82 108
68 87 117
66 85 113
65 82 111
63 82 110
62 80 105
67 88 116
64 84 111
64 85 112
67 86 115
67 87 114
67 88 116
65 84 109
64 85 111
68 87 116
67 86 113
63 80 109
53 64 79
41 45 49
40 43 46
43 47 50
44 47 51
44 47 51
40 43 46
40 43 45
42 45 48
39 43 45
37 39 42
42 45 49
40 42 44
42 46 49
40 43 44
39 43 45
42 45 48
40 42 44
43 46 50
43 46 49
42 46 48
39 41 43
39 41 43
41 44 47
41 44 47
42 45 47
40 43 46
38 41 43
41 45 47
39 42 45
38 41 43
39 41 42
43 47 51
42 45 49
42 46 49
41 44 47
38 41 43
43 46 49
40 43 45
43 46 48
43 46 49
40 43 45
42 44 47
39 42 45
40 42 44
42 45 48
41 44 48
42 45 48
44 46 50
43 46 49
41 44 47
39 41 43
38 40 42
42 45 48
41 43 45
38 40 42
37 40 41
40 43 45
39 42 44
36 38 39
35 37 39
38 41 43
39 41 41
37 40 41
35 37 37
29 30 29
26 27 26
35 37 36
34 37 36
31 32 31
34 35 33
33 35 35
36 38 37
37 39 39
35 38 39
37 39 41
38 41 43
36 39 41
40 43 44
37 39 41
39 41 42
39 41 43
40 43 47
42 45 48
37 40 42
43 46 49
45 48 52
45 49 53
41 44 47
43 46 50
38 40 44
42 46 49
41 44 47
44 47 51
41 43 47
39 43 46
39 42 46
39 42 45
37 41 44
39 42 46
35 39 43
31 34 39
22 24 27
7 9 19
0 3 18
39 52 74
71 92 123
65 84 114
24 33 61
1 4 28
1 5 32
1 5 30
1 5 31
1 5 34
1 5 37
1 6 41
1 5 36
1 6 43
1 7 47
1 8 54
1 7 49
1 8 54
1 8 54
1 9 57
1 8 51
2 9 63
1 9 61
1 9 62
2 10 66
2 10 69
2 9 65
21 32 86
154 186 234
162 195 244
165 197 247
160 193 241
167 200 250
167 200 249
164 196 246
164 197 246
161 194 243
160 194 245
150 183 233
119 147 189
65 85 114
61 79 105
42 57 69
7 14 8
7 14 5
6 13 5
6 12 4
6 13 5
6 12 5
5 12 4
7 14 6
6 13 5
7 14 6
6 20 8
12 66 29
13 81 36
12 75 33
14 85 38
14 86 38
15 93 41
16 95 42
15 88 39
15 92 41
16 99 44
16 98 44
16 95 44
16 98 44
16 97 44
17 100 45
18 95 46
40 94 78
63 85 111
69 89 121
66 86 115
67 87 118
70 90 122
69 89 120
65 85 113
67 87 117
67 87 116
67 86 117
69 90 122
67 88 119
66 85 115
70 91 122
49 52 91
27 11 64
31 13 77
13 32 63
13 33 65
13 33 65
14 35 67
13 33 64
13 32 62
13 33 64
13 32 61
13 32 62
13 32 60
13 32 61
13 32 61
20 40 68
56 75 104
69 90 120
66 86 117
68 87 118
68 89 120
67 88 118
67 87 117
66 86 114
66 86 115
66 86 115
67 88 117
62 83 110
62 81 108
56 74 98
65 85 113
59 78 103
57 75 100
60 78 105
52 68 89
54 72 95
49 66 86
55 69 91
48 64 83
50 65 85
34 46 55
16 28 27
7 16 10
5 14 6
6 15 7
4 12 5
5 14 6
5 13 6
6 13 8
8 15 12
13 19 19
23 30 38
31 39 50
23 29 37
32 39 49
28 36 46
28 34 43
34 43 56
37 46 60
32 40 51
36 43 59
31 37 49
35 45 58
32 37 47
32 40 52
28 32 41
34 42 55
31 36 50
30 34 45
30 34 44
27 31 40
31 36 47
31 35 45
39 47 61
38 43 56
42 49 66
46 58 77
25 37 32
12 25 6
11 23 6
11 22 5
13 27 6
10 22 5
11 23 5
13 26 6
11 23 6
11 24 6
11 23 6
12 25 6
12 25 6
12 24 6
10 20 5
11 22 5
11 23 5
11 23 6
9 18 4
9 20 5
8 18 4
9 19 5
40 55 65
66 85 115
63 81 108
65 84 112
69 89 120
65 84 110
65 85 116
66 87 118
64 85 114
45 73 79
16 52 30
9 49 16
9 48 16
9 48 16
8 48 16
8 47 16
9 48 16
9 49 17
8 45 15
8 46 15
8 45 15
16 49 38
24 46 63
34 54 92
34 53 89
33 52 89
33 52 88
35 55 94
33 52 88
35 55 92
36 56 93
34 54 92
33 53 88
35 54 94
37 58 99
34 53 90
38 58 98
36 56 96
32 50 84
50 68 97
63 82 111
64 84 114
86 108 144
92 114 145
81 101 130
68 87 111
69 89 116
73 94 123
69 90 117
67 87 111
69 91 117
77 98 129
74 96 124
64 83 105
85 106 136
80 103 132
63 84 108
66 87 117
65 85 113
64 85 115
66 86 116
67 86 115
64 81 109
66 86 116
65 85 115
68 88 119
67 88 116
66 87 114
66 85 115
65 84 113
70 89 118
68 90 121
67 88 119
63 82 109
68 89 119
68 87 116
65 83 112
67 85 114
67 87 117
65 84 113
68 87 117
69 88 117
68 88 117
66 85 114
64 82 109
68 88 118
66 85 113
65 83 112
68 88 118
67 87 114
65 84 114
69 89 118
68 89 116
66 84 111
67 88 116
62 82 108
69 90 119
67 87 114
67 87 114
69 89 119
64 83 109
65 85 111
63 82 108
65 84 110
66 85 114
63 83 110
68 87 117
66 87 115
67 87 115
64 84 112
62 81 104
69 91 118
65 86 114
53 63 75
43 46 50
41 44 48
41 43 46
40 43 45
42 45 49
37 40 42
40 43 45
40 43 45
42 44 47
44 46 49
42 46 49
38 41 43
41 44 47
39 42 45
40 42 45
40 43 46
41 44 48
44 47 50
38 40 42
39 42 44
39 42 44
37 39 41
43 46 50
40 42 43
40 43 45
37 38 40
40 43 45
40 43 45
39 41 44
43 47 50
40 42 45
43 45 48
41 44 47
40 42 45
42 45 49
41 44 47
41 44 48
41 44 46
40 42 45
42 46 49
40 43 45
39 42 45
39 42 44
40 42 45
39 42 43
40 43 45
41 44 48
40 42 44
42 46 49
38 40 40
38 40 42
38 40 42
36 39 42
38 40 42
38 40 42
39 42 44
40 43 45
36 38 39
37 40 41
38 41 43
35 36 36
34 37 37
37 39 39
31 32 31
33 35 34
33 35 34
36 37 37
34 35 34
32 33 33
35 37 37
35 36 36
38 41 42
37 39 40
37 39 40
37 39 41
38 41 43
40 43 45
38 40 41
37 40 42
38 40 40
38 41 45
41 43 47
41 44 48
41 43 46
39 41 44
40 44 47
42 44 47
40 42 45
42 45 48
43 46 50
43 46 49
40 42 44
43 46 49
41 44 46
38 41 43
41 44 48
37 39 42
39 42 46
34 38 43
26 29 32
6 8 15
0 2 12
29 38 56
65 85 111
67 87 114
56 73 100
2 6 29
1 4 28
1 4 28
0 4 25
1 5 31
1 4 29
1 5 33
1 5 36
1 5 35
1 7 44
1 7 48
1 7 49
1 8 53
1 7 47
1 8 51
1 8 54
1 9 59
1 8 54
2 9 63
1 9 59
1 9 62
2 10 64
1 9 61
1 9 61
109 136 190
161 197 252
162 197 250
162 198 252
160 196 249
161 196 248
156 191 243
156 190 243
154 190 244
148 184 238
130 163 211
72 92 122
59 76 101
58 75 101
54 70 92
33 45 54
9 17 11
5 11 4
5 11 4
5 11 4
6 13 5
6 12 5
6 12 5
6 12 5
7 28 12
12 74 32
12 73 32
13 77 34
14 81 36
13 78 34
14 83 36
14 85 37
15 92 41
15 93 41
15 88 39
15 89 39
17 100 44
16 96 42
15 91 40
16 97 43
16 98 44
16 97 44
15 93 42
36 90 73
66 89 116
64 84 112
67 86 116
70 91 123
66 86 114
69 90 122
70 89 121
65 85 116
65 84 112
67 87 117
69 89 120
67 86 117
67 86 114
62 78 109
25 16 62
31 12 74
14 34 66
14 34 64
13 33 63
13 32 62
13 32 63
12 30 57
12 31 60
13 32 63
13 33 64
12 32 62
12 31 59
12 30 58
13 31 59
25 44 73
67 88 119
66 87 117
68 89 119
66 86 115
66 86 114
66 86 113
62 82 109
65 85 114
62 83 109
62 82 110
62 81 109
63 81 107
59 78 103
58 77 101
52 69 89
54 72 96
49 65 84
46 62 80
46 62 78
46 62 80
38 52 64
43 56 70
32 43 54
23 33 38
27 36 43
14 20 22
7 10 11
8 12 12
3 6 5
4 6 5
4 7 6
5 8 8
15 20 22
12 16 19
18 23 27
29 38 47
27 34 44
35 44 57
35 46 59
34 44 56
39 50 65
41 52 68
45 58 76
42 53 69
41 51 68
44 57 75
47 57 76
45 56 73
45 56 73
49 61 80
43 52 67
44 56 74
46 56 74
49 62 81
51 64 84
54 68 92
53 65 87
50 62 81
54 65 88
55 69 93
47 61 78
14 27 12
9 20 5
9 19 5
11 22 5
11 23 6
12 24 6
10 21 5
10 20 5
9 20 5
11 22 5
9 19 5
11 23 5
9 20 5
10 20 5
10 20 5
11 22 5
9 19 5
10 20 5
9 18 4
9 18 4
13 23 15
65 85 111
64 81 109
67 88 116
66 86 115
63 82 111
63 83 111
67 87 117
55 76 96
22 58 39
8 48 16
9 48 16
9 48 16
8 48 16
9 49 16
9 48 16
9 48 16
8 46 16
8 47 15
8 47 15
8 46 15
8 46 15
8 45 15
8 43 14
16 47 39
28 46 73
30 47 81
29 47 80
28 45 78
31 49 87
30 47 81
34 52 89
31 50 86
31 50 85
31 49 84
31 48 82
32 50 86
31 50 84
31 49 83
45 62 90
64 85 114
68 88 117
94 117 150
76 96 120
72 93 120
69 91 118
66 88 112
64 84 110
65 86 107
66 87 112
68 89 117
63 82 106
67 87 115
66 87 115
68 89 116
67 86 112
70 89 114
81 102 131
71 92 121
66 84 112
69 91 123
65 85 114
68 89 120
68 87 117
67 86 114
64 84 111
63 82 107
68 87 115
62 81 108
68 89 118
68 88 117
70 91 121
67 88 116
67 86 115
65 85 114
71 91 122
67 87 117
68 87 115
69 89 117
70 90 121
67 87 117
71 90 120
66 84 112
69 89 118
68 89 119
67 87 116
69 90 120
68 87 117
66 84 112
70 90 121
70 89 119
63 82 108
68 88 117
68 88 115
68 86 116
69 90 120
69 88 118
67 86 112
64 84 110
66 86 113
70 89 115
66 85 114
69 88 116
68 88 119
66 85 112
65 86 112
68 89 116
68 87 116
63 81 105
67 87 116
68 88 117
65 87 113
66 85 113
67 87 115
67 85 114
48 55 64
41 44 47
45 49 53
40 43 45
42 44 46
42 44 47
36 39 41
41 43 46
41 43 45
37 39 42
39 41 44
42 44 46
40 42 44
38 40 42
37 40 43
37 40 42
39 41 42
38 40 43
36 38 40
40 43 44
43 46 49
37 38 40
39 41 44
43 45 48
39 42 45
41 43 45
40 42 44
37 40 42
43 45 48
41 43 45
40 42 44
44 47 49
40 43 45
36 39 40
39 42 45
40 44 47
40 43 46
39 42 44
41 44 47
41 43 46
42 46 50
40 43 46
38 40 42
41 43 45
43 46 50
40 44 47
39 41 44
40 42 45
42 45 47
41 44 46
36 38 40
36 37 39
39 42 44
40 42 45
41 44 46
39 41 43
38 40 40
35 36 37
37 40 42
34 37 38
37 40 42
35 38 39
34 36 37
33 35 36
37 40 42
34 36 37
38 40 41
34 35 35
34 37 37
33 35 36
35 36 37
37 39 41
35 36 36
37 40 40
38 41 41
41 42 43
41 44 46
38 39 41
39 42 44
36 38 40
38 40 43
40 43 46
39 41 43
38 40 42
41 44 47
37 39 41
42 45 48
40 42 44
43 46 50
38 40 42
40 42 44
36 38 40
37 40 43
39 42 45
39 43 46
39 42 44
37 40 42
30 33 37
29 31 35
10 12 15
1 2 11
17 23 35
64 83 111
66 85 114
67 86 112
36 48 73
0 4 25
1 4 28
0 4 25
0 4 24
1 5 32
1 4 29
1 5 33
1 5 35
1 6 40
1 6 41
1 7 44
1 7 47
1 7 50
1 8 55
1 6 43
1 8 50
1 9 60
1 9 59
1 9 56
1 8 53
1 8 56
1 9 58
1 8 54
1 8 57
48 65 116
155 194 253
155 194 252
154 192 250
151 189 245
146 183 238
146 183 238
145 183 240
137 174 231
122 156 206
74 95 125
53 69 91
54 71 90
52 67 86
54 69 91
55 71 92
33 44 53
8 13 10
4 10 3
5 10 4
4 9 4
4 10 4
4 10 4
6 21 9
11 66 29
12 70 30
13 77 33
12 74 33
14 82 36
14 82 36
13 78 34
14 85 38
14 87 39
14 84 37
15 91 40
15 92 41
15 92 41
15 92 41
15 90 40
16 95 42
16 97 43
16 94 42
16 95 43
15 90 41
30 91 64
65 88 113
67 87 116
64 83 113
67 87 119
66 86 117
64 82 114
64 84 113
64 82 113
65 83 114
61 80 110
62 80 109
68 88 118
65 82 112
50 60 94
27 13 65
13 33 63
12 31 59
13 32 62
13 33 64
12 30 58
12 31 60
12 30 58
13 32 61
12 31 59
12 31 60
12 29 56
12 31 58
12 29 56
12 30 57
48 69 99
67 88 118
66 86 115
66 86 114
63 84 111
62 82 109
64 84 112
60 79 104
65 84 112
61 81 108
64 83 110
60 80 104
63 83 110
57 75 99
58 77 101
52 69 90
50 65 84
49 65 84
45 61 77
43 58 72
39 54 67
42 57 71
42 56 70
27 37 45
29 39 46
23 32 37
27 36 44
19 25 29
26 36 41
24 33 40
18 24 29
32 42 53
27 37 44
30 40 50
36 47 59
39 52 66
39 50 64
47 62 80
40 53 67
44 59 76
48 61 80
53 68 89
51 67 90
54 71 95
50 64 86
55 71 94
53 66 90
56 72 97
58 74 97
54 71 95
60 77 103
54 69 92
55 70 94
52 66 87
61 80 108
58 74 99
61 79 104
53 67 89
61 80 106
57 74 99
62 79 105
41 57 66
9 19 5
8 18 4
11 22 5
9 20 5
10 21 5
10 21 5
9 19 5
10 20 5
11 23 5
10 20 5
11 22 5
9 20 5
11 23 5
9 18 4
9 19 5
8 17 4
8 18 4
9 19 5
7 16 4
40 55 68
64 82 111
67 86 116
65 85 114
65 84 112
64 82 110
67 87 117
48 73 86
12 49 21
9 48 16
9 48 16
8 46 15
8 48 16
9 48 16
8 47 16
9 47 16
8 48 16
8 46 15
8 45 15
8 45 15
8 44 15
8 46 15
8 43 14
7 41 13
8 44 14
11 43 24
21 37 57
26 41 72
27 43 73
26 41 70
25 40 70
28 44 74
25 39 68
30 48 82
25 40 69
24 38 65
24 37 65
22 33 55
44 59 85
58 77 106
71 92 127
84 106 135
79 100 129
66 87 109
70 89 116
66 84 110
65 85 107
63 83 107
66 87 114
66 87 112
67 89 114
65 85 109
62 82 103
63 83 108
63 82 106
72 93 123
67 86 112
74 95 123
79 100 125
67 85 111
67 86 114
67 88 119
68 87 115
68 87 116
67 87 116
66 85 115
68 88 118
64 83 113
68 87 116
64 85 114
69 90 121
66 84 112
64 83 112
68 89 118
68 87 117
66 84 111
68 87 117
69 88 118
70 89 117
65 84 112
66 86 115
67 87 116
67 87 115
68 86 115
62 80 106
65 84 112
68 88 117
68 87 116
67 84 110
68 88 117
69 89 118
69 89 118
68 87 117
70 90 120
66 86 116
65 84 110
67 87 115
66 85 113
65 85 113
68 87 117
69 88 115
65 85 110
65 85 111
65 83 110
68 88 116
66 86 115
66 86 113
67 88 114
63 82 108
70 91 120
69 90 118
65 84 111
69 89 118
64 84 112
62 81 106
59 77 98
45 51 57
41 44 47
40 43 46
41 43 45
41 43 46
39 42 44
37 40 41
37 39 41
39 42 45
39 41 43
36 38 40
37 40 43
39 41 43
39 42 44
41 43 45
39 41 44
39 41 44
39 41 44
41 43 44
42 45 47
40 42 44
38 41 43
38 39 41
38 41 43
39 42 44
43 45 47
40 42 44
42 45 47
39 41 43
42 44 47
42 44 47
39 41 44
38 40 42
40 42 45
43 45 47
38 41 43
36 38 40
38 39 41
41 44 47
40 43 44
41 44 48
38 40 42
39 41 43
41 44 46
39 41 43
37 39 41
39 41 42
40 42 44
39 42 45
43 47 51
42 45 47
38 41 43
39 42 45
36 37 39
40 43 45
38 40 41
36 37 39
36 38 39
33 35 36
39 41 41
35 37 38
37 39 39
36 38 38
34 36 38
35 36 37
36 38 38
35 37 37
36 38 39
37 39 40
39 41 42
33 35 35
37 39 41
39 42 43
39 42 44
38 41 44
42 44 46
40 43 46
42 45 47
43 46 49
38 40 42
37 39 41
40 42 45
39 41 43
39 41 44
42 45 48
39 42 45
36 39 41
36 38 41
39 41 43
37 39 42
39 41 44
40 43 46
41 43 46
41 44 46
38 41 44
34 37 39
31 33 37
21 22 25
6 7 13
24 30 43
63 81 109
63 82 110
69 90 120
66 84 111
27 38 64
0 4 25
1 4 28
0 4 25
0 4 23
1 4 27
1 5 32
1 5 30
1 4 28
1 5 34
1 7 43
1 7 48
1 7 46
1 7 46
1 7 45
1 7 49
1 8 52
1 7 44
1 8 54
1 8 57
1 8 51
1 9 62
1 8 54
1 9 59
1 8 57
16 26 77
143 185 247
142 183 245
141 181 242
141 182 243
136 176 238
131 171 231
110 145 196
87 114 151
52 69 89
49 63 81
47 60 76
45 58 74
47 60 77
41 52 66
44 57 72
39 51 65
30 38 44
17 24 25
6 10 7
3 8 3
3 7 2
3 10 4
11 60 26
11 69 30
12 73 33
12 74 33
13 77 33
13 78 34
13 77 34
14 80 35
14 82 36
13 77 34
14 84 37
15 90 41
14 86 38
15 90 40
15 89 40
15 93 41
15 92 41
16 94 42
15 92 42
15 91 41
15 92 41
15 86 40
32 84 64
59 76 105
64 82 113
62 79 110
65 84 111
64 83 112
66 83 116
61 78 108
63 82 113
62 80 108
59 76 105
60 77 107
64 81 109
63 81 109
39 41 77
13 31 61
12 31 60
13 32 62
13 32 62
12 31 59
12 31 59
13 32 60
12 31 60
12 30 57
13 32 61
12 30 57
12 30 58
11 28 55
11 27 52
12 29 54
65 86 114
66 86 115
65 85 113
64 85 113
62 83 112
66 87 115
59 79 103
60 80 106
59 78 103
67 87 117
59 79 103
62 82 107
60 79 102
56 74 97
59 78 100
56 72 94
55 75 98
45 60 77
51 68 87
48 64 82
53 70 88
48 64 82
45 60 76
50 66 84
38 51 63
42 56 71
43 57 72
48 64 82
50 65 83
49 64 82
43 58 73
50 67 88
46 62 79
49 66 85
51 67 87
48 64 84
48 64 83
55 72 94
52 69 90
52 68 90
57 74 98
56 74 98
56 71 96
58 75 100
57 75 101
58 75 100
59 77 103
61 77 103
62 79 108
62 81 108
60 78 104
63 83 111
62 81 108
60 79 106
63 80 108
59 77 102
64 83 112
57 73 98
61 80 108
62 80 107
58 75 99
25 38 38
9 20 5
9 18 4
8 18 4
10 20 5
9 18 4
9 20 5
9 18 4
9 20 5
8 17 4
10 20 5
9 18 4
9 19 4
8 17 4
8 16 4
9 18 4
8 17 4
7 15 4
30 44 48
63 83 111
56 73 96
60 79 106
62 82 109
66 87 116
61 80 107
40 67 71
9 45 16
9 48 16
9 48 16
8 45 15
8 46 15
8 46 15
8 46 15
8 46 15
8 46 15
8 43 14
8 46 15
8 44 15
8 46 15
8 45 15
8 43 14
8 44 14
7 43 13
8 44 14
7 42 13
9 42 19
19 35 51
25 39 67
22 35 59
19 31 57
21 34 58
19 31 56
21 34 59
19 31 53
19 31 55
19 29 48
36 49 72
54 71 94
64 79 103
95 120 143
74 110 103
70 113 91
63 117 69
64 116 71
59 104 66
59 98 76
65 102 93
67 93 109
60 79 102
65 85 112
60 79 101
64 85 110
62 83 109
64 85 107
65 85 110
61 80 102
68 87 113
75 96 128
80 101 124
62 81 109
70 90 121
65 84 113
70 91 122
66 86 115
67 87 116
65 83 111
68 88 117
67 85 113
66 84 114
66 86 114
68 88 118
66 86 115
68 88 116
67 87 116
68 87 116
68 88 116
66 85 113
69 89 120
68 88 116
70 89 118
66 86 114
67 88 117
69 89 118
71 91 121
68 88 116
67 85 114
69 89 119
67 87 118
67 86 114
70 90 120
65 85 113
69 89 117
67 89 117
68 89 120
69 89 118
67 85 114
67 86 114
68 87 114
67 87 115
66 87 116
67 88 119
70 89 119
67 88 116
65 85 111
67 86 114
67 86 115
62 81 108
64 83 110
65 83 111
64 82 108
63 82 108
63 82 108
59 79 101
64 84 110
65 84 112
61 77 100
43 48 53
39 43 45
40 42 44
39 41 43
37 39 40
37 39 40
39 41 43
40 42 45
37 40 41
38 39 42
39 42 45
38 39 41
38 40 43
39 42 43
40 41 42
38 39 41
38 39 41
40 43 46
38 40 42
40 42 45
35 37 38
40 43 44
39 41 43
38 40 42
38 40 41
40 42 45
39 42 45
36 39 41
43 46 49
40 42 45
38 41 42
39 41 43
39 41 44
42 45 48
39 42 44
38 40 43
38 40 42
40 42 44
39 42 44
40 42 44
38 40 42
37 38 40
36 38 39
34 36 38
38 40 42
40 42 44
42 45 48
38 40 42
36 38 41
41 44 47
35 37 38
39 41 42
37 39 41
39 42 44
41 43 44
41 44 47
35 37 38
31 33 34
37 39 41
35 37 37
36 39 40
35 37 38
35 37 38
34 35 36
34 36 37
35 37 37
36 38 39
39 41 42
36 38 39
37 38 39
36 38 39
38 41 44
36 38 39
40 43 45
35 37 39
38 40 42
35 37 38
35 37 39
38 40 41
42 45 48
42 44 47
38 40 42
39 41 43
40 42 45
38 41 44
37 39 41
40 42 45
42 44 48
38 41 44
40 42 45
36 38 39
37 39 42
38 41 45
33 36 39
33 35 38
22 23 25
7 8 11
25 31 42
60 77 100
61 78 103
64 82 107
65 85 112
67 84 112
16 22 41
0 3 22
0 3 22
0 4 27
0 3 23
1 5 29
1 4 28
1 5 36
1 5 33
1 5 33
1 6 40
1 6 39
1 7 45
1 7 48
1 7 48
1 9 58
1 7 50
1 8 51
1 8 50
1 8 53
1 8 54
1 8 51
1 8 56
1 8 51
1 8 53
1 7 52
88 120 168
99 133 184
100 134 187
98 134 186
93 125 171
73 99 137
59 79 108
58 78 104
57 74 97
51 67 88
47 61 78
47 62 79
42 55 72
38 49 62
30 38 47
34 43 54
19 25 31
22 28 32
13 17 20
10 14 14
4 6 6
7 36 15
9 56 25
10 62 27
12 74 32
12 72 31
12 71 31
13 77 33
13 76 33
13 80 35
14 81 36
13 78 34
14 86 38
15 89 39
15 88 39
15 91 40
14 84 37
15 94 42
15 91 41
16 93 42
15 88 41
15 90 40
14 87 39
16 93 42
15 89 40
47 75 86
63 80 110
55 69 99
63 82 112
60 77 107
59 75 105
55 68 96
58 74 103
59 73 101
58 73 103
59 74 104
61 76 107
60 77 108
59 75 107
13 33 64
11 28 53
13 32 60
12 31 60
12 30 56
13 31 59
11 29 56
12 30 57
11 28 53
12 30 57
11 28 54
12 29 55
12 29 55
10 26 49
12 29 55
44 64 89
69 90 119
66 86 115
68 89 118
62 82 109
68 89 118
67 86 115
67 88 118
67 87 115
65 85 113
63 83 110
58 77 103
59 79 106
65 85 115
61 81 107
60 81 105
62 81 106
59 80 105
54 71 93
56 74 96
57 75 98
56 75 98
56 74 98
60 80 105
57 76 98
62 82 108
59 78 103
63 82 107
59 77 101
53 69 89
55 73 97
57 76 101
58 78 102
60 79 105
62 80 108
62 81 108
61 80 108
58 76 98
61 79 104
63 82 107
60 79 106
58 76 101
63 82 109
61 79 107
61 79 105
62 80 107
61 79 106
62 81 110
66 85 114
60 79 105
66 85 114
63 81 108
68 88 118
58 77 101
64 84 114
59 77 103
65 85 114
63 80 106
58 76 102
64 84 112
63 82 109
57 76 100
21 32 31
8 18 4
8 17 4
9 19 5
8 18 4
8 17 4
10 20 5
9 19 5
10 20 5
9 18 4
8 17 4
8 17 4
8 17 4
7 16 4
8 17 4
6 14 3
22 34 32
55 73 95
57 75 99
58 76 101
58 76 101
64 83 114
62 80 107
49 71 88
11 48 20
8 45 15
8 44 15
8 46 15
8 45 15
9 48 16
9 48 16
8 46 15
8 46 15
8 45 14
8 44 14
8 45 15
8 45 15
7 42 14
8 44 14
8 44 14
7 41 13
7 41 13
7 42 13
7 42 13
7 39 13
7 31 16
12 21 33
15 23 38
22 33 52
19 28 43
23 33 49
29 41 60
21 30 48
31 43 60
30 40 56
34 49 62
45 74 61
67 134 54
60 149 20
59 150 17
59 153 12
58 152 12
57 151 12
57 148 12
55 145 12
55 141 17
56 128 34
58 115 54
60 89 92
69 90 118
67 89 112
62 82 104
68 90 117
62 81 103
65 84 109
63 81 106
66 84 109
71 90 116
73 91 118
66 85 115
67 87 117
69 89 118
69 89 118
66 86 114
68 87 117
68 89 119
66 86 116
69 89 119
68 88 118
71 92 122
67 87 118
70 90 120
67 87 117
66 85 114
66 85 113
67 85 115
67 86 114
69 87 115
69 89 120
69 88 117
67 86 114
66 86 114
67 88 117
65 85 111
70 91 121
69 89 117
63 82 109
67 88 117
66 84 112
67 86 114
67 84 110
66 86 114
68 88 116
69 90 118
67 85 111
67 86 114
69 89 118
65 84 112
67 85 114
67 86 114
66 85 112
70 89 116
65 84 111
70 91 121
70 90 118
66 85 112
65 83 108
65 84 112
63 81 105
62 81 105
65 83 109
61 78 102
63 81 107
63 81 105
63 80 105
65 81 106
47 51 55
37 39 41
39 42 45
40 42 45
37 38 40
38 40 42
42 44 46
38 40 41
42 43 45
40 43 45
36 39 41
38 40 41
38 40 41
39 41 42
40 41 43
36 38 38
35 37 38
33 35 34
41 43 45
38 40 42
35 36 37
40 42 44
39 41 43
38 40 41
36 38 40
38 40 41
40 42 45
38 41 43
39 41 43
38 40 41
36 39 40
41 42 45
38 41 43
37 40 43
37 38 39
40 43 44
41 42 44
35 37 39
42 45 48
36 38 40
35 37 38
36 37 39
36 37 39
38 40 43
37 39 41
37 40 41
37 39 40
40 43 45
42 43 45
37 39 41
41 43 46
38 40 41
33 35 36
39 42 43
38 39 40
35 38 39
33 34 35
37 39 39
37 39 40
38 40 41
38 39 41
36 37 37
39 41 43
38 40 41
36 37 38
39 41 43
38 40 41
34 35 35
37 40 41
40 42 44
33 34 35
38 39 41
42 44 47
43 45 48
38 40 42
36 38 40
36 38 40
39 42 46
36 37 39
35 37 38
38 40 42
36 38 40
39 42 44
37 39 40
38 41 44
39 42 45
36 38 41
35 37 39
37 39 42
39 42 45
35 37 40
36 39 42
39 42 45
29 32 34
12 12 15
34 40 48
63 83 110
65 84 111
66 83 110
68 87 115
64 83 111
61 80 106
9 14 31
0 3 21
0 3 22
0 4 24
0 4 24
1 4 29
1 4 29
1 5 34
1 6 40
1 5 33
1 5 35
1 6 41
1 6 40
1 7 44
1 7 47
1 6 42
1 7 44
1 7 48
1 8 53
1 8 52
1 9 61
1 8 53
1 8 53
1 7 48
1 8 55
1 8 51
56 76 111
62 83 113
61 81 112
60 81 111
60 81 112
57 77 106
60 80 109
57 76 104
54 73 98
55 72 95
54 70 94
49 64 83
49 63 81
39 51 66
36 47 59
30 39 49
28 35 45
22 28 33
23 29 36
18 23 29
12 19 19
11 65 28
10 62 26
11 66 29
11 67 29
11 64 28
12 72 32
12 71 32
12 75 32
14 82 36
13 80 35
13 82 37
14 85 37
14 81 36
14 85 38
13 80 36
15 91 40
14 81 36
14 84 37
15 91 40
14 82 38
16 94 41
14 88 40
14 87 39
14 81 38
23 83 52
52 67 93
57 72 102
55 69 99
58 73 103
54 67 94
59 74 104
51 64 90
54 66 95
57 72 101
53 66 94
50 60 91
51 61 91
49 58 89
12 29 56
12 29 56
11 28 54
12 29 55
12 30 57
12 30 56
11 28 54
11 28 54
11 28 54
11 28 53
12 30 57
11 29 54
12 30 56
12 29 55
11 27 51
29 47 75
69 91 121
66 87 116
68 89 120
66 87 116
69 90 120
66 88 117
65 85 114
68 88 118
62 82 111
64 83 110
60 79 106
61 80 104
64 84 112
63 83 112
66 86 116
62 81 106
65 85 112
62 82 108
62 80 108
63 84 111
64 83 110
64 84 111
62 82 110
65 85 114
60 80 106
63 82 109
62 83 110
62 81 108
60 80 107
65 87 115
67 88 116
65 86 114
66 85 113
66 87 115
63 81 108
65 85 113
63 82 109
64 84 112
60 80 104
65 84 113
66 86 114
63 82 108
62 81 108
66 87 118
65 85 114
65 85 113
64 84 112
61 80 107
62 81 108
59 75 99
60 78 104
69 88 117
66 86 114
60 78 105
60 78 105
61 79 105
61 80 105
59 77 102
60 78 104
56 74 98
58 76 102
45 59 76
26 38 42
9 17 7
6 14 3
7 15 3
8 17 4
8 18 4
6 14 3
7 14 3
6 13 3
7 14 3
7 15 3
7 15 3
7 14 3
6 12 3
31 42 48
48 64 83
51 67 88
48 64 84
45 61 79
49 65 85
58 78 105
50 68 87
19 50 32
8 45 15
9 47 15
8 45 15
8 45 15
8 46 15
8 43 15
8 46 15
8 45 15
8 45 15
8 44 14
8 44 14
7 41 13
8 44 14
8 46 15
7 42 14
8 44 15
8 43 14
7 41 13
7 41 13
6 37 12
8 41 15
16 46 27
33 54 59
52 71 90
65 89 115
67 92 119
77 106 139
74 102 133
73 101 131
64 87 114
54 75 97
51 81 77
54 125 34
56 147 13
58 152 12
59 154 12
57 152 12
58 153 12
59 155 12
58 151 12
58 151 12
56 146 12
54 140 11
54 142 11
53 130 19
54 113 41
65 92 106
66 88 116
67 88 114
66 86 111
64 85 110
64 81 104
67 85 108
63 80 105
76 97 126
75 98 123
67 87 116
69 90 120
68 87 115
66 85 113
69 89 120
65 84 112
68 88 119
67 88 118
70 91 120
68 89 120
67 86 116
67 87 116
69 89 117
68 86 115
67 88 115
66 85 112
68 88 116
68 88 116
66 86 115
68 88 117
69 89 119
64 83 111
69 88 116
66 83 109
67 86 114
66 85 114
71 90 118
68 87 116
64 84 111
68 87 115
69 88 117
65 82 109
67 85 111
65 83 111
63 81 107
68 88 117
70 90 117
67 84 111
66 85 111
68 87 115
64 82 107
66 86 114
68 87 114
65 84 110
66 85 111
70 89 117
66 84 110
71 91 119
68 86 112
67 84 110
67 85 113
66 84 111
69 87 113
69 86 112
67 86 113
67 84 108
62 77 101
44 50 56
39 40 42
37 38 40
40 43 45
35 37 38
39 40 41
37 39 40
36 38 39
36 38 39
37 39 40
39 42 44
35 37 38
35 38 39
36 38 40
37 40 41
37 39 40
35 36 37
38 39 41
34 36 38
40 42 44
37 40 41
36 38 40
36 37 38
35 37 38
35 37 38
38 40 42
35 36 36
40 42 43
38 39 40
37 39 40
39 41 43
38 40 41
38 40 42
38 40 42
38 40 44
37 39 41
36 38 39
40 42 43
39 40 42
35 36 37
34 36 36
36 38 39
37 39 39
38 39 41
40 42 44
40 42 45
38 40 42
36 38 39
38 41 44
35 36 37
37 39 40
37 40 42
34 35 36
34 36 37
38 40 42
37 39 41
34 35 35
35 37 38
35 36 37
36 38 38
36 38 38
35 36 37
36 38 39
34 36 37
39 41 43
38 39 41
34 36 36
35 37 38
36 37 38
35 37 39
38 41 43
38 39 41
40 43 45
39 41 43
35 36 37
39 41 43
35 36 37
37 39 40
40 42 44
36 38 41
38 40 42
38 39 41
35 37 39
39 41 43
39 41 44
34 35 36
33 34 36
35 38 40
37 39 41
32 34 37
33 36 39
30 32 35
22 23 25
38 44 53
62 79 103
66 86 115
64 83 109
59 76 100
63 81 107
63 81 106
64 83 110
12 18 39
0 3 23
0 3 23
0 4 25
0 3 23
0 4 27
1 4 30
1 5 32
1 5 32
1 5 34
1 6 41
1 6 39
1 6 38
1 7 43
1 7 43
1 7 49
1 7 46
1 7 49
1 7 49
1 8 51
1 8 54
1 8 52
1 7 49
1 7 45
1 7 48
1 7 49
58 76 103
63 82 109
68 88 117
63 82 110
61 80 106
61 80 106
60 79 106
63 82 110
63 81 108
51 67 87
56 73 98
55 71 92
50 65 86
53 68 90
46 59 74
46 59 77
42 55 70
41 52 68
37 48 62
37 48 62
20 51 39
10 60 26
10 60 25
10 61 27
12 69 30
11 62 27
13 77 33
12 71 31
10 63 27
13 79 34
12 70 31
14 82 35
14 84 37
14 83 36
14 85 37
14 86 38
15 88 38
15 90 40
15 91 41
14 84 38
14 85 38
14 83 38
14 83 37
14 82 37
14 85 38
14 84 39
44 73 80
59 74 104
60 77 106
60 77 107
57 72 101
53 65 94
53 67 92
52 66 93
56 71 98
49 61 87
44 52 77
42 49 73
40 48 72
12 30 58
12 30 58
12 29 55
12 29 54
12 30 57
12 29 56
11 29 55
11 27 51
11 26 50
11 28 54
11 27 52
11 27 52
11 27 51
11 27 52
11 28 53
14 29 52
67 89 120
69 89 119
66 86 114
69 90 121
68 89 119
71 89 120
66 87 115
63 83 109
67 88 118
68 90 120
64 85 112
66 86 114
69 89 120
66 86 114
70 91 121
64 82 110
66 87 116
62 84 112
63 83 110
62 84 111
63 84 111
62 82 109
64 85 112
64 84 111
69 90 120
63 84 112
63 83 109
66 86 113
66 86 114
67 88 117
67 87 116
64 85 115
66 87 115
66 86 115
67 88 119
67 87 117
66 86 114
67 86 116
67 88 117
66 87 116
67 88 118
66 88 116
63 83 111
65 87 116
58 77 101
61 80 104
60 78 105
65 85 112
63 82 108
62 82 109
61 79 104
59 79 105
57 74 99
56 74 98
59 75 98
55 72 96
59 76 100
55 73 96
56 73 95
46 61 79
53 68 89
52 68 89
44 59 73
30 41 49
14 21 17
7 14 5
6 12 3
6 12 3
5 11 2
6 12 3
5 11 2
5 10 2
5 11 2
5 11 3
12 19 16
31 40 49
32 42 52
37 49 61
40 53 68
34 46 58
51 67 87
43 58 75
47 63 82
34 57 58
8 45 15
8 43 14
8 45 15
8 45 15
8 44 14
8 44 15
8 44 15
8 43 14
8 45 15
8 43 14
7 41 13
8 43 14
8 44 14
7 41 13
7 40 12
7 42 13
8 43 14
7 40 13
7 40 12
8 40 13
19 46 31
39 65 68
70 97 124
75 104 135
76 106 139
78 111 149
77 112 152
77 111 150
78 112 152
78 112 152
80 113 152
75 106 142
76 105 137
65 96 107
46 95 46
55 142 14
61 158 13
58 153 12
54 144 12
56 147 12
57 149 12
57 146 11
56 148 12
54 141 11
53 137 11
55 141 11
50 130 10
57 132 23
61 93 86
60 82 99
67 86 112
65 87 104
68 88 112
63 81 104
67 85 112
72 91 119
77 96 124
68 88 117
70 90 120
65 85 114
68 87 117
65 84 112
66 87 116
68 88 118
68 88 118
69 89 119
70 91 124
67 88 116
65 84 112
63 82 109
66 85 113
68 87 115
66 85 111
69 88 117
67 87 114
67 87 115
71 90 120
69 89 119
67 87 114
63 81 107
68 88 116
66 83 110
67 85 114
67 86 116
70 90 120
68 85 111
69 87 113
68 87 116
64 80 106
67 86 110
65 84 111
68 87 116
67 86 114
64 83 110
65 83 107
69 88 116
64 81 107
65 85 112
67 87 115
66 84 111
68 86 114
68 87 115
69 87 114
69 88 114
66 84 111
67 86 113
68 86 114
69 88 116
65 83 108
68 87 116
64 82 106
69 88 115
66 84 110
69 88 117
65 83 109
47 55 66
37 40 42
39 42 45
39 41 43
37 39 40
37 39 41
39 40 42
36 37 38
35 37 38
35 37 39
35 36 37
39 41 42
36 37 39
37 39 41
37 39 41
36 37 38
36 38 40
36 37 38
35 37 39
37 39 40
35 37 38
36 38 40
38 40 42
35 37 37
35 37 38
36 39 40
39 41 42
36 38 38
37 39 41
37 40 40
38 39 41
40 41 43
40 42 45
36 38 39
33 34 35
37 38 40
35 36 38
35 37 38
39 40 41
37 38 40
37 37 38
39 40 41
34 36 37
35 37 38
37 40 42
35 36 38
39 41 42
38 40 42
37 39 41
35 37 39
33 35 36
33 35 37
36 38 38
34 36 37
35 37 37
39 40 42
39 42 43
38 40 42
37 39 39
34 36 38
37 39 39
40 41 43
36 38 38
38 39 40
38 40 41
34 36 37
35 36 37
37 39 41
38 39 41
37 39 41
35 38 39
30 32 33
34 35 37
34 35 36
37 39 41
35 37 38
34 35 37
34 36 38
36 37 39
35 36 38
39 42 45
37 38 40
39 41 44
35 37 39
34 36 38
38 39 41
38 40 43
35 38 40
36 38 40
34 36 38
23 24 26
38 44 53
60 76 100
62 79 104
62 79 104
61 79 105
65 82 109
60 76 101
63 81 107
60 77 102
21 29 50
0 4 24
0 3 22
0 4 26
0 4 24
0 4 24
1 5 31
1 5 32
1 5 33
1 5 35
1 5 31
1 6 38
1 6 40
1 7 43
1 6 38
1 7 46
1 7 44
1 7 46
1 7 50
1 7 45
1 7 43
1 8 52
1 7 47
1 7 45
1 6 44
2 8 47
63 81 108
65 84 111
62 80 103
61 80 106
66 84 111
63 81 107
64 83 110
63 81 108
63 81 108
61 80 107
61 79 103
57 75 97
61 78 104
63 80 105
54 70 92
59 76 100
50 65 85
57 72 97
56 72 95
47 62 82
13 53 28
10 56 24
9 54 23
11 68 29
11 66 28
11 68 29
11 67 29
13 76 33
11 68 30
12 68 29
13 79 34
12 74 33
13 77 33
13 75 34
14 84 37
15 86 38
12 74 33
14 80 36
13 80 35
15 88 39
15 88 40
15 88 39
14 86 39
15 91 41
14 81 37
14 83 38
31 78 64
55 69 97
57 72 101
59 75 105
52 65 94
53 66 94
55 69 98
52 64 90
52 63 91
43 54 79
43 52 76
42 51 75
37 43 65
11 27 52
11 28 54
11 28 54
11 28 52
11 27 51
11 28 53
11 28 52
11 28 53
10 26 50
12 28 54
11 28 54
11 27 51
11 27 51
10 25 48
10 24 46
10 26 49
63 84 112
64 84 111
63 83 112
62 82 108
66 87 116
69 90 121
70 91 122
72 93 124
68 89 118
68 89 119
68 89 119
68 88 116
68 89 119
64 85 113
65 85 115
65 85 114
66 86 116
68 89 118
66 87 116
64 86 114
66 87 115
65 86 115
68 88 117
68 89 120
66 88 117
73 94 125
67 89 118
64 83 110
64 85 113
66 86 116
62 81 107
66 88 118
67 87 115
70 90 121
66 85 113
62 82 109
65 85 114
65 85 113
66 85 111
64 84 114
62 81 107
63 83 111
61 80 106
65 85 113
62 80 105
62 82 109
64 85 113
61 81 107
62 80 107
63 83 111
58 76 99
62 80 104
58 76 101
56 74 98
54 71 92
48 64 81
54 70 91
48 63 81
48 63 82
50 65 83
42 55 70
38 50 63
40 51 65
28 37 46
21 28 33
19 25 29
11 16 14
4 6 5
2 5 2
4 8 3
2 5 1
3 6 4
3 5 4
9 12 12
17 22 25
26 34 42
29 38 47
27 36 43
32 42 54
44 57 73
38 51 65
47 62 82
43 58 75
12 40 20
7 41 14
7 40 13
7 41 13
8 43 14
8 43 14
8 43 14
8 42 14
8 42 14
8 44 14
7 42 14
8 43 14
7 38 12
7 41 14
7 40 13
7 41 13
7 40 13
6 37 11
6 38 11
7 38 13
28 55 46
67 94 117
74 102 133
80 113 150
79 113 153
77 112 153
76 111 153
74 110 153
74 110 153
74 110 153
75 111 153
75 111 152
76 109 149
75 107 144
74 103 132
64 93 106
56 110 62
54 139 15
57 151 12
58 151 12
56 145 12
58 149 12
55 146 12
53 140 11
56 147 12
52 133 10
53 137 11
51 133 11
51 133 11
52 126 22
58 94 76
65 87 109
65 85 109
62 82 100
66 85 109
60 77 100
66 85 113
68 87 112
59 80 100
70 90 119
70 88 116
65 83 112
70 90 120
68 87 116
66 86 115
68 88 117
67 86 116
67 87 115
68 87 115
69 89 118
64 82 108
66 85 115
69 89 118
66 85 111
64 84 113
64 85 110
65 83 110
66 85 112
67 86 113
66 85 114
66 84 110
67 86 113
67 86 114
64 83 108
64 83 107
61 79 103
65 85 110
66 84 110
66 84 110
64 82 109
67 84 110
65 83 109
66 86 113
69 88 117
63 82 108
66 84 109
64 82 108
64 82 109
64 82 110
66 84 111
62 81 103
63 80 105
63 81 104
65 83 108
60 77 100
68 87 115
65 82 106
66 84 110
63 81 106
61 77 101
71 90 119
66 83 109
65 83 110
64 81 107
65 82 108
66 84 111
63 79 104
49 56 67
40 43 45
35 37 39
35 37 38
38 40 42
35 37 37
37 38 39
36 37 38
33 34 35
35 36 37
34 36 36
36 37 39
36 37 39
38 40 42
35 37 37
35 36 38
35 37 38
33 35 35
38 40 41
33 34 34
38 39 40
37 39 39
36 38 39
34 36 37
35 36 37
38 40 40
37 38 39
36 38 39
35 37 38
34 35 36
35 37 39
35 36 37
39 40 42
39 41 42
34 35 36
37 39 41
39 40 41
35 37 38
39 41 42
37 38 40
37 39 40
36 37 38
34 35 36
34 36 38
33 34 35
35 36 36
33 33 34
38 40 43
40 42 43
34 36 36
33 34 33
37 38 39
38 40 41
36 37 38
34 36 37
34 35 36
35 36 37
32 34 34
36 36 37
33 34 35
37 39 40
35 37 38
35 36 37
33 35 36
36 38 39
35 36 37
39 40 42
38 40 43
35 36 38
38 40 41
35 37 36
39 41 43
38 39 41
36 37 38
34 35 36
37 39 40
33 35 36
35 37 38
35 37 38
34 36 38
38 40 42
38 40 42
33 35 37
36 37 39
36 38 40
33 36 38
31 32 34
31 34 36
29 30 33
39 46 55
65 84 113
65 83 108
62 79 104
64 81 107
63 83 108
62 79 105
62 78 101
64 81 108
61 80 106
27 36 58
0 3 22
0 3 20
0 4 24
0 3 22
0 3 24
0 3 22
0 4 26
1 5 33
1 5 35
1 5 37
1 6 37
1 6 41
1 5 34
1 6 40
1 7 44
1 6 43
1 7 46
1 6 43
1 7 46
1 6 40
1 7 45
1 7 44
1 5 38
1 7 45
11 19 56
65 84 110
64 82 112
66 86 113
67 87 116
66 84 112
64 82 110
61 78 104
65 84 112
68 87 116
64 82 111
65 85 113
61 79 106
65 84 112
64 82 109
62 81 108
67 86 116
58 77 102
60 77 103
60 78 103
51 72 91
9 54 23
10 59 25
9 53 22
11 63 27
11 67 29
11 66 28
12 71 31
12 68 30
12 69 29
12 70 31
12 73 32
12 70 31
13 77 34
14 85 37
13 76 34
13 76 33
14 84 37
15 87 38
13 76 34
13 79 35
14 81 36
13 80 36
14 81 36
14 83 37
14 82 37
14 80 36
15 76 39
57 73 103
57 72 102
60 76 106
58 75 104
55 69 95
56 71 100
52 65 93
53 66 94
47 58 89
49 60 87
46 55 81
44 54 79
11 28 53
11 27 52
11 27 51
10 26 49
11 27 50
11 28 54
10 26 49
11 27 50
11 26 51
10 26 50
10 24 46
11 26 50
10 25 47
10 25 48
9 23 43
11 27 51
59 79 108
68 90 120
67 89 117
67 87 117
67 88 116
67 88 116
68 91 121
68 91 122
66 87 116
66 88 117
66 87 115
67 88 115
66 86 116
70 90 119
67 88 118
68 90 121
70 92 122
65 86 114
65 86 115
68 89 119
68 90 119
67 88 117
65 85 114
68 89 120
67 88 118
67 88 117
67 88 116
64 85 112
70 92 124
65 86 115
71 90 120
66 88 115
65 86 115
67 87 116
62 82 109
67 89 118
71 92 123
66 86 115
68 89 119
67 88 116
60 79 104
68 89 119
70 91 121
61 81 108
61 81 107
62 82 109
59 77 101
61 79 104
61 79 105
60 78 103
57 74 98
61 79 102
56 73 96
54 72 94
57 76 101
52 67 89
50 64 84
50 65 85
42 56 71
46 60 77
42 54 67
34 45 55
28 37 44
28 36 44
26 34 42
21 27 33
18 24 28
14 18 21
15 19 22
16 20 24
13 17 20
20 24 28
16 21 25
21 27 33
23 31 37
31 40 48
31 41 51
35 46 57
45 60 77
39 53 65
48 63 82
52 68 88
38 60 65
7 39 13
7 42 14
7 41 13
8 44 15
8 42 14
8 44 14
8 44 14
8 43 14
7 42 14
7 41 14
7 39 13
7 40 13
7 39 13
7 40 13
7 40 13
7 39 13
7 38 12
7 40 12
12 41 19
39 64 67
77 105 133
83 116 151
81 115 153
79 113 153
76 111 153
74 110 153
72 109 153
72 108 153
72 108 153
71 108 153
72 108 153
72 109 153
72 107 149
71 103 142
73 101 133
73 102 131
60 97 90
51 116 38
54 141 11
59 152 12
56 147 12
56 145 12
56 145 12
54 139 11
54 141 11
56 145 11
51 133 10
55 143 11
49 129 10
48 124 10
45 106 19
59 92 80
69 88 111
64 83 109
63 85 107
62 81 107
65 85 111
72 93 118
62 84 107
63 83 109
67 87 115
65 85 113
65 83 111
66 85 114
66 85 113
62 82 107
66 86 113
68 88 118
67 87 116
66 85 113
67 87 116
68 86 114
66 86 114
66 87 117
67 86 115
70 89 118
69 88 116
66 85 111
69 88 117
66 85 112
65 83 108
64 82 108
68 88 116
69 88 115
68 87 117
68 88 118
68 86 113
64 83 110
70 90 119
65 82 107
64 82 107
65 85 113
68 88 117
63 82 108
65 83 106
63 81 105
65 82 107
67 86 114
65 83 108
63 80 106
68 87 114
64 82 106
68 87 115
66 83 107
64 82 107
62 79 103
63 82 107
63 80 103
64 81 105
65 83 107
62 78 103
64 81 104
64 80 104
60 75 98
63 79 103
61 76 100
57 72 94
62 78 101
48 57 67
37 39 41
36 37 39
34 35 36
35 36 37
35 36 37
35 36 37
34 36 36
35 36 37
33 33 34
33 33 33
37 38 39
36 37 38
32 34 34
38 40 41
36 37 39
37 39 40
34 35 36
35 37 38
39 41 43
38 40 41
39 42 43
39 41 43
33 35 35
34 34 35
37 39 40
34 36 37
36 37 39
38 40 42
35 36 37
32 33 34
37 38 40
37 39 40
32 33 33
36 37 39
36 38 40
38 40 42
34 35 36
36 37 39
34 36 38
34 35 35
35 37 38
37 39 40
31 31 30
33 35 36
35 36 37
36 37 38
40 42 44
34 35 35
38 39 40
36 37 38
32 33 34
32 33 33
34 35 36
34 35 36
33 34 35
35 37 38
34 35 35
35 37 38
36 37 38
34 35 36
33 35 36
34 35 35
36 38 38
34 36 37
31 32 32
39 40 41
35 36 37
34 35 37
36 37 39
36 37 38
35 36 39
36 38 39
34 36 37
35 36 38
32 34 36
36 38 39
36 37 38
35 36 38
36 38 40
34 35 37
36 38 40
32 34 36
31 33 34
29 30 31
32 33 35
25 27 30
49 59 74
62 80 105
59 76 101
62 79 104
64 83 110
64 83 109
62 79 104
64 82 109
61 79 103
63 82 109
66 84 111
44 57 80
0 4 25
0 3 19
0 3 24
0 3 20
0 3 23
0 3 23
1 4 30
1 4 28
1 4 31
1 5 33
1 5 35
1 5 36
1 6 39
1 6 40
1 6 41
1 7 44
1 6 44
1 6 43
1 6 42
1 6 43
1 6 39
1 6 43
1 6 39
1 7 48
29 40 72
62 79 103
63 81 108
69 88 116
63 81 106
66 85 113
61 78 104
68 88 118
66 85 114
66 86 112
65 84 113
64 82 109
63 81 108
60 78 105
66 85 113
60 77 105
69 88 118
61 79 104
60 78 104
59 77 104
39 65 70
9 54 24
10 59 25
10 62 25
10 57 24
11 67 29
10 60 26
11 62 27
11 66 28
11 68 30
13 75 32
13 79 34
12 71 31
13 78 34
13 77 34
13 77 33
13 78 35
14 83 37
13 79 35
13 80 36
14 83 37
13 77 35
13 78 35
15 87 39
13 79 36
12 73 34
13 79 35
13 79 36
56 76 101
58 75 104
64 82 113
58 74 103
59 75 104
59 74 103
60 77 106
60 76 105
60 76 106
59 74 104
56 70 99
54 66 97
10 25 49
11 27 52
10 24 47
11 28 54
11 27 53
10 24 46
10 25 48
10 26 49
10 26 49
10 25 47
9 23 45
10 25 48
10 25 47
10 24 47
10 25 46
9 22 42
63 84 114
70 91 122
66 88 118
66 87 116
68 88 118
68 89 120
67 88 117
67 87 114
70 91 121
71 92 122
64 84 113
67 88 118
69 90 120
69 91 120
67 88 117
68 90 119
66 87 115
70 92 123
64 86 114
68 89 118
69 90 121
67 88 116
67 89 119
68 89 119
68 89 120
65 86 113
69 91 120
66 86 114
68 90 120
67 88 117
69 90 120
70 90 120
67 89 117
66 87 116
66 86 113
65 85 114
62 81 108
67 87 116
62 82 107
62 82 110
65 84 112
63 82 109
65 85 117
65 85 112
63 83 110
59 78 103
61 80 106
65 84 110
59 78 104
61 80 107
58 75 99
61 79 105
61 80 104
58 76 100
55 72 94
51 67 88
56 73 97
54 71 91
46 60 77
45 58 73
48 63 79
45 58 74
46 60 75
42 55 70
37 48 61
38 50 63
32 43 52
31 41 50
34 45 56
38 50 63
34 46 57
28 38 45
39 51 65
44 57 73
48 63 81
39 52 67
46 60 77
48 65 85
50 65 83
48 63 84
52 69 90
49 64 81
26 54 45
7 39 13
7 41 14
7 41 13
8 42 14
7 41 13
7 39 13
8 42 13
8 42 14
8 42 14
7 41 13
8 43 14
7 41 13
6 36 12
7 38 12
6 35 11
6 37 12
6 37 12
9 38 15
37 58 64
72 98 125
83 114 147
82 115 153
78 112 153
75 111 153
75 110 153
73 109 153
72 108 153
71 108 153
70 107 153
70 107 153
71 108 153
72 108 153
71 106 148
70 105 145
70 101 135
71 99 130
61 92 101
47 91 50
53 139 13
54 141 11
57 149 12
55 142 11
54 141 11
54 140 11
54 139 11
54 138 11
55 141 11
48 123 9
47 123 9
44 112 9
48 122 9
54 119 32
67 91 102
62 81 106
67 86 114
58 76 100
66 85 112
67 86 112
64 85 107
64 84 109
65 84 111
67 85 112
66 85 111
62 80 106
69 89 120
69 89 119
66 85 111
66 85 113
63 82 109
69 87 116
69 88 116
65 85 112
68 87 115
63 82 111
64 81 107
67 85 112
68 87 116
68 88 117
68 88 115
68 86 112
66 85 112
66 83 108
61 78 102
66 84 110
64 83 110
63 80 107
63 80 104
66 85 111
67 85 111
64 82 108
65 82 107
65 84 111
66 85 111
63 81 107
65 84 111
67 86 113
62 78 103
64 80 103
66 83 108
65 83 109
64 82 108
66 84 109
69 86 111
67 85 111
67 84 109
64 82 108
62 78 101
64 82 108
64 80 102
66 84 109
62 78 100
60 76 101
63 78 100
64 81 105
67 85 111
62 78 101
65 83 109
58 74 96
63 79 103
53 65 81
39 42 45
33 34 34
35 36 37
35 36 37
33 35 35
34 36 36
31 33 34
33 34 34
34 34 35
33 34 35
32 33 32
33 33 33
32 33 34
36 36 37
31 32 33
30 30 31
39 41 42
35 37 38
35 36 37
34 35 36
34 36 36
33 34 35
36 36 37
35 37 38
32 33 33
33 34 35
34 35 36
34 35 35
35 36 37
35 36 37
38 39 40
32 33 33
33 34 35
37 39 40
37 38 39
33 35 36
28 29 29
35 37 38
34 36 37
36 38 40
34 35 37
36 37 38
37 38 39
35 36 36
33 34 35
35 37 37
35 37 38
34 35 36
30 31 31
34 35 35
33 34 36
32 33 34
35 38 39
33 34 35
36 37 38
33 34 34
32 33 34
32 33 33
34 36 36
33 34 35
32 33 33
34 35 37
35 37 39
29 29 29
35 36 37
34 35 37
31 32 32
33 35 35
36 37 39
39 41 42
37 39 40
31 31 32
36 37 39
31 32 33
36 37 38
34 35 37
34 35 37
33 34 36
31 33 35
32 33 35
34 35 37
28 29 30
31 32 34
32 34 37
51 63 82
62 80 105
59 76 99
63 80 105
56 72 96
62 79 104
63 79 102
64 81 106
61 78 104
61 78 104
65 84 110
62 81 107
63 81 106
10 15 35
0 3 24
0 3 19
0 3 22
0 3 23
0 4 26
0 4 27
0 4 26
1 5 31
1 4 30
1 4 30
1 5 35
1 5 34
1 6 39
1 5 36
1 6 40
1 6 41
1 6 40
1 6 37
1 6 40
1 6 42
1 6 43
1 6 41
1 6 42
47 61 89
66 85 115
67 86 116
66 86 116
65 83 111
68 89 119
63 83 113
67 87 117
67 87 114
64 83 114
65 83 111
65 85 115
65 84 111
62 80 108
61 79 105
68 88 119
64 83 113
66 85 114
65 85 114
64 82 110
39 62 70
8 50 22
8 50 21
9 54 23
9 55 23
11 63 27
10 59 25
11 64 27
11 68 30
12 70 30
11 66 29
12 74 32
12 72 32
13 76 33
12 69 30
13 77 34
12 69 31
12 74 33
13 78 34
13 78 34
12 73 33
14 80 36
13 81 36
12 73 34
12 73 33
12 74 34
13 77 35
13 76 34
55 81 100
65 84 114
64 81 112
60 78 106
65 82 112
65 83 115
60 76 107
59 77 106
62 79 110
61 77 107
59 74 104
63 80 113
11 28 53
11 28 54
9 22 42
10 25 47
10 26 48
10 24 47
10 26 50
10 26 50
10 25 48
11 28 52
10 24 47
10 26 49
10 25 48
8 20 40
10 26 48
9 22 41
62 82 109
63 85 113
69 90 119
67 89 117
69 90 118
65 85 115
70 91 121
65 86 115
69 90 121
70 92 125
65 85 112
69 90 122
67 89 118
66 88 116
67 88 118
62 82 109
69 89 118
69 89 119
70 90 121
69 89 119
70 92 123
69 89 118
66 87 117
66 86 114
66 86 114
67 87 116
67 88 118
69 90 119
65 86 116
68 88 117
70 89 118
66 86 114
68 89 119
66 88 117
68 89 119
62 82 110
69 88 118
69 89 117
67 89 120
62 82 110
68 89 120
67 87 116
67 87 116
64 84 111
65 85 114
64 84 112
69 89 119
65 86 113
62 81 106
59 77 101
62 81 107
68 88 117
62 81 108
56 73 95
52 69 89
59 77 102
54 72 93
61 78 104
55 72 94
60 79 104
56 73 95
62 81 106
46 62 80
55 72 94
51 67 86
56 73 96
50 67 86
51 66 85
53 70 91
52 69 89
53 70 93
51 67 88
55 72 93
54 72 94
55 72 94
55 72 94
50 67 87
50 66 86
54 72 93
57 75 98
57 76 100
59 78 106
21 49 37
7 41 13
7 41 13
7 37 12
8 42 14
7 42 14
7 42 13
7 39 12
7 39 13
7 39 13
7 38 12
7 39 13
7 40 13
6 36 12
6 34 11
6 36 12
6 37 11
6 33 10
32 58 55
67 92 116
82 112 144
85 117 153
80 114 153
79 113 153
75 111 153
73 109 153
73 109 153
71 108 153
71 108 153
70 107 153
70 108 153
71 108 153
71 108 153
71 106 148
69 102 141
69 98 132
69 97 127
64 87 109
61 91 96
48 120 23
57 148 12
54 139 11
55 142 11
54 140 11
56 142 11
51 132 10
53 138 11
57 145 11
52 136 11
51 131 10
47 119 9
48 122 9
48 123 9
56 106 55
63 84 104
64 84 108
62 81 109
65 84 111
63 81 108
70 91 119
66 86 112
65 84 111
66 86 116
64 84 113
63 82 108
69 88 117
69 88 117
67 87 115
68 87 116
68 88 117
63 80 105
68 86 115
67 86 114
67 86 114
67 87 115
66 85 113
67 86 114
66 84 111
66 85 114
69 88 116
65 84 109
64 82 108
72 93 124
69 87 115
66 84 108
65 83 110
66 84 111
68 87 115
63 81 107
64 82 107
63 81 107
64 80 104
62 78 102
65 83 109
66 82 108
65 83 108
67 85 110
64 81 107
64 81 104
68 85 111
65 84 111
65 81 105
67 85 111
64 81 105
66 84 108
65 83 109
67 84 109
62 78 100
60 75 97
63 79 103
60 77 99
62 78 102
62 79 103
61 78 102
64 79 103
61 77 99
63 80 104
60 73 95
62 79 102
59 75 93
60 77 99
58 70 88
41 44 48
32 33 34
33 34 35
31 32 33
33 34 34
33 34 35
32 33 35
32 33 33
31 31 32
30 30 30
33 34 33
31 32 32
35 35 36
33 34 34
33 33 32
36 38 39
34 36 35
33 34 35
33 34 35
33 34 34
35 36 38
35 36 38
33 34 35
33 34 35
35 35 36
34 36 36
33 33 34
36 37 38
38 40 41
33 34 34
32 34 35
35 36 37
34 35 37
34 34 35
33 34 34
34 35 36
35 36 36
28 29 29
33 34 36
37 39 40
32 33 34
34 36 36
33 33 34
32 34 35
30 31 31
35 36 37
34 36 37
32 33 33
31 32 33
33 35 34
32 34 35
34 35 37
34 34 34
32 33 33
32 33 34
37 39 40
36 38 38
35 36 36
34 35 36
33 34 35
35 36 38
35 36 36
34 35 36
30 30 29
35 37 38
32 33 34
34 35 36
36 38 40
33 35 35
30 31 32
33 34 35
36 38 39
29 29 29
33 34 36
35 37 39
31 32 33
35 36 37
34 35 36
32 34 35
35 36 38
27 28 30
40 46 55
54 67 85
58 75 99
62 79 103
57 71 91
62 79 103
60 76 98
62 80 107
62 79 105
58 75 100
61 78 103
57 73 95
61 79 105
58 76 100
62 80 109
30 39 59
0 3 20
0 2 15
0 3 22
0 3 21
0 3 24
0 4 24
0 4 25
0 4 27
1 4 30
1 5 32
1 5 35
1 5 36
1 5 35
1 5 35
1 5 33
1 6 38
1 5 36
1 6 41
1 5 36
1 6 40
1 5 35
1 6 36
8 15 47
68 88 117
66 85 111
64 84 112
67 86 114
66 85 115
66 85 114
67 86 114
62 81 106
63 82 108
65 86 116
68 89 118
63 82 111
66 87 118
67 88 117
63 82 112
61 79 106
64 83 112
64 82 111
67 86 115
66 85 113
41 66 72
7 41 18
8 50 21
8 47 20
9 56 23
10 61 26
10 59 25
10 59 25
10 59 25
11 68 29
11 67 29
12 69 30
12 72 31
11 68 30
12 70 30
12 72 32
13 74 33
13 76 34
13 75 33
12 75 33
12 73 33
13 75 33
13 78 35
12 72 33
13 77 35
12 75 34
12 75 33
12 73 33
52 79 93
63 82 112
63 82 111
60 77 104
66 86 115
70 90 122
63 80 111
66 85 114
65 84 114
65 83 112
63 81 111
61 79 107
10 25 47
10 26 48
11 26 48
10 25 48
9 24 45
10 24 45
9 24 45
10 25 47
10 25 47
9 23 43
10 24 46
10 25 47
9 22 41
8 21 40
8 21 40
17 30 50
66 88 116
69 91 121
60 82 109
65 86 115
64 85 112
69 91 122
69 91 121
68 90 119
70 91 122
68 89 120
68 89 120
64 85 114
68 90 120
65 86 114
67 88 117
68 88 117
68 88 117
69 91 121
66 87 116
65 84 112
70 91 123
63 84 113
67 87 115
70 92 124
65 85 113
69 89 118
69 90 120
68 89 118
70 91 121
65 85 112
65 85 113
64 86 113
67 88 117
66 87 117
70 92 121
66 86 114
67 88 117
63 83 109
70 90 121
70 90 120
68 90 120
63 85 112
69 91 122
69 89 118
69 90 119
70 90 121
68 88 117
67 87 115
63 82 108
66 85 113
63 82 109
65 83 111
63 82 108
66 87 115
64 83 110
66 86 113
63 82 110
59 77 100
58 76 101
62 82 110
62 81 107
59 78 104
63 82 107
59 76 100
54 72 93
60 79 104
60 79 105
63 82 109
61 80 105
61 81 107
63 82 108
60 79 103
58 78 103
64 84 112
60 80 106
57 75 100
61 80 107
59 78 104
65 84 112
61 80 105
62 82 110
61 80 105
14 44 24
7 38 12
7 38 12
6 36 12
7 38 13
6 34 11
7 38 12
7 40 13
7 38 12
7 38 12
7 37 12
7 36 12
6 35 12
6 34 11
6 34 11
6 34 11
5 32 10
14 38 25
54 75 92
78 107 137
84 116 151
85 117 153
80 114 153
78 112 153
75 111 153
75 110 153
74 110 153
73 109 153
71 108 153
71 108 153
71 108 153
72 109 153
72 109 153
73 109 153
72 105 144
70 100 135
69 97 128
64 86 110
55 81 83
44 89 40
55 140 11
53 138 11
54 139 11
53 137 11
53 135 10
54 137 11
51 133 11
53 135 10
51 132 10
47 119 9
49 127 10
47 123 9
45 117 9
47 116 15
65 93 100
62 81 106
63 82 108
64 83 109
64 82 110
66 85 114
63 83 108
68 86 113
67 87 113
69 88 116
65 84 111
65 83 110
66 85 112
70 89 118
66 85 112
67 86 114
65 83 111
66 84 109
66 85 112
64 83 110
66 85 113
67 85 113
65 85 112
65 83 108
64 82 107
65 82 108
64 83 109
63 80 105
65 84 111
64 82 109
64 83 109
68 87 116
68 86 111
67 85 112
62 79 104
64 82 106
66 83 110
66 85 111
67 85 111
61 77 101
65 83 110
63 81 105
61 76 100
64 80 104
64 83 110
64 81 105
67 85 111
64 80 104
66 83 107
62 80 104
60 76 99
63 80 105
62 79 102
62 78 102
62 78 103
56 73 95
58 75 98
59 73 94
60 75 96
62 78 101
61 77 99
60 75 96
59 74 95
52 66 84
58 72 91
59 74 94
56 70 89
59 74 94
53 66 84
47 53 64
33 34 34
32 32 33
29 29 30
31 32 32
31 32 32
27 27 27
31 32 32
28 28 27
32 32 32
35 35 35
26 26 25
34 35 35
31 31 31
33 35 36
33 34 35
30 31 31
30 30 29
31 31 32
33 34 35
33 34 34
34 35 35
33 33 34
30 31 32
33 34 36
33 35 35
34 35 36
30 31 31
32 33 32
29 30 30
34 35 36
30 30 30
37 38 40
33 34 35
32 32 32
32 34 35
31 32 32
30 31 31
31 32 33
31 31 31
33 34 36
29 30 30
34 35 35
34 34 35
33 34 34
36 37 38
31 32 32
35 36 37
32 33 33
32 32 31
32 33 34
31 32 33
30 31 32
32 33 33
31 32 32
30 30 30
29 30 29
36 36 38
30 31 32
30 30 29
35 36 36
31 32 33
32 33 34
37 38 39
30 30 30
35 37 39
32 33 34
30 30 30
35 37 38
33 34 35
32 33 34
29 31 32
32 32 32
32 33 34
32 34 35
32 34 33
29 30 27
32 34 31
32 34 32
40 46 48
52 65 80
60 76 98
56 70 91
61 77 101
60 75 97
61 77 102
57 74 97
59 75 99
63 80 105
60 77 101
58 73 96
57 73 97
59 74 97
59 75 98
62 80 107
52 67 89
11 16 35
0 3 20
0 3 23
0 4 25
0 3 24
0 4 25
0 4 28
0 4 28
1 5 37
1 4 31
1 5 35
1 5 37
1 6 38
1 5 36
1 6 39
1 5 34
1 5 35
1 5 34
1 5 35
1 5 33
1 5 34
1 5 34
44 59 89
62 79 107
64 83 110
65 84 111
66 85 116
63 81 111
64 82 107
65 83 111
67 86 116
66 85 113
67 86 114
67 85 114
70 90 120
66 84 113
66 85 113
64 82 110
70 91 121
66 84 112
65 86 115
66 86 116
68 87 115
43 69 77
8 48 21
8 48 20
8 46 19
9 54 23
9 57 24
10 58 24
11 64 28
10 59 25
10 63 27
12 69 30
11 68 30
12 73 31
12 69 30
12 72 32
11 64 28
11 68 30
11 69 31
13 77 34
13 77 34
12 74 33
12 72 33
12 70 32
11 69 31
11 68 30
13 76 35
12 70 30
13 75 33
55 77 95
67 87 118
65 84 114
64 82 110
69 89 120
70 90 120
63 81 110
64 84 113
65 84 116
69 88 117
63 82 112
64 83 114
10 26 49
10 24 47
10 24 46
10 25 49
10 24 47
9 23 43
9 23 43
9 23 42
9 22 41
10 24 46
10 24 46
9 23 43
8 21 39
8 20 39
8 21 41
28 45 66
68 90 122
65 86 112
62 84 111
66 87 115
67 89 117
67 90 120
64 85 114
65 87 115
68 89 119
67 88 119
67 88 116
66 87 117
63 84 111
66 87 115
64 84 111
66 88 119
64 83 110
65 86 114
69 91 120
69 91 122
67 89 116
67 88 118
69 90 120
68 88 119
68 89 119
68 89 119
69 90 119
69 90 120
66 87 117
68 90 119
67 88 118
63 84 111
68 89 117
64 84 112
67 87 115
67 88 117
68 88 117
70 92 122
66 85 113
70 92 123
69 90 120
66 86 114
69 91 122
69 90 120
65 86 115
66 86 113
66 87 115
65 84 111
63 82 109
66 86 114
63 83 110
65 87 115
62 81 107
65 85 115
63 82 109
67 87 116
63 83 111
64 83 109
69 90 120
66 85 112
62 81 108
63 83 111
64 83 110
64 85 113
63 83 110
64 84 112
60 80 107
58 77 102
62 81 108
66 87 115
63 82 109
64 84 113
63 83 111
63 83 108
62 81 107
64 84 112
67 87 116
65 85 114
63 82 108
66 86 115
67 87 118
65 85 113
13 43 22
7 38 12
8 41 13
7 39 13
7 38 12
7 40 13
7 39 13
6 36 11
7 39 13
6 36 11
6 35 12
7 38 12
6 34 11
6 35 11
6 33 10
5 31 10
6 31 11
36 56 62
71 97 122
82 112 144
87 118 152
83 116 153
81 114 153
79 113 153
76 111 153
76 111 153
75 110 153
74 110 153
73 109 153
73 109 153
73 110 153
73 110 153
74 110 153
75 110 153
73 108 149
73 103 139
68 91 116
62 85 109
57 79 93
49 79 65
49 123 14
54 138 11
52 134 10
54 142 11
54 137 11
51 131 10
52 135 11
51 128 10
52 134 10
47 122 9
49 126 10
48 123 9
45 112 8
44 114 9
51 93 53
67 88 114
64 83 110
62 82 109
55 71 93
63 82 109
53 74 96
66 86 116
63 82 108
65 83 109
66 85 112
67 86 114
65 82 110
70 91 122
65 84 112
65 83 108
68 87 116
67 86 113
67 86 115
67 85 111
66 85 112
64 83 109
59 76 99
68 85 110
64 81 107
68 87 114
65 83 109
64 82 107
66 84 111
63 81 107
63 81 106
64 81 104
65 83 108
65 83 109
62 78 101
65 83 107
69 88 116
66 85 112
62 78 102
67 84 111
66 84 108
64 81 104
55 70 90
63 80 106
63 79 102
61 79 103
62 78 102
65 83 109
63 79 103
60 76 100
63 80 103
60 75 98
64 80 102
63 81 107
61 77 101
61 75 96
57 72 94
61 77 100
63 81 105
56 69 89
57 72 92
62 78 100
54 70 86
58 71 90
60 76 99
63 78 101
59 74 95
59 74 95
58 73 93
55 66 84
49 59 72
39 41 43
27 27 28
28 28 28
30 30 31
29 29 29
28 27 27
30 31 31
27 28 28
32 32 32
33 33 34
32 33 34
30 30 30
28 28 28
30 30 30
34 35 35
33 33 33
32 33 33
31 32 32
30 31 31
30 29 29
31 33 34
30 31 30
30 30 30
30 31 30
32 33 33
33 34 34
32 32 32
26 27 26
30 30 29
32 33 33
30 30 30
33 33 33
34 35 35
31 32 32
29 29 29
32 33 34
33 34 34
32 33 33
33 34 34
36 37 37
31 31 31
32 32 31
32 33 33
30 31 31
29 30 30
31 32 32
32 33 34
29 29 29
28 30 29
27 28 28
29 30 30
32 33 33
34 35 36
32 32 33
34 35 35
29 30 31
31 31 30
30 30 30
31 31 32
28 28 28
33 35 36
30 30 30
30 30 31
32 32 33
32 32 32
31 32 33
29 28 28
31 32 32
31 31 32
29 30 29
33 36 32
37 40 35
34 39 30
40 46 34
44 50 36
47 52 38
57 61 46
63 69 53
55 63 52
49 58 50
49 60 62
44 57 67
54 68 89
58 74 98
57 71 91
56 71 93
55 72 96
54 70 94
56 72 94
60 76 98
56 72 96
61 77 102
61 78 105
52 67 90
44 55 76
2 4 20
0 3 18
0 3 21
0 3 24
0 3 24
0 4 27
0 4 27
1 5 33
0 4 25
1 5 32
1 5 32
0 4 30
0 4 30
1 4 30
1 5 35
1 5 32
1 5 32
1 5 34
0 5 32
1 5 34
31 42 67
65 83 111
61 78 103
62 80 108
65 83 112
66 85 115
63 81 108
61 80 106
66 85 113
67 86 115
61 80 105
64 83 108
65 86 116
67 88 116
67 86 115
67 86 116
63 81 108
65 85 115
65 85 113
61 80 106
68 87 116
67 86 114
54 76 94
7 43 19
7 43 17
8 49 21
8 51 22
9 55 24
9 54 23
8 50 21
10 62 26
10 61 26
10 61 26
11 66 29
11 67 29
13 74 33
11 69 30
10 62 27
11 65 29
11 66 29
11 68 30
12 72 32
12 69 31
13 75 33
11 67 31
11 68 30
12 70 31
10 63 29
12 72 32
11 63 29
68 91 119
64 83 113
68 88 120
66 85 117
65 84 113
66 87 119
69 89 121
67 86 118
68 88 118
66 84 116
67 86 117
67 87 118
10 26 49
9 23 43
9 23 44
9 23 43
8 21 40
8 21 41
10 24 45
10 25 49
9 22 43
8 21 40
10 24 46
9 22 41
9 22 42
7 19 34
8 19 37
48 67 91
62 83 110
63 84 112
66 88 116
63 85 113
66 87 116
66 88 116
66 88 117
66 87 117
64 86 113
64 85 113
65 87 116
68 89 118
67 89 119
65 87 115
66 87 117
66 87 116
66 85 113
69 91 122
68 89 120
67 88 117
68 88 118
68 88 118
66 87 117
71 92 123
69 89 119
70 91 120
69 90 119
68 91 121
67 86 115
69 91 122
68 90 119
66 87 117
68 88 117
68 89 119
71 93 123
69 91 122
68 88 118
67 88 117
69 90 121
68 89 119
68 90 121
68 89 120
67 87 117
68 88 117
69 89 119
67 87 115
69 89 118
69 89 118
66 88 116
66 86 114
69 89 118
65 86 115
66 85 113
64 84 113
67 86 114
68 89 118
66 84 111
68 89 120
66 86 115
66 85 113
62 82 109
67 87 115
68 88 118
66 86 114
63 83 109
65 85 115
64 84 111
65 86 114
67 88 116
68 89 118
66 86 114
69 90 119
67 87 117
67 87 117
69 89 119
62 81 105
66 86 114
66 85 113
67 87 116
68 89 119
64 84 112
64 85 114
17 46 31
7 37 12
7 37 12
7 37 12
6 36 12
6 35 11
6 35 11
6 34 11
6 32 10
6 35 11
6 33 11
5 30 10
6 33 11
6 33 10
5 30 9
5 30 9
15 38 26
55 77 95
71 96 122
83 112 145
86 116 150
85 117 153
83 116 153
80 114 153
79 113 153
77 112 153
77 112 153
76 111 153
75 111 153
75 111 153
75 110 153
76 111 153
76 111 153
77 111 152
77 111 150
75 107 143
70 96 124
62 84 105
59 79 96
47 65 68
43 107 16
50 130 10
51 132 11
50 128 10
49 124 10
51 127 10
46 118 9
47 122 10
47 120 9
46 118 9
48 122 9
45 115 9
46 115 9
44 111 8
45 106 20
60 82 99
44 58 74
17 26 24
47 65 83
47 67 81
47 75 89
68 87 115
69 89 118
65 84 108
66 85 113
65 84 111
66 85 112
65 83 110
60 77 102
64 82 108
65 81 106
63 81 105
67 86 115
61 78 102
62 78 101
65 84 110
66 84 110
64 82 109
65 83 109
63 80 105
64 82 108
63 79 104
62 78 102
64 82 108
65 83 110
68 87 113
65 83 107
62 80 104
65 82 106
67 85 111
65 83 110
64 82 107
63 80 105
63 79 104
67 84 108
62 79 103
59 75 97
61 77 99
61 78 101
63 80 103
62 77 100
57 71 90
62 78 101
62 79 103
60 75 97
61 76 98
64 82 108
60 76 100
58 73 94
63 79 102
60 75 97
60 76 98
56 71 92
58 73 95
58 73 94
55 68 86
60 75 96
59 75 96
57 71 90
61 75 96
57 71 90
55 69 87
55 67 82
58 73 93
53 64 82
54 65 81
39 44 51
32 33 34
31 32 31
31 32 32
28 29 29
27 27 27
32 32 32
28 28 28
25 25 25
28 29 28
31 32 32
29 29 29
26 27 27
26 25 24
28 29 29
27 28 28
28 29 30
29 29 29
28 29 30
31 30 31
31 32 32
31 32 32
33 34 35
32 33 34
29 30 31
30 30 30
32 32 32
32 33 33
32 33 33
26 26 26
26 27 27
30 31 31
31 32 32
31 32 32
34 35 35
32 33 33
26 27 26
28 29 28
29 29 29
25 25 25
30 30 30
33 33 34
31 31 30
26 26 26
30 30 29
30 31 31
29 29 30
28 28 28
32 34 34
30 30 29
30 30 30
34 34 34
29 30 30
30 29 29
32 33 35
28 29 29
32 33 34
29 30 30
29 30 30
29 29 29
30 31 32
30 31 32
34 35 36
30 30 31
32 32 33
25 26 26
31 32 31
30 31 27
34 38 24
47 54 32
43 47 32
56 65 43
78 85 59
90 98 68
91 100 72
94 105 75
91 103 74
90 103 76
93 105 76
84 95 67
70 82 59
65 77 66
70 87 99
59 75 95
52 65 85
55 70 93
50 64 86
54 68 90
57 73 98
52 66 87
54 68 89
52 66 87
52 67 91
56 73 96
35 45 65
2 5 21
0 3 19
0 3 21
0 3 25
0 3 25
0 4 26
0 3 23
0 3 21
0 4 26
1 5 32
1 5 32
1 5 34
1 5 31
1 4 32
0 4 31
1 5 33
0 3 26
1 5 34
19 27 51
60 77 104
58 75 102
63 80 107
62 80 108
65 85 114
63 81 109
60 77 105
63 81 109
66 85 115
62 81 106
63 81 107
64 85 112
68 89 120
66 85 113
62 80 107
63 82 110
64 82 109
65 86 115
61 80 106
69 88 117
63 81 109
68 87 116
62 82 107
9 43 22
8 51 22
7 42 17
9 52 22
9 51 22
9 55 23
9 57 25
10 57 24
10 59 25
10 59 26
10 63 28
10 60 26
10 62 27
11 64 28
11 63 28
11 67 29
12 72 31
12 73 32
12 69 31
12 72 32
12 69 30
11 66 29
10 62 27
11 69 30
11 64 29
11 68 30
18 67 41
67 88 118
69 89 119
63 81 109
66 86 117
61 80 108
69 89 121
65 84 116
68 88 118
65 84 115
67 87 117
67 88 119
66 84 115
11 32 45
9 22 43
9 23 43
8 21 40
9 23 44
9 23 43
8 21 40
8 21 39
9 22 43
8 20 39
8 20 38
7 19 36
8 20 37
7 18 35
17 30 48
60 81 108
67 88 117
63 85 113
65 86 115
64 85 114
59 80 106
64 84 111
61 81 107
68 89 119
64 85 112
63 83 112
63 83 110
63 83 109
67 88 117
67 88 118
67 88 114
65 85 113
66 87 117
65 86 115
69 89 119
68 89 120
68 89 120
65 86 114
68 89 119
66 87 116
67 89 118
68 88 118
65 85 113
67 88 116
67 87 114
65 86 115
69 91 122
66 86 115
71 92 123
67 88 117
66 87 116
68 89 117
68 89 119
66 86 115
71 92 122
70 90 121
69 89 117
67 88 118
69 90 120
62 81 107
68 89 118
64 85 112
68 89 119
70 91 123
67 88 118
71 90 119
66 86 115
66 86 114
70 91 122
68 88 117
66 87 117
65 86 115
67 88 118
68 88 118
70 91 121
69 90 119
70 91 122
68 89 119
67 89 118
65 85 113
68 89 119
65 86 116
67 88 118
69 90 120
67 89 120
67 87 116
68 87 116
65 85 113
64 83 109
66 86 114
68 88 117
67 87 116
70 91 121
68 89 119
66 87 114
69 90 120
69 89 118
66 86 116
15 41 26
6 35 11
6 35 11
7 38 12
6 37 12
6 34 11
6 35 11
6 34 11
6 33 11
6 34 11
6 33 11
6 34 11
6 32 10
5 31 10
6 33 10
5 31 10
20 39 36
63 85 108
68 94 119
81 109 140
83 114 148
85 117 153
85 117 152
82 115 153
82 115 153
80 114 153
79 113 153
79 113 153
79 113 153
79 113 153
78 113 153
78 113 153
79 113 153
80 114 153
80 114 152
80 110 144
75 102 132
64 86 110
63 81 97
46 67 64
42 89 26
49 126 10
49 127 10
49 126 10
48 124 9
48 123 10
50 130 10
46 121 9
49 123 9
48 123 9
44 112 9
47 116 9
43 111 9
45 114 9
41 102 9
55 75 79
24 30 30
14 24 13
50 79 92
125 153 183
85 110 133
68 88 117
63 81 106
63 82 108
64 82 107
67 84 110
63 81 104
66 85 112
67 85 110
62 79 103
64 83 108
65 84 110
66 84 111
65 86 113
63 81 106
66 84 110
65 84 111
67 86 113
64 82 107
64 81 104
63 79 102
62 78 99
59 76 98
64 82 109
65 83 109
63 82 107
61 76 98
59 76 100
65 81 105
61 77 100
65 81 104
64 81 106
61 76 100
63 79 102
60 77 101
62 78 102
58 73 94
58 73 93
60 76 98
62 77 99
59 74 97
63 79 103
58 74 96
63 78 102
60 75 97
60 76 96
57 71 94
55 68 85
55 69 89
59 75 96
63 79 103
60 75 97
60 73 93
54 69 86
55 68 85
58 73 91
60 74 94
54 67 86
53 65 81
55 67 84
53 65 83
54 66 83
55 69 89
53 64 82
56 69 87
50 62 78
52 62 78
42 49 59
32 32 34
29 29 28
27 27 26
25 24 24
31 32 31
27 27 26
30 31 30
26 25 25
30 30 30
27 27 27
24 24 23
31 31 31
26 26 26
25 25 25
30 30 30
25 25 24
32 32 32
28 29 28
31 31 32
27 27 27
31 31 31
24 24 24
29 30 29
25 25 24
29 29 29
27 27 27
30 30 30
28 28 29
31 32 32
31 31 32
30 30 30
27 28 28
31 31 31
27 27 27
31 32 32
29 30 30
29 30 30
28 28 28
27 28 28
30 30 30
27 27 27
29 29 29
34 35 36
30 30 30
26 26 26
29 29 30
30 31 31
29 29 29
28 29 29
28 29 29
29 29 28
27 27 28
30 31 31
26 26 25
27 28 28
28 28 27
29 30 30
28 28 28
29 30 30
26 26 26
28 28 29
28 29 29
26 26 26
27 27 25
28 31 22
34 39 22
38 43 25
63 69 47
87 93 65
93 103 73
91 105 77
85 103 80
89 112 91
88 115 96
95 126 108
101 136 119
108 147 131
114 152 133
121 161 141
124 160 136
120 151 129
91 114 108
54 68 86
47 59 79
53 66 84
50 62 80
53 66 88
49 62 86
49 61 81
41 52 69
49 63 84
49 62 85
49 64 89
36 46 66
2 5 23
0 3 21
0 3 21
0 3 24
0 3 21
0 4 25
0 3 23
0 3 22
0 4 29
0 4 26
0 4 27
0 4 29
0 4 28
0 4 31
0 3 25
0 3 25
19 27 53
55 73 100
56 73 100
57 74 101
62 80 109
60 78 104
58 76 103
59 78 106
64 82 111
63 83 112
60 77 104
62 81 106
64 83 111
63 81 109
65 84 112
64 83 112
61 81 107
66 85 114
62 80 107
63 82 109
65 84 113
66 86 117
66 85 112
61 79 103
62 79 106
26 54 50
6 40 17
7 45 19
8 48 20
8 49 21
9 52 22
9 51 21
10 60 26
8 50 22
9 57 25
10 59 25
10 61 26
11 64 28
12 69 30
10 62 27
12 70 30
11 67 30
12 70 31
10 60 26
10 62 27
12 69 31
11 68 30
11 68 29
10 61 27
10 63 29
10 61 28
34 74 65
67 87 118
67 87 117
64 84 112
68 89 121
67 86 116
67 87 118
68 87 120
66 86 118
71 91 121
68 87 118
64 84 114
68 89 120
20 98 49
14 60 45
9 25 43
8 20 40
9 23 44
8 20 37
8 20 39
8 21 40
7 17 34
7 18 35
7 18 33
7 18 34
8 20 38
7 18 35
45 64 88
61 82 108
67 89 118
60 81 105
64 85 112
55 75 98
61 81 106
64 85 113
64 84 111
62 83 109
66 87 113
67 87 117
66 87 115
66 86 113
66 88 116
68 90 119
64 85 113
65 86 115
66 87 116
65 86 114
67 88 118
68 90 121
67 87 117
67 87 118
66 86 115
66 86 115
67 88 117
68 90 119
68 89 118
68 89 118
70 89 119
68 88 119
67 87 117
70 90 121
66 87 116
69 89 119
68 87 117
69 91 121
69 90 120
70 91 121
70 90 120
68 89 121
68 90 119
68 88 118
67 87 117
70 91 122
67 88 117
70 91 121
69 90 120
65 85 115
65 85 112
64 83 110
68 88 118
69 89 119
68 89 119
66 87 116
68 88 115
71 91 120
67 88 117
66 86 115
65 86 114
66 86 115
69 90 122
67 87 115
66 86 114
68 88 117
70 92 123
69 89 120
65 84 113
66 85 113
68 88 117
68 87 114
67 89 118
69 90 121
69 90 119
70 90 119
69 90 122
70 89 118
67 88 119
70 90 121
68 88 118
68 89 117
68 89 118
66 86 114
25 50 43
6 32 10
5 31 10
7 37 12
7 38 12
6 33 11
6 32 10
6 32 10
6 31 10
5 30 10
5 31 10
5 31 10
5 29 9
5 30 10
4 25 8
6 27 10
35 54 62
71 97 122
75 101 131
73 99 129
80 110 139
84 116 147
83 114 149
86 118 153
84 117 153
84 116 153
83 116 153
82 115 153
81 115 153
82 115 153
82 115 153
80 114 153
83 116 153
83 116 153
83 116 153
83 113 146
79 106 135
71 95 118
57 75 91
56 76 84
40 78 30
49 127 10
50 126 10
48 124 10
46 119 9
48 123 9
49 127 10
49 126 10
46 119 9
44 112 8
48 124 9
43 108 8
44 114 9
38 97 7
38 96 7
47 61 48
26 33 26
24 40 23
136 161 189
152 178 217
79 98 124
65 84 109
64 82 107
66 86 113
65 83 110
66 85 113
67 86 114
65 83 108
67 86 114
65 84 111
67 86 114
64 82 108
65 83 107
64 82 107
60 77 100
64 83 109
64 81 107
64 81 103
62 80 106
63 81 104
61 77 102
66 85 111
61 77 99
61 77 100
65 81 105
64 81 106
65 83 109
62 79 103
62 79 104
63 80 104
64 81 105
62 79 104
59 75 97
66 83 108
57 71 92
62 79 101
60 75 97
62 80 105
58 73 94
60 75 97
60 74 96
61 75 96
58 73 94
60 74 96
61 74 95
60 74 95
56 70 91
56 70 89
58 71 90
55 70 88
58 72 92
57 70 87
62 78 100
57 70 89
58 70 88
51 64 78
56 69 88
54 66 83
57 68 86
55 68 87
54 66 83
53 65 82
53 63 78
56 67 84
53 65 84
53 64 80
50 61 76
53 65 81
54 64 80
42 48 58
29 29 30
31 31 30
26 26 25
24 24 24
25 25 24
31 31 31
28 28 28
31 32 32
25 25 24
25 26 25
23 23 23
27 27 27
27 28 28
23 23 23
27 26 26
28 28 28
28 28 28
31 32 31
27 26 27
27 27 27
26 26 26
28 29 29
28 28 28
24 24 23
28 28 28
26 26 25
28 28 28
28 28 28
27 27 26
29 29 30
27 28 28
29 29 30
25 25 25
23 23 21
27 27 27
32 33 34
25 25 24
28 27 27
27 28 27
25 26 26
28 29 29
27 28 28
27 28 28
32 32 32
27 27 26
30 30 30
30 31 31
32 32 33
29 30 31
26 27 27
28 29 29
28 28 26
27 26 25
28 28 29
29 29 29
26 26 26
29 29 29
28 28 28
28 28 29
25 25 25
26 27 25
29 32 23
27 32 21
41 42 29
76 80 54
93 103 72
89 104 78
85 107 86
88 118 101
98 138 126
104 151 142
106 155 147
109 160 151
111 162 153
114 163 153
116 165 153
120 168 153
125 171 153
132 175 153
138 179 153
99 125 110
55 68 75
46 57 73
50 62 81
47 59 79
38 48 65
48 59 77
36 44 61
46 57 75
40 52 72
44 55 75
39 49 67
33 42 60
11 15 28
0 2 16
0 2 17
0 2 18
0 3 19
0 3 21
0 3 20
0 3 21
0 4 29
0 3 21
0 3 24
0 3 25
0 3 25
5 9 30
30 40 64
52 67 94
52 70 95
53 69 95
50 65 90
60 78 107
63 81 110
53 70 96
62 80 108
62 82 111
63 83 111
59 77 102
65 83 112
61 80 107
61 79 106
61 79 105
67 86 115
62 80 106
65 85 115
67 86 116
64 83 110
64 83 111
64 84 113
64 82 109
62 82 111
68 87 117
46 68 82
8 42 18
7 41 17
7 44 18
7 41 17
8 47 20
8 50 21
9 53 23
8 51 22
9 53 23
9 56 24
11 68 30
10 60 26
10 62 27
10 61 27
10 63 27
11 65 29
12 70 30
10 59 26
11 64 28
11 65 29
10 62 27
12 69 30
10 61 27
10 58 26
10 57 26
58 82 103
66 87 117
67 87 116
70 91 121
69 89 121
66 85 118
66 86 117
66 86 116
67 87 115
69 89 121
66 84 113
65 84 115
67 87 118
25 126 53
20 100 47
12 52 37
8 22 39
8 20 39
8 20 37
7 17 33
8 21 41
8 19 36
6 17 33
7 18 33
6 16 31
6 15 30
24 38 56
57 76 99
58 78 104
57 77 101
58 79 103
59 80 104
61 82 110
62 81 107
58 77 100
58 79 104
66 87 116
65 84 113
59 79 103
62 82 109
60 80 105
65 86 115
64 85 111
66 87 116
65 87 115
68 88 117
63 84 112
64 84 113
69 90 120
69 89 119
65 86 115
70 90 120
65 86 114
70 92 123
66 87 117
68 88 117
66 85 115
68 89 119
68 89 118
67 87 116
68 89 118
67 87 116
69 91 121
71 92 122
68 89 119
66 88 119
67 88 117
69 89 119
69 89 118
68 89 118
66 86 115
71 92 123
66 88 116
68 88 117
67 88 117
69 90 121
66 87 117
67 87 117
70 91 121
71 92 123
70 91 122
69 90 120
69 89 118
70 90 120
66 86 116
70 91 122
67 87 117
68 89 119
68 87 117
67 87 115
69 90 121
66 86 115
68 89 120
70 91 122
65 85 113
69 89 118
70 91 123
68 88 117
70 91 122
68 89 119
68 88 117
71 92 123
67 88 117
70 90 119
63 82 109
63 83 111
64 84 113
70 91 120
69 89 119
67 87 116
65 85 113
42 66 75
5 31 10
6 32 10
5 31 10
5 30 10
6 33 10
6 32 10
5 29 9
5 31 10
5 29 9
5 28 9
5 28 9
5 28 9
5 29 9
5 27 9
10 29 18
43 60 75
66 89 114
68 93 118
73 100 127
74 102 128
77 108 133
83 113 141
85 115 147
84 115 150
86 116 149
85 116 151
84 116 152
85 117 152
85 117 153
85 116 152
85 117 152
84 115 150
84 116 151
85 117 149
84 114 146
71 96 118
67 88 109
61 79 98
54 70 83
39 65 44
47 116 13
41 107 8
48 123 10
48 124 10
46 118 9
48 123 10
46 118 9
43 111 9
46 116 9
43 110 8
45 114 9
42 107 8
36 90 7
42 106 8
88 119 97
41 57 48
67 88 87
171 200 243
144 171 212
63 81 106
65 84 109
64 82 106
63 81 109
64 84 108
66 86 111
62 80 104
64 82 106
66 84 112
63 82 109
64 82 106
61 78 102
64 80 104
64 82 108
66 84 111
64 81 107
64 81 106
63 81 104
65 83 109
65 82 106
61 77 101
64 81 106
63 80 105
64 80 106
61 76 98
60 78 102
63 79 103
63 80 102
56 71 91
64 81 105
58 75 96
65 83 107
63 79 103
67 84 110
60 74 96
60 76 97
61 76 98
59 73 94
58 72 90
62 78 102
57 72 92
62 77 98
56 69 89
61 75 96
57 70 89
56 67 85
56 69 86
55 67 85
57 73 92
56 70 89
54 66 84
54 67 84
57 70 89
54 67 86
56 69 87
53 65 81
54 67 85
54 66 82
50 62 79
53 64 80
49 60 76
50 61 76
52 63 80
48 58 71
49 59 73
47 57 69
53 65 82
49 61 76
49 60 74
45 54 64
46 53 63
34 38 43
26 25 25
26 25 26
28 27 27
25 26 25
24 24 23
24 24 24
23 23 23
23 23 23
25 25 24
26 27 26
26 27 26
25 25 24
25 26 26
26 26 25
25 25 25
28 28 28
26 26 25
28 28 28
24 24 22
25 25 24
28 28 29
26 25 25
27 28 28
28 28 28
25 25 24
24 24 24
26 26 25
30 30 30
28 27 27
25 25 25
28 27 26
25 25 24
28 28 27
26 26 25
28 28 29
27 27 26
25 24 24
27 27 26
26 26 26
25 25 25
25 25 24
25 26 25
23 23 22
26 27 26
24 24 23
27 28 28
28 28 28
25 25 25
25 25 24
29 29 29
24 23 23
25 25 25
24 24 23
29 28 27
26 25 24
25 25 25
28 28 29
28 30 26
27 30 21
32 37 27
49 54 38
88 96 67
96 107 77
88 107 83
93 125 108
100 141 129
106 156 147
107 159 152
107 159 153
107 159 153
107 159 153
108 160 153
110 161 153
113 163 153
116 165 153
120 167 153
125 171 153
131 175 153
139 179 152
111 140 124
45 56 67
44 54 70
37 45 58
38 47 63
39 48 63
34 42 57
30 37 51
34 42 57
31 38 53
30 38 53
30 37 53
30 37 50
12 15 24
3 5 16
0 2 14
0 2 14
0 2 14
0 2 15
0 3 19
0 3 20
0 3 20
0 2 20
3 6 22
23 32 55
34 45 64
39 51 73
43 57 82
51 66 90
46 60 84
51 68 92
58 76 103
59 76 102
55 73 98
55 73 100
63 81 110
64 83 114
56 73 101
59 78 103
52 68 96
63 81 108
65 84 113
64 82 109
60 78 106
64 83 112
62 81 110
62 80 109
60 78 106
62 80 107
62 80 107
61 79 105
62 81 110
64 83 108
15 43 30
7 41 17
7 41 18
8 47 20
7 41 17
8 51 21
9 53 23
9 53 23
8 51 22
8 51 22
9 53 22
9 54 23
9 56 24
9 57 25
11 65 28
9 57 24
10 63 28
10 60 26
9 55 24
10 61 27
9 55 24
9 56 25
9 53 24
10 60 26
33 66 63
67 87 117
66 86 116
67 88 118
65 85 116
65 84 115
68 89 119
69 89 120
64 84 113
64 82 112
66 85 114
63 83 114
70 89 121
64 84 112
24 120 50
24 121 50
24 117 50
13 56 39
8 20 35
7 17 34
6 17 33
7 17 34
7 17 32
6 16 31
6 16 30
7 18 34
19 31 48
51 72 92
54 73 95
57 76 99
57 77 100
57 77 100
60 79 105
59 79 104
58 79 105
60 81 106
59 78 102
61 81 108
60 81 109
62 83 111
63 84 113
70 91 121
65 85 113
60 80 105
67 87 115
64 86 114
63 83 112
63 83 110
62 82 111
66 86 115
64 84 113
67 88 115
62 83 110
66 86 115
62 82 110
68 88 117
66 87 116
69 89 118
68 88 118
68 88 118
66 86 115
67 88 118
70 91 121
69 89 117
68 88 118
68 89 119
68 88 118
68 88 116
72 93 123
69 89 118
70 90 121
66 86 116
69 90 121
68 88 119
71 91 122
69 90 119
70 92 123
68 88 116
71 92 122
71 91 122
70 91 123
68 89 120
70 90 119
70 91 121
68 89 120
67 87 117
69 89 119
69 89 119
68 88 118
68 89 120
68 88 117
68 88 118
69 90 120
68 89 120
69 89 121
67 87 116
71 92 124
67 88 118
70 91 121
67 88 118
70 91 121
68 89 120
69 89 119
68 90 119
65 85 113
69 89 118
70 90 120
70 91 122
67 87 116
66 86 115
67 88 118
68 86 113
63 83 110
8 33 14
5 30 10
5 27 8
6 33 11
6 33 10
5 28 9
5 30 9
5 28 9
5 29 9
5 27 8
5 28 9
4 25 8
4 26 8
4 23 7
9 27 17
38 53 70
58 81 102
65 89 112
67 92 114
72 99 122
77 106 130
77 105 131
69 94 114
83 110 133
82 108 134
83 111 142
82 110 141
83 112 143
81 110 141
84 113 145
83 113 146
81 109 140
81 110 137
77 105 131
74 100 126
76 104 130
59 78 97
53 69 84
53 69 83
39 65 44
42 103 12
45 116 9
46 119 9
48 123 10
48 120 9
46 118 9
43 110 8
49 122 9
40 103 8
42 109 8
40 102 8
40 102 8
40 101 7
33 85 6
105 145 130
162 191 230
167 197 239
164 194 240
106 130 165
61 80 102
63 84 111
62 81 103
62 82 106
62 81 105
66 85 111
62 80 104
62 81 105
66 85 112
64 82 105
63 80 102
62 80 105
65 82 107
65 83 108
65 82 108
62 81 104
64 82 108
61 79 105
60 77 101
62 79 103
63 81 106
62 78 102
66 84 109
62 79 103
64 80 104
63 80 104
63 80 103
59 74 95
65 82 107
60 75 96
65 82 107
60 78 100
62 78 100
60 75 96
61 77 99
60 76 99
61 76 98
60 75 96
64 80 102
63 79 102
61 75 94
63 78 101
56 68 85
55 68 86
58 73 92
61 76 96
58 73 94
58 72 91
51 62 78
58 72 91
58 72 93
53 66 83
52 63 79
54 66 83
55 67 86
50 60 75
55 69 89
52 65 81
48 58 72
46 55 67
51 61 75
47 57 70
43 50 61
52 63 78
50 60 73
41 50 61
47 56 69
50 61 75
49 59 71
46 55 68
42 50 62
37 44 51
40 46 54
27 29 31
24 24 24
22 22 22
21 21 20
21 20 19
24 24 22
26 25 25
24 23 22
23 22 21
19 19 18
23 23 23
23 24 24
23 22 21
20 20 19
26 26 26
25 24 23
23 23 24
26 25 25
23 22 21
22 22 21
22 21 20
25 25 25
26 26 26
24 24 24
24 23 23
24 23 23
25 25 24
28 28 28
27 28 28
25 25 24
20 20 18
25 25 24
24 23 23
25 26 25
28 28 27
23 23 22
26 25 25
23 23 23
23 23 22
26 25 25
21 21 20
24 23 23
27 28 28
24 24 24
22 21 20
28 28 28
24 24 23
27 27 27
20 20 19
21 20 19
22 21 19
22 21 20
24 23 22
21 20 20
22 22 22
26 26 24
29 32 23
30 36 25
37 45 28
83 90 64
97 109 78
99 126 104
105 145 131
111 160 150
110 161 153
108 160 153
107 159 153
106 159 153
106 159 153
107 159 153
108 160 153
109 161 153
111 162 153
114 163 153
117 166 153
122 169 153
127 172 153
132 176 153
140 179 151
110 138 119
46 57 69
37 45 58
37 45 60
33 40 52
34 41 54
35 41 55
23 27 38
21 25 33
19 23 33
22 26 36
17 21 29
9 12 18
10 13 18
8 10 15
2 3 7
2 3 10
1 1 5
0 0 5
2 4 12
5 7 13
12 15 25
20 25 39
24 31 44
24 31 46
39 50 70
23 31 48
39 51 74
45 59 83
46 61 84
45 59 82
48 62 87
53 70 96
51 67 94
52 69 96
50 69 95
57 74 98
56 74 100
59 77 104
58 77 104
60 79 106
60 78 105
59 78 105
58 77 102
65 85 113
60 78 104
62 81 107
63 82 107
59 77 101
60 80 108
64 83 111
64 83 111
48 69 86
7 35 17
7 42 17
7 44 19
8 49 21
7 41 17
8 50 21
8 49 21
9 53 23
9 53 23
9 53 23
9 57 25
9 55 24
9 56 24
10 61 26
11 63 27
10 61 26
10 59 25
10 60 26
10 59 26
9 56 25
10 59 26
8 51 23
10 55 26
57 80 101
62 82 111
64 86 112
67 88 118
66 85 115
66 86 115
63 83 111
63 82 111
68 88 117
63 82 112
66 87 117
62 80 109
69 89 117
68 87 117
24 119 48
24 119 49
24 119 49
21 105 46
12 49 36
6 16 30
6 16 31
6 16 32
6 16 31
6 16 31
5 14 28
13 23 37
50 68 87
47 65 83
49 66 85
47 64 82
48 66 87
56 74 98
53 73 95
53 72 95
57 75 100
56 75 98
49 68 88
61 81 109
59 79 106
60 79 106
59 78 105
62 82 110
61 81 108
61 81 107
58 78 103
62 82 109
67 87 117
64 84 113
64 83 110
67 88 118
63 84 112
65 84 112
70 91 120
66 87 117
64 84 112
70 91 122
64 84 112
69 89 120
65 86 116
70 91 122
68 89 118
69 90 120
68 90 120
69 88 117
70 90 121
67 87 118
68 90 121
69 90 121
72 93 125
67 87 115
68 88 118
66 87 116
70 91 122
65 84 113
69 89 118
68 88 118
67 87 117
67 88 118
70 90 118
68 89 119
71 92 122
71 91 122
69 90 119
66 87 115
68 89 118
68 88 118
69 89 119
68 88 117
70 91 122
69 88 118
71 92 122
70 91 121
68 88 118
69 90 121
67 87 114
67 86 114
68 89 118
67 89 118
66 86 114
70 89 119
67 87 114
65 85 113
68 89 119
68 88 118
70 91 120
70 90 121
67 88 117
66 87 117
67 87 116
70 91 122
67 87 117
68 88 117
68 87 115
32 54 55
5 28 9
5 28 9
5 30 10
5 29 9
5 28 9
5 28 9
5 28 9
5 28 9
5 29 9
4 23 7
5 28 9
4 25 8
4 23 7
12 28 20
47 66 82
50 68 87
61 84 104
64 87 111
71 96 120
65 92 114
70 94 117
73 99 121
77 102 121
78 100 122
77 101 124
73 97 125
74 99 129
70 94 120
77 102 131
74 99 130
74 100 126
68 93 116
69 93 116
64 89 111
67 90 113
58 79 96
48 64 78
46 61 72
33 54 42
40 101 14
46 118 9
43 111 9
45 114 9
45 116 9
41 106 8
43 110 8
46 119 9
44 111 8
39 102 8
41 104 8
43 109 8
35 90 7
36 92 7
114 152 148
173 204 252
161 192 239
143 173 219
82 105 135
62 81 104
63 84 104
61 79 102
64 83 106
65 82 107
61 79 100
64 84 109
64 82 108
68 86 115
57 75 96
60 78 102
62 80 105
65 83 109
64 82 107
61 76 98
63 80 105
66 84 110
60 77 98
63 80 104
61 78 101
66 84 108
65 83 108
62 78 97
63 81 106
63 80 105
61 78 101
60 74 96
63 81 105
60 75 97
63 78 102
60 76 98
61 77 99
62 77 100
58 72 93
59 75 97
63 77 100
57 71 91
59 76 99
60 76 97
58 71 90
58 71 91
56 69 88
58 72 93
58 73 93
55 66 82
54 66 81
48 60 76
53 65 81
56 68 86
56 69 88
55 68 86
54 67 84
50 60 75
52 63 79
55 66 83
51 62 77
54 64 79
49 59 74
47 56 68
50 60 75
49 58 71
49 59 73
48 58 71
44 51 64
41 49 59
46 53 65
47 55 68
44 53 64
38 44 54
38 45 53
36 42 50
42 49 58
42 48 57
42 50 59
40 46 54
29 32 36
19 19 17
16 15 14
19 19 19
23 23 23
18 17 16
19 19 18
18 18 17
18 17 16
22 22 21
22 22 22
22 22 22
21 20 19
25 25 25
21 21 20
21 20 20
23 23 22
23 23 22
20 20 18
21 20 19
23 22 21
22 22 21
23 23 22
20 20 19
21 20 19
23 23 22
25 25 24
23 23 22
19 18 17
21 20 19
23 23 22
28 28 28
24 24 24
22 22 22
22 21 21
22 22 21
24 23 23
20 20 20
25 24 24
23 23 22
21 21 20
22 22 21
21 21 21
23 22 21
19 19 19
22 22 22
22 22 21
21 21 20
21 20 20
22 22 21
25 25 25
23 23 21
21 21 20
26 29 21
34 39 28
34 41 26
68 76 51
102 117 88
111 147 127
116 163 148
115 164 153
112 163 153
110 161 153
109 161 153
108 160 153
107 159 153
107 159 153
108 160 153
108 160 153
110 161 153
111 162 153
114 164 153
117 165 153
120 168 153
125 171 153
130 174 153
137 178 153
143 182 152
80 100 90
36 45 57
41 49 62
34 43 55
34 41 54
32 38 49
30 36 46
25 31 41
28 34 45
21 26 35
11 13 20
12 15 22
19 24 33
9 11 18
14 17 24
9 11 15
5 7 12
10 13 19
13 16 24
11 14 22
16 20 30
21 27 38
18 24 37
19 24 36
28 36 53
31 40 56
27 37 53
39 50 70
43 56 79
45 59 81
46 59 83
47 62 86
42 55 79
43 57 80
51 67 94
47 63 88
55 72 99
56 73 100
54 72 96
55 73 96
54 72 98
58 76 102
57 75 98
57 75 100
59 77 104
59 78 102
61 81 107
60 79 104
54 72 96
59 77 102
59 77 100
61 82 108
41 64 74
6 35 14
6 39 17
7 42 18
7 42 18
8 49 20
7 43 18
7 44 18
8 48 20
9 55 24
9 55 24
9 58 24
7 45 19
8 48 20
8 50 22
9 57 25
10 61 26
9 54 23
10 57 25
8 51 23
8 50 22
10 57 26
39 68 71
62 80 108
64 83 112
60 81 105
69 88 118
66 86 117
65 87 116
68 88 120
58 78 103
64 83 112
67 87 116
65 84 115
63 83 113
66 86 117
59 79 106
25 122 50
22 110 44
23 112 47
22 112 46
19 91 43
7 26 28
6 15 28
5 13 25
5 14 27
6 14 28
14 24 35
33 45 56
34 50 61
47 64 81
38 53 68
52 70 93
47 62 81
51 68 89
52 71 95
52 71 95
51 69 90
56 74 100
55 74 97
60 80 108
61 81 108
58 78 104
59 79 104
58 77 104
58 77 102
61 81 108
61 80 107
65 86 115
65 86 115
58 77 103
66 86 115
63 83 112
63 83 110
66 87 116
66 86 117
66 88 119
66 87 117
64 85 113
65 85 114
68 89 120
67 88 117
68 89 120
68 89 120
69 91 122
70 91 122
69 90 121
66 86 116
68 89 119
70 90 121
70 91 123
70 91 122
70 91 121
69 91 122
68 88 117
69 89 119
67 87 117
71 92 122
70 91 120
69 89 119
70 91 121
70 92 122
67 88 117
70 90 119
68 88 118
69 89 119
70 91 122
67 88 117
71 91 121
69 90 120
68 88 117
70 91 121
67 88 117
69 89 118
69 89 117
69 88 116
71 92 122
71 91 118
76 91 113
89 98 111
96 104 116
99 106 115
105 110 118
97 105 114
92 98 108
86 97 112
68 84 105
72 90 116
67 87 115
72 94 125
69 88 116
66 86 114
66 85 112
69 91 122
65 86 113
65 85 114
61 82 103
8 30 14
4 25 8
5 29 9
4 26 8
5 27 8
5 28 9
5 30 10
5 27 9
4 25 8
4 23 7
4 23 7
4 25 8
4 21 7
11 27 20
32 48 61
48 67 86
53 74 93
55 76 94
62 87 104
61 85 103
60 81 98
58 79 92
67 87 101
66 87 106
65 84 108
69 91 114
64 84 105
68 91 117
70 94 121
67 91 120
60 82 106
62 84 104
62 84 105
61 83 103
66 90 112
58 79 97
49 67 85
41 54 66
33 51 45
39 93 18
44 113 9
44 111 8
43 109 8
42 108 8
40 102 8
42 110 8
41 108 8
41 107 8
42 104 8
41 104 8
38 97 7
38 97 7
38 95 7
111 151 148
162 195 244
151 184 233
105 130 169
61 79 101
65 84 109
66 85 111
61 79 102
61 80 103
64 82 106
62 80 104
63 81 106
64 81 104
63 81 103
64 82 109
64 83 107
62 79 102
64 82 108
61 79 102
66 82 107
64 81 104
60 76 98
65 84 111
61 78 100
64 81 106
62 79 102
64 82 107
64 80 104
62 78 102
63 81 108
63 79 103
60 76 99
63 79 101
61 77 99
62 78 102
62 76 96
59 74 96
62 78 101
60 74 95
63 78 100
57 72 93
59 73 93
59 73 94
60 75 96
56 70 88
58 71 90
56 71 90
58 72 91
54 65 83
55 67 84
57 69 88
59 74 93
59 73 93
54 67 83
54 65 81
54 65 81
54 65 80
46 56 69
50 61 76
49 60 75
52 63 78
49 59 72
44 52 63
53 63 78
45 54 66
49 58 69
43 51 61
50 61 76
48 58 69
42 50 61
42 50 60
46 55 67
36 42 50
42 49 59
40 45 54
42 50 60
39 46 56
33 39 44
38 45 54
36 42 50
32 37 40
39 45 55
28 31 33
18 18 18
16 15 14
19 19 18
18 17 16
16 16 15
18 17 16
23 23 23
21 20 19
18 17 17
20 19 19
20 20 19
22 22 21
22 21 20
22 21 20
20 20 18
23 22 21
23 22 22
17 17 16
18 18 17
21 21 20
21 21 19
21 21 20
19 18 18
22 22 21
22 22 21
19 19 18
20 19 19
20 19 18
21 20 19
18 17 16
21 21 19
19 18 16
15 14 12
21 20 20
21 21 20
20 20 20
23 22 22
20 19 18
21 21 20
22 21 20
20 20 19
23 22 20
17 17 17
20 20 19
16 16 15
22 21 21
21 21 20
17 17 16
18 17 17
24 25 21
32 36 26
39 44 31
65 71 49
108 127 98
121 161 141
122 167 150
119 167 153
117 165 153
107 153 144
108 157 148
102 148 141
103 150 144
107 158 150
105 155 148
109 159 151
110 161 153
111 162 153
113 163 153
115 164 153
118 166 153
121 168 153
125 171 153
129 174 153
134 177 153
143 182 153
133 166 138
61 76 78
42 53 67
40 50 65
37 45 59
33 40 52
37 46 58
39 46 58
35 42 56
31 39 49
31 37 48
29 35 45
29 36 47
31 38 50
21 27 37
19 25 34
20 26 35
26 33 45
23 30 40
23 29 41
24 31 45
25 32 45
22 29 43
33 43 60
33 42 63
33 42 59
39 50 69
36 47 67
40 52 71
37 49 67
41 55 77
52 69 94
47 61 85
47 61 85
47 62 87
50 65 90
53 69 94
57 73 97
51 67 91
55 71 94
49 64 86
58 76 101
55 73 99
52 70 92
53 70 95
58 76 103
55 72 95
57 75 100
59 78 103
56 75 101
60 78 101
54 73 95
59 81 105
33 53 59
6 39 16
5 34 14
6 39 17
6 40 17
7 44 19
7 42 18
7 45 19
8 50 21
8 48 20
6 39 16
8 48 21
8 48 21
7 46 20
9 57 25
7 45 19
8 48 22
8 51 21
7 45 19
8 52 24
38 65 68
61 80 107
62 83 110
64 84 113
61 80 108
63 83 111
62 82 107
58 79 105
63 82 110
62 81 111
64 83 110
62 83 108
64 81 110
65 82 111
64 82 113
61 80 108
25 121 50
24 116 48
23 111 45
22 107 44
22 106 44
12 52 31
6 17 26
5 14 27
11 17 26
21 31 40
30 40 51
32 44 57
37 51 66
41 54 71
43 56 74
51 68 90
43 57 77
48 63 84
55 72 94
51 67 90
50 67 89
53 72 97
57 76 101
56 74 99
60 79 105
61 80 107
60 80 108
58 78 103
59 78 104
64 84 112
59 78 106
62 80 106
64 84 113
65 86 115
70 92 123
66 86 115
65 87 117
66 87 117
66 86 115
67 87 118
66 86 116
70 91 122
67 88 117
67 88 117
68 90 120
68 89 118
65 85 113
68 89 118
67 88 115
71 91 122
65 85 114
68 88 116
69 89 119
71 92 123
69 91 121
69 90 120
71 91 121
69 90 121
66 87 116
68 89 119
72 92 124
67 89 118
68 89 119
72 92 122
67 88 119
68 88 117
70 92 121
68 88 117
68 89 120
67 87 116
70 92 123
69 90 119
71 92 123
70 90 120
66 86 114
69 89 118
73 93 124
73 90 116
80 94 114
104 111 118
118 118 117
124 122 117
144 138 129
154 148 136
150 145 135
147 144 135
145 140 130
136 132 125
131 127 118
119 117 113
106 109 112
89 99 111
72 90 115
61 82 109
63 83 109
69 90 118
67 87 117
63 82 110
67 87 114
67 87 116
39 58 66
4 25 8
5 27 9
4 24 7
4 26 8
4 26 8
4 24 8
4 25 8
4 24 8
4 25 8
4 24 7
4 24 7
3 17 5
12 26 22
37 53 67
43 61 80
48 68 87
53 74 94
49 71 82
48 68 80
57 79 95
50 66 78
57 75 89
59 76 94
56 72 87
57 73 90
52 69 90
59 77 97
56 75 96
55 74 95
57 77 99
45 63 80
56 75 94
55 74 91
55 74 90
45 64 78
39 55 68
36 50 61
31 52 41
34 81 16
38 100 8
41 106 8
42 108 8
43 110 8
45 115 9
45 114 9
42 108 8
38 95 7
41 108 8
36 93 7
34 86 6
33 84 6
31 81 6
126 165 180
144 177 227
113 142 184
66 85 109
62 80 102
64 84 111
67 87 113
57 76 97
62 79 100
61 80 105
62 79 102
65 82 105
61 80 106
58 77 102
63 80 106
65 81 107
63 80 102
61 79 104
64 81 105
61 78 101
64 81 105
67 84 109
66 83 107
62 80 106
67 86 112
64 81 109
62 79 103
62 77 101
63 81 105
60 74 96
59 72 92
62 78 100
60 76 98
59 73 94
59 72 92
58 72 92
58 72 92
61 77 99
59 74 97
57 71 92
59 74 96
57 71 91
58 71 91
58 72 91
54 67 86
57 72 93
56 68 86
56 69 87
55 67 85
54 67 85
56 67 85
54 66 85
53 64 80
51 63 80
52 63 78
50 61 77
51 60 75
47 56 70
50 61 74
48 59 72
49 59 72
46 55 68
49 60 75
45 53 66
48 57 70
43 51 62
41 50 60
43 50 60
50 60 74
43 51 61
42 51 60
39 47 56
44 53 63
38 45 55
38 44 52
34 40 47
35 40 47
33 38 43
37 43 50
32 37 44
27 31 34
28 33 38
30 34 39
26 29 33
23 25 28
22 23 24
13 13 13
15 14 14
20 19 18
15 15 14
15 15 14
17 16 15
18 18 17
19 18 17
20 19 18
14 13 12
19 19 18
16 15 14
20 19 18
12 12 11
19 18 17
19 18 17
19 18 17
17 17 16
15 15 14
21 20 19
18 18 17
17 17 16
18 18 17
17 16 16
19 18 17
20 20 20
19 18 19
16 15 14
23 22 21
16 16 15
18 18 17
16 16 15
19 19 18
19 19 18
17 17 16
20 18 17
18 17 17
16 16 15
18 16 15
16 15 15
19 18 18
17 16 17
18 18 17
19 19 19
26 29 34
24 27 31
31 35 29
33 39 27
51 60 42
104 125 97
127 165 141
115 155 139
105 143 130
78 106 102
68 93 93
55 75 78
55 75 79
54 75 79
50 69 75
55 76 80
82 118 116
78 112 110
94 135 130
108 154 145
116 165 153
117 166 153
120 167 153
123 169 153
126 171 153
130 174 153
135 177 153
141 181 153
148 186 153
86 112 97
41 52 66
40 50 65
43 54 69
41 52 69
40 51 63
39 47 60
43 54 72
40 49 65
40 50 65
33 40 54
46 56 73
41 53 70
31 39 53
37 48 64
33 43 57
31 40 56
33 43 57
36 45 61
32 42 59
33 44 60
40 50 66
45 58 78
43 57 75
43 56 76
42 56 76
43 55 75
45 59 79
43 55 77
46 60 81
44 58 79
50 67 90
54 69 93
49 63 85
53 69 96
48 65 85
50 65 83
51 67 90
53 69 90
55 73 96
54 71 92
49 64 84
53 71 95
47 62 81
51 68 89
53 69 91
48 67 88
52 72 93
49 65 85
45 63 82
45 62 79
45 62 78
53 70 93
38 59 68
7 34 17
6 36 14
7 44 18
7 42 18
6 40 17
7 44 19
7 42 18
7 45 19
6 41 17
7 47 20
6 40 17
8 49 21
7 45 19
7 45 19
7 44 19
7 44 19
8 44 21
39 62 69
60 81 106
55 73 96
62 83 109
64 84 109
62 83 109
55 75 99
62 84 110
62 82 107
63 83 110
63 83 112
60 80 106
64 83 113
62 81 111
62 81 112
64 84 112
66 87 118
23 116 48
24 117 48
22 109 45
22 111 46
23 111 45
19 97 41
11 28 25
11 15 21
20 26 35
16 22 30
26 34 46
25 34 45
35 47 63
35 47 63
36 47 63
38 51 70
41 54 72
54 71 95
46 62 84
43 59 79
58 76 102
54 72 98
54 72 98
55 73 99
58 76 102
59 78 105
62 82 109
63 83 113
62 81 107
64 84 112
62 82 111
61 80 108
63 83 111
68 89 119
63 83 112
66 87 117
61 80 107
66 87 116
64 84 113
66 85 113
67 88 118
66 87 117
65 85 113
66 87 117
67 87 115
71 92 124
69 91 121
67 87 115
69 90 121
64 85 115
71 91 122
70 91 123
70 90 120
67 88 119
70 91 121
71 93 126
69 89 118
71 92 124
71 91 122
68 88 119
69 91 121
69 90 121
71 92 123
71 91 122
72 93 125
69 90 122
68 90 120
71 92 122
72 93 126
66 87 116
70 91 123
70 90 121
70 90 122
68 89 120
67 87 114
68 88 118
81 96 117
107 113 122
136 133 128
150 143 131
154 149 138
154 151 142
148 149 142
147 148 142
147 148 142
146 148 142
147 148 142
148 148 142
150 150 142
149 146 137
143 139 129
143 137 126
116 116 116
80 90 105
69 86 110
66 87 118
68 88 116
68 88 117
63 83 109
66 87 114
65 85 114
23 42 40
4 25 8
3 22 7
4 24 8
4 24 8
4 25 8
4 24 7
4 24 8
3 21 7
3 20 6
4 23 7
3 19 6
5 21 10
29 42 54
42 61 80
42 58 76
45 64 83
51 72 88
44 62 77
44 62 73
44 60 72
50 66 78
49 64 80
48 65 84
51 65 77
52 67 86
48 65 86
45 61 80
51 70 92
47 65 81
48 66 84
48 66 82
46 64 80
39 54 67
38 55 66
38 52 68
35 49 60
31 50 47
36 89 14
43 110 8
42 107 8
40 104 8
40 100 8
40 105 8
41 104 8
37 95 7
38 100 7
37 97 7
35 90 7
36 92 7
36 90 6
34 75 17
131 169 205
131 165 215
72 93 119
61 79 99
67 88 113
64 83 106
59 77 100
68 87 114
66 84 108
65 83 107
66 84 110
66 85 112
65 82 106
65 84 109
65 83 109
63 79 103
65 83 107
64 83 106
61 77 100
64 79 102
67 85 110
61 77 99
60 76 99
64 81 106
65 81 105
61 77 100
63 80 104
64 80 104
62 79 104
63 81 105
63 78 102
62 79 100
63 79 103
56 70 89
61 77 100
59 75 98
60 74 94
61 77 99
56 70 90
56 69 86
54 68 86
58 72 92
60 74 95
57 72 93
58 72 92
54 67 84
59 74 94
57 70 89
50 61 77
57 72 91
53 65 81
50 62 79
56 69 86
52 63 80
48 59 73
55 65 80
48 58 71
45 53 65
47 56 69
47 57 70
42 50 61
48 57 70
52 62 77
46 55 65
48 61 70
46 58 63
44 61 60
46 66 61
53 76 70
51 79 68
49 78 63
45 70 57
43 60 55
38 55 51
37 49 49
37 45 51
34 38 44
30 34 39
33 38 45
28 33 38
28 32 37
25 29 33
25 29 34
26 29 34
20 22 24
21 23 26
22 24 27
20 22 25
19 21 21
15 15 15
11 11 10
13 13 12
14 13 12
17 16 16
15 15 14
15 15 13
14 13 12
17 17 16
13 13 12
15 15 14
19 18 17
15 14 13
14 13 12
15 14 12
16 16 15
14 14 13
18 18 17
19 18 17
17 17 15
16 16 15
18 17 17
16 16 15
17 16 15
21 21 20
15 15 14
18 18 16
16 15 14
18 17 17
17 17 16
15 14 13
19 19 18
19 18 17
16 15 15
16 15 14
16 15 15
11 12 12
17 18 19
16 17 19
25 28 33
21 24 28
23 26 30
26 29 30
27 31 22
41 49 32
93 114 87
125 160 136
101 131 117
71 93 89
35 43 51
17 19 32
16 18 30
11 10 25
10 9 24
10 9 23
12 12 27
10 9 24
15 17 31
24 29 41
45 60 66
65 89 90
90 126 119
113 157 144
122 168 151
125 171 153
128 173 153
132 175 153
136 178 153
141 181 153
147 185 153
108 144 115
40 54 63
50 61 76
48 59 76
42 51 66
46 57 74
44 55 70
46 57 75
42 53 69
45 56 71
47 58 74
44 55 72
44 56 77
46 57 73
41 55 71
44 55 71
48 60 79
40 51 67
43 54 70
40 52 69
49 62 82
39 50 67
48 61 82
48 60 82
46 59 78
44 57 77
43 55 75
51 64 86
48 65 87
48 62 81
46 60 80
49 64 82
51 66 88
51 67 91
52 68 91
53 69 92
46 61 82
52 68 90
54 72 95
53 68 91
51 67 89
48 64 83
44 58 75
47 63 82
53 70 93
43 57 73
46 62 82
42 58 72
42 59 73
44 59 77
48 64 81
39 57 69
40 55 69
40 55 70
35 51 58
7 29 16
5 36 15
5 34 14
4 31 12
5 36 15
6 36 15
6 39 16
7 41 17
5 34 14
6 40 17
7 45 19
6 42 18
6 42 18
6 38 17
17 45 34
47 70 85
54 75 95
52 72 91
59 77 105
56 77 98
58 80 106
56 74 100
56 76 98
61 82 108
60 79 106
63 83 110
60 80 106
65 85 115
66 87 115
62 82 110
64 86 113
63 83 111
60 80 107
22 109 45
23 111 46
21 105 43
22 110 45
21 107 44
19 97 39
11 45 22
20 26 33
20 27 36
18 23 31
25 34 46
26 35 47
39 52 70
40 54 72
39 51 70
45 60 81
41 55 74
49 65 88
55 72 97
54 72 97
54 70 93
58 77 103
53 70 95
54 71 97
58 78 104
61 80 108
63 83 112
62 82 111
66 86 115
61 80 108
67 88 118
63 83 111
65 85 114
64 83 112
61 81 111
68 88 119
63 83 112
65 85 115
71 91 123
66 86 116
67 87 116
64 84 113
69 89 119
67 88 118
68 88 117
70 91 120
68 87 117
67 87 115
70 91 123
68 88 119
68 87 117
67 88 119
69 89 119
71 92 124
69 89 119
68 90 119
70 91 122
68 89 119
70 91 121
67 88 118
69 90 121
71 92 121
69 90 119
68 89 118
69 89 119
69 89 119
67 87 117
71 92 124
70 90 120
69 91 120
69 89 119
69 90 119
71 92 122
68 89 120
68 88 116
93 102 114
131 130 128
145 141 131
155 150 139
152 151 142
146 148 142
144 146 142
139 144 142
138 144 142
136 143 142
137 143 142
138 144 142
138 144 142
140 145 142
143 146 142
148 148 142
148 146 138
145 141 130
133 129 120
98 99 99
76 90 107
63 82 106
62 81 107
64 84 111
62 81 106
60 80 103
60 79 105
24 41 42
3 20 6
4 23 7
4 23 7
3 21 6
3 20 6
4 22 7
3 19 6
3 20 6
4 21 7
3 18 6
4 18 9
32 46 59
32 47 64
34 50 70
35 52 68
37 56 70
41 59 74
39 56 67
42 59 73
38 52 62
37 49 59
39 52 66
41 55 70
45 61 76
34 48 63
34 48 65
33 47 67
35 51 67
37 53 69
40 57 71
35 51 61
33 47 61
35 50 64
39 55 70
32 47 55
25 45 37
29 74 12
43 109 8
39 100 7
41 103 8
43 112 9
39 102 8
38 98 7
39 101 8
34 86 6
37 93 7
34 88 6
35 89 6
37 93 7
54 98 58
117 150 197
71 91 119
62 80 103
68 88 115
65 83 108
65 82 106
66 83 107
67 86 113
63 80 104
67 84 109
65 83 109
61 78 103
65 84 107
62 80 102
63 82 106
63 81 107
65 81 105
62 78 101
61 78 103
62 79 102
64 81 106
61 78 101
65 81 105
61 78 100
61 77 101
63 80 103
63 79 102
65 82 107
60 75 97
60 76 96
66 82 106
58 71 91
62 77 98
62 78 101
60 75 95
61 78 102
61 76 96
58 73 92
61 75 97
55 70 89
56 70 90
55 69 87
54 67 86
54 68 85
58 72 92
54 66 83
58 73 93
53 66 83
55 67 84
51 62 78
53 64 81
54 65 83
51 63 77
53 64 78
52 64 80
47 56 69
48 59 73
49 59 72
50 59 72
50 61 76
42 49 59
41 49 60
43 54 63
50 71 71
50 81 64
54 90 67
55 99 64
58 107 68
55 101 65
59 111 69
55 105 65
58 108 68
56 103 67
55 97 63
51 86 61
44 70 53
39 59 47
35 43 49
32 36 44
26 29 32
33 39 45
29 33 39
23 26 30
21 22 23
23 25 27
19 21 23
22 25 28
17 19 21
16 17 19
18 20 23
13 14 15
12 14 15
13 14 12
13 12 12
10 9 8
13 12 12
13 12 12
12 12 11
11 11 10
11 10 10
13 13 12
10 10 9
10 10 10
11 10 9
12 11 10
14 13 12
13 13 11
12 11 10
11 10 10
13 13 12
17 16 16
20 19 19
15 14 14
14 14 13
14 14 13
12 12 11
14 13 12
10 9 8
14 13 12
15 14 13
11 10 10
8 8 8
15 15 16
12 12 12
14 16 18
17 18 21
21 24 27
21 23 26
24 27 31
21 25 29
23 26 31
25 28 26
32 37 26
73 92 70
99 124 107
52 64 64
34 41 48
14 14 27
10 9 23
10 9 24
10 9 24
10 9 24
10 9 24
10 9 25
10 9 24
11 9 25
10 9 25
10 9 24
10 9 24
14 15 29
25 30 41
57 75 77
96 129 119
120 160 142
132 175 153
135 177 153
139 180 153
143 182 153
148 185 153
101 141 104
38 59 52
46 56 71
49 60 78
46 58 74
55 69 88
48 59 76
50 63 81
49 61 80
49 60 76
45 56 73
46 58 75
52 66 85
52 66 85
50 63 81
45 56 73
46 58 74
49 62 80
50 63 82
48 61 78
55 71 92
53 66 85
48 62 82
48 62 83
52 66 86
47 59 79
56 71 92
47 61 80
53 68 91
54 70 93
54 70 93
52 68 89
53 69 92
49 65 86
52 67 89
50 64 84
51 67 88
55 72 96
53 71 93
51 67 88
54 69 90
44 58 72
45 60 79
45 62 79
42 56 72
40 56 69
44 61 78
41 57 71
36 52 64
43 58 72
34 46 56
40 54 66
33 47 55
31 44 51
30 42 50
31 45 51
22 35 38
10 29 20
3 23 9
4 28 11
4 28 11
5 36 14
5 33 13
5 33 13
5 32 13
5 34 14
6 31 16
19 41 34
37 57 67
38 56 66
41 59 72
47 68 85
40 60 73
52 73 93
54 75 98
61 80 105
53 76 95
59 81 105
60 80 104
54 75 100
60 81 106
61 82 109
62 84 111
62 85 112
64 85 113
65 85 114
61 82 110
64 85 114
21 107 43
22 110 44
22 110 46
23 111 45
21 106 43
20 99 40
24 91 45
32 42 56
30 39 54
28 39 53
30 40 55
41 54 73
40 53 72
45 60 81
46 61 83
42 57 76
56 73 98
54 72 97
47 62 84
58 77 105
59 77 105
57 75 100
67 86 115
64 83 111
63 83 112
64 84 113
66 86 116
62 81 110
65 86 116
64 83 111
62 82 111
66 86 113
67 88 118
65 85 115
66 86 115
65 85 114
68 88 118
65 85 112
69 89 120
69 90 120
68 89 118
68 90 121
69 91 123
70 91 121
70 90 119
67 89 119
67 88 119
67 88 119
70 92 122
68 89 120
68 88 118
70 90 120
70 90 120
69 90 120
69 89 120
70 90 120
68 90 121
68 89 120
69 89 119
71 91 121
70 92 124
71 91 122
68 90 120
67 87 114
70 92 122
70 90 120
68 89 118
66 87 115
66 87 116
69 91 121
67 88 119
71 92 124
69 90 121
73 91 119
95 103 113
128 125 118
161 154 140
155 152 142
148 149 142
143 146 142
139 144 142
136 143 142
133 142 142
131 141 142
132 141 142
131 141 142
132 141 142
134 142 142
135 143 142
138 144 142
141 145 142
147 148 142
150 149 141
148 143 131
144 134 120
101 104 104
64 75 88
66 85 112
60 79 103
64 83 110
59 79 102
59 78 102
52 71 92
24 40 43
4 20 8
3 18 5
3 21 6
3 19 6
2 16 5
2 16 5
3 18 5
2 15 4
2 16 4
3 16 5
15 25 27
26 40 52
32 46 63
34 50 68
34 52 67
33 52 64
34 49 64
34 49 64
33 47 62
35 49 63
34 48 62
39 53 68
37 50 64
33 47 66
33 48 64
33 48 65
35 50 67
35 51 66
34 51 65
33 49 63
32 47 62
31 45 57
32 47 60
29 44 52
27 50 37
33 81 11
35 90 7
41 104 8
39 100 8
32 84 6
38 98 7
32 83 6
36 91 7
39 101 7
35 90 6
36 92 7
34 86 6
29 71 7
73 108 110
64 82 107
65 81 102
66 83 107
64 82 106
65 83 109
65 83 109
67 85 111
66 83 110
67 85 111
65 82 105
66 85 112
63 81 107
64 83 108
59 75 97
68 86 111
67 85 111
61 77 99
67 85 112
63 81 106
60 76 99
63 80 102
67 85 111
59 74 92
65 84 111
63 78 99
62 77 98
60 76 99
62 78 102
62 79 101
65 83 107
62 78 100
60 76 98
58 73 92
60 75 95
60 75 96
61 76 98
59 75 99
61 75 96
56 69 87
56 72 91
54 69 88
53 65 81
58 72 91
57 71 90
58 71 89
56 69 86
59 73 91
57 68 86
53 66 85
53 65 81
56 69 85
51 62 76
54 65 81
54 67 85
47 56 68
55 68 84
47 57 68
48 59 69
52 64 80
48 56 68
46 61 70
50 71 69
52 86 65
59 105 72
58 107 67
58 108 67
58 110 68
57 107 66
60 112 68
57 109 67
58 109 67
58 109 66
59 112 69
58 110 67
57 107 66
57 105 66
51 91 57
42 67 48
34 48 43
30 36 39
32 37 42
23 27 30
24 27 30
26 30 34
19 22 23
22 25 28
22 24 28
15 17 18
23 26 30
14 16 17
15 17 19
12 13 13
10 11 12
11 12 12
9 10 10
8 8 9
3 4 3
5 5 5
6 7 6
7 7 6
9 9 9
6 6 5
8 8 7
11 11 10
10 9 8
5 5 4
10 9 8
8 8 7
7 6 6
9 8 8
10 9 8
7 7 6
9 8 8
5 4 4
7 6 5
6 6 6
6 5 5
6 6 5
8 9 8
9 9 9
12 13 15
9 10 11
11 12 13
14 15 18
16 18 21
16 18 20
14 16 17
21 25 28
17 19 22
17 18 21
21 23 25
22 23 17
42 49 38
83 101 87
41 48 52
13 12 26
10 9 24
10 9 22
10 9 24
10 9 23
10 9 24
10 9 25
10 9 24
10 9 25
10 9 24
10 9 23
10 9 23
10 9 24
10 9 24
10 9 25
10 9 23
14 14 28
28 34 43
81 106 98
119 155 135
138 179 153
142 182 153
145 184 153
150 186 153
129 165 137
49 76 60
49 59 72
50 62 79
45 56 71
51 64 83
52 64 84
46 56 70
51 63 82
48 60 77
53 66 85
53 67 87
54 69 91
50 63 81
45 57 72
53 67 86
50 63 80
53 66 86
46 59 76
53 68 90
55 71 93
55 69 91
45 57 77
56 70 90
48 62 81
56 71 91
50 64 84
53 68 87
47 61 81
54 68 88
54 69 92
57 74 98
53 69 93
48 62 81
51 68 89
50 66 87
49 66 86
50 65 84
54 70 92
61 78 102
52 69 89
55 72 94
49 64 84
47 62 78
40 54 69
45 61 76
41 58 70
39 53 65
39 56 67
36 51 62
35 48 58
33 48 58
28 40 46
26 36 41
19 29 29
12 20 17
14 22 22
11 19 18
14 21 22
8 15 14
10 22 18
5 16 11
4 14 7
6 22 12
12 26 20
16 27 26
18 32 30
29 43 49
29 45 50
31 46 54
33 50 57
35 52 60
47 67 81
47 67 82
49 68 86
46 65 84
53 73 94
47 67 84
53 73 95
54 74 95
51 72 90
53 74 95
52 70 92
66 86 113
66 86 114
62 83 109
63 82 111
63 85 113
22 107 43
21 104 43
22 107 44
20 98 39
18 92 38
18 90 36
24 92 46
33 55 60
50 64 86
46 60 82
46 60 82
41 54 73
56 73 99
54 71 97
53 70 96
60 78 105
55 72 96
56 73 98
59 77 105
56 75 101
60 79 107
63 81 109
63 81 110
62 82 109
63 83 111
62 81 109
62 81 108
65 85 114
65 85 115
69 90 120
66 86 116
67 88 118
68 88 118
66 86 115
67 87 117
65 86 114
65 85 114
67 87 118
68 89 119
68 89 120
64 83 110
66 87 118
69 88 118
68 88 117
72 92 123
66 87 118
71 92 123
69 91 123
69 91 123
67 87 116
68 88 119
68 90 120
68 90 120
72 92 122
66 87 116
67 88 119
71 93 123
72 92 123
71 92 124
72 93 123
67 87 116
71 92 124
71 92 123
69 89 119
67 87 115
69 90 121
67 88 117
69 90 119
70 90 120
68 87 115
72 93 124
68 88 116
67 86 113
103 110 118
130 125 116
158 152 139
154 151 142
148 149 142
144 147 142
138 144 142
135 142 142
132 141 142
131 140 142
129 140 142
129 139 142
128 139 142
129 139 142
131 140 142
133 141 142
135 142 142
138 144 142
141 145 142
142 142 136
141 139 131
141 136 125
135 127 112
96 94 89
69 80 91
56 73 93
55 74 96
54 72 95
55 73 94
52 69 89
47 64 82
35 48 58
10 24 16
3 15 5
3 18 6
3 18 6
3 18 5
2 15 5
2 15 4
2 15 5
2 14 4
11 22 20
26 40 51
29 44 59
34 50 67
34 50 66
35 50 67
35 50 66
34 49 66
34 49 65
33 47 63
33 47 63
32 47 63
33 47 63
34 48 64
34 49 65
32 46 63
33 48 63
33 48 63
33 48 63
32 47 60
32 48 63
31 46 60
31 46 57
29 45 50
26 50 34
31 80 8
37 97 7
34 87 7
32 86 6
38 97 7
34 87 7
32 85 6
32 83 6
34 87 7
32 82 6
30 78 6
31 81 6
41 80 39
62 79 103
65 83 108
65 82 106
65 83 108
65 83 109
67 86 113
66 84 110
63 79 102
64 81 104
67 86 113
66 84 109
63 81 103
66 84 110
67 85 108
66 83 108
63 79 103
65 82 106
62 79 102
63 80 103
67 86 113
62 78 102
58 73 93
62 78 100
65 81 102
61 76 98
65 82 106
61 78 98
56 71 90
62 79 100
58 72 92
60 75 97
57 73 94
57 72 90
57 72 90
59 75 94
59 75 96
58 74 93
57 73 93
59 74 95
59 75 95
59 75 95
53 65 83
53 68 87
60 73 93
59 74 94
57 71 90
49 60 76
58 71 91
51 64 81
57 68 85
55 67 84
53 65 82
55 68 86
56 69 88
50 61 77
50 61 76
53 65 81
42 52 62
45 54 65
45 55 68
55 69 80
53 80 69
56 100 66
56 104 65
58 109 67
56 107 66
59 110 67
58 109 67
59 110 68
60 113 69
58 110 67
58 109 67
56 105 64
60 111 67
59 110 67
58 110 67
56 105 65
56 103 62
56 105 64
47 84 52
42 66 51
33 41 44
32 37 42
22 25 27
22 26 26
25 28 32
22 25 28
22 25 29
21 22 23
18 19 21
14 15 17
17 19 21
18 19 21
20 21 24
17 18 21
11 12 13
11 12 13
5 5 5
6 7 7
7 8 8
9 10 10
6 7 7
4 4 3
3 4 4
2 1 1
4 4 4
3 3 3
3 3 3
2 2 1
2 2 2
3 3 4
3 4 3
2 2 1
5 5 6
4 4 3
4 4 4
6 7 7
8 8 9
11 11 13
12 13 14
10 11 13
15 17 18
13 14 16
13 14 15
15 17 19
17 19 21
16 18 21
15 18 20
22 24 28
18 20 23
27 31 37
24 27 29
17 18 17
26 28 32
26 29 37
10 8 22
10 9 23
10 9 23
10 9 23
10 9 24
10 9 24
10 9 24
10 9 23
10 9 23
10 9 24
10 9 23
10 9 24
10 9 24
10 9 24
10 9 23
10 9 24
9 8 23
10 8 23
12 10 24
22 24 35
75 94 88
120 153 131
146 184 153
149 186 153
151 186 152
95 119 109
33 54 54
46 59 68
55 69 89
54 65 81
48 59 76
47 58 74
52 64 81
52 64 81
52 64 83
51 64 82
55 68 84
55 69 90
49 62 80
53 67 86
55 70 90
52 65 83
50 64 85
59 74 95
51 67 89
55 70 91
53 67 88
55 69 89
59 75 99
52 64 84
56 72 94
54 70 90
51 67 87
56 72 95
58 73 94
56 71 92
58 74 98
56 73 96
49 63 81
53 69 89
59 74 95
50 65 86
54 71 93
53 69 91
48 64 82
53 70 91
51 67 87
57 76 99
46 62 79
51 67 86
45 61 79
50 66 83
42 58 72
40 56 67
37 51 65
36 51 60
33 45 53
32 46 53
30 40 46
30 41 49
20 31 32
16 26 27
20 28 30
9 16 15
7 13 13
8 13 14
8 13 13
9 16 15
9 16 15
14 23 23
16 27 28
16 26 26
25 38 41
20 34 35
34 50 58
40 57 69
39 54 65
42 59 72
39 58 67
51 71 89
50 71 91
56 76 98
55 75 93
54 72 95
61 81 107
54 76 98
59 80 105
53 74 93
61 81 105
62 84 111
61 81 107
62 82 110
61 83 109
20 97 39
21 103 41
20 98 40
21 101 41
20 101 42
21 103 41
22 92 43
45 72 79
55 71 97
49 65 87
55 72 100
61 79 106
61 78 104
55 73 100
56 75 101
57 75 101
63 82 111
59 77 106
64 85 113
61 80 109
61 80 107
62 81 109
67 87 115
67 87 116
66 86 116
69 89 119
65 85 114
64 84 113
70 90 120
68 88 121
65 85 116
68 88 118
69 90 121
65 86 115
67 87 116
69 90 121
68 89 118
70 91 120
67 87 117
66 86 116
68 89 121
69 90 118
69 90 121
70 90 120
70 91 122
69 90 120
69 89 120
68 87 116
68 88 119
69 90 120
70 91 122
68 89 118
70 91 122
69 89 120
69 91 122
70 92 124
69 89 119
69 90 120
69 90 119
70 91 120
70 91 121
70 91 122
68 87 116
67 87 115
70 90 120
68 88 118
66 85 113
72 92 122
69 90 119
67 87 115
68 89 118
68 88 117
87 96 108
131 125 117
160 152 138
157 153 142
150 149 142
145 147 142
139 144 142
136 143 142
133 142 142
131 140 142
129 140 142
128 139 142
128 139 142
128 139 142
128 139 142
129 139 142
131 140 142
132 141 142
137 143 142
139 144 142
140 143 139
139 138 130
136 130 119
139 130 116
125 118 106
92 92 87
62 77 92
52 70 89
48 64 81
49 66 83
40 56 69
38 52 64
36 49 60
31 41 50
18 27 31
8 19 14
5 17 9
2 13 4
2 11 3
1 11 3
1 9 3
1 10 3
2 10 4
20 30 39
30 43 58
36 52 70
32 48 64
34 49 66
34 50 67
35 51 69
33 48 65
34 50 67
33 47 63
33 48 64
32 46 62
36 52 70
32 48 64
33 48 62
35 51 69
33 48 64
33 48 62
33 48 62
30 44 56
28 41 53
30 45 55
28 44 49
24 50 21
34 87 7
39 99 7
40 101 8
39 100 7
34 88 6
30 78 6
33 86 6
28 75 5
31 82 6
32 84 6
30 78 5
26 62 11
54 81 83
65 83 109
66 84 111
66 84 111
62 80 105
64 82 109
64 80 103
67 86 114
64 82 106
61 78 98
64 84 106
63 81 106
63 81 103
64 83 108
66 84 109
62 78 101
67 84 107
55 72 91
61 77 100
60 78 102
64 82 107
61 78 101
59 76 99
61 78 102
58 74 93
61 79 102
61 78 100
55 71 90
59 76 98
57 71 91
61 78 101
61 79 102
58 73 90
65 83 105
54 69 88
57 72 93
63 79 101
57 73 92
59 73 94
52 64 79
62 78 101
54 68 86
59 74 97
59 74 93
57 71 90
52 64 81
56 70 89
49 61 76
55 67 85
58 72 92
56 69 86
55 68 84
50 61 75
52 65 80
57 70 88
51 63 77
50 62 77
50 63 78
52 64 80
50 61 75
50 64 74
51 78 64
56 99 67
57 108 66
58 108 66
58 108 65
60 111 67
58 109 66
56 107 66
57 107 65
58 109 66
58 110 68
56 107 65
59 111 68
56 107 65
57 109 67
56 107 66
54 102 62
56 104 63
56 104 63
58 110 67
53 94 61
42 64 51
33 44 41
27 31 36
32 36 42
29 33 37
29 31 36
24 28 31
18 21 22
24 28 31
16 18 20
17 19 20
21 23 26
11 11 11
22 24 27
14 16 19
17 18 20
18 20 23
13 13 13
14 15 16
13 14 15
9 9 10
12 13 15
7 8 8
9 10 10
10 11 12
7 7 9
7 7 7
11 12 13
5 5 4
6 6 6
10 11 12
9 9 10
10 10 12
7 8 8
11 12 13
10 11 12
5 5 6
12 13 15
12 14 14
15 16 19
13 15 14
15 17 18
15 17 19
15 16 18
16 18 21
23 26 30
21 23 25
22 25 30
23 26 30
21 24 28
24 27 31
12 13 17
11 10 23
9 8 21
10 8 22
9 8 21
10 9 24
10 9 24
10 9 23
10 8 23
10 9 23
9 8 22
10 8 22
10 9 23
9 8 21
10 8 23
10 9 23
10 8 22
10 8 22
10 9 23
10 9 24
10 9 23
10 8 22
9 8 22
23 26 35
77 95 86
137 170 141
145 178 151
124 150 135
54 55 54
25 40 41
46 60 69
46 57 71
46 57 71
47 56 70
49 60 76
53 67 86
49 61 78
53 65 83
53 66 84
53 66 83
52 64 82
56 71 93
55 68 88
54 69 90
54 67 84
57 70 89
60 76 99
56 72 95
51 64 84
57 71 93
54 70 92
57 72 93
57 72 94
55 70 91
54 68 87
56 70 90
53 69 91
60 78 101
55 69 91
56 71 92
57 74 98
55 70 94
56 71 91
53 69 88
57 72 93
58 75 99
55 71 91
57 74 95
55 73 93
50 65 83
55 71 90
57 73 95
56 72 89
49 67 83
49 66 84
46 62 76
46 63 78
52 68 85
41 56 68
46 62 77
35 50 57
33 48 56
38 53 63
37 52 59
26 40 44
31 44 50
27 41 46
23 36 40
23 34 36
20 32 33
25 38 43
30 45 47
25 38 42
26 40 43
26 41 44
26 40 42
37 53 61
41 56 69
33 51 58
35 50 61
40 58 70
49 68 86
49 68 83
47 66 83
47 68 83
56 76 96
55 76 99
60 80 106
51 72 93
59 79 104
57 77 100
60 81 105
59 80 105
58 80 103
63 85 112
60 81 109
21 107 44
17 87 34
19 94 39
19 96 38
19 92 37
21 104 42
20 83 39
49 82 88
57 74 102
63 82 111
61 80 106
62 80 110
58 77 105
62 80 107
65 84 114
66 85 115
64 84 115
66 86 116
70 91 123
67 88 117
70 91 122
66 86 116
64 83 112
63 82 112
67 87 118
64 83 111
67 88 119
69 90 121
67 88 119
70 91 122
66 87 116
69 89 122
70 90 121
68 89 120
70 91 122
70 92 124
68 88 119
70 91 121
70 89 119
69 90 121
67 87 117
71 92 123
68 88 119
69 88 119
68 89 118
69 90 120
68 88 117
70 92 122
70 91 122
69 90 121
71 92 123
70 92 123
71 92 121
72 93 125
72 93 123
68 89 118
71 92 123
69 91 123
69 89 120
69 89 117
70 91 123
70 90 121
67 89 121
70 91 121
69 90 119
67 88 118
69 90 120
70 92 124
69 90 120
69 90 120
68 88 117
78 89 105
118 116 111
161 150 135
161 155 142
154 151 142
148 149 142
142 146 142
140 145 142
135 143 142
133 141 142
131 140 142
129 140 142
128 139 142
128 139 142
128 139 142
129 139 142
130 140 142
131 140 142
134 142 142
137 143 142
139 144 142
142 145 141
140 140 133
134 129 119
127 118 104
113 102 88
114 108 93
76 81 78
48 63 73
42 57 72
39 54 65
31 44 53
33 47 56
28 39 46
24 33 39
20 28 33
17 23 27
11 16 17
6 12 10
7 11 11
3 6 5
3 5 3
2 5 3
8 12 13
12 18 20
25 37 49
31 45 60
33 48 64
32 46 62
33 48 64
32 47 63
34 50 67
33 48 64
33 48 64
31 45 60
34 49 65
32 46 62
31 46 60
31 46 59
32 47 62
29 42 55
29 43 55
28 42 53
29 43 55
26 39 47
23 36 39
20 36 29
18 43 14
29 77 6
29 79 5
27 71 5
31 81 6
31 82 6
32 83 6
30 80 6
31 82 6
31 82 6
31 82 6
26 66 7
43 72 60
58 78 103
59 78 102
64 84 110
61 80 102
63 80 106
62 78 101
63 82 104
63 80 103
62 80 102
62 81 101
64 82 106
65 84 104
66 85 110
64 82 107
65 84 104
61 77 100
63 81 104
62 78 99
61 78 98
62 79 101
64 81 104
56 71 92
64 82 106
60 78 100
57 72 92
58 74 94
56 71 91
60 74 94
59 76 95
59 76 97
58 75 95
62 80 102
56 70 90
58 73 94
58 74 92
60 75 95
56 72 92
61 77 98
55 69 89
64 79 100
54 67 84
58 72 92
54 67 85
59 74 93
58 72 92
58 73 93
56 69 87
55 68 86
58 73 93
54 66 84
61 76 95
49 60 73
49 63 79
53 65 84
59 72 91
54 67 85
52 63 78
49 61 73
54 67 84
49 64 67
54 88 71
51 91 58
57 106 64
54 101 62
56 105 64
57 106 65
57 107 65
58 107 65
57 106 65
59 110 67
59 111 68
57 107 65
56 104 63
56 106 64
60 111 67
58 109 67
58 110 67
56 104 64
58 107 65
56 104 63
56 105 64
58 110 67
52 96 59
43 71 50
30 39 37
27 31 36
32 37 43
28 33 38
30 35 40
24 27 29
22 25 28
27 31 36
25 28 32
20 23 24
23 25 29
19 20 22
24 27 31
18 21 23
16 18 19
22 24 27
15 17 20
14 15 16
15 16 18
16 18 20
17 18 20
8 9 9
10 11 12
16 18 19
15 16 18
12 13 15
11 12 12
11 11 11
13 14 16
14 16 18
16 18 19
13 14 14
19 21 24
17 18 20
15 16 18
22 24 27
17 18 20
17 18 20
18 19 21
24 28 33
18 20 22
18 21 25
22 24 29
20 23 26
25 28 32
18 21 23
22 25 29
28 32 37
16 16 23
9 8 19
10 8 21
10 8 22
10 9 24
10 9 23
10 8 22
10 8 22
9 8 22
10 8 23
9 8 22
10 9 23
10 8 22
10 8 22
10 9 23
10 8 23
10 8 22
10 9 23
10 9 23
10 8 22
9 8 22
10 8 22
10 8 22
10 9 23
10 8 22
24 26 35
76 91 86
104 124 122
71 94 97
36 46 49
38 53 48
44 57 61
51 64 81
50 62 77
49 60 78
55 67 84
56 69 89
55 68 87
51 63 81
46 56 71
55 69 89
51 64 84
54 69 91
49 62 79
56 69 88
55 70 89
59 74 95
50 63 82
53 67 88
56 69 90
57 71 92
59 75 98
58 73 95
58 73 95
59 74 97
53 69 90
57 73 96
55 71 94
61 78 102
53 69 90
54 69 89
56 72 94
54 69 89
51 66 85
59 76 99
53 70 93
59 76 97
57 75 96
59 76 100
57 74 97
55 71 92
56 73 95
53 71 94
57 75 100
57 75 95
51 69 87
50 68 88
52 71 91
47 64 80
49 66 85
43 59 73
48 66 82
46 61 76
46 63 78
44 60 74
44 61 77
40 56 68
38 55 64
32 45 51
37 54 64
45 60 76
39 56 66
38 54 66
38 56 65
41 57 69
39 56 66
38 54 65
45 65 78
43 63 78
50 69 85
48 67 83
44 63 77
49 67 83
49 69 87
51 71 88
50 68 86
53 73 91
55 77 98
58 78 101
59 80 106
53 72 92
58 78 101
55 75 97
62 82 107
62 83 108
62 82 108
60 81 106
20 101 40
20 97 38
22 109 43
19 94 39
20 97 39
19 93 38
20 92 40
55 90 97
63 82 111
62 81 111
61 80 107
62 81 109
64 83 111
64 84 114
67 88 118
63 82 113
66 85 117
63 82 113
69 89 119
68 87 117
68 89 119
63 82 112
68 89 120
65 84 113
64 85 113
67 87 117
69 91 122
68 89 118
65 84 114
66 86 115
66 86 117
67 87 118
67 88 118
70 89 120
72 93 125
70 90 120
68 88 119
69 89 119
70 92 123
69 90 120
74 94 125
71 91 123
69 90 119
69 90 121
69 90 120
71 91 121
71 92 123
72 94 125
71 92 123
69 89 120
71 92 123
72 93 125
68 89 118
70 90 122
68 89 118
70 92 123
69 91 121
73 94 125
70 91 121
70 90 121
70 91 121
70 91 122
66 87 117
67 87 115
69 90 121
65 86 115
67 88 117
68 88 116
70 91 120
66 87 116
72 90 115
118 118 117
147 138 124
166 157 142
158 153 142
153 151 142
148 148 142
144 147 142
140 145 142
136 143 142
136 143 142
132 141 142
130 140 142
130 140 142
130 140 142
130 140 142
131 140 142
132 141 142
133 141 142
136 143 142
138 144 142
141 145 142
143 146 142
142 144 138
138 135 126
120 111 97
111 103 90
103 96 77
90 89 72
58 64 63
44 59 75
41 55 68
28 40 47
31 43 52
30 42 50
19 28 31
27 37 43
17 25 27
16 23 26
11 17 18
14 18 21
11 16 17
10 15 14
15 21 24
8 13 13
9 16 13
21 29 36
27 40 53
33 47 63
29 42 57
30 44 60
33 48 65
31 47 62
32 46 61
32 47 63
31 45 60
30 43 58
29 41 54
29 43 56
29 42 55
32 47 63
29 43 57
30 44 57
29 43 56
26 40 46
23 36 41
22 36 36
18 34 25
19 50 7
30 77 5
27 71 5
30 78 6
27 72 5
29 76 6
29 75 5
31 84 6
29 76 5
22 62 4
28 74 6
38 71 40
52 71 88
59 79 98
58 78 94
59 76 98
59 77 98
58 76 94
65 84 107
58 76 94
60 77 96
64 83 105
62 81 99
63 81 105
66 85 109
61 77 97
63 80 104
62 79 101
63 81 102
61 79 100
61 78 99
62 79 99
61 79 101
62 80 102
57 75 90
63 81 99
62 79 102
56 71 88
58 74 91
62 78 101
59 76 100
59 76 97
58 75 94
59 75 95
58 74 96
56 71 90
58 74 94
60 76 99
57 74 94
53 68 88
56 71 90
59 74 95
59 74 95
58 73 94
58 74 94
60 75 98
61 77 98
58 73 95
56 69 88
56 69 87
55 68 84
54 66 81
58 71 92
53 67 82
53 65 80
52 64 81
57 71 90
57 70 88
51 62 76
53 65 82
54 68 86
57 73 85
55 87 70
54 97 62
60 111 67
54 101 62
56 104 63
56 106 66
58 109 66
57 108 66
59 111 67
57 107 65
54 102 63
53 99 62
58 109 66
54 102 62
56 106 64
58 108 66
57 108 66
58 108 65
59 110 68
59 110 67
55 103 64
56 103 62
54 101 61
54 101 61
53 96 59
46 73 55
34 45 47
36 42 50
36 41 49
36 42 49
30 35 40
31 35 42
20 23 25
28 32 37
28 31 37
25 28 32
24 27 30
25 28 32
23 26 28
24 27 31
27 32 37
21 24 26
18 20 22
18 19 21
21 24 26
17 18 20
21 23 26
21 23 26
21 23 24
19 21 24
20 21 23
19 21 25
17 19 21
22 24 27
20 22 25
19 21 23
19 21 24
24 27 31
17 19 22
20 22 25
22 25 28
24 27 31
24 26 30
25 27 31
24 26 30
27 30 36
21 24 27
25 29 33
27 30 34
29 33 38
27 31 36
33 38 44
24 27 32
13 12 24
9 8 20
9 8 20
10 9 23
9 8 21
9 8 20
9 8 22
10 8 21
13 9 23
13 9 22
14 9 24
13 9 23
13 8 22
14 9 24
12 9 24
10 8 22
9 8 22
10 8 22
9 8 21
8 7 19
10 8 22
9 8 21
10 8 22
10 8 23
9 8 21
10 8 22
16 16 27
38 42 52
51 67 67
50 66 62
46 63 57
55 69 79
50 63 80
55 66 83
48 60 75
53 66 86
54 67 86
60 74 95
53 65 83
58 72 92
57 72 93
55 69 88
55 70 93
53 66 85
56 71 91
55 69 90
55 67 87
58 73 94
52 66 84
55 68 87
59 75 97
56 71 93
55 70 91
60 74 97
63 80 104
56 72 94
62 78 100
65 82 108
58 74 96
59 75 99
59 74 95
54 71 92
56 73 95
53 68 87
62 79 103
61 79 104
59 76 98
63 81 107
57 75 96
56 72 92
54 70 91
55 72 92
60 77 100
53 70 90
55 73 95
59 78 102
62 81 106
50 68 85
56 71 91
54 71 91
50 66 86
61 79 103
52 70 89
50 66 83
52 68 88
60 80 104
46 65 83
51 69 88
52 70 92
53 74 94
48 65 84
47 65 79
54 72 90
46 65 81
52 70 89
50 68 86
51 70 88
50 68 87
54 75 95
49 67 82
52 71 90
52 72 92
53 73 93
57 77 99
49 69 87
53 72 94
59 81 105
56 77 99
53 73 93
59 80 104
60 81 106
58 77 101
57 77 101
60 80 106
60 80 105
61 80 107
61 81 105
20 97 39
19 93 38
17 85 35
18 89 36
18 90 36
19 95 39
20 88 39
49 83 88
68 89 120
64 84 113
66 86 116
66 85 114
67 87 116
66 87 115
62 82 111
66 86 118
69 89 119
67 88 119
64 84 113
69 90 121
65 85 114
68 89 119
66 88 118
65 84 113
71 92 125
70 90 121
68 89 119
71 92 122
68 89 120
66 87 116
67 86 115
69 89 120
66 87 117
68 88 118
72 93 123
72 93 124
73 93 124
71 92 123
70 91 123
68 90 120
71 92 123
70 92 123
69 90 119
71 92 123
69 90 121
72 93 125
69 90 122
70 90 121
71 92 122
68 89 119
69 90 120
67 88 115
70 90 120
70 91 120
72 93 125
70 92 123
72 93 125
71 92 123
70 91 122
71 91 122
68 89 120
70 90 118
69 90 120
67 88 117
69 90 120
67 88 117
71 92 122
71 93 125
70 91 121
70 91 122
84 95 107
125 120 108
151 143 129
166 157 142
157 153 142
152 151 142
150 149 142
147 148 142
141 145 142
139 144 142
138 144 142
135 142 142
134 142 142
134 142 142
134 142 142
135 142 142
133 142 142
135 142 142
136 143 142
138 144 142
139 144 142
142 146 142
146 148 142
147 147 140
142 137 127
133 126 113
111 101 86
94 82 66
97 91 73
73 75 68
48 62 74
40 56 68
39 55 68
40 56 70
40 55 67
35 48 57
32 46 54
27 38 44
29 40 49
25 36 42
26 37 42
24 34 41
26 36 41
22 32 38
27 37 45
28 40 49
30 41 52
21 31 39
27 39 52
29 42 55
27 40 54
31 45 59
30 44 58
27 39 52
29 42 55
30 44 58
30 43 58
30 43 57
26 39 51
28 41 52
25 37 49
28 42 53
26 39 49
26 40 47
26 40 46
19 30 34
15 26 25
15 34 16
21 56 5
24 64 4
27 73 5
27 72 5
25 67 5
30 79 5
30 79 5
27 72 5
26 70 5
27 66 12
39 71 41
57 78 91
51 71 80
53 71 82
56 74 88
58 76 91
57 75 89
59 79 92
59 78 95
53 69 82
60 79 97
61 80 98
64 81 103
57 74 92
60 79 94
61 77 96
60 78 98
62 79 99
59 80 97
61 78 98
63 80 104
62 79 102
60 78 98
63 81 103
64 82 105
63 81 104
62 80 101
64 82 107
64 82 106
64 81 103
60 76 96
62 80 104
61 78 100
56 72 92
59 75 98
59 76 96
61 77 99
59 76 97
58 74 94
56 72 91
59 76 98
57 71 91
59 73 92
60 75 95
61 75 96
61 76 97
62 76 96
54 68 87
59 72 90
55 68 83
61 76 98
53 65 81
59 74 95
62 78 99
52 64 82
51 64 77
51 61 74
57 71 90
55 68 85
58 72 90
55 67 80
49 76 64
49 89 56
54 101 61
55 103 62
52 96 59
56 105 65
56 105 64
54 101 62
57 107 64
57 106 64
55 104 63
58 107 64
54 101 61
56 106 65
59 108 65
55 102 63
55 103 62
59 110 66
57 108 66
56 105 63
57 106 64
57 107 65
53 97 58
55 103 62
51 94 58
54 101 62
49 87 55
43 65 56
42 50 56
37 42 49
44 50 59
34 39 46
36 42 50
37 43 51
32 37 44
39 45 51
36 40 46
34 39 47
29 32 36
27 30 35
28 32 36
25 28 31
32 37 43
29 33 38
30 35 40
28 32 35
29 32 36
24 27 31
19 20 22
22 24 24
20 22 24
24 28 31
24 27 32
28 33 37
23 25 28
24 27 31
29 33 39
31 35 40
26 30 35
24 27 31
25 28 32
34 39 45
30 34 39
29 33 38
23 26 29
25 28 32
34 39 46
26 30 35
32 37 43
30 35 40
33 39 46
34 39 46
27 31 37
17 18 28
10 9 20
9 8 20
9 8 21
9 8 20
10 8 22
14 9 23
19 10 24
23 11 26
28 12 28
25 11 27
31 12 29
31 12 28
31 12 28
23 10 26
27 11 27
21 10 25
15 9 23
13 9 22
11 8 21
9 7 20
9 8 20
9 8 20
9 8 21
9 8 21
9 8 21
9 8 20
9 8 21
23 27 36
42 55 53
53 72 65
53 73 65
52 66 76
48 58 71
52 64 81
53 65 83
56 69 88
52 66 84
61 76 96
58 72 93
55 67 85
57 70 89
55 69 90
55 68 87
60 75 97
56 70 89
57 71 91
55 69 88
58 73 94
54 68 88
57 72 94
56 71 91
64 79 103
58 73 95
55 70 90
56 73 95
57 72 94
62 78 101
55 69 88
59 72 92
60 77 100
57 73 96
60 75 98
62 77 101
56 71 95
50 64 83
56 72 93
59 74 97
59 74 95
58 74 97
60 77 101
61 80 103
63 81 108
57 74 93
60 77 102
56 73 97
54 70 89
59 77 102
55 72 92
60 79 101
59 76 97
59 78 102
55 74 94
54 71 92
53 74 95
55 75 97
54 74 96
55 74 94
58 77 98
59 79 101
50 68 84
53 73 92
56 74 97
54 72 93
54 72 93
55 74 96
60 80 105
56 77 97
56 75 98
55 75 97
51 71 90
59 78 101
54 74 96
56 75 96
59 79 101
55 74 96
58 77 100
58 78 103
61 81 105
63 82 109
62 82 108
56 74 96
65 85 112
62 83 107
63 82 106
53 74 93
61 83 106
67 89 118
19 96 39
18 89 35
19 94 37
16 83 34
17 86 35
19 96 40
22 87 42
51 80 93
69 90 121
64 83 112
68 87 116
68 90 119
68 88 115
65 85 114
63 84 113
64 82 110
66 86 116
68 88 117
65 85 114
68 88 118
72 94 126
67 88 118
69 90 121
65 85 114
71 91 122
66 86 115
66 87 116
70 93 122
68 89 118
70 91 121
69 90 122
67 88 118
69 90 121
70 91 122
70 92 123
66 87 114
71 91 121
70 90 119
69 89 118
70 90 121
70 89 119
71 92 124
68 89 119
70 90 120
70 90 120
70 91 121
69 91 123
72 93 124
68 88 118
67 89 120
68 88 115
66 86 116
72 93 124
69 89 118
70 90 120
69 90 118
67 88 117
67 89 118
70 91 121
65 86 114
71 92 123
69 90 121
71 92 122
70 91 120
72 93 126
71 93 125
69 90 121
68 89 119
70 91 121
72 89 111
89 95 95
136 130 114
154 150 130
163 156 141
161 155 142
156 152 142
151 150 142
148 148 142
145 147 142
142 146 142
140 145 142
139 144 142
138 144 142
137 143 142
138 144 142
137 143 142
138 144 142
139 144 142
140 145 142
141 145 142
143 146 142
147 148 142
149 149 142
152 149 141
147 141 129
140 131 117
109 99 83
81 70 55
84 74 57
73 73 60
48 58 62
49 65 82
51 68 89
47 63 80
41 57 72
46 61 78
46 63 80
49 64 82
37 52 65
40 55 69
42 57 71
33 46 55
39 54 66
36 49 62
39 53 67
34 47 54
39 52 67
37 50 62
23 33 44
24 35 47
24 36 48
26 37 49
28 41 55
26 37 49
26 38 51
26 37 50
26 38 50
26 38 50
27 40 50
25 36 48
25 36 46
22 32 40
23 34 42
21 31 38
16 25 30
15 25 24
13 22 18
17 44 5
22 59 4
23 63 4
25 66 5
22 61 4
21 60 4
21 58 4
22 61 4
24 64 4
25 60 15
38 63 49
49 68 79
47 65 71
53 71 85
53 73 82
53 71 87
53 72 79
53 72 82
51 72 81
55 74 86
57 75 92
56 74 89
63 82 102
63 83 104
62 78 99
59 76 98
56 75 92
57 75 90
62 82 101
59 77 99
62 79 99
59 76 99
60 80 100
61 80 103
59 76 93
60 76 99
63 81 103
58 75 96
62 79 101
63 80 103
62 79 102
63 80 105
61 77 97
60 77 97
61 77 99
62 79 101
60 77 98
60 75 95
61 77 97
58 74 95
63 79 104
61 78 103
61 78 99
56 71 91
62 77 99
59 76 98
61 78 99
62 77 98
56 69 89
56 70 89
56 69 87
58 74 95
61 77 94
57 71 87
55 69 88
54 67 84
58 74 96
57 70 90
53 67 85
51 63 80
55 67 84
52 71 76
54 91 67
54 100 61
50 93 56
54 101 61
55 101 62
52 96 58
53 98 60
54 101 63
55 102 62
53 101 62
55 102 63
53 99 60
53 99 61
52 97 61
50 94 58
54 100 60
57 106 65
54 103 64
56 104 64
58 106 64
57 106 64
51 95 57
54 100 60
56 105 64
56 104 62
55 102 62
52 95 58
45 75 51
43 61 55
37 44 52
39 46 55
38 45 53
38 45 54
38 45 55
39 46 55
40 46 55
32 37 42
33 39 45
30 35 40
35 41 49
32 37 44
39 45 53
38 44 53
36 42 50
34 38 44
36 42 49
34 39 45
25 28 31
32 37 43
28 32 37
32 37 44
28 32 38
31 37 42
28 31 36
29 33 38
30 34 39
35 40 45
28 33 37
30 34 39
30 34 38
33 39 45
27 30 34
30 34 41
29 34 39
34 38 45
35 41 49
34 41 48
36 41 49
30 35 42
39 45 53
34 40 47
35 41 49
20 22 30
13 13 24
9 8 21
10 8 21
9 8 20
15 9 22
24 10 25
27 11 27
34 13 29
39 13 31
40 13 31
43 14 32
44 14 33
43 14 33
44 14 33
42 14 32
41 14 31
36 13 30
37 13 30
30 11 27
19 9 23
16 9 22
10 8 21
9 7 20
8 7 19
9 8 20
9 7 19
9 8 20
9 8 20
14 16 25
40 52 52
56 75 67
52 70 64
52 67 73
49 61 75
54 67 85
55 67 83
59 74 96
54 67 85
56 71 93
57 70 90
55 68 87
61 76 98
55 69 88
59 74 95
59 74 94
59 76 99
59 75 95
56 70 87
58 73 94
59 73 94
58 72 92
61 77 100
59 72 92
59 74 94
58 74 96
57 72 93
58 73 94
57 73 93
61 75 96
58 72 94
59 73 96
51 57 74
53 64 84
44 47 64
44 44 61
47 49 67
44 44 60
51 55 75
54 63 87
52 60 82
58 71 93
58 75 97
65 82 108
56 73 96
59 79 105
61 79 103
62 81 106
54 72 92
58 77 102
58 76 98
60 79 103
56 73 95
61 78 100
60 79 103
59 77 103
60 79 103
65 85 112
58 75 100
64 83 110
52 70 91
59 78 100
57 74 96
60 79 104
61 81 107
57 77 100
63 82 107
58 78 100
55 74 95
58 77 101
52 69 88
53 72 94
62 81 106
57 77 98
61 80 103
60 81 104
62 81 108
58 78 102
57 78 100
54 74 94
59 77 103
64 83 109
59 80 104
62 81 106
64 84 111
64 83 110
64 84 113
66 85 114
66 87 116
16 79 29
18 91 37
17 87 34
17 83 34
17 86 34
15 76 31
24 84 45
62 87 111
67 88 118
65 85 114
68 89 119
67 89 118
65 85 114
68 89 119
70 90 120
67 87 118
70 91 122
66 87 116
71 91 123
66 87 116
69 89 119
71 91 121
67 87 117
68 88 115
68 89 120
68 90 119
69 90 121
67 88 119
70 92 121
70 91 123
70 91 123
70 92 120
69 90 119
69 90 122
68 89 119
69 90 120
71 93 124
71 92 123
69 88 119
67 88 118
72 93 124
69 90 121
66 87 115
66 87 116
73 93 124
71 93 124
70 91 121
70 90 122
70 90 119
68 89 117
71 92 121
70 91 121
71 93 124
73 95 127
68 89 119
68 89 119
71 92 121
72 93 124
67 89 118
65 87 116
67 88 115
70 91 122
69 89 120
69 89 117
66 87 115
70 91 123
68 88 116
66 87 115
69 90 119
73 86 102
97 97 88
147 143 124
160 152 135
163 155 140
162 155 142
158 153 142
153 151 142
151 150 142
148 148 142
147 148 142
146 148 142
143 146 142
142 146 142
142 146 142
142 146 142
141 145 142
143 146 142
144 147 142
144 147 142
145 147 142
147 148 142
150 149 142
152 151 142
156 152 142
156 151 139
147 139 125
120 111 97
80 68 54
62 53 41
65 60 47
58 64 60
51 67 86
52 70 90
54 72 94
52 70 92
47 64 83
47 65 82
50 66 86
46 62 79
46 64 79
50 66 84
39 55 69
48 67 86
42 57 73
44 60 76
44 60 77
45 60 75
45 61 81
41 56 71
26 37 49
19 28 37
24 34 45
23 34 44
25 36 47
24 34 45
22 32 43
21 30 40
25 36 46
22 32 42
20 29 37
23 33 42
20 29 38
22 32 39
15 24 28
12 20 20
7 13 9
10 26 5
16 44 3
15 45 3
15 44 3
17 48 3
18 53 3
17 49 3
18 52 4
17 46 5
27 49 27
31 48 38
37 55 51
34 50 47
41 59 60
44 61 65
46 64 67
50 67 75
48 64 75
54 71 83
52 71 80
53 70 86
52 71 80
56 74 92
55 71 86
53 70 86
56 74 90
56 77 92
58 75 92
56 74 93
59 79 98
59 76 95
61 79 101
61 78 101
60 79 101
61 79 102
59 77 99
63 82 103
63 80 101
61 79 103
58 74 96
62 78 101
66 84 111
63 80 105
60 79 100
59 73 94
63 81 105
60 76 97
60 77 96
62 81 101
59 76 99
58 73 92
61 77 100
61 77 100
63 77 98
63 80 103
61 76 98
60 75 95
60 77 99
60 76 99
60 75 98
60 75 95
58 72 93
59 73 95
55 68 88
60 76 99
59 73 95
61 75 96
55 68 86
53 64 79
57 71 87
54 67 85
57 74 90
53 78 72
55 100 63
52 96 57
50 93 56
54 102 63
50 93 57
51 95 58
51 95 58
50 94 58
52 99 62
54 102 63
51 95 59
52 99 61
56 103 63
54 101 61
54 100 61
53 101 62
54 100 60
54 99 60
55 103 62
50 93 57
52 98 60
51 94 57
52 98 60
55 103 63
53 99 60
53 96 58
53 99 59
51 94 59
49 76 59
43 53 60
48 56 68
45 52 64
41 47 56
34 39 46
42 50 59
37 43 51
42 49 59
47 55 67
36 43 52
41 48 59
44 52 61
41 48 57
35 42 49
36 42 50
35 42 51
33 37 42
34 40 47
38 44 51
31 36 43
37 43 52
33 39 47
39 46 56
37 42 48
37 43 50
31 35 40
34 39 46
36 42 50
34 40 47
36 42 50
39 46 56
42 48 57
33 38 43
34 39 46
34 39 45
37 43 51
42 48 57
38 45 53
38 44 53
41 48 55
40 47 58
39 45 53
35 41 50
20 22 31
8 8 19
8 7 18
12 8 22
20 10 24
29 12 27
40 14 31
43 14 32
45 14 32
42 14 32
43 14 32
43 14 32
44 15 33
44 14 32
44 15 33
44 14 32
43 14 32
44 14 32
43 14 32
42 14 32
39 13 31
28 11 26
24 10 25
13 8 21
9 7 20
9 8 20
8 7 18
8 7 19
9 8 20
8 7 19
27 34 38
51 68 61
52 70 64
56 69 83
56 69 87
58 73 93
54 68 87
59 72 92
51 62 79
55 68 86
57 70 90
57 72 94
60 75 97
59 73 95
56 71 91
58 73 95
60 75 96
55 68 86
61 76 99
53 66 83
53 67 85
61 78 102
56 71 91
62 80 105
59 74 95
59 75 98
58 73 94
57 73 94
56 68 88
52 61 81
45 47 64
42 42 57
38 33 46
34 25 38
31 20 31
28 14 23
26 10 18
28 15 24
30 18 29
32 20 31
36 28 43
37 33 46
45 47 65
53 63 82
57 72 93
58 73 97
61 78 101
65 84 110
62 81 103
63 81 106
59 78 102
64 84 111
62 79 105
61 79 105
65 86 115
58 76 101
59 77 99
62 80 106
59 77 100
63 82 108
59 79 102
58 76 99
59 77 102
66 86 111
57 75 98
62 81 108
59 78 101
58 78 101
61 80 106
63 82 107
66 85 113
63 82 108
66 86 112
63 83 110
59 78 100
61 81 105
62 82 107
59 78 105
60 82 106
61 81 105
63 83 107
59 77 103
66 85 113
67 87 113
66 86 115
60 81 107
66 85 113
67 86 115
65 85 114
16 80 31
17 85 34
17 85 34
15 75 30
16 79 31
17 85 34
34 89 64
61 86 109
66 87 115
67 88 118
69 90 120
68 89 120
68 89 119
66 88 117
67 88 118
68 89 120
69 90 121
68 88 119
68 89 116
68 90 121
66 88 116
71 92 123
68 90 118
72 93 125
70 91 122
69 91 122
69 90 121
71 92 122
70 92 122
70 91 123
68 89 119
69 89 119
71 91 122
68 88 118
70 91 122
70 91 120
69 89 119
69 91 121
69 89 119
68 88 118
66 86 114
69 90 121
67 88 116
71 92 123
69 90 120
69 91 121
71 92 122
69 90 119
71 93 124
68 88 116
72 93 124
68 88 118
69 90 118
70 90 119
69 91 122
69 90 120
72 94 125
69 90 120
69 90 120
70 90 120
70 92 123
69 90 120
67 88 116
70 92 122
68 90 120
72 94 124
70 91 121
67 88 119
65 84 107
81 90 94
107 107 95
138 138 115
148 142 122
166 156 140
164 156 142
162 155 142
157 153 142
155 152 142
153 151 142
151 150 142
151 150 142
149 149 142
148 148 142
148 149 142
147 148 142
150 149 142
148 148 142
149 149 142
149 149 142
151 150 142
153 151 142
155 152 142
160 154 142
161 154 142
162 155 141
153 142 126
134 124 108
101 89 73
63 57 43
64 61 49
61 63 58
56 73 91
57 76 99
57 76 101
57 76 102
56 74 95
55 73 96
51 69 89
51 69 88
49 66 87
45 61 79
53 69 90
51 68 88
42 58 73
51 69 91
48 65 85
44 59 77
41 55 71
42 58 74
39 54 66
33 46 59
20 28 36
16 23 31
19 28 37
20 28 37
18 27 35
17 25 32
19 28 36
20 29 37
19 28 35
14 20 25
13 19 24
12 19 23
10 16 18
7 13 10
10 18 12
5 16 1
11 29 3
10 29 3
11 30 1
12 36 4
14 35 7
10 24 7
19 34 19
13 25 13
23 35 25
28 42 38
29 41 40
28 44 37
39 55 53
40 57 57
44 60 64
48 64 72
47 64 69
45 62 64
54 73 88
56 75 88
54 73 87
56 74 92
60 79 99
56 75 92
55 75 89
56 75 91
56 75 93
59 76 96
59 77 93
59 79 95
60 77 97
63 81 101
59 78 97
58 76 96
62 79 103
64 83 107
64 83 107
61 78 97
63 81 105
61 78 101
61 79 101
62 79 99
61 80 102
63 80 103
61 78 100
60 77 97
59 76 97
61 78 99
58 74 93
59 76 97
62 78 101
57 72 90
61 77 99
64 81 101
61 77 100
59 73 93
59 73 94
57 72 94
58 74 93
57 72 92
59 74 94
62 76 97
59 73 92
60 76 97
59 75 96
60 76 98
55 69 86
58 73 93
52 65 81
59 74 95
54 75 78
46 81 57
50 93 56
50 93 57
52 98 59
52 96 58
45 82 51
50 94 58
49 90 54
53 98 59
54 100 61
50 94 58
53 99 61
55 102 62
51 97 60
56 103 63
52 98 59
54 101 61
54 101 61
57 105 63
52 96 58
55 103 63
55 102 62
52 97 59
53 99 60
52 97 58
49 89 54
48 88 54
49 89 53
47 86 52
45 76 50
45 62 60
48 57 67
45 54 67
45 54 65
42 50 60
46 55 68
46 55 67
40 47 55
43 50 61
43 51 63
44 52 62
39 46 55
42 51 61
42 50 60
42 50 60
41 48 58
40 47 56
42 50 59
38 45 53
40 47 57
36 42 49
38 44 54
39 46 55
40 48 58
40 47 56
37 44 52
38 45 52
38 45 54
40 48 56
38 46 54
35 41 49
45 54 65
39 46 54
42 48 57
38 45 52
34 40 47
46 55 66
40 47 56
44 52 62
39 44 51
38 44 53
37 43 51
35 39 50
11 11 23
10 8 20
17 9 21
28 11 26
37 13 30
42 14 31
43 14 32
43 14 32
43 14 31
42 14 31
42 14 31
43 14 32
44 15 33
43 14 32
43 14 32
44 14 33
42 14 31
43 14 32
44 14 32
44 14 33
42 14 31
42 13 30
31 12 28
25 10 24
16 9 22
8 6 16
8 7 19
8 7 19
8 7 19
8 7 18
16 18 27
40 53 51
52 70 68
57 71 91
56 70 89
57 71 91
53 65 82
57 70 89
58 72 92
56 71 91
58 73 95
56 70 89
56 70 91
58 73 95
61 77 99
57 71 91
59 72 91
58 73 95
60 76 97
62 78 101
54 68 90
56 70 89
64 81 105
61 76 98
59 74 95
61 76 97
58 73 94
49 58 78
42 41 56
39 35 49
31 19 31
27 14 22
25 9 17
26 9 17
26 9 17
26 9 17
26 9 18
26 9 18
27 9 18
26 9 17
26 9 18
27 11 20
29 14 24
34 25 38
41 38 53
46 52 68
56 68 88
59 76 97
62 80 105
64 81 107
63 82 108
60 78 105
67 85 112
63 81 105
66 86 115
66 86 114
62 81 107
64 82 108
60 77 101
65 83 109
61 79 102
61 79 105
66 85 115
65 84 110
61 81 107
64 83 108
62 81 109
64 84 112
66 84 111
67 87 116
61 78 103
63 82 108
62 81 108
59 76 103
62 82 108
65 85 113
67 87 116
63 83 109
67 87 118
64 84 113
65 84 111
68 89 118
65 85 112
65 84 112
67 85 113
66 85 114
60 79 103
68 89 119
66 86 116
17 84 34
16 80 31
16 80 31
16 80 32
16 79 33
16 75 32
50 84 88
68 88 116
64 84 113
68 89 118
68 89 117
68 89 120
69 90 121
69 90 122
67 87 116
68 90 121
66 87 115
69 90 121
68 89 119
73 94 124
69 90 120
66 87 116
70 90 119
70 91 122
69 90 119
69 90 120
70 91 123
67 87 117
70 91 121
71 91 123
68 89 119
69 90 120
69 90 121
65 86 114
69 91 121
69 90 120
69 91 122
68 89 119
69 90 120
69 89 119
70 91 124
72 94 126
69 89 118
71 92 122
72 93 125
70 90 120
70 91 122
68 89 120
70 92 122
69 90 119
71 93 124
67 88 116
71 93 124
71 91 121
66 87 115
70 91 122
71 92 123
67 87 116
72 93 123
69 91 121
70 90 118
67 87 116
71 92 122
67 88 117
68 88 117
68 89 118
67 87 115
65 85 114
67 85 112
73 78 79
97 106 82
133 132 109
144 136 118
159 151 129
165 155 136
164 155 142
163 156 142
160 154 142
159 154 142
158 153 142
156 152 142
155 152 142
152 151 142
153 151 142
156 152 142
155 152 142
154 151 142
154 151 142
157 153 142
156 152 142
158 153 142
160 154 142
163 155 142
164 156 142
159 150 134
159 149 132
126 117 100
97 90 73
60 53 42
52 49 40
58 63 53
57 70 83
62 82 108
61 81 108
54 73 94
62 83 108
56 75 99
56 73 98
53 70 93
54 72 96
50 68 90
55 73 99
45 61 80
56 73 97
45 61 79
52 68 89
35 48 62
40 54 69
40 54 69
36 48 63
36 48 61
34 46 57
22 30 37
18 25 31
14 19 23
14 21 27
13 18 23
14 20 26
11 16 21
11 15 18
10 14 18
7 11 13
9 13 15
8 12 10
7 11 10
9 15 13
7 12 10
4 9 4
7 13 8
5 11 5
7 15 7
9 14 10
11 19 12
12 21 13
19 30 22
28 41 38
24 37 26
30 44 38
33 47 46
36 53 51
36 51 50
43 59 66
46 64 70
46 64 70
53 71 80
51 69 78
55 74 88
54 71 86
52 70 83
58 77 95
52 72 83
59 77 97
58 79 97
55 73 88
57 76 92
58 77 98
58 77 97
63 83 105
58 77 99
59 76 97
58 77 100
59 77 95
59 77 96
66 86 112
64 83 107
62 80 102
64 82 102
57 74 94
62 78 99
63 81 104
60 78 100
60 79 100
60 78 101
64 81 105
60 76 99
61 78 102
60 76 97
59 74 94
60 75 97
59 74 93
61 77 98
58 74 92
58 74 95
63 79 101
60 75 97
60 76 98
61 76 96
61 78 101
58 73 94
60 74 95
60 75 94
66 82 107
56 69 87
59 75 95
60 74 95
61 78 100
51 64 78
55 76 77
53 96 61
46 84 51
54 100 59
53 98 59
50 93 56
51 94 58
49 91 56
49 92 56
53 99 60
49 91 56
51 94 57
53 98 59
55 103 63
52 97 60
49 93 57
50 95 58
52 97 59
51 94 58
53 98 61
54 99 59
53 98 59
50 91 54
51 94 57
49 91 55
53 98 58
48 89 54
49 90 54
52 95 57
47 87 53
46 82 50
48 71 62
52 64 75
47 57 70
48 60 74
52 63 78
47 56 69
47 57 69
45 55 66
48 57 68
46 55 66
44 52 64
51 62 75
42 50 59
42 50 60
46 55 66
44 52 64
54 64 81
45 54 67
42 51 63
35 40 47
43 52 63
43 51 62
43 53 63
46 54 65
41 48 57
41 49 58
42 49 59
47 56 69
39 47 56
40 47 57
45 54 64
37 45 53
48 56 68
40 46 56
49 59 72
50 60 73
46 55 68
44 52 63
44 52 62
44 52 62
47 55 66
47 57 69
33 38 49
12 11 22
18 9 21
28 11 25
39 13 30
42 14 31
42 14 31
43 14 31
43 14 31
41 13 30
43 14 31
43 14 32
44 14 32
43 14 32
43 14 32
44 14 32
43 14 31
43 14 32
43 14 32
43 14 31
43 14 32
41 14 31
44 14 32
42 14 31
38 13 30
30 11 26
18 9 22
10 7 19
9 8 21
8 7 18
8 7 19
9 8 20
29 38 39
54 69 77
58 71 89
58 72 92
59 73 92
55 68 85
57 72 93
59 73 92
58 73 93
61 77 100
56 71 90
62 77 99
61 78 100
59 75 96
58 72 93
60 74 97
58 72 94
63 80 104
63 78 101
62 79 102
65 81 106
58 76 97
60 75 98
61 77 100
59 72 94
48 53 70
39 34 48
29 16 26
25 9 18
25 9 17
25 9 17
25 9 17
25 9 17
26 9 17
25 9 17
26 9 18
26 9 18
26 9 17
26 9 17
25 9 17
26 9 17
26 9 17
26 9 17
28 14 23
33 25 36
41 39 54
54 64 87
59 75 97
61 80 107
62 81 105
64 81 110
65 84 112
61 79 106
69 88 116
62 82 106
64 84 111
65 84 112
69 88 117
65 83 112
62 82 107
65 83 111
63 82 108
65 86 112
62 79 104
64 84 113
62 79 104
61 79 104
66 85 113
63 83 109
64 83 112
63 81 106
66 85 115
65 84 112
67 87 116
64 84 113
62 82 108
65 85 112
66 86 114
65 85 112
66 85 114
61 81 108
65 83 110
69 89 117
61 81 105
65 84 112
67 87 115
67 88 118
67 88 117
15 77 30
16 79 31
15 76 30
16 80 32
15 74 30
21 78 42
63 86 110
69 90 120
65 87 116
68 90 118
66 88 117
67 89 119
69 90 120
68 90 119
69 91 121
71 92 122
69 92 123
68 90 119
67 88 119
71 91 122
68 89 118
70 91 121
70 91 123
69 90 119
69 91 119
68 88 118
65 86 114
68 91 120
65 86 113
69 90 121
69 89 119
70 91 122
68 89 118
67 88 117
70 91 121
68 89 117
68 89 119
69 91 121
69 90 120
68 88 116
69 90 121
70 91 121
68 90 120
70 91 120
68 88 119
70 91 121
68 90 120
68 89 117
70 91 121
68 90 120
69 91 120
65 85 112
71 92 123
69 90 121
69 90 121
74 95 126
70 92 122
71 91 122
69 90 120
68 90 119
69 90 119
70 90 120
70 92 124
71 91 121
70 90 120
67 88 119
70 91 122
67 87 117
72 87 110
73 79 78
84 91 73
111 114 91
128 123 101
146 138 116
164 151 132
165 155 137
159 150 134
163 155 141
165 157 142
160 154 141
162 155 142
162 155 142
161 155 142
160 154 142
160 154 142
160 154 142
160 154 142
162 155 142
162 155 142
162 154 141
158 151 138
162 153 138
164 154 138
158 148 132
163 153 134
147 138 118
138 127 110
99 90 76
62 56 47
49 47 40
55 60 49
54 66 79
59 78 103
61 80 104
63 82 108
62 82 109
56 74 100
55 72 95
58 76 101
59 77 102
50 67 87
54 71 94
55 72 95
51 67 88
49 65 85
45 59 77
40 54 70
49 64 83
37 48 63
35 46 59
32 42 53
39 51 65
28 36 47
17 23 29
14 19 24
13 18 21
6 8 9
8 11 13
8 11 13
8 11 12
4 6 6
6 9 10
5 10 8
12 17 16
12 19 17
12 20 16
13 20 17
12 21 14
13 24 16
16 27 19
19 32 23
23 33 32
22 35 27
20 32 26
22 36 26
25 40 32
30 45 38
40 58 56
42 60 61
42 59 60
45 63 67
47 65 67
49 66 74
45 64 65
50 68 79
53 72 86
50 67 77
58 76 93
55 74 90
53 70 88
57 75 89
57 77 93
57 76 95
55 72 88
57 76 94
61 79 104
64 84 105
58 76 92
60 78 100
60 79 99
62 80 102
63 80 103
62 81 100
60 78 100
60 78 98
62 79 102
66 84 111
66 84 108
62 80 103
64 81 104
62 79 101
63 80 103
65 82 107
61 77 99
64 80 103
64 80 101
63 79 104
64 82 107
58 75 93
61 78 101
57 70 87
62 78 99
57 73 95
65 81 106
62 78 100
60 76 98
55 69 88
62 78 101
60 76 100
59 72 92
62 77 98
60 75 95
58 73 92
54 69 89
62 78 101
58 73 90
62 80 99
52 82 68
50 89 55
49 90 53
50 92 56
47 86 52
51 93 56
51 93 57
47 88 54
46 87 53
48 88 53
52 97 60
52 95 57
51 94 57
48 89 54
51 96 59
54 101 61
50 94 58
52 97 58
49 92 56
53 98 60
49 91 56
48 87 53
50 94 57
48 89 54
50 91 55
51 94 57
50 92 56
50 92 55
47 86 52
44 81 49
45 80 48
47 76 57
47 63 64
50 60 73
51 63 79
48 58 72
49 58 73
48 57 70
49 58 72
47 56 68
53 63 77
45 52 61
46 56 68
42 50 61
47 57 69
48 57 70
47 56 68
45 55 68
44 52 64
47 55 67
50 61 75
47 57 69
48 59 70
43 52 65
44 53 63
46 56 69
44 52 63
41 50 61
43 51 63
50 61 76
48 57 69
44 53 65
47 58 70
46 57 69
49 59 71
46 55 65
42 50 59
48 58 71
51 61 74
45 55 68
48 58 72
48 58 70
42 49 59
28 30 41
21 11 24
26 10 23
39 13 28
42 14 30
41 13 30
39 13 29
40 13 30
43 14 31
42 14 31
43 14 32
44 14 32
43 14 32
42 14 31
44 14 32
43 14 32
44 14 32
42 14 31
42 14 31
43 14 32
44 14 32
41 13 30
42 14 30
40 13 30
40 13 29
39 13 29
28 10 24
18 8 20
8 7 18
8 7 18
7 6 17
8 6 17
26 32 39
56 70 87
58 72 91
59 75 96
60 75 96
59 74 95
56 71 92
59 74 94
60 75 96
58 72 90
60 75 97
55 69 89
60 76 98
61 77 98
57 70 89
62 78 101
60 76 99
63 78 101
63 78 101
62 77 99
62 79 103
58 71 91
60 76 99
58 70 91
43 42 57
32 23 35
25 10 18
25 8 16
26 9 17
25 8 17
24 8 17
25 9 17
25 9 17
25 9 17
26 9 17
26 9 17
26 9 17
25 9 17
26 9 17
25 8 16
25 9 17
26 9 17
25 9 17
26 9 18
26 9 17
28 14 23
39 32 45
47 52 71
62 78 104
63 82 110
63 82 107
66 84 111
67 85 113
66 83 111
63 81 107
65 84 109
63 80 104
58 76 98
63 80 107
63 82 109
66 85 113
66 85 113
62 81 106
68 88 117
66 84 112
62 82 109
62 82 108
67 86 113
65 85 112
65 83 111
61 81 106
64 84 111
68 89 118
65 84 111
64 82 109
64 83 113
64 82 110
61 80 109
61 80 107
67 86 117
62 81 107
61 79 107
66 84 112
67 87 117
64 84 112
64 84 112
65 84 112
64 82 111
18 88 35
16 80 32
14 72 27
15 74 30
13 69 27
46 85 81
66 88 116
65 87 112
69 90 121
64 86 114
69 90 122
66 88 114
70 91 120
68 90 121
70 91 121
67 87 118
69 90 120
68 88 117
69 90 120
69 90 120
61 83 107
70 92 120
68 91 119
69 89 117
68 89 119
67 88 117
70 91 122
71 92 123
65 87 114
69 90 120
69 92 121
72 93 122
68 89 118
66 87 115
67 89 117
69 91 121
66 88 115
67 88 118
67 87 115
68 90 120
66 87 115
70 91 121
69 90 121
70 92 121
71 93 122
71 91 122
70 92 123
69 90 120
70 92 121
65 85 113
71 91 122
66 86 115
71 92 122
72 93 124
71 92 124
71 91 122
69 90 119
72 93 126
69 90 119
73 94 126
69 90 119
67 88 118
69 91 122
68 88 117
68 89 119
67 87 116
71 92 121
70 91 121
65 81 105
67 75 67
92 100 78
98 99 79
116 112 83
134 126 101
144 137 115
155 143 127
152 141 126
144 135 123
148 139 125
156 148 133
164 155 140
166 157 142
165 154 137
163 154 139
167 158 142
160 150 140
161 153 140
162 154 140
153 145 135
147 139 130
137 129 120
132 124 112
133 124 112
146 137 120
134 126 108
122 117 99
111 106 89
83 78 69
66 63 53
55 54 48
57 60 50
55 66 76
64 83 110
63 83 110
59 78 105
61 81 109
61 79 105
55 73 96
58 76 101
61 79 104
57 74 98
58 76 101
53 70 92
51 67 89
47 62 81
48 64 85
49 63 83
43 56 74
46 60 78
42 55 71
37 48 62
29 38 48
25 33 42
27 35 43
23 29 37
21 28 34
22 28 35
20 26 31
18 23 29
15 20 24
16 22 27
19 24 31
15 21 25
23 32 36
26 36 42
27 37 42
26 38 39
29 41 45
28 40 42
32 45 47
34 48 52
30 44 41
35 50 51
30 47 40
43 60 63
38 55 56
35 52 51
46 63 72
43 61 64
43 61 64
53 72 83
52 70 83
50 69 79
48 65 76
53 72 88
46 62 75
43 57 73
42 55 72
42 56 70
43 56 74
42 56 70
52 67 88
54 69 92
54 72 88
56 72 90
63 82 105
62 80 101
62 82 104
62 80 102
61 80 103
59 78 101
62 79 100
60 79 101
60 78 99
62 82 105
59 77 98
62 81 106
63 82 108
68 87 114
63 81 104
64 80 104
67 84 108
66 84 111
62 79 102
62 79 102
60 76 99
65 83 111
61 78 102
63 81 105
66 83 107
61 78 99
60 77 98
61 79 103
61 77 101
60 77 98
62 78 101
64 81 106
62 79 104
62 79 103
65 83 109
61 76 98
61 76 99
65 81 106
63 79 102
57 73 93
63 78 101
59 79 89
49 84 60
45 84 51
48 91 55
45 84 51
50 93 55
53 98 59
45 82 50
47 89 54
46 87 53
48 87 52
49 90 55
50 93 56
49 90 56
48 89 54
50 94 58
52 97 59
47 87 52
54 101 61
46 85 51
50 93 56
48 89 54
50 92 55
50 93 56
50 94 56
50 93 56
48 89 54
49 90 55
43 80 48
44 81 49
41 74 45
43 79 47
45 78 52
52 70 76
50 61 76
51 63 78
50 61 76
57 70 88
53 65 81
48 57 70
55 67 83
53 64 78
47 57 69
52 64 80
49 58 72
48 58 71
49 59 73
52 63 78
49 60 72
52 65 81
45 53 65
46 54 67
50 60 76
51 61 74
46 55 67
51 62 75
47 57 72
53 65 81
45 54 66
52 64 78
48 59 71
49 60 74
46 55 68
49 58 69
48 59 73
48 59 74
45 54 66
47 57 71
49 59 74
50 61 75
52 63 77
47 56 67
53 64 80
42 49 58
32 29 42
27 10 24
35 12 27
37 12 27
41 13 30
42 13 30
42 13 30
40 13 29
42 13 30
42 14 30
44 14 32
41 13 30
43 14 32
41 14 30
40 13 29
40 13 30
43 14 31
41 14 30
42 14 31
42 13 30
43 14 31
40 13 29
42 14 31
44 14 32
43 14 31
42 14 31
36 12 28
31 11 25
15 7 18
7 6 16
8 7 17
8 7 17
22 25 39
47 57 73
60 75 95
57 71 89
58 72 90
57 71 90
61 76 96
56 69 86
53 68 87
60 76 98
57 72 94
56 69 88
60 75 99
62 77 100
59 73 93
61 76 97
63 79 103
61 77 102
62 77 99
62 78 100
61 78 100
65 82 107
54 67 89
41 43 59
31 20 30
23 8 15
22 7 15
25 8 16
24 8 16
25 9 17
25 9 17
24 8 16
25 9 17
25 9 17
25 9 16
25 9 17
25 9 17
26 9 17
25 9 17
24 8 17
26 9 17
25 9 17
25 9 17
25 9 17
26 9 17
26 10 18
27 12 20
40 35 49
47 50 68
56 69 93
68 88 118
59 77 101
66 84 110
58 76 100
58 75 100
66 86 114
67 86 113
64 83 112
66 87 116
64 81 105
65 85 115
66 84 110
66 85 113
62 81 109
63 80 107
66 86 114
64 81 108
65 84 111
64 83 113
65 84 113
66 84 111
69 89 119
68 87 115
67 87 116
63 81 107
66 86 115
68 87 116
63 81 108
66 86 115
68 87 116
66 84 113
66 85 113
64 81 110
65 85 115
63 82 109
66 85 114
65 84 112
66 87 119
15 76 30
13 67 27
15 76 30
15 78 30
22 66 41
61 85 106
63 85 112
67 89 117
63 85 111
67 88 119
66 87 116
67 88 119
67 89 118
69 90 120
68 89 118
68 89 119
65 88 116
65 86 114
61 82 106
67 88 117
66 87 115
67 89 117
68 89 120
68 90 121
67 89 117
68 90 121
67 88 116
67 88 118
69 90 119
67 88 119
68 90 119
69 89 119
67 88 118
68 90 118
68 90 121
71 91 120
69 90 118
66 87 116
66 87 115
68 89 119
68 89 117
68 90 117
68 90 120
69 91 122
71 92 123
71 92 122
70 92 121
69 90 120
70 92 122
69 91 120
69 90 120
67 87 116
70 90 119
68 90 119
70 90 120
71 92 123
71 93 123
71 92 123
69 90 120
69 89 118
72 92 122
73 92 123
71 93 122
68 88 117
70 91 121
69 90 119
69 89 119
68 89 119
66 80 100
62 73 65
71 82 63
83 90 66
96 95 72
108 106 81
127 119 101
120 112 97
124 115 103
134 124 112
130 122 109
136 128 112
150 139 124
147 135 120
153 140 121
150 139 124
156 145 132
151 140 131
154 142 131
150 140 128
132 125 115
118 112 108
113 105 100
106 99 93
124 116 104
119 112 99
105 101 85
100 98 84
93 90 76
83 82 69
71 68 59
59 56 50
63 64 56
54 65 74
62 81 107
65 85 114
66 86 113
63 82 107
62 80 107
64 83 111
60 79 105
59 77 102
55 73 97
55 72 96
54 71 93
55 72 94
53 71 95
53 69 92
52 68 88
49 64 84
46 60 78
39 52 68
45 58 75
42 54 70
38 50 66
37 49 63
38 49 64
39 50 66
39 50 63
35 45 57
34 44 57
34 44 55
33 43 53
39 51 61
39 50 64
36 48 59
39 52 64
34 47 54
38 52 60
37 49 59
39 54 63
44 61 71
42 60 63
44 60 69
46 63 73
40 57 61
45 62 68
45 64 72
51 69 81
50 68 81
52 71 84
52 69 84
56 77 88
50 67 83
42 56 70
43 57 71
38 48 65
36 46 66
28 34 51
24 27 49
22 24 44
24 26 47
28 31 53
23 25 43
24 28 46
37 45 66
41 52 72
53 68 92
55 71 93
57 76 95
64 84 110
62 81 104
62 81 104
62 80 102
59 77 97
60 78 98
62 81 102
62 81 102
62 81 105
62 80 103
61 78 100
61 78 101
59 77 100
61 77 100
61 79 103
63 81 106
66 83 107
66 84 110
61 79 102
65 83 105
62 79 101
65 81 104
63 80 103
64 83 109
55 70 92
64 79 102
67 85 110
63 78 101
61 78 101
64 80 104
61 79 100
59 75 97
62 78 100
65 83 105
58 73 95
63 80 104
63 80 103
63 78 100
57 81 81
45 81 53
51 95 57
47 86 51
47 86 52
50 93 56
46 84 51
45 84 51
45 83 51
43 81 50
50 91 56
46 86 54
43 80 49
44 81 50
46 84 52
51 93 56
47 86 52
48 90 55
48 90 55
48 87 52
50 93 56
50 93 57
49 91 55
45 81 49
43 79 48
50 91 55
44 80 49
48 87 52
45 82 49
46 85 51
45 83 49
45 82 49
43 77 48
47 67 65
53 64 78
55 68 86
49 61 76
52 62 76
58 72 91
50 62 78
53 65 80
51 62 77
57 69 87
51 62 77
55 66 84
46 57 70
53 65 80
50 60 75
54 67 83
51 61 74
47 58 72
53 63 78
51 61 76
56 68 86
45 55 67
51 62 79
51 62 78
51 61 76
47 57 71
52 64 80
52 64 80
49 62 78
48 60 72
47 58 71
53 66 82
52 64 81
52 62 77
54 65 80
55 66 81
50 61 77
52 64 81
50 62 74
45 55 66
49 53 67
35 24 37
36 12 26
40 13 28
41 13 30
41 13 30
40 13 29
37 12 28
41 13 30
40 13 29
40 13 29
40 13 29
43 14 32
41 13 30
43 14 31
43 14 30
41 13 30
43 14 31
44 14 32
43 14 31
42 14 30
41 13 30
39 12 28
41 13 30
44 14 31
41 13 30
41 13 30
39 13 28
38 13 28
25 10 23
12 7 17
7 6 16
8 6 17
20 23 35
46 58 75
60 75 94
61 74 93
60 75 96
59 75 97
60 76 99
57 71 90
61 78 100
55 68 86
57 72 91
58 73 92
61 77 98
64 79 100
60 76 99
58 72 93
66 84 109
62 78 102
61 76 96
61 76 99
62 78 101
55 67 88
39 39 53
31 21 31
22 7 14
24 8 15
24 8 16
23 8 15
25 8 16
23 8 15
25 8 16
25 9 17
23 8 16
24 8 16
24 8 17
25 9 17
25 9 17
24 8 16
25 8 16
24 8 16
26 9 17
24 8 16
25 9 17
25 9 17
24 8 16
24 8 16
25 8 16
26 11 20
34 25 37
49 56 76
63 79 105
66 87 118
64 81 109
65 84 112
67 85 113
66 85 113
63 79 103
63 81 108
69 89 117
65 84 113
65 84 111
63 81 107
65 84 112
65 85 113
64 82 108
65 83 109
60 78 102
67 86 113
65 84 112
67 85 114
66 85 112
64 82 109
66 83 111
66 84 113
67 87 116
69 90 120
66 84 112
65 84 113
66 85 113
64 83 111
64 83 111
65 84 113
69 88 120
65 85 110
65 84 113
65 84 114
68 87 117
64 84 112
14 70 28
13 68 27
14 71 28
17 65 34
47 79 81
63 84 111
66 88 115
64 85 112
63 85 109
64 86 115
63 85 112
71 92 123
66 87 115
63 86 109
66 89 116
68 90 118
64 85 112
69 90 116
65 88 113
68 89 118
67 88 118
67 87 114
65 86 112
67 89 119
67 89 118
67 89 117
66 86 112
67 88 117
68 90 120
68 90 117
66 87 116
66 88 116
66 87 116
71 92 123
68 89 118
72 93 124
70 91 122
68 88 116
69 90 120
70 91 122
71 93 124
67 88 116
69 90 119
69 90 121
68 89 119
70 91 123
70 91 119
70 91 120
69 90 118
67 88 118
64 85 113
69 91 121
72 93 123
68 89 119
69 91 121
66 86 114
70 91 123
71 93 125
72 93 124
72 93 124
72 93 125
71 92 123
69 88 115
68 89 118
71 92 121
68 90 118
71 92 123
68 89 120
64 80 101
52 63 62
53 64 49
73 78 55
78 78 56
88 87 69
91 88 73
99 89 80
88 81 75
94 88 79
108 101 90
134 123 110
138 126 107
129 117 100
139 125 107
130 115 102
142 128 117
123 113 107
112 106 103
114 107 104
91 88 90
98 92 89
81 77 79
69 64 60
91 85 77
89 83 75
86 82 71
77 77 65
76 76 65
70 70 60
61 62 57
59 58 53
55 58 51
56 69 81
63 83 109
67 88 118
62 82 108
62 81 107
62 81 107
62 82 111
60 79 105
65 85 113
57 75 101
56 73 97
60 78 105
62 80 107
60 79 104
56 72 96
52 69 91
55 72 93
54 71 95
51 67 89
51 67 88
52 68 89
48 62 82
51 66 86
47 62 81
48 64 83
47 62 80
47 60 77
46 62 78
48 63 82
47 61 78
47 60 76
42 56 70
46 59 75
45 61 76
43 58 69
49 65 81
43 59 73
51 67 84
45 61 72
55 73 92
51 71 83
45 61 71
55 73 88
52 70 85
57 78 95
52 71 85
52 70 85
56 75 91
51 68 85
43 55 74
38 48 68
29 33 53
20 22 41
19 20 39
13 11 30
12 9 30
11 7 27
11 8 29
11 8 29
11 7 28
11 8 29
12 9 29
14 12 32
20 21 41
25 28 49
38 46 69
40 51 66
57 73 95
61 78 99
65 84 109
64 81 105
67 86 112
65 83 107
66 85 112
63 82 104
58 76 98
64 82 107
61 78 101
61 79 100
66 85 112
63 82 109
66 84 108
60 77 99
65 83 108
64 81 106
66 84 111
67 86 113
65 83 107
59 75 97
64 81 105
62 79 103
63 81 106
62 78 102
67 83 107
62 78 99
63 81 104
58 75 97
63 81 105
62 80 103
59 75 96
60 74 96
63 79 103
63 79 102
61 77 98
62 78 101
55 78 79
50 88 58
47 87 52
47 86 52
45 83 51
48 89 53
44 82 49
48 90 54
42 78 48
48 89 54
48 87 52
42 78 46
44 81 49
51 94 57
52 95 58
51 94 56
46 85 52
49 89 54
47 87 52
47 86 52
50 93 57
44 81 50
50 91 55
45 83 50
47 87 52
52 96 57
49 89 54
43 79 47
40 72 43
44 80 48
40 73 44
45 82 49
37 65 42
46 67 65
52 65 83
58 71 90
58 72 91
59 72 92
57 70 89
57 68 84
54 66 84
53 65 83
53 66 83
53 66 82
55 70 89
56 70 89
53 66 82
53 66 85
54 65 80
51 63 80
56 68 86
55 68 86
53 66 85
58 71 87
48 59 74
52 64 80
50 62 78
51 61 76
50 61 75
55 67 87
51 62 78
51 62 76
54 67 84
49 60 75
52 63 80
53 64 78
54 67 82
45 56 69
50 62 77
50 61 76
52 64 79
51 62 78
53 64 81
48 48 63
39 22 37
40 13 29
36 12 26
41 13 29
41 13 30
40 13 29
42 14 31
40 13 29
43 14 31
40 13 29
40 13 30
42 14 30
43 14 31
43 14 31
41 13 29
40 13 30
41 14 31
39 13 28
38 13 28
41 13 29
41 13 30
41 13 30
39 13 29
38 12 28
40 13 29
39 13 28
39 13 29
37 12 26
33 11 25
21 8 20
7 6 15
7 6 16
12 13 23
42 53 69
56 71 90
56 71 89
58 72 93
62 77 98
60 76 97
58 71 89
58 73 94
61 76 100
62 77 99
61 76 97
59 74 92
62 78 101
59 74 95
64 80 104
65 82 106
59 73 95
64 80 105
60 77 101
59 75 98
49 56 75
26 16 24
21 8 15
23 8 15
23 8 15
24 8 16
24 8 16
24 8 15
25 8 16
24 8 16
26 9 17
25 9 17
23 8 16
25 9 17
23 8 16
25 8 16
23 8 15
24 8 16
24 8 16
25 8 16
25 9 17
25 8 16
25 9 17
25 8 16
25 9 16
25 9 17
25 8 16
25 10 19
36 31 44
55 65 89
62 80 105
66 84 112
62 79 104
63 80 108
66 85 114
67 86 116
66 84 112
62 80 107
64 83 111
65 83 110
67 86 115
65 85 115
64 83 112
66 84 111
65 83 110
65 83 109
68 87 116
64 83 110
65 81 106
67 87 117
65 84 110
61 78 104
66 86 116
64 82 110
63 81 109
66 84 114
65 84 112
64 83 110
64 83 112
62 80 108
68 87 116
65 82 110
64 83 110
63 81 108
66 85 114
66 85 115
68 88 118
11 57 22
13 68 26
14 59 29
37 71 67
63 85 113
66 88 116
63 85 109
66 89 117
60 82 104
63 85 111
66 86 114
62 85 111
64 86 113
64 87 114
65 87 111
71 92 122
66 87 115
60 82 106
66 88 117
68 89 116
65 87 112
65 87 115
66 87 117
67 90 117
63 84 111
68 90 118
68 89 117
68 91 119
66 88 116
67 89 118
67 88 117
66 88 114
69 91 120
65 86 116
70 90 119
67 89 117
67 89 116
66 87 112
67 89 119
69 92 120
68 90 122
68 89 117
68 90 119
65 86 112
69 91 119
72 94 125
71 93 123
67 88 115
70 91 121
69 90 120
71 92 124
68 90 120
68 90 120
71 91 122
71 92 124
69 88 117
72 94 125
71 92 123
72 93 124
69 90 119
69 91 121
68 89 116
72 93 123
72 93 124
71 92 123
69 90 120
72 93 122
70 90 120
67 82 103
53 63 64
56 65 52
53 60 42
64 65 48
68 70 52
79 74 64
75 70 66
75 69 67
76 71 67
78 72 69
93 89 79
102 96 82
114 104 88
109 98 83
107 95 86
113 101 93
101 94 93
88 83 88
81 78 86
63 65 75
65 62 64
47 47 56
59 57 57
66 64 60
72 69 62
73 73 64
66 67 57
57 59 51
67 68 62
58 59 53
61 60 56
60 63 56
56 66 76
68 88 117
64 83 111
67 87 116
66 85 113
65 85 112
62 82 111
59 78 104
60 80 105
60 78 104
64 83 110
61 80 108
63 82 109
60 79 105
57 75 99
60 79 106
58 76 102
59 77 103
62 80 106
60 77 100
53 69 92
51 68 89
57 73 97
55 73 95
55 72 96
58 74 97
50 65 85
56 72 91
54 71 94
57 75 99
57 73 93
57 75 96
56 74 96
57 76 99
57 75 98
54 73 90
54 72 89
57 75 95
60 78 101
61 81 105
58 75 96
57 77 97
54 72 90
61 79 103
55 74 91
58 75 95
55 72 91
53 68 90
44 55 77
26 31 49
20 21 42
13 11 32
10 7 27
10 7 27
11 7 28
11 7 28
11 7 28
11 7 28
11 7 27
11 7 28
11 7 28
11 7 28
10 7 27
11 8 28
12 8 29
18 18 39
29 34 54
39 47 68
46 59 83
62 81 104
64 82 107
65 82 106
64 82 105
65 82 106
64 82 108
65 84 110
65 84 111
64 83 107
64 82 106
62 80 105
63 82 111
66 85 112
63 81 108
63 81 105
66 84 109
66 83 107
62 79 103
64 83 105
62 79 101
66 84 110
64 81 104
61 80 103
63 81 106
61 77 100
63 80 103
61 77 98
62 78 100
61 78 102
68 86 110
66 84 110
66 84 108
64 81 104
62 78 99
61 76 98
61 76 97
52 76 79
45 80 53
42 78 47
46 85 51
40 75 45
46 84 51
50 90 54
44 81 49
42 79 49
45 82 50
47 86 52
44 82 50
44 81 50
46 85 52
47 85 52
46 85 51
40 75 46
44 81 50
46 85 51
47 88 53
45 83 50
43 80 48
46 84 50
42 77 47
46 85 51
44 79 47
46 85 51
45 81 48
43 79 48
42 77 46
42 77 46
44 79 47
37 67 41
47 69 65
56 70 85
56 69 86
57 72 93
58 74 96
57 70 88
54 66 82
54 68 84
57 70 89
55 67 85
58 72 91
53 67 83
58 73 94
52 65 82
55 69 86
57 71 91
56 69 85
54 66 81
58 71 90
50 63 81
55 67 84
53 66 84
53 65 82
55 69 87
49 60 75
49 60 74
58 71 89
52 64 80
48 59 72
53 65 78
57 69 85
54 67 83
60 74 92
56 69 87
48 59 75
54 66 81
57 72 90
50 62 75
55 67 82
47 51 63
42 28 41
39 14 29
38 12 28
38 12 28
37 12 26
40 13 29
41 13 30
42 13 30
43 14 31
42 13 30
41 13 30
40 13 28
40 13 29
40 13 29
39 12 28
42 13 30
41 13 30
41 13 30
38 12 28
41 13 30
42 13 30
40 13 29
40 13 29
39 13 28
39 13 28
42 13 30
41 13 29
36 12 26
38 12 27
39 12 27
24 9 20
13 6 16
8 6 15
20 23 36
49 62 81
57 71 91
58 75 95
60 75 95
57 72 93
56 71 88
58 74 94
56 71 90
63 80 102
58 74 95
66 84 110
60 75 95
63 80 105
57 72 95
63 78 101
61 76 96
59 76 99
62 77 99
63 78 101
48 54 73
30 24 35
22 8 15
24 8 15
20 7 13
23 8 15
23 8 15
23 8 15
23 8 15
25 8 16
24 8 16
25 8 16
23 8 16
24 8 16
24 8 16
25 8 16
24 8 16
26 9 17
24 8 16
24 8 15
23 8 16
24 8 16
22 8 15
25 9 17
25 8 16
24 8 16
25 8 16
23 8 15
24 8 15
25 12 20
38 35 49
54 63 84
65 82 109
65 83 110
64 83 113
66 85 114
65 83 112
65 84 111
63 81 108
64 82 109
63 81 109
66 84 111
62 81 107
65 84 112
63 82 110
67 86 113
67 86 115
68 88 117
66 83 110
63 82 108
66 86 116
61 78 106
65 84 115
67 86 116
65 83 112
63 82 110
65 84 114
67 87 118
65 86 116
67 85 113
62 79 106
63 82 112
64 81 111
65 85 115
65 84 114
67 86 118
62 81 110
64 82 111
12 65 25
14 62 28
35 67 61
54 78 96
60 81 104
61 82 105
53 75 92
59 81 101
64 85 113
58 80 101
63 85 110
62 85 110
62 84 107
62 84 107
61 85 108
65 86 115
65 89 114
61 82 106
62 84 107
62 86 111
63 84 108
64 84 111
67 90 115
67 88 115
70 91 119
66 88 112
66 88 116
67 89 118
64 86 111
69 92 121
69 91 121
69 90 120
66 87 112
71 93 121
66 87 116
67 89 117
70 91 122
67 87 116
69 91 119
67 89 117
68 89 117
70 91 122
68 89 118
70 91 120
68 89 118
68 89 119
70 91 121
67 86 114
68 89 117
68 89 118
69 90 120
70 91 122
68 90 119
69 90 119
70 90 120
66 87 115
67 87 116
70 91 122
69 91 122
69 90 119
71 91 122
70 91 120
68 89 118
71 92 122
68 89 118
67 87 115
67 88 116
71 91 122
66 84 109
56 64 66
53 60 51
61 63 55
59 63 48
61 64 52
68 69 60
67 65 62
53 51 51
55 54 53
56 56 54
73 72 66
76 72 61
85 80 72
78 72 62
74 69 65
81 75 74
80 77 76
65 63 67
70 67 69
57 58 58
36 39 49
39 40 44
47 47 47
55 54 52
65 63 60
57 59 53
61 62 59
59 59 53
61 63 60
59 59 55
61 61 58
62 63 61
55 67 81
63 82 110
64 83 111
68 88 117
65 84 111
67 86 114
67 88 118
68 88 116
62 81 108
63 82 109
65 84 113
67 86 114
62 81 108
61 80 106
66 86 116
60 79 104
62 80 106
62 80 106
60 78 102
61 80 106
59 78 102
59 76 102
61 80 107
57 74 97
58 76 99
61 79 105
62 80 107
60 79 105
60 79 103
56 76 99
58 77 100
57 73 96
60 80 104
57 74 95
62 81 108
54 72 91
60 79 102
57 75 96
59 78 101
62 80 106
58 78 99
62 79 101
59 78 98
60 79 102
63 84 108
56 74 93
45 57 77
35 43 63
21 22 42
14 12 31
12 8 29
11 7 28
11 7 28
11 7 28
11 7 28
11 7 28
11 7 28
11 7 28
10 7 27
10 7 27
10 7 27
10 7 27
10 7 27
10 7 26
11 7 27
10 7 27
12 8 27
19 20 40
37 44 66
47 58 82
57 74 100
65 84 110
65 84 107
62 79 102
66 86 112
63 81 106
66 84 107
63 81 104
62 80 105
63 81 104
61 79 102
59 77 96
61 78 99
63 81 105
60 77 102
62 78 104
66 86 114
65 83 108
63 80 103
63 81 105
68 87 115
65 84 107
63 81 106
65 82 106
63 79 103
63 83 108
67 86 114
65 84 110
63 81 105
63 81 105
61 78 100
60 76 99
60 77 100
64 81 103
64 81 104
55 82 81
40 75 46
44 80 48
39 72 44
44 81 49
44 81 48
46 84 50
50 90 53
43 79 47
41 75 46
43 81 49
43 79 48
43 80 49
43 80 47
43 79 48
44 82 50
42 78 48
42 78 47
46 84 51
42 78 48
46 84 50
45 82 50
50 90 54
41 77 46
49 90 55
51 92 55
46 82 50
45 83 50
40 75 45
41 75 45
46 85 51
34 61 37
34 60 37
52 76 75
51 64 81
63 78 101
60 75 96
59 73 93
58 73 92
63 79 102
59 74 95
60 76 97
57 72 90
59 74 96
57 70 89
58 72 91
56 70 89
56 69 88
56 69 87
59 75 96
53 67 86
57 70 89
58 73 91
57 71 92
59 73 92
51 66 82
57 70 88
55 69 88
53 65 80
57 71 91
52 64 81
55 67 82
58 72 91
54 67 82
53 66 83
56 70 86
56 69 86
52 64 80
51 63 78
54 67 83
48 60 76
52 62 77
43 42 55
35 17 30
36 12 26
36 12 26
35 11 26
38 12 28
36 12 27
35 11 25
40 13 29
41 13 29
39 12 28
39 13 29
41 13 29
38 12 28
41 13 30
39 13 28
40 13 28
40 13 29
40 13 29
42 13 30
40 13 28
43 14 30
40 13 28
39 13 28
39 13 28
38 12 27
35 11 26
39 13 28
38 12 28
37 12 26
39 13 28
28 9 22
20 8 19
8 5 14
21 24 36
48 60 77
55 70 90
58 73 92
57 71 90
61 76 97
59 74 95
57 73 93
59 76 97
59 76 99
62 80 104
58 74 95
62 79 102
56 70 87
60 76 99
60 76 98
55 68 86
62 78 101
61 78 101
57 71 94
35 30 41
21 9 16
20 7 13
22 7 14
20 7 13
22 7 14
23 8 15
23 8 15
24 8 16
25 8 16
24 8 15
22 7 15
24 8 16
23 8 15
23 8 15
23 8 15
24 8 16
24 8 16
24 8 16
25 9 17
25 9 17
25 9 17
25 8 16
24 8 16
23 8 15
23 8 15
24 8 16
23 8 15
23 8 15
22 8 15
26 14 23
44 46 64
62 77 102
68 87 117
64 82 109
63 81 106
67 84 112
65 83 110
64 84 112
65 84 113
66 85 114
66 84 114
66 85 113
66 85 113
68 88 118
64 82 111
66 85 114
63 81 108
65 84 112
65 83 111
66 84 112
65 84 112
67 85 114
63 81 109
63 81 109
68 87 116
65 84 113
67 86 116
65 84 113
67 85 115
66 85 115
66 85 113
65 84 114
64 82 110
68 88 119
66 84 112
65 83 113
64 83 112
17 58 32
37 64 65
50 74 88
48 70 86
55 77 94
58 79 99
56 77 97
57 78 99
53 76 95
59 81 105
60 83 105
57 80 100
56 78 97
61 82 108
65 85 111
65 87 112
61 83 109
64 85 111
69 90 119
64 86 111
62 85 111
65 86 111
68 91 118
66 87 113
65 87 113
68 90 117
65 88 113
68 90 116
69 91 119
63 86 110
67 89 116
68 89 117
66 88 115
67 88 116
67 88 116
72 92 124
71 93 123
68 89 118
69 91 120
69 89 117
68 89 119
67 89 116
64 86 112
71 92 123
70 89 116
71 92 122
73 94 126
70 91 121
70 92 122
68 89 118
70 91 121
67 89 115
69 91 120
71 92 124
71 92 122
68 88 118
71 92 121
71 92 122
68 89 117
69 90 120
69 90 122
71 92 123
70 92 123
69 90 121
68 88 116
68 89 117
69 89 117
71 91 120
67 87 116
59 69 78
61 64 61
56 60 55
54 58 44
61 64 54
61 61 55
65 64 61
56 55 55
49 49 48
49 50 48
62 62 58
64 64 59
65 62 59
70 68 62
67 65 60
64 61 65
66 64 66
63 62 63
53 54 61
56 58 63
48 49 51
46 47 52
50 50 48
62 61 58
62 63 61
62 63 61
60 61 58
63 65 61
65 65 61
66 66 64
63 63 58
57 61 61
63 78 98
64 84 111
67 87 116
65 85 114
68 88 118
68 88 117
62 81 108
66 86 114
67 87 115
65 84 112
64 84 111
64 83 111
66 85 112
63 81 107
59 76 101
63 82 110
65 84 112
65 86 115
61 79 103
63 84 111
65 83 110
62 82 110
63 82 109
62 80 103
65 85 113
61 80 107
59 78 101
65 85 112
66 86 113
67 86 114
65 85 113
62 80 104
61 81 107
62 82 104
61 79 103
61 78 100
64 83 109
60 77 102
63 83 109
65 84 108
65 84 109
61 81 106
61 81 106
66 85 113
61 80 106
43 52 75
27 31 50
16 15 33
13 10 30
11 7 27
10 7 27
10 7 27
10 7 27
10 7 28
10 7 27
11 7 28
10 7 27
10 7 27
11 7 28
11 7 28
10 7 27
10 7 27
10 7 27
11 7 28
11 7 27
10 7 27
10 7 25
10 7 26
15 13 33
31 36 56
45 56 79
61 78 104
64 83 108
60 78 101
65 84 108
65 84 109
66 85 110
66 85 112
66 86 111
64 81 106
63 82 105
63 79 104
65 84 111
66 83 108
65 84 110
62 82 103
61 79 104
63 79 103
66 86 112
63 81 108
67 87 114
67 85 113
62 80 105
66 83 109
67 86 115
64 82 107
67 85 113
63 81 104
65 83 110
64 83 107
59 75 98
65 82 108
64 82 107
61 76 98
64 79 102
54 76 83
45 79 54
39 70 42
42 76 46
45 83 50
40 74 45
46 85 51
39 72 44
46 86 52
41 75 45
42 77 48
41 77 46
39 73 45
47 88 53
43 79 47
44 83 51
44 82 50
45 83 50
46 84 50
42 79 49
45 84 51
43 78 47
42 76 46
44 82 49
42 77 47
40 74 44
46 83 49
42 77 46
37 68 41
44 80 48
37 66 39
42 77 46
34 60 37
48 67 71
57 73 95
56 69 88
59 75 95
61 75 94
62 78 100
56 69 88
55 68 86
58 73 94
56 69 86
61 76 96
58 72 93
58 72 92
58 72 91
59 74 95
63 78 100
62 77 97
58 72 92
58 73 92
52 66 85
57 69 88
57 71 91
57 72 90
59 74 96
51 63 78
54 68 86
58 72 92
53 65 84
52 66 85
60 73 91
58 72 90
54 68 87
54 68 86
53 66 84
53 66 83
54 67 84
54 68 84
53 66 80
50 60 77
45 38 53
37 16 30
34 11 24
37 12 27
37 12 27
36 11 26
39 12 28
36 11 26
38 12 28
34 11 24
39 13 28
39 13 28
37 12 26
39 13 28
40 13 29
38 12 27
38 12 27
40 13 29
37 12 27
42 13 30
40 13 29
40 13 29
38 12 27
38 12 28
36 12 26
40 13 28
37 12 27
38 12 27
36 12 26
36 12 27
35 11 25
35 11 25
22 8 20
13 6 15
20 25 36
53 67 81
55 70 89
54 68 85
57 71 90
61 77 98
57 73 95
58 73 93
62 78 98
60 76 95
58 73 94
57 73 94
61 77 97
62 79 101
65 82 106
63 80 103
62 78 102
62 79 101
60 75 96
50 61 79
29 21 32
19 6 12
21 7 13
22 7 14
23 8 15
21 7 13
22 7 14
25 8 16
24 8 16
24 8 15
23 8 15
22 7 15
23 8 15
24 8 16
23 8 15
24 8 16
25 8 16
25 8 17
25 8 16
21 7 14
24 8 16
23 8 15
24 8 15
26 9 17
25 9 16
24 8 16
22 7 14
24 8 15
23 8 15
22 8 15
24 9 17
36 32 45
53 63 87
64 82 110
65 83 111
67 87 115
65 82 108
65 85 114
67 87 117
67 86 116
66 85 113
63 81 109
63 80 107
65 84 112
70 91 122
65 83 110
66 87 117
69 88 119
68 85 114
65 83 110
66 84 114
64 84 113
64 83 111
67 85 114
64 83 113
64 82 110
65 85 114
64 81 110
63 81 110
66 85 115
68 87 118
64 82 112
62 80 107
63 81 111
67 85 113
65 84 111
66 84 114
65 83 114
35 62 62
49 73 86
48 67 82
55 77 97
50 72 87
58 80 99
57 78 98
53 75 91
51 73 90
59 80 103
59 81 101
60 82 107
59 81 103
56 79 99
61 84 105
60 82 104
63 85 108
61 83 108
62 83 108
58 80 101
59 82 103
63 85 109
60 83 106
65 85 110
68 89 118
65 88 114
68 90 119
65 86 111
68 88 118
67 89 117
66 87 115
67 89 116
69 90 119
66 87 115
67 89 117
65 86 114
70 91 120
65 87 114
66 88 115
68 89 116
69 90 119
67 88 115
69 89 120
71 92 123
71 92 122
70 90 120
69 90 121
69 91 122
69 89 119
69 90 121
66 86 113
71 92 123
69 90 120
68 90 119
67 87 115
69 90 121
68 89 118
71 92 122
71 91 120
70 91 122
69 90 119
70 92 122
68 89 118
70 90 119
69 90 120
70 92 121
69 89 119
68 88 117
65 82 108
62 72 85
62 65 62
63 65 60
61 62 57
66 67 63
65 66 62
66 67 64
62 63 61
61 61 59
62 63 60
68 68 66
62 62 59
67 66 62
72 72 69
65 64 61
64 64 64
69 69 67
66 66 65
62 64 63
67 67 64
59 61 61
56 57 56
61 61 59
61 62 61
65 64 61
62 63 60
67 68 65
66 67 64
66 66 63
61 62 59
66 67 63
64 72 80
65 84 112
69 89 119
68 89 118
66 85 112
69 89 117
64 82 109
67 86 115
64 84 112
68 87 116
66 85 113
65 84 110
66 86 114
63 83 109
65 83 109
63 81 108
65 84 112
65 84 112
65 84 112
66 86 114
65 86 117
66 87 115
64 83 111
67 87 116
65 84 110
62 81 107
64 84 110
66 85 113
64 83 110
68 88 119
64 83 110
63 82 107
64 83 105
62 82 107
61 79 104
65 84 111
65 84 111
65 84 112
67 87 115
66 85 111
64 85 112
62 80 106
65 87 110
63 82 107
59 77 98
47 60 85
27 30 51
17 16 36
11 7 27
10 7 27
10 7 27
10 7 27
10 7 28
10 7 27
10 7 27
10 7 27
10 7 27
10 7 26
10 7 27
9 7 27
10 7 26
11 7 28
10 7 27
11 7 28
10 7 27
10 7 27
10 7 26
10 7 26
10 7 26
11 7 27
14 13 32
27 30 51
41 51 74
62 81 105
62 81 104
67 86 114
65 83 110
63 82 106
64 84 110
68 88 115
64 82 107
66 85 110
65 83 108
64 81 104
62 79 102
63 82 105
63 82 106
65 84 109
63 81 106
62 80 105
61 77 100
64 83 104
66 84 111
65 83 111
61 79 101
62 80 104
66 84 110
63 81 104
64 82 107
67 86 113
63 80 104
59 75 95
64 81 105
65 82 104
63 80 103
64 81 107
61 84 97
45 77 56
40 74 44
45 83 49
36 65 39
39 73 44
42 77 46
37 70 43
39 71 43
42 78 47
41 76 47
44 81 49
40 72 44
42 79 48
41 74 45
42 78 47
40 74 45
42 77 47
43 80 48
44 81 49
43 80 48
44 81 49
38 69 42
41 74 44
41 75 45
47 85 51
42 77 47
40 73 44
42 77 46
36 66 40
39 70 42
36 66 40
38 65 42
52 70 77
62 78 101
61 77 100
62 80 103
62 77 101
60 75 96
62 78 100
63 79 102
59 75 97
57 72 93
54 67 85
61 76 97
60 75 97
57 73 94
58 73 96
57 70 92
64 80 103
56 71 92
56 73 94
62 79 102
52 64 79
54 67 85
56 70 87
58 73 92
58 72 90
57 70 90
55 69 86
57 71 89
56 70 89
55 69 85
53 66 85
52 66 83
57 72 92
55 69 86
55 69 86
51 65 80
51 64 80
51 63 78
46 50 64
38 20 35
32 10 23
35 11 25
38 12 27
39 13 28
39 12 27
35 11 26
35 11 26
36 12 26
39 12 28
37 12 27
37 12 27
40 13 29
39 12 28
40 13 28
40 13 29
38 12 27
38 12 28
38 12 28
35 11 25
39 13 28
38 12 28
38 12 28
38 12 27
35 11 26
38 12 27
38 12 27
36 11 25
36 12 26
34 11 25
34 11 24
33 11 24
26 9 20
12 6 14
29 36 49
49 61 75
56 71 88
52 65 80
59 75 97
56 71 89
57 72 93
60 76 97
58 73 92
59 74 95
57 72 92
62 79 100
62 79 102
59 75 95
57 73 95
64 81 104
62 79 104
64 81 104
57 70 91
33 32 43
19 8 14
21 7 13
22 7 14
21 7 13
22 7 14
22 7 14
23 8 15
21 7 14
23 8 15
22 8 15
23 8 15
23 8 15
23 8 15
22 8 15
23 8 16
25 8 16
23 8 15
24 8 15
24 8 16
23 8 15
23 8 15
21 7 14
21 7 14
22 8 15
24 8 15
23 8 15
21 7 14
22 8 14
23 8 15
22 8 14
22 8 14
29 19 29
41 41 57
64 80 108
66 84 112
68 88 118
64 83 111
68 87 115
65 83 108
67 86 113
69 89 120
63 80 106
68 88 117
67 85 113
65 85 113
67 87 117
62 81 109
64 84 113
67 85 115
66 85 113
67 85 116
63 80 106
64 82 112
61 77 106
65 85 115
67 84 115
66 86 114
66 85 114
66 86 116
66 85 117
66 85 113
64 83 113
67 87 118
64 83 114
61 78 108
61 78 105
64 82 112
64 82 112
40 60 68
42 60 70
45 66 77
45 66 76
45 67 77
48 68 81
50 72 86
44 66 77
49 73 86
57 80 100
50 71 87
54 77 95
58 80 101
58 80 100
51 73 88
58 79 95
61 84 106
60 82 103
61 84 107
60 84 106
60 82 106
62 85 108
65 87 114
68 90 118
64 85 112
64 86 110
68 90 119
66 89 117
64 86 111
66 87 114
67 90 117
67 88 115
69 91 122
71 92 121
68 90 121
65 87 112
69 89 120
66 86 114
68 89 119
69 90 118
68 89 118
67 87 116
70 91 121
72 93 125
67 88 115
67 89 116
66 86 113
69 89 117
68 88 118
69 90 121
71 92 122
68 89 117
69 90 119
71 92 123
70 90 121
70 91 121
68 89 117
70 92 123
70 91 122
68 89 117
69 90 119
71 93 124
67 89 117
69 90 121
67 87 116
69 90 120
68 90 119
68 87 115
68 89 118
62 75 91
61 62 59
65 67 62
66 66 64
64 64 61
70 70 68
63 63 60
67 68 66
69 69 67
68 69 66
66 65 61
69 70 68
66 66 63
67 67 65
67 69 66
66 67 65
66 67 63
65 65 63
65 65 62
64 64 62
69 69 67
63 63 61
65 66 63
63 64 61
66 65 62
67 66 62
69 68 64
69 69 65
68 67 63
68 68 64
64 65 64
64 76 92
65 85 111
68 89 118
64 83 110
67 87 114
67 87 115
64 83 109
64 83 108
66 87 117
68 88 116
64 85 112
61 80 109
66 86 115
64 83 110
66 87 115
66 86 114
66 85 112
66 87 116
66 86 114
67 85 112
65 85 112
64 84 113
66 85 112
64 84 111
65 85 113
66 86 113
67 88 117
63 82 108
64 85 112
63 83 111
61 79 104
64 83 108
63 83 108
67 86 116
63 82 107
65 85 111
62 81 107
66 86 112
65 84 111
66 85 111
63 82 107
63 82 108
64 83 108
57 75 98
46 58 79
30 33 55
17 17 37
10 6 24
10 7 26
10 7 27
10 6 25
10 7 26
10 7 27
10 7 27
10 7 27
10 7 27
10 7 27
10 7 27
10 7 27
11 7 28
10 6 26
10 7 27
10 7 27
10 7 27
10 7 26
10 7 26
11 7 27
10 7 25
9 6 24
10 6 25
10 7 25
13 11 31
27 30 49
52 64 90
61 78 103
67 86 113
67 88 114
64 83 111
62 79 103
65 84 112
64 82 109
64 82 108
63 81 107
63 81 104
65 83 109
64 83 108
63 81 104
64 82 108
64 82 109
62 80 106
63 82 110
64 81 105
67 86 115
62 79 103
64 81 106
62 81 104
66 85 113
66 84 110
63 80 105
64 83 108
65 83 109
65 83 110
65 82 108
61 79 104
65 85 111
60 77 99
58 77 91
45 77 54
37 67 41
42 76 45
37 68 41
43 79 47
37 68 41
38 70 42
40 74 45
41 76 47
45 82 48
39 71 42
41 75 46
46 84 50
42 78 47
42 80 48
40 75 46
35 64 38
40 73 44
43 80 48
42 78 47
42 76 45
41 76 46
42 77 47
43 80 49
43 78 47
40 75 44
36 65 39
39 70 42
32 59 36
33 59 36
43 78 47
38 65 46
53 72 79
59 75 97
58 74 97
59 75 96
59 73 94
58 73 94
63 80 102
61 75 96
62 80 105
60 76 98
61 76 99
56 72 93
58 74 96
57 72 93
59 75 96
58 72 91
61 77 98
57 72 94
60 76 99
60 74 95
57 72 90
61 76 98
55 69 88
57 71 90
61 78 103
58 73 93
62 79 100
56 71 91
55 70 88
54 69 87
58 74 93
57 70 88
58 72 91
55 70 90
52 67 83
56 71 88
58 72 91
47 59 74
48 51 65
37 17 31
35 11 25
37 12 26
36 11 25
38 12 27
37 12 26
35 11 25
38 12 27
39 13 28
38 12 27
39 13 28
37 12 27
37 12 26
36 12 26
35 11 26
40 13 28
38 12 27
38 12 27
39 12 28
37 12 27
35 11 25
39 13 28
38 12 27
37 12 26
40 13 29
36 11 25
38 12 27
38 12 27
33 10 23
36 11 25
33 10 23
30 9 21
33 11 25
22 13 24
33 39 51
51 64 74
53 68 85
56 71 85
52 65 80
55 69 88
54 69 87
61 79 102
56 71 89
57 72 89
57 74 93
58 73 93
58 75 95
60 76 99
60 77 96
63 80 104
60 77 100
61 78 102
53 66 85
31 30 42
19 7 13
19 6 12
20 6 12
21 7 13
23 7 14
22 7 14
22 7 14
23 8 15
22 7 14
21 7 14
23 8 15
22 7 14
22 7 14
23 8 15
22 7 14
23 8 15
23 8 14
24 8 16
23 8 15
22 8 14
23 8 15
23 8 15
23 8 15
21 7 14
23 8 15
23 8 15
22 8 14
23 8 15
22 7 14
21 7 14
22 7 14
23 9 16
36 33 47
57 68 92
68 87 116
67 86 115
63 81 111
66 84 112
68 87 117
69 88 117
64 83 113
67 86 113
63 81 107
65 85 114
67 87 119
67 87 117
64 83 112
67 86 115
68 86 116
67 86 115
61 78 104
68 87 116
65 84 113
63 81 109
63 81 110
66 83 114
66 84 112
63 80 110
63 82 112
67 86 115
63 81 110
64 83 111
67 85 116
64 82 111
64 81 112
60 77 107
59 74 102
62 79 109
28 46 47
34 53 57
39 58 68
37 59 63
40 62 68
46 66 79
49 69 82
45 68 78
48 70 84
52 76 91
54 76 92
57 79 98
64 86 109
58 79 98
56 79 95
66 87 114
54 76 92
63 85 108
63 86 110
62 82 108
62 84 107
65 86 112
63 86 109
67 88 115
69 91 121
65 87 114
64 85 110
63 84 109
64 86 111
67 88 117
67 88 115
66 87 114
69 89 116
68 90 119
66 88 116
67 89 116
70 91 121
70 90 120
66 85 112
67 88 116
67 88 117
68 88 118
66 86 114
68 89 116
68 89 116
68 88 116
67 88 118
68 89 117
69 90 119
66 87 114
70 91 121
67 88 116
67 88 116
71 91 121
67 90 117
68 89 118
68 90 119
69 90 119
70 91 120
71 91 122
71 92 123
71 91 121
67 89 117
69 90 118
70 91 120
69 90 116
71 92 123
68 89 118
69 90 119
68 85 109
67 73 80
63 63 60
68 67 63
67 68 64
66 67 62
66 66 63
68 67 65
65 66 61
68 68 64
68 68 65
67 66 62
68 67 63
67 67 64
69 69 65
65 65 61
67 68 65
65 66 63
67 69 66
64 64 61
66 66 64
68 68 65
66 67 64
66 66 64
66 66 64
66 66 63
67 68 65
66 64 59
64 63 59
65 64 61
61 66 72
67 85 110
68 89 118
69 89 119
67 87 115
66 85 113
70 90 119
68 89 119
69 89 118
66 85 112
68 88 118
67 87 116
65 84 112
64 83 108
69 89 119
67 86 114
67 86 114
63 82 110
67 87 117
68 87 116
65 85 112
67 86 113
67 88 117
64 84 113
64 82 108
65 85 111
70 90 120
65 84 112
68 88 116
64 84 112
66 86 113
67 86 114
64 83 107
65 85 111
66 86 113
63 81 109
65 84 110
67 87 115
65 84 112
68 88 117
66 85 114
66 86 116
68 88 116
66 85 113
56 73 97
32 39 62
19 19 39
10 7 26
11 7 27
10 7 26
9 7 29
10 8 33
10 9 37
9 7 31
9 8 31
9 7 29
9 8 32
10 7 27
10 6 26
9 6 26
10 7 27
10 7 26
9 6 26
10 7 27
10 7 27
9 6 25
10 7 26
10 7 27
9 6 25
10 7 27
9 6 25
9 6 23
10 7 24
17 16 34
26 30 51
55 69 94
63 81 107
64 84 108
60 77 101
65 83 108
65 84 111
67 86 114
64 84 110
65 82 106
61 78 102
62 81 107
65 84 109
67 86 110
63 81 107
68 88 116
66 86 114
61 79 105
66 86 112
65 84 110
65 84 110
63 82 108
67 84 110
65 83 109
64 82 108
63 80 104
62 80 104
66 84 111
61 79 103
65 83 108
65 83 111
62 79 103
64 81 106
63 82 104
50 77 67
40 72 43
37 70 41
37 67 41
40 73 44
43 78 46
40 73 43
39 73 44
40 73 44
39 72 45
38 70 42
39 73 45
36 67 41
36 67 41
38 69 43
38 70 42
42 77 45
39 71 44
42 76 45
41 75 46
40 73 44
36 64 39
39 71 43
40 74 44
38 70 42
38 70 42
39 70 42
36 65 39
40 71 43
36 65 39
39 70 41
40 62 51
61 79 97
61 76 99
61 76 99
60 77 99
64 82 105
61 78 100
61 77 99
60 76 99
58 73 94
60 76 99
64 80 105
62 79 101
56 70 90
63 80 104
58 73 96
59 74 95
61 77 100
62 78 102
60 76 96
57 72 91
60 78 101
59 75 95
58 74 96
56 71 93
57 72 92
58 75 97
59 74 94
54 67 84
58 73 93
55 69 88
57 74 95
56 72 90
55 70 90
51 64 81
56 72 87
47 59 72
49 62 79
55 66 82
39 33 45
34 13 25
34 11 24
34 11 24
35 11 25
37 12 27
34 11 25
37 12 27
33 11 24
38 12 26
37 12 26
33 11 24
36 11 26
35 11 25
35 11 25
36 12 26
35 11 24
35 11 26
34 11 25
38 12 27
37 12 26
35 11 25
35 11 26
37 12 27
35 11 25
36 11 25
38 12 27
36 12 26
33 10 23
36 12 25
31 10 22
34 11 24
32 10 23
29 9 21
32 19 31
42 51 63
55 70 85
54 70 86
53 68 84
59 75 94
55 71 89
57 74 93
60 77 97
58 75 95
60 77 98
62 79 103
59 74 94
61 78 98
63 80 104
61 77 96
63 81 105
59 77 99
58 73 95
44 50 68
27 20 29
17 6 11
19 6 12
20 6 12
19 6 13
20 7 13
22 7 14
22 8 15
20 7 13
21 7 14
22 7 14
21 7 13
22 8 14
23 8 15
22 8 15
23 8 15
23 8 15
21 7 14
23 8 15
21 7 14
25 8 16
22 8 14
22 7 14
21 7 14
21 7 13
21 7 14
22 8 14
22 7 14
20 7 14
22 7 14
22 7 14
21 7 14
20 7 13
30 24 35
50 56 75
65 84 112
61 79 105
67 85 113
64 83 110
67 87 116
68 86 114
65 82 110
63 80 106
63 81 109
63 81 106
68 88 118
69 88 120
67 85 114
67 85 114
65 84 114
64 81 111
66 84 112
65 83 113
65 84 113
65 84 114
62 80 106
61 78 105
69 88 117
70 89 118
61 77 105
66 85 114
65 84 113
69 89 119
61 79 107
65 83 111
64 83 113
65 82 114
62 77 105
66 84 116
31 45 55
27 48 46
40 60 66
38 58 65
41 61 69
42 65 73
48 68 80
50 71 85
50 70 85
50 71 85
58 81 100
54 75 94
56 79 97
58 80 100
61 83 104
60 82 106
58 80 100
63 85 108
62 84 109
67 91 115
62 85 110
63 85 112
60 81 105
62 84 108
66 87 112
66 90 115
65 88 112
64 85 111
67 88 117
65 86 111
69 90 119
64 85 111
66 88 116
68 89 118
71 91 121
68 89 117
71 92 122
64 86 113
70 91 122
69 89 119
69 91 119
68 90 119
67 88 116
70 92 121
68 88 115
67 89 117
70 90 118
69 89 118
70 90 119
69 90 119
67 86 113
71 91 122
66 87 116
69 90 117
69 90 120
72 93 123
69 90 119
69 89 119
68 88 117
72 93 123
71 92 121
69 90 120
66 86 115
67 87 114
68 89 119
71 91 122
70 90 118
66 86 115
67 87 115
69 89 119
62 75 92
65 67 67
68 68 65
67 67 63
65 65 61
68 68 64
67 67 64
65 64 61
64 65 62
67 66 61
66 66 64
67 67 62
65 64 61
67 66 62
68 68 65
66 65 60
66 65 61
67 66 62
67 67 64
66 64 59
67 67 63
64 64 61
63 63 60
66 65 62
66 63 57
65 64 61
63 63 60
67 65 60
62 61 58
61 70 83
68 87 116
68 89 119
67 87 117
65 84 110
64 84 111
65 82 107
67 86 113
68 88 116
69 88 117
69 89 118
63 81 106
68 88 116
67 87 116
65 85 113
67 86 113
69 89 118
67 87 117
69 89 116
67 87 116
68 88 118
69 89 118
66 84 112
68 86 113
68 88 116
68 87 116
69 89 119
65 84 112
63 81 110
67 88 117
67 86 114
68 88 115
66 86 114
65 84 109
66 86 115
69 89 118
66 86 113
68 89 115
66 85 112
70 90 119
69 89 116
68 87 114
65 84 110
56 73 97
41 50 73
25 27 48
10 6 24
10 7 26
10 7 29
8 10 41
8 11 47
7 13 63
7 18 83
6 18 87
6 17 82
6 16 77
6 15 74
6 15 74
8 10 46
8 10 43
9 7 30
9 6 27
9 6 25
9 6 25
10 7 26
9 6 25
10 6 25
10 7 26
9 6 25
9 6 23
10 6 25
9 6 25
9 6 23
9 6 23
23 26 46
39 48 70
62 79 107
65 85 111
66 86 113
67 88 116
65 84 110
63 82 108
62 79 101
68 87 115
68 89 119
67 87 114
70 89 117
66 85 111
66 85 113
62 78 102
63 80 104
63 81 105
68 88 116
67 86 112
62 79 103
66 84 112
64 83 106
68 87 114
64 81 107
62 80 103
62 81 106
66 85 111
62 78 101
64 81 105
64 83 108
63 81 103
62 80 105
65 83 107
55 78 81
40 70 46
34 63 38
37 68 41
35 65 39
38 71 44
40 73 44
39 72 43
38 71 43
39 72 43
36 67 40
42 78 48
39 73 45
41 75 45
38 72 44
42 77 47
37 68 41
39 72 44
34 63 38
37 70 44
37 67 41
38 70 42
40 75 46
39 71 42
38 68 41
34 63 38
34 63 38
36 64 38
34 63 38
34 63 38
35 63 39
43 63 63
61 78 101
63 79 103
58 72 93
61 77 101
57 74 96
62 79 102
60 76 99
63 79 103
57 73 94
61 75 96
57 73 98
58 74 96
61 77 99
59 74 95
59 76 97
59 75 98
62 80 106
56 72 94
61 78 101
61 76 98
58 73 93
62 77 100
57 73 94
60 75 97
58 73 94
55 69 86
59 75 97
54 66 83
57 72 94
59 76 96
54 69 86
57 72 89
56 71 90
56 71 92
56 70 90
57 72 92
57 72 92
49 59 75
41 36 50
34 12 25
32 10 22
32 10 23
33 11 24
38 12 27
35 11 25
37 12 26
37 12 26
35 11 25
37 12 26
35 11 25
35 11 24
37 12 27
32 10 23
35 11 26
37 12 26
37 12 27
36 11 25
37 12 26
36 12 25
33 11 24
35 11 25
37 12 27
35 11 25
33 11 24
34 11 25
37 12 26
36 11 25
31 10 22
34 11 24
34 11 24
31 10 22
29 9 21
34 22 35
43 52 64
50 64 77
58 75 92
55 71 92
61 78 98
50 65 83
57 74 90
55 70 85
59 75 93
57 73 93
58 74 94
60 78 100
62 80 103
60 75 97
60 77 99
58 75 95
60 77 98
59 75 96
40 46 61
21 13 20
18 6 12
18 6 11
18 6 12
20 7 13
22 7 14
20 6 13
22 7 14
20 7 13
20 7 13
22 7 14
21 7 13
22 7 14
22 7 14
22 7 14
22 7 14
20 7 13
22 7 14
22 7 14
20 7 13
22 7 14
22 8 14
24 8 15
22 8 14
22 8 15
21 7 14
22 7 14
20 7 13
21 7 14
21 7 14
22 8 14
20 7 13
21 7 14
23 14 22
46 49 67
60 75 101
66 85 113
67 87 115
67 86 115
68 89 118
67 86 114
70 90 119
67 86 114
67 86 116
67 86 116
64 82 107
65 82 110
64 80 107
66 85 113
64 83 111
64 82 111
67 87 118
63 81 111
67 86 116
66 85 114
65 83 113
66 85 115
68 87 116
64 83 113
65 83 111
60 77 106
68 86 117
64 82 112
61 78 106
65 83 112
64 82 113
62 79 108
59 76 102
63 79 110
30 41 52
32 48 53
38 59 63
43 62 70
44 65 76
45 65 76
44 67 76
47 70 79
54 77 95
51 73 90
51 72 86
60 83 104
54 76 93
58 79 98
60 82 102
59 80 101
62 84 108
59 81 104
62 85 107
60 81 107
60 81 102
66 87 113
63 85 110
65 87 114
66 87 113
64 86 111
66 87 114
65 87 111
67 89 117
65 86 113
68 89 118
69 89 119
66 89 115
70 91 121
67 87 116
66 87 115
67 88 117
68 90 118
69 89 118
71 91 121
68 89 118
67 90 116
71 91 119
71 91 121
65 85 112
70 90 120
69 91 120
69 89 118
70 91 122
70 91 123
71 92 124
68 88 116
68 89 115
67 86 116
71 91 121
69 90 120
68 89 116
68 88 116
71 92 122
66 85 113
67 87 116
63 83 109
70 91 121
69 91 122
71 91 121
68 88 118
71 91 119
69 90 121
67 86 115
67 87 115
69 88 112
63 69 73
63 63 59
64 63 58
66 66 63
65 65 60
68 68 64
67 66 62
68 66 62
67 65 60
64 63 59
67 66 61
64 63 59
66 64 60
64 63 57
66 66 63
63 62 58
63 63 60
63 62 59
64 63 58
62 61 56
67 66 61
66 64 60
63 61 59
62 59 54
60 58 53
65 62 57
62 61 57
60 67 76
61 77 100
65 83 111
69 88 115
68 88 118
67 86 113
67 87 116
66 86 112
67 86 115
65 84 108
66 85 113
69 89 119
66 86 114
65 83 109
69 89 118
66 85 114
68 86 112
69 87 114
69 88 116
68 87 114
67 87 114
68 87 115
68 87 117
68 87 115
70 90 120
69 88 117
70 89 117
69 89 119
68 87 115
65 85 111
69 88 116
70 89 117
65 85 114
67 87 113
68 87 115
67 86 113
67 85 111
68 87 114
68 89 119
65 85 111
65 85 110
67 87 117
66 86 113
67 85 112
54 68 94
31 36 58
13 12 33
8 11 48
7 15 71
5 19 92
5 21 101
4 24 117
4 23 112
3 28 140
2 29 145
2 29 146
4 26 128
3 27 132
3 27 135
5 22 105
5 19 93
5 18 84
8 12 54
9 7 31
9 6 25
9 6 25
9 6 25
10 7 26
9 6 25
9 6 25
10 6 25
10 6 25
9 6 23
9 6 24
10 6 24
9 6 23
24 28 46
50 62 87
67 86 114
66 84 109
68 87 117
64 83 108
66 86 114
65 85 111
66 85 112
65 84 110
64 83 109
63 81 106
63 81 106
68 86 113
69 89 120
68 88 117
67 84 111
63 82 109
66 86 112
65 85 112
65 83 109
65 84 110
63 82 108
65 83 108
63 80 106
59 77 101
64 82 108
62 79 101
63 81 104
61 78 102
64 81 106
66 85 109
66 85 114
56 78 90
44 71 54
30 54 33
35 65 39
34 63 38
38 70 42
33 60 36
40 74 44
36 66 40
37 69 42
36 66 41
36 67 41
36 66 41
38 71 43
39 73 43
43 79 47
39 73 44
36 67 41
42 77 46
38 70 42
37 67 41
37 69 42
34 63 37
34 62 37
38 70 42
36 66 40
39 70 42
34 63 38
35 62 37
27 48 29
39 65 48
54 72 83
61 79 104
60 76 95
63 79 103
62 79 103
62 78 101
59 75 97
58 73 95
58 73 95
59 74 96
63 80 102
61 78 99
62 81 105
61 79 104
62 78 101
57 72 92
63 79 102
61 79 106
62 80 104
57 71 90
59 76 98
58 74 96
58 75 97
60 76 97
57 73 96
61 77 100
58 75 96
59 76 97
55 70 91
53 66 85
59 75 97
59 75 94
56 71 90
54 69 88
54 70 90
60 76 98
55 70 87
51 66 86
60 74 94
44 39 55
31 11 23
32 10 23
31 10 23
31 10 22
35 11 24
30 10 22
37 12 26
37 12 26
36 11 25
35 11 24
33 10 24
37 12 26
36 12 26
37 12 27
35 11 25
35 11 25
35 11 24
36 12 26
36 12 26
34 11 24
36 12 25
35 11 25
34 11 25
35 11 25
36 12 25
38 12 27
33 10 23
34 11 24
31 10 22
30 10 22
30 10 21
30 10 21
28 9 20
34 25 37
46 52 67
57 73 90
57 73 90
56 73 93
54 70 88
56 73 92
55 72 91
61 79 99
59 77 96
55 71 91
64 82 106
62 80 101
60 78 102
64 83 107
63 80 104
60 77 98
65 84 108
59 74 96
38 42 56
18 8 15
17 5 10
18 6 11
18 6 12
19 6 12
18 6 12
21 7 14
20 7 13
19 6 13
22 7 14
21 7 14
21 7 14
21 7 13
21 7 13
21 7 13
23 8 15
21 7 14
22 8 15
21 7 14
21 7 14
23 7 14
21 7 13
19 7 13
21 7 13
20 7 13
22 8 14
20 7 13
20 7 14
19 6 12
22 7 14
20 7 13
21 7 13
23 8 14
24 13 21
38 38 53
61 75 100
67 86 115
68 88 117
66 85 115
67 86 117
67 86 114
66 84 114
64 84 112
68 88 118
65 85 115
63 82 109
66 84 113
65 84 112
67 87 117
65 83 112
63 81 109
65 83 111
68 87 117
67 84 111
67 86 117
65 83 112
62 78 105
66 85 115
66 84 115
64 81 112
63 80 107
67 85 115
61 78 107
62 79 107
65 82 114
63 80 110
66 82 113
62 78 107
61 78 108
27 34 53
43 59 75
47 68 81
46 68 79
45 66 77
53 74 91
45 66 77
47 69 83
53 74 92
58 80 100
56 78 96
59 80 101
51 72 88
57 78 99
58 79 99
62 84 107
65 86 113
63 85 107
62 85 107
60 81 104
62 85 109
65 87 115
64 85 114
69 90 119
67 88 116
65 85 111
66 88 117
68 90 120
66 87 114
65 87 114
67 88 116
67 88 116
65 87 113
67 88 118
65 86 112
68 90 120
65 87 113
67 89 117
66 86 114
67 88 117
70 90 119
68 89 117
69 90 120
69 91 122
69 89 117
70 91 122
66 87 110
69 90 118
69 91 120
69 89 118
68 89 117
71 93 124
69 89 117
70 91 119
68 87 115
70 90 117
67 88 117
68 89 120
68 88 117
70 90 116
68 88 117
70 90 118
68 89 116
71 91 122
68 87 115
68 89 119
69 88 115
67 85 111
66 84 112
68 87 114
66 85 111
60 75 94
63 67 72
63 62 57
62 61 57
66 64 59
62 60 55
62 61 57
65 63 59
67 66 63
64 64 61
59 58 54
63 61 56
61 59 55
60 59 55
66 65 60
61 58 53
62 60 55
62 60 55
62 60 55
62 59 53
63 60 55
57 54 48
60 57 53
63 61 56
66 64 58
61 60 55
58 61 65
61 74 91
66 84 109
64 83 109
69 89 119
65 83 109
66 85 112
65 83 109
67 84 110
66 85 113
64 83 110
68 87 115
67 86 113
69 88 114
66 85 113
69 88 116
67 87 116
66 83 109
67 86 115
64 81 107
66 85 113
67 86 114
66 84 110
68 87 114
70 89 117
68 88 114
66 85 112
66 85 113
69 88 115
67 87 115
70 89 117
65 83 109
65 84 108
66 85 113
71 91 122
66 83 108
66 85 111
67 86 114
66 84 109
69 88 116
71 91 122
66 85 113
66 87 112
67 85 112
64 83 111
41 53 84
20 27 68
7 17 76
5 21 102
3 26 130
2 30 145
2 33 164
0 36 180
1 36 180
0 38 189
0 38 186
0 37 186
0 38 188
0 36 179
0 37 184
1 34 167
2 29 142
3 25 122
4 21 105
6 18 82
7 11 49
8 6 28
8 6 26
9 6 24
10 7 26
10 7 25
8 5 22
9 6 24
10 7 25
9 6 23
9 6 22
9 6 22
16 17 34
40 48 71
60 78 100
67 86 114
65 83 109
67 85 111
66 86 116
67 87 114
67 87 112
65 84 109
64 83 110
65 84 110
67 84 110
68 88 115
65 84 111
66 86 115
64 83 108
66 84 112
67 86 113
68 88 118
64 82 108
67 87 114
63 80 105
66 86 113
64 82 108
63 82 106
65 84 111
62 80 103
58 77 100
62 80 105
67 86 112
64 82 108
67 85 112
60 78 100
47 71 70
36 65 42
35 64 39
35 64 38
33 61 38
32 60 36
33 62 37
33 62 37
36 67 39
33 62 37
36 66 40
37 67 40
42 76 46
34 63 38
37 68 41
35 63 38
36 67 40
35 65 39
38 72 44
35 65 39
38 71 42
34 62 37
38 69 41
34 62 37
34 62 37
33 61 36
29 54 32
29 54 32
34 61 38
40 63 53
57 73 93
61 79 103
61 80 105
60 78 99
64 82 107
63 81 108
60 76 98
63 81 108
58 75 96
63 81 106
54 68 87
59 76 99
60 77 101
60 77 101
62 79 102
60 77 101
60 77 100
59 75 97
55 71 90
57 72 92
58 73 95
59 74 94
58 74 96
57 73 95
63 80 106
61 78 101
57 73 94
56 72 92
59 75 97
55 69 88
56 72 93
51 67 85
56 73 95
57 74 95
53 68 86
49 62 79
57 73 92
52 66 85
45 52 66
34 25 37
31 10 22
32 10 23
32 10 23
32 10 23
32 10 23
30 10 23
32 10 24
35 11 25
34 11 25
35 11 25
35 11 25
35 11 25
35 11 25
32 10 24
34 11 24
36 11 25
34 11 24
35 11 25
34 11 24
37 12 26
36 11 25
36 11 25
34 11 24
34 11 24
34 11 24
34 11 24
32 10 22
34 11 24
32 10 22
32 10 23
30 10 21
29 9 21
31 9 21
30 17 27
46 52 68
53 68 87
58 74 92
53 68 86
57 73 94
56 72 92
60 77 99
59 78 103
55 71 92
57 73 94
60 78 100
60 78 101
65 82 106
61 78 100
63 81 105
61 80 102
62 80 101
57 72 94
30 28 38
19 10 17
17 6 11
19 6 12
19 6 12
20 6 13
18 6 12
18 6 11
19 6 12
19 6 12
23 7 14
20 7 13
22 7 14
22 7 14
21 7 13
19 6 12
19 7 12
22 7 14
23 8 14
20 7 13
21 7 13
20 7 13
21 7 13
20 7 13
20 7 13
22 7 14
21 7 14
20 7 13
22 7 14
21 7 14
23 8 15
20 7 13
19 7 13
20 7 13
21 9 15
39 37 52
62 75 99
65 83 111
66 86 112
65 83 110
69 87 115
67 87 117
66 87 117
67 86 116
67 87 116
66 86 117
67 86 115
67 86 114
66 85 113
66 85 115
67 86 116
63 81 109
67 85 114
66 84 113
66 85 114
61 79 106
66 84 113
62 80 109
65 83 113
62 79 107
68 87 116
64 83 115
66 85 115
64 82 111
66 84 115
63 80 107
61 77 105
61 79 107
62 79 107
60 76 105
24 24 51
35 46 66
45 67 80
51 74 92
51 73 86
52 73 88
56 78 95
56 77 96
56 78 97
58 80 99
58 80 100
59 81 103
61 82 106
57 78 99
58 80 98
62 84 110
64 86 112
63 85 109
68 89 116
65 86 113
63 84 108
63 84 109
64 85 112
60 80 104
69 90 118
65 86 111
63 85 110
68 90 118
67 89 118
67 89 115
66 86 113
67 88 117
68 89 115
69 88 116
66 86 111
68 90 119
71 92 122
67 89 115
69 88 117
69 91 119
68 88 116
66 89 117
66 87 114
71 93 124
65 86 114
67 87 115
67 87 117
69 90 119
67 88 117
68 89 118
68 87 114
67 87 113
71 92 122
69 90 118
72 92 123
68 89 117
70 90 117
69 90 121
69 89 115
68 87 116
69 88 117
68 89 117
69 90 118
68 89 116
67 86 113
67 87 114
70 90 119
67 85 113
70 89 118
65 84 111
66 85 112
68 87 116
64 78 96
60 62 65
61 60 55
60 60 56
67 64 56
60 58 53
64 61 56
64 62 57
63 60 52
62 60 55
61 59 54
63 61 56
63 60 55
64 61 56
64 61 54
61 58 53
61 58 53
60 58 54
59 57 51
59 57 52
59 56 49
60 57 52
56 54 49
52 49 44
58 59 59
59 68 81
66 84 109
64 81 104
65 81 104
67 86 117
65 83 108
66 85 113
68 87 116
66 85 112
65 83 109
68 87 114
67 86 114
68 87 114
67 87 115
63 81 107
68 87 114
63 81 105
66 84 111
64 82 108
69 89 121
67 85 112
66 85 113
67 86 113
65 85 111
69 88 117
67 87 117
67 87 116
68 87 113
69 90 120
64 84 113
69 90 121
65 84 111
68 87 117
70 90 119
70 90 121
69 88 115
69 88 117
68 88 117
69 88 117
68 87 115
68 88 116
69 88 117
69 89 118
66 85 113
56 74 108
27 42 96
7 26 112
3 27 132
2 31 155
0 37 186
0 37 184
0 39 194
0 39 195
0 39 195
0 39 196
0 40 197
0 38 194
0 39 194
0 39 193
0 39 191
0 37 186
0 37 185
0 35 178
1 32 159
2 27 133
4 23 108
6 15 73
7 11 50
7 6 25
9 6 24
9 6 24
8 6 23
9 6 24
10 6 24
9 6 22
8 5 21
9 6 23
11 8 24
32 38 60
50 64 88
65 83 110
64 83 108
68 86 111
64 84 111
67 85 112
65 84 111
65 82 107
62 80 103
66 85 112
67 85 112
63 82 105
68 88 117
63 83 110
67 86 114
64 82 108
64 82 108
63 84 113
59 78 101
61 81 106
67 86 113
61 80 103
64 82 106
65 83 111
61 79 104
64 82 106
66 85 112
66 85 110
62 80 105
66 87 116
62 81 106
60 79 102
55 74 88
35 58 46
33 61 35
33 61 37
35 65 39
34 64 38
35 65 40
34 64 38
36 66 40
34 63 38
32 59 36
32 60 37
36 67 40
35 66 39
36 67 40
33 61 37
33 61 37
32 58 35
34 64 38
33 63 38
35 65 39
32 59 36
34 63 38
31 57 34
34 61 36
29 55 33
34 62 37
28 52 31
36 59 46
49 67 74
61 79 104
62 79 103
55 72 92
61 79 103
62 80 103
59 75 99
58 73 95
60 76 99
59 77 100
57 74 96
58 75 97
62 79 105
57 73 94
55 71 91
62 81 106
58 74 96
59 77 102
59 77 100
62 80 104
61 78 102
59 74 96
59 76 98
59 76 98
64 82 108
57 74 97
55 70 92
55 69 88
60 76 100
58 75 96
59 77 99
60 77 98
57 74 96
56 71 93
56 73 93
51 67 88
55 71 93
52 65 81
54 69 87
54 67 88
40 36 51
30 13 25
31 10 22
33 10 23
33 10 23
32 10 22
35 11 24
34 11 24
35 11 25
33 10 23
32 10 23
33 10 24
33 11 24
35 11 25
34 11 25
34 11 24
34 11 24
34 11 24
33 11 24
33 10 23
34 11 24
34 11 24
32 10 23
34 11 24
37 12 26
32 10 22
36 11 25
31 10 22
32 10 23
31 10 22
29 9 21
32 10 23
29 9 20
25 8 18
28 15 26
48 59 77
54 70 89
57 74 94
57 74 96
61 80 102
56 73 94
61 81 105
60 78 101
62 80 104
60 77 99
60 78 102
60 77 101
62 80 104
59 76 101
59 77 101
59 76 98
63 82 105
56 70 91
33 35 47
16 6 12
17 6 11
16 5 11
17 6 11
19 6 12
17 5 11
21 7 13
20 7 13
20 6 13
19 6 12
21 7 13
21 7 13
19 7 12
22 7 14
20 7 13
20 7 13
19 6 12
22 7 14
21 7 13
21 7 14
22 7 14
21 7 14
21 7 13
20 7 13
20 7 13
20 7 13
21 7 14
20 7 13
21 7 13
20 7 13
19 6 12
19 6 12
19 7 13
20 7 14
34 34 47
62 78 104
65 86 117
64 83 110
65 85 114
66 86 113
67 86 114
67 87 116
64 83 113
67 87 118
68 88 119
67 85 114
67 86 115
64 82 111
66 85 113
64 82 109
66 85 114
63 80 105
65 83 111
66 85 115
66 86 115
67 88 119
67 85 114
68 88 119
63 81 110
69 89 120
66 85 115
64 82 112
67 86 118
67 87 119
65 83 114
61 78 105
61 77 105
65 85 114
60 75 104
21 17 47
34 42 63
43 58 75
52 74 91
53 74 91
53 75 91
55 77 95
60 81 104
59 81 100
65 86 111
60 80 104
60 82 107
62 83 109
57 78 98
60 81 104
64 85 112
63 84 109
66 87 115
64 85 109
63 84 108
63 84 110
69 89 117
65 87 113
66 88 114
69 90 119
66 88 114
70 92 121
68 88 114
68 89 118
68 89 116
66 88 113
68 89 117
67 88 116
69 90 119
68 88 116
67 87 117
66 87 116
67 87 116
65 85 111
66 88 115
68 90 116
70 89 116
68 89 117
69 89 117
69 90 121
68 89 118
67 89 115
69 89 117
68 89 118
66 86 112
71 92 123
69 90 118
69 90 120
71 90 118
70 91 122
69 90 119
68 88 118
69 90 117
68 88 118
68 87 115
66 85 112
68 86 115
67 87 116
67 87 116
69 88 116
67 85 110
67 84 110
67 86 114
65 84 110
67 85 110
68 87 115
64 82 106
66 83 109
63 74 89
60 63 66
62 59 53
59 56 49
61 57 51
57 55 50
63 60 54
57 55 49
56 53 47
50 46 43
61 56 49
60 56 51
58 57 53
59 54 47
56 52 47
59 55 49
52 48 42
54 51 46
58 54 48
50 46 41
58 54 48
51 50 45
55 53 50
61 71 87
63 79 102
62 78 104
66 84 110
63 79 100
67 85 111
66 83 107
67 84 110
62 78 102
68 87 113
65 83 108
66 84 111
66 84 110
66 84 110
62 80 104
68 86 112
69 88 115
66 85 110
68 87 116
68 87 115
70 89 121
65 83 108
66 86 115
68 87 116
68 88 117
70 89 117
71 92 121
66 85 113
67 86 114
66 84 111
71 90 118
68 88 116
67 87 115
69 88 116
68 88 116
69 90 120
67 87 116
65 83 110
68 87 116
69 90 119
67 86 114
68 89 118
70 89 118
67 88 118
50 74 132
36 62 137
14 38 131
2 30 145
0 36 171
0 36 182
0 39 191
0 39 195
0 38 192
0 38 190
0 39 193
0 38 192
0 39 194
0 38 190
0 39 194
0 37 188
0 38 188
0 38 191
0 39 193
0 38 187
0 36 182
0 35 178
1 31 150
4 24 114
6 14 65
7 8 37
8 7 31
9 6 23
8 6 23
8 5 22
8 6 22
10 6 24
9 6 22
9 6 23
8 6 21
18 18 35
42 53 76
61 79 105
66 83 109
70 90 121
65 84 110
65 85 113
67 87 115
68 88 115
69 88 117
65 83 109
62 80 107
67 85 111
65 83 110
66 84 110
67 86 113
64 81 106
66 84 110
60 79 104
67 87 113
65 84 111
63 82 106
63 81 106
65 85 110
58 76 98
66 86 114
60 78 103
64 82 107
63 82 106
62 81 107
60 78 101
64 82 108
65 85 111
58 77 100
46 67 68
33 58 41
30 57 33
32 59 34
30 56 34
31 59 35
31 59 36
32 60 37
29 54 33
36 66 39
34 64 38
34 63 38
35 64 38
34 62 38
33 64 38
32 59 35
35 64 38
28 53 32
32 61 37
30 55 33
32 59 36
33 61 36
28 52 31
31 58 34
28 51 30
30 55 32
31 53 38
42 61 60
59 77 95
60 77 100
58 74 98
60 79 102
59 75 98
63 82 108
58 73 94
59 76 98
62 79 102
58 74 96
62 79 103
57 73 94
57 72 93
57 73 95
62 79 105
60 77 101
59 76 99
56 72 93
61 78 101
59 76 101
59 76 100
58 74 95
58 75 95
58 75 99
61 78 101
63 81 104
56 72 92
57 73 94
55 71 93
55 71 94
59 74 94
55 71 92
55 71 91
51 66 86
56 72 95
53 67 86
57 74 97
47 60 79
56 71 91
48 55 71
40 37 54
31 13 25
28 9 19
28 9 20
29 9 21
28 9 20
31 10 22
29 9 22
30 10 21
31 10 22
32 10 23
33 10 24
34 11 24
32 10 23
34 11 24
33 11 24
33 10 23
32 10 23
36 11 25
32 10 23
33 10 23
34 11 24
34 11 24
33 10 22
30 9 21
29 9 20
34 11 24
32 10 22
29 10 21
31 10 22
33 10 23
26 8 18
28 9 19
28 9 20
34 25 40
42 48 65
55 71 94
61 79 103
57 75 95
63 82 107
63 80 103
55 71 92
62 79 104
60 77 103
63 82 106
60 77 99
63 82 107
61 80 105
58 75 98
61 79 105
58 74 97
61 80 104
58 74 97
31 33 46
16 7 13
16 5 10
18 6 11
17 5 11
17 6 11
19 6 12
17 6 11
18 6 12
19 6 12
20 7 13
19 7 13
18 6 12
20 7 13
19 6 12
19 6 12
21 7 14
18 6 12
21 7 14
18 6 12
19 6 12
22 8 14
21 7 13
20 7 13
18 6 12
20 7 13
21 7 14
21 7 13
19 6 12
18 6 11
19 6 12
18 6 12
20 7 13
18 6 11
18 6 12
33 31 44
58 71 96
66 84 111
67 85 113
67 87 116
65 83 111
65 84 112
68 87 116
65 85 115
68 87 116
67 86 116
67 86 114
67 87 117
69 88 119
65 83 109
66 85 115
66 85 115
68 87 115
64 83 112
65 82 111
64 83 111
62 79 108
64 82 112
67 87 118
62 79 108
65 85 115
67 86 114
63 81 107
66 83 113
64 82 113
67 86 117
66 85 116
62 80 109
63 79 110
63 80 107
17 13 41
29 31 59
46 59 82
61 81 106
62 85 108
60 83 104
59 80 101
59 80 101
56 78 98
64 83 110
64 86 111
68 89 118
65 86 111
61 83 108
64 87 112
66 87 114
64 85 112
66 87 115
67 88 116
67 89 117
66 88 113
69 90 118
68 90 118
63 85 109
64 85 112
68 88 119
65 84 110
67 89 117
68 90 118
66 86 110
66 87 115
66 86 112
64 85 111
68 88 116
68 87 116
70 91 119
68 88 116
66 86 116
67 88 115
70 91 120
68 89 118
70 92 122
69 90 119
67 88 115
70 91 121
69 89 119
67 88 118
69 89 117
70 91 120
68 87 113
68 88 114
70 90 120
67 87 114
67 85 109
68 89 119
66 87 118
65 85 111
68 89 118
70 90 118
70 90 120
69 88 117
69 89 118
65 83 108
71 90 118
64 82 106
65 83 107
67 85 112
67 86 113
67 84 110
65 81 103
66 82 105
62 78 102
66 82 105
70 87 110
57 67 80
56 59 62
53 51 46
53 49 44
55 51 46
56 50 43
56 51 46
59 54 47
53 48 41
57 54 49
53 50 44
56 50 44
55 50 43
53 49 43
49 44 37
55 50 44
54 49 42
52 48 42
50 45 38
51 47 39
46 51 55
55 64 77
64 78 99
60 74 94
62 77 99
59 74 93
62 77 98
59 75 98
59 74 95
64 79 102
64 80 105
65 82 107
68 86 111
68 86 114
65 83 107
68 86 114
64 82 106
65 82 105
66 85 110
67 86 114
67 85 110
68 86 114
66 87 116
68 87 114
70 89 118
67 86 112
67 85 112
66 84 111
65 84 110
71 92 121
65 84 110
65 84 112
69 89 118
67 86 113
71 90 118
65 83 110
68 88 116
70 90 118
69 87 114
68 88 116
67 87 116
68 87 115
65 85 113
69 90 120
66 86 118
62 83 122
37 65 146
18 51 163
2 37 172
0 38 190
0 37 185
0 39 192
0 38 190
0 38 192
0 39 191
0 38 186
0 38 193
0 39 192
0 37 185
0 38 189
0 38 194
0 39 193
0 38 190
0 37 186
0 38 187
0 37 186
0 37 187
0 37 186
0 36 178
0 34 169
2 29 144
3 22 109
6 12 54
7 7 31
8 6 25
8 6 22
9 6 23
8 5 21
9 6 22
9 6 23
8 5 21
12 11 26
38 46 69
62 79 106
69 89 117
67 86 113
66 86 116
64 84 108
69 88 116
66 85 112
66 85 111
66 86 113
64 83 109
69 89 118
65 85 111
69 89 118
67 86 114
65 84 110
65 84 112
64 83 110
65 84 110
65 84 111
64 83 106
65 85 112
60 79 104
60 79 104
62 82 108
65 85 112
61 78 101
63 82 107
59 77 100
59 77 99
61 80 101
62 81 106
56 73 94
54 73 89
47 68 71
26 47 34
31 58 35
32 60 35
30 56 33
32 61 37
32 59 36
31 57 35
29 56 33
26 50 31
31 59 35
28 52 32
31 58 35
29 55 33
34 64 38
33 60 36
35 64 38
29 54 32
32 59 34
33 60 36
29 53 32
28 52 30
27 50 29
25 47 28
30 55 33
39 58 58
50 66 84
60 77 97
59 75 97
51 65 81
56 73 93
59 76 98
59 76 97
59 76 97
57 73 97
65 83 109
60 79 105
58 75 98
63 81 104
61 79 102
57 74 98
56 72 94
61 78 103
58 74 94
53 69 90
52 66 84
56 72 95
60 77 101
62 79 102
59 76 101
56 72 94
61 78 103
57 73 97
61 77 100
55 72 95
57 75 98
56 71 94
53 70 95
60 77 101
56 74 99
58 72 95
54 68 88
53 66 84
53 68 88
50 64 83
54 69 90
53 67 88
38 37 52
29 10 22
30 10 22
28 9 20
31 10 22
30 9 21
27 8 20
32 10 23
32 10 22
29 9 21
31 10 22
33 10 23
31 10 22
33 10 23
30 9 21
33 10 23
30 10 22
32 10 23
29 9 21
32 10 23
35 11 25
33 11 23
33 10 23
31 10 22
30 9 21
34 11 24
31 10 22
29 10 21
28 9 19
29 9 20
26 8 18
29 9 20
29 9 21
25 9 19
34 31 44
53 66 89
60 79 101
60 78 102
56 73 96
59 77 101
62 80 105
61 78 103
56 72 93
63 81 104
55 72 92
58 76 99
59 78 102
64 83 108
61 79 103
64 83 110
62 80 106
64 82 109
56 71 94
36 41 55
17 8 14
14 4 9
15 5 10
17 5 10
16 5 10
19 6 12
19 6 12
19 6 12
18 6 12
19 6 12
20 7 13
17 6 11
21 7 13
18 6 11
19 6 12
21 7 13
20 6 12
21 7 13
17 6 11
19 6 12
21 7 13
21 7 13
21 7 13
19 6 12
18 6 12
20 7 12
17 6 11
19 7 12
20 7 12
19 6 12
18 6 12
18 6 11
18 6 12
20 7 13
33 30 41
57 68 91
65 84 112
66 85 114
69 89 118
65 84 113
66 84 113
69 89 121
64 82 110
62 80 106
62 79 104
65 84 113
66 86 116
68 86 115
64 82 110
68 86 116
67 86 117
66 84 110
64 84 112
65 82 111
66 83 113
66 85 115
63 83 115
66 84 113
68 88 119
62 79 108
67 86 114
65 83 112
68 88 120
66 85 115
64 81 110
65 83 112
66 85 116
62 80 110
65 83 112
16 12 40
24 25 51
35 44 63
50 70 91
56 80 101
61 83 103
58 79 101
55 75 95
63 84 107
66 87 113
61 83 103
66 87 111
64 84 111
63 85 110
64 85 114
65 87 112
65 86 113
67 88 115
63 84 106
64 84 110
68 90 119
64 86 110
66 87 112
64 86 109
65 86 114
65 87 116
68 89 115
66 87 115
69 90 120
68 89 118
66 87 114
67 87 115
68 89 116
65 86 115
69 90 119
69 90 121
65 85 112
66 87 114
69 90 118
68 90 117
68 89 119
68 88 117
70 91 120
69 89 118
72 92 119
64 85 112
72 92 120
72 94 124
66 86 113
69 89 118
73 92 122
69 88 116
69 88 118
69 89 117
70 91 122
69 89 117
69 90 119
66 86 112
67 86 114
69 89 118
63 81 107
67 86 113
66 83 108
67 85 112
69 89 117
66 83 106
66 83 105
64 83 106
63 80 102
63 79 99
65 81 104
63 80 104
66 81 104
64 78 98
65 78 97
62 72 85
54 57 63
53 51 49
52 48 42
49 43 36
57 50 43
51 46 39
48 43 36
52 46 38
48 42 35
53 48 42
54 48 41
48 41 33
49 45 38
48 42 35
46 40 32
42 37 30
40 36 32
48 50 54
53 61 72
56 67 82
57 69 87
56 68 86
60 73 92
63 77 97
64 78 100
58 71 91
62 77 98
64 80 104
64 82 107
61 78 102
65 81 105
66 83 108
68 87 115
65 82 105
63 80 103
61 78 102
67 85 111
63 80 105
67 85 110
65 82 108
67 84 109
69 86 110
67 85 111
71 89 114
67 86 113
69 88 116
67 86 114
69 88 116
68 86 114
71 90 120
71 91 121
68 88 117
68 87 115
70 91 122
68 88 116
71 91 122
67 85 112
67 86 113
72 91 119
69 89 120
69 89 118
70 90 122
54 79 134
39 65 139
18 49 163
9 45 179
0 37 183
0 37 186
0 36 184
0 38 188
0 39 193
0 38 187
0 38 188
0 37 185
0 38 191
0 36 184
0 36 183
0 34 176
0 38 187
0 38 191
0 38 193
0 39 192
0 37 185
0 38 187
0 38 189
0 37 184
0 35 174
0 37 184
0 35 176
2 26 127
4 20 95
6 14 64
8 6 25
9 6 22
7 5 19
8 5 22
9 6 22
8 5 20
9 6 23
10 9 24
35 41 63
55 71 95
66 85 112
71 92 122
63 82 107
68 88 116
66 86 113
63 83 109
65 84 112
64 84 110
62 80 104
66 86 113
62 82 107
63 81 105
61 80 104
64 82 108
64 82 105
64 82 109
62 81 105
62 81 106
62 81 106
62 81 107
56 72 91
62 81 107
65 84 110
61 79 103
60 78 102
60 77 99
62 80 105
59 78 100
63 81 107
57 75 96
53 70 88
59 78 100
53 70 87
36 57 48
32 56 40
30 56 33
26 51 32
29 54 32
30 56 33
27 52 31
32 59 36
30 55 33
33 60 35
30 56 33
29 56 34
30 56 33
28 53 31
29 55 34
30 56 34
31 59 34
29 53 32
28 53 31
26 49 29
28 53 31
25 47 28
28 51 32
31 49 42
46 63 73
61 79 103
58 74 95
56 73 96
59 76 99
61 79 103
57 74 94
58 76 100
55 70 89
61 79 104
59 75 99
57 74 97
58 76 98
58 76 98
58 75 97
58 75 98
61 79 103
54 71 94
59 75 99
60 78 102
55 71 90
59 77 101
54 69 91
57 74 97
60 79 104
54 70 92
58 75 98
62 81 107
57 75 99
58 76 101
55 71 95
60 75 98
56 71 93
53 69 90
59 76 100
51 66 88
48 62 81
51 65 85
52 66 85
54 67 87
54 69 91
53 67 87
43 45 61
29 17 29
27 9 19
30 10 22
30 10 22
31 10 22
30 10 22
29 9 20
29 9 22
30 10 22
29 9 20
31 10 21
33 11 24
33 10 24
36 11 26
32 10 23
33 10 23
32 10 23
31 10 22
30 10 21
33 11 24
28 9 20
31 10 23
31 10 22
31 10 22
32 10 23
28 9 20
30 10 21
31 10 21
24 7 17
27 8 19
24 8 18
25 8 17
25 12 21
34 29 43
51 65 86
53 68 89
51 66 83
57 74 96
56 74 99
58 76 104
56 71 93
60 78 103
56 72 96
59 77 103
57 75 100
60 78 103
57 74 99
60 78 104
63 80 106
59 77 103
65 84 111
57 72 93
39 44 59
16 9 15
15 4 9
14 4 9
15 5 9
16 5 10
19 6 12
19 6 11
18 6 11
19 6 12
16 5 11
20 7 13
19 6 12
19 6 12
18 6 11
19 6 12
20 7 13
20 7 13
17 6 11
18 6 12
18 6 12
20 7 13
20 6 12
15 5 10
19 6 12
20 7 13
19 6 12
17 6 11
19 6 12
16 5 10
20 7 13
18 6 12
14 5 9
16 5 10
20 9 15
35 34 47
61 75 99
67 84 112
66 85 113
66 85 113
68 87 117
67 86 115
65 83 111
68 86 115
68 88 118
66 85 112
66 84 112
68 88 118
65 85 115
66 86 115
69 89 119
66 86 114
67 87 115
68 89 120
65 85 115
65 84 112
66 86 114
67 86 114
65 83 110
68 87 119
67 87 118
65 82 111
67 86 116
62 80 107
63 79 107
60 77 104
67 85 114
64 82 111
62 80 108
64 81 109
18 13 41
20 17 44
35 40 69
53 69 96
59 79 100
63 85 106
61 83 106
61 83 107
67 89 115
65 85 112
60 82 104
68 90 118
61 80 104
64 86 112
65 86 112
66 89 115
63 86 110
67 88 115
64 84 107
65 85 111
69 90 121
67 88 115
64 86 114
65 87 114
64 85 110
65 86 112
65 86 111
65 85 112
64 83 108
67 88 116
62 84 107
68 89 116
69 90 120
66 86 115
67 88 116
68 90 119
68 88 116
67 86 115
66 87 113
67 89 117
69 90 118
67 87 116
69 90 118
68 88 117
66 86 115
71 91 119
66 86 115
68 88 114
70 90 117
67 86 116
68 89 117
66 85 112
67 85 112
69 90 120
68 88 118
68 87 114
67 85 110
68 87 114
67 87 115
69 87 113
67 86 112
68 87 114
65 82 107
67 84 109
67 84 110
67 83 105
62 78 101
65 80 102
65 81 105
62 77 97
65 80 100
60 73 90
62 78 101
59 74 93
56 68 83
61 74 92
61 72 87
51 58 67
47 49 52
40 40 36
40 36 30
40 35 29
47 41 34
40 36 31
37 31 23
38 32 25
36 32 25
41 36 29
42 36 29
32 27 20
35 32 27
44 46 47
48 52 59
50 56 65
50 58 70
53 63 78
52 63 77
58 70 86
57 68 85
58 71 90
59 71 88
59 72 91
60 72 90
61 77 98
61 76 99
65 80 101
60 74 96
64 79 101
66 83 109
65 83 107
64 81 104
61 77 101
64 80 105
64 81 105
63 79 101
64 81 107
66 84 109
65 84 110
67 87 117
66 86 113
67 84 110
69 87 114
67 85 112
66 85 112
68 88 117
69 88 115
64 81 106
70 89 117
68 88 116
69 89 119
68 87 113
66 85 114
70 90 120
65 83 110
64 82 109
68 87 114
68 87 116
57 79 125
39 64 138
25 56 159
5 39 174
0 38 187
0 34 171
0 38 190
0 37 187
0 37 186
0 36 184
0 37 186
0 37 185
0 38 187
0 37 187
0 35 177
0 36 184
0 37 186
0 37 186
0 37 182
0 37 182
0 38 190
0 39 192
0 37 185
0 38 189
0 38 188
0 36 181
0 37 183
0 32 159
0 34 169
2 28 135
4 18 83
5 12 58
8 6 24
8 5 22
8 6 21
8 5 20
8 5 22
8 5 21
10 7 24
26 30 50
48 61 83
64 83 111
66 85 113
68 86 114
65 84 109
65 84 111
65 85 114
68 87 116
65 84 112
63 82 107
61 79 102
63 81 107
64 83 109
64 82 105
67 87 117
64 83 107
65 84 110
65 85 112
64 82 107
62 81 107
64 83 108
64 84 112
62 80 103
60 78 100
59 76 99
58 77 98
61 80 104
61 79 103
54 70 89
52 68 87
52 70 88
53 69 88
52 68 85
48 64 82
50 70 81
35 53 50
28 51 36
29 53 32
23 44 26
23 43 24
29 54 33
26 49 30
26 49 29
26 49 30
30 57 34
27 50 29
28 52 31
27 51 30
26 49 31
30 55 34
23 44 26
26 48 28
28 52 31
24 46 27
21 41 24
26 47 31
31 49 43
47 65 75
48 62 78
51 67 82
53 69 86
48 63 78
57 73 95
61 80 103
57 75 96
55 71 91
60 77 99
55 73 95
60 78 103
60 78 104
61 77 100
57 74 95
54 70 91
56 72 93
60 77 100
57 73 97
59 77 101
54 69 90
60 78 100
57 73 96
59 74 96
52 68 91
57 74 98
57 74 96
57 73 97
54 70 93
56 72 94
55 71 93
56 72 94
53 69 92
51 65 86
53 68 89
54 70 92
56 72 94
43 55 72
54 70 92
50 65 86
51 65 82
53 68 90
51 66 88
43 50 67
27 16 26
27 10 20
31 10 22
27 8 19
28 9 20
28 9 20
30 10 22
33 10 23
34 11 24
30 9 21
29 9 20
31 10 22
31 10 22
31 10 22
26 8 19
32 10 22
31 10 22
30 10 21
34 11 24
34 11 24
30 9 21
28 9 20
30 10 22
30 9 21
30 9 21
29 9 20
27 9 19
28 9 19
27 8 19
26 8 18
23 7 16
24 7 16
24 12 23
37 38 53
52 66 88
55 71 93
54 69 92
54 70 92
54 70 92
56 71 96
57 74 98
57 74 97
54 69 92
60 76 101
60 76 99
58 76 101
61 79 104
62 80 104
60 77 102
62 81 108
59 77 103
61 78 103
42 50 68
18 12 18
15 5 9
15 5 10
14 4 9
17 6 11
16 5 10
17 6 11
15 5 10
17 6 11
18 6 11
16 5 10
19 6 12
19 6 12
18 6 11
16 5 11
16 5 11
18 6 12
16 5 11
17 6 11
18 6 12
18 6 11
17 6 11
19 6 12
19 6 12
18 6 12
17 6 11
20 7 13
15 5 10
18 6 11
17 6 11
18 6 11
17 6 11
17 6 11
19 7 13
42 45 64
57 71 95
63 81 109
67 86 115
65 83 110
65 84 114
67 86 116
64 82 112
69 89 118
66 84 113
66 84 114
68 88 118
67 87 117
66 85 113
65 84 115
65 84 115
66 84 113
66 85 113
66 85 116
62 80 106
67 86 115
66 86 115
66 85 113
65 83 113
65 82 110
66 85 114
68 87 116
64 82 113
66 84 114
65 84 113
67 86 114
69 87 116
66 85 113
65 83 112
64 83 112
18 13 41
16 12 38
31 34 60
52 67 90
61 83 108
59 80 100
62 83 105
67 87 114
64 86 111
64 86 107
61 84 105
63 85 110
63 84 108
63 82 109
66 86 115
63 85 108
64 86 111
65 84 112
66 86 113
67 88 114
67 89 117
69 90 117
65 86 114
67 88 115
66 87 117
66 87 115
66 86 113
67 87 116
69 89 118
64 84 110
68 87 116
70 91 120
67 87 116
67 87 115
68 89 116
68 88 116
70 90 120
68 88 117
68 89 119
69 89 117
69 90 118
69 89 117
72 92 122
68 89 118
71 92 122
69 89 118
67 88 113
71 91 122
67 88 115
69 89 117
66 86 113
67 86 114
66 85 108
69 89 118
68 88 114
67 87 114
67 86 112
69 88 113
65 84 110
68 84 108
68 87 116
66 84 111
64 81 104
65 82 107
64 80 104
64 78 99
65 81 104
65 79 103
61 76 97
65 80 103
60 71 84
60 74 93
55 65 78
60 73 90
56 67 82
52 60 69
53 62 73
53 60 69
46 51 55
43 48 54
37 37 39
38 37 36
38 35 31
33 29 24
28 24 20
25 22 18
27 23 20
28 26 23
31 29 28
28 27 27
40 42 45
34 35 38
41 45 52
42 48 56
47 55 64
51 58 69
51 59 71
52 60 74
60 70 84
58 70 87
56 69 87
60 71 88
61 74 92
60 74 93
64 78 101
62 76 98
65 82 107
62 77 100
65 82 105
70 88 114
63 80 104
66 85 112
62 81 107
69 87 114
68 87 115
67 84 110
66 84 111
65 82 107
68 87 115
67 86 115
65 82 109
70 90 118
66 84 110
67 86 113
65 85 114
64 83 111
67 87 117
68 88 118
67 84 109
64 83 111
70 90 120
67 87 113
67 86 116
68 89 120
67 88 116
66 86 115
60 82 125
46 71 135
22 53 155
6 40 174
0 35 174
0 38 187
0 36 176
0 37 183
0 38 187
0 38 185
0 36 179
0 37 186
0 38 187
0 36 179
0 37 185
0 37 185
0 36 182
0 34 173
0 37 187
0 37 183
0 35 178
0 34 173
0 35 175
0 35 178
0 35 177
0 35 175
0 36 181
0 36 179
0 36 183
0 35 174
0 32 157
2 24 116
5 17 79
7 7 30
8 5 21
8 6 22
9 6 22
8 5 21
7 5 18
8 6 21
26 31 49
50 63 88
66 86 111
65 84 113
64 82 107
70 90 119
69 89 116
67 87 115
65 84 110
67 87 114
60 78 100
64 84 111
64 83 110
62 81 106
60 78 100
62 82 107
63 82 108
61 79 103
62 81 105
64 82 106
60 79 101
60 77 100
61 80 103
58 77 98
60 78 102
61 81 105
57 74 97
56 73 91
60 79 101
57 74 96
53 69 85
52 67 84
51 68 85
51 68 83
53 69 86
49 66 82
40 56 61
35 54 52
31 52 41
22 42 25
24 46 27
26 50 29
27 52 30
23 44 27
23 45 27
22 42 25
27 50 29
26 48 29
26 50 28
30 56 33
25 47 27
26 49 28
28 52 29
27 51 29
23 42 25
24 42 30
37 56 52
48 65 77
51 68 85
51 66 82
52 67 83
51 67 86
55 71 91
57 72 93
59 76 98
55 71 90
54 70 90
52 69 89
56 74 96
51 66 84
60 78 102
55 71 93
58 76 99
57 73 95
53 69 90
58 75 97
60 79 102
57 74 98
55 73 94
54 69 91
53 69 91
58 74 97
57 73 97
60 77 102
57 74 99
51 67 89
54 68 89
57 73 96
53 69 91
56 72 94
52 67 89
51 66 88
51 64 84
56 72 97
57 72 95
52 67 89
50 64 83
46 59 78
46 59 78
43 56 74
47 61 80
37 47 62
34 29 42
27 9 20
25 8 18
27 9 19
27 8 19
28 9 20
25 8 18
27 9 20
26 8 19
28 9 20
29 9 20
31 10 22
27 8 19
29 9 21
30 9 21
30 10 22
27 8 19
26 8 19
30 10 21
32 10 22
29 9 21
31 10 22
28 9 20
28 9 20
31 10 22
28 9 19
31 10 21
29 9 20
24 7 16
25 8 18
22 7 15
22 8 16
27 17 28
40 45 62
51 65 85
51 66 86
55 70 93
48 61 81
53 69 89
53 68 91
52 66 87
58 75 102
56 72 94
56 72 96
60 76 101
60 77 102
61 79 105
58 75 100
56 72 97
56 72 95
60 77 101
60 77 100
51 65 87
24 23 33
13 5 9
14 4 9
15 5 9
14 5 9
14 5 9
16 5 10
17 5 10
16 5 10
18 6 11
17 6 11
18 6 11
16 5 10
16 5 11
19 6 12
19 6 12
17 6 11
19 6 12
18 6 11
19 6 12
18 6 11
18 6 11
18 6 11
18 6 11
19 6 12
19 6 12
20 7 13
17 6 11
18 6 11
17 6 11
18 6 11
16 5 11
17 6 11
25 18 27
40 44 59
63 81 110
68 88 117
68 88 118
65 84 112
63 83 110
64 82 109
66 86 114
65 83 111
65 84 112
70 90 120
64 82 110
67 87 118
68 88 119
64 81 109
67 85 113
64 82 110
66 84 113
69 89 120
66 86 116
64 81 109
67 87 117
67 85 115
67 86 117
66 84 115
67 86 117
65 84 112
66 85 115
66 86 115
67 85 115
65 84 114
65 84 114
67 86 118
63 82 110
67 85 115
17 13 42
16 12 37
33 37 64
47 60 83
62 84 106
64 85 109
63 84 110
65 86 111
62 82 108
64 85 110
60 82 104
62 83 102
64 84 107
63 83 110
66 88 114
64 86 113
67 88 116
64 85 109
65 84 111
69 90 119
66 87 111
66 85 112
69 91 119
66 87 111
67 88 117
69 91 122
64 85 110
69 90 120
68 89 117
68 88 117
69 89 119
70 91 120
67 90 118
65 84 110
65 86 114
67 88 116
70 90 119
71 92 122
71 93 124
69 89 116
70 91 123
68 87 117
70 91 121
66 86 113
70 89 119
70 90 120
67 87 115
67 86 114
68 88 116
67 88 115
69 88 116
68 89 117
69 88 113
68 88 116
65 84 110
65 84 110
68 86 112
67 86 111
64 82 106
64 81 105
64 81 107
66 83 107
67 84 110
65 82 108
64 80 101
63 78 102
59 75 96
63 78 98
62 76 95
65 81 102
61 74 92
62 75 95
59 71 87
56 66 81
54 63 74
49 57 68
50 54 60
49 55 64
46 50 56
42 47 53
39 43 47
32 33 34
27 27 27
25 26 28
31 31 32
27 26 26
21 20 18
22 22 23
22 21 20
33 34 35
32 32 33
40 44 49
43 47 53
43 48 53
50 58 68
48 54 62
54 63 75
53 61 72
58 70 86
56 67 82
61 74 91
56 68 86
55 67 85
60 72 90
64 77 95
62 77 99
66 81 103
67 85 111
66 83 108
66 83 105
67 84 106
63 80 105
67 84 109
66 84 111
66 83 109
69 87 115
69 88 115
67 85 112
68 85 111
69 87 115
67 87 116
69 88 116
66 84 111
69 88 115
69 88 115
66 84 111
68 88 117
68 87 115
69 88 118
69 90 119
71 90 119
67 86 114
71 92 123
68 87 116
69 89 118
65 85 122
54 78 130
27 56 152
8 41 168
0 35 176
0 34 172
0 35 175
0 34 174
0 35 176
0 36 178
0 37 182
0 35 178
0 36 179
0 36 179
0 35 178
0 35 177
0 36 181
0 33 169
0 35 177
0 35 174
0 35 178
0 34 172
0 34 168
0 36 178
0 35 173
0 34 170
0 35 176
0 35 175
0 37 183
0 33 163
0 34 169
0 33 162
0 31 152
3 22 105
4 14 65
8 8 32
8 5 21
8 5 21
8 5 20
8 5 19
7 5 19
21 24 41
49 61 85
68 88 118
65 86 113
66 84 110
64 83 109
63 83 109
64 83 110
64 84 109
64 83 110
66 85 111
60 80 104
66 86 113
64 85 110
57 75 97
65 84 110
62 82 106
62 80 102
66 86 113
61 81 106
60 77 99
62 81 105
56 73 93
56 74 93
60 79 98
53 70 90
60 78 101
53 70 89
54 71 89
58 76 96
48 65 81
54 72 90
54 72 88
45 60 73
48 64 79
47 62 75
52 68 85
40 55 62
32 46 44
27 44 38
24 43 28
23 43 26
21 40 23
20 40 22
23 44 25
20 39 23
21 41 23
24 45 27
23 44 25
24 45 26
21 41 24
21 40 23
22 42 24
22 39 25
32 49 43
34 49 47
43 59 70
45 60 72
42 55 66
45 59 70
50 65 82
49 64 79
49 64 81
48 63 79
53 68 87
44 58 71
49 64 79
54 71 93
51 68 87
54 71 92
55 72 94
54 70 90
56 75 95
58 76 97
55 71 93
55 71 89
52 67 85
57 74 95
51 66 87
58 75 99
59 76 101
55 71 93
55 71 93
58 75 100
52 65 84
53 69 91
58 75 100
57 73 98
55 71 94
61 78 103
54 69 91
51 67 87
51 66 86
51 66 86
54 69 92
49 62 81
48 61 81
43 54 71
44 55 71
41 51 65
45 58 74
40 52 66
33 34 47
26 15 24
23 8 17
29 9 21
27 8 19
25 8 18
28 9 21
24 8 17
25 8 17
24 8 18
28 9 20
29 9 21
30 9 21
28 9 19
27 9 19
30 10 21
28 9 20
27 9 20
30 9 21
28 9 19
27 9 19
30 9 21
28 9 19
26 8 19
32 10 22
25 8 18
26 8 18
25 8 18
25 8 17
25 8 18
22 6 15
22 7 16
30 25 36
32 37 50
49 62 82
47 59 79
49 60 78
51 65 86
50 65 88
56 72 93
55 71 94
54 71 94
56 72 96
60 78 103
55 72 95
60 78 104
56 73 99
58 75 99
59 76 102
61 78 103
59 75 100
58 75 101
52 64 86
29 30 42
13 5 9
12 4 7
13 4 8
15 5 10
16 5 10
17 6 11
17 5 10
15 5 9
17 6 11
17 6 11
18 6 12
17 6 11
19 6 12
17 6 11
17 6 11
18 6 11
17 6 11
14 5 9
18 6 11
18 6 11
18 6 11
19 6 12
18 6 11
15 5 10
18 6 11
15 5 10
17 5 11
18 6 11
17 6 11
18 6 11
16 5 10
15 5 9
27 24 35
52 61 81
63 81 109
65 83 111
63 82 110
66 84 113
67 87 117
66 84 113
63 81 107
64 81 109
66 86 115
66 85 115
66 85 114
66 85 114
64 82 111
66 86 114
65 83 111
67 86 115
68 86 116
65 84 114
69 88 117
70 90 122
67 87 118
65 84 112
68 89 119
68 88 119
68 88 117
68 88 118
68 88 119
67 87 119
68 87 117
65 86 116
67 86 116
63 82 110
70 90 121
64 82 112
16 11 37
16 12 39
24 25 49
44 56 78
58 77 99
67 88 114
60 81 106
61 81 103
64 86 110
65 87 113
67 89 117
63 85 108
61 82 105
64 85 110
65 86 111
68 89 119
68 90 119
66 87 115
65 86 113
69 91 120
67 88 116
68 88 117
66 85 110
63 84 109
67 87 113
70 91 119
67 89 116
64 85 111
67 88 116
66 87 117
67 88 118
70 90 117
68 89 118
67 86 112
69 91 121
70 90 121
69 89 118
67 87 115
69 89 116
66 86 112
67 87 115
71 92 124
68 87 116
68 88 114
69 89 118
70 90 117
69 89 116
69 89 118
69 89 116
70 90 118
65 86 111
69 88 118
67 85 113
67 86 112
69 87 112
69 89 114
70 90 120
65 84 109
70 88 115
66 84 109
63 81 105
64 83 106
65 83 108
64 81 104
62 77 102
66 84 109
65 79 98
63 78 98
64 80 101
59 72 88
64 76 95
57 68 82
63 74 91
62 74 89
55 65 79
48 56 67
50 57 66
46 50 56
44 48 54
47 51 57
35 37 40
36 39 42
39 40 41
37 40 43
34 36 38
34 38 41
28 27 28
37 40 45
40 44 49
34 37 41
40 44 50
42 48 54
48 54 62
48 54 65
47 53 60
51 58 69
51 60 73
50 59 71
57 68 82
58 70 87
57 69 87
56 69 88
55 69 91
61 76 98
63 77 99
62 77 99
69 86 111
63 81 107
64 82 108
68 85 108
66 83 108
65 80 101
68 85 111
65 81 105
68 86 111
67 84 112
70 87 113
67 86 115
66 85 112
71 91 121
65 84 109
67 86 113
68 88 117
71 90 119
66 85 114
67 87 116
66 86 113
66 84 111
70 90 119
70 89 118
66 86 115
69 88 117
67 86 115
70 90 120
66 85 113
53 77 128
33 60 144
12 44 158
0 36 177
0 34 170
0 33 169
0 34 176
0 35 172
0 35 177
0 35 179
0 36 179
0 35 179
0 36 180
0 36 181
0 34 169
0 34 172
0 36 181
0 35 176
0 34 171
0 36 179
0 34 170
0 34 172
0 36 178
0 35 177
0 33 169
0 35 175
0 31 157
0 32 164
0 34 168
0 34 169
0 34 168
0 34 168
0 31 154
1 28 138
4 19 90
5 10 45
7 5 19
9 6 22
7 5 18
8 5 20
7 5 19
20 23 40
51 65 91
62 80 106
70 90 120
67 87 115
63 81 106
65 85 113
61 81 105
63 82 106
62 82 107
64 84 109
65 85 113
66 87 116
59 78 99
61 80 105
62 80 105
60 80 104
61 79 101
61 80 103
63 81 105
63 82 109
61 79 103
62 80 103
60 78 101
54 71 90
51 69 85
58 77 96
55 73 91
52 68 86
57 74 93
54 72 88
47 64 78
45 61 70
49 65 79
47 62 76
47 61 73
39 52 61
39 52 60
34 45 50
39 52 60
26 38 36
16 28 18
16 28 20
19 34 21
18 35 20
17 32 18
20 38 22
20 38 23
21 40 23
20 37 23
14 28 16
21 36 25
21 34 27
26 39 34
31 44 48
35 48 56
36 47 58
38 49 58
40 54 64
40 53 63
46 60 76
43 56 68
42 56 68
41 55 66
44 59 72
46 60 75
53 69 89
50 66 85
49 65 82
53 69 88
56 71 90
52 68 87
55 72 94
61 79 103
49 64 83
54 71 92
56 73 95
56 72 93
53 68 88
57 74 98
54 71 93
56 73 99
55 71 92
52 68 91
52 69 90
51 68 90
57 74 98
59 75 99
50 65 86
53 67 87
57 74 98
58 74 98
50 64 86
47 60 78
48 61 80
53 69 89
44 56 74
45 59 77
44 57 76
51 65 84
44 58 74
39 49 65
39 45 59
28 23 35
25 9 18
28 9 20
28 9 19
25 8 17
26 8 18
30 9 21
24 8 18
29 9 21
24 8 17
30 9 21
26 8 18
26 8 19
29 9 20
27 8 20
27 9 19
25 8 17
27 8 19
30 9 20
29 9 20
29 9 20
27 9 20
27 9 19
22 7 16
26 8 18
26 8 18
28 9 19
25 8 17
21 6 15
26 8 18
26 17 26
32 35 47
40 49 67
45 58 78
43 55 72
50 63 83
48 62 83
44 56 75
46 60 81
49 63 84
54 70 92
56 72 97
54 70 95
59 75 101
60 77 103
52 67 90
59 76 101
55 73 97
58 75 101
55 69 91
63 81 109
59 75 100
40 47 64
22 21 30
12 4 7
12 4 8
14 5 9
14 4 9
15 5 10
15 5 10
15 5 10
17 6 11
16 5 11
17 6 11
16 5 10
17 5 11
18 6 12
19 6 12
17 6 11
17 6 11
19 6 12
17 6 11
17 6 11
19 6 12
16 5 10
17 6 11
17 6 11
17 6 11
15 5 10
17 6 11
16 5 10
17 6 11
16 5 10
17 5 10
18 8 14
31 30 41
58 74 99
65 84 112
67 87 118
67 86 115
63 82 110
68 88 118
64 81 108
66 85 114
65 84 112
65 84 112
64 83 111
65 84 112
67 86 115
69 88 117
68 88 117
64 83 111
66 85 113
67 86 114
65 85 115
67 88 118
67 87 117
66 85 114
63 81 108
66 86 115
66 86 115
68 87 117
67 87 118
68 86 117
67 85 112
65 85 113
67 87 117
67 86 114
67 87 118
64 82 110
68 88 117
16 11 37
16 11 36
26 29 51
47 63 82
60 80 102
66 87 115
63 85 108
63 85 108
62 83 106
63 84 108
66 87 114
64 85 108
65 86 111
67 86 113
65 87 111
64 85 111
66 87 113
69 91 121
67 88 116
67 87 114
68 89 119
69 88 115
69 90 116
73 91 113
73 92 117
71 91 116
71 90 116
68 90 120
68 88 116
69 90 118
65 86 112
66 88 115
68 89 118
68 88 119
67 87 115
71 91 120
69 90 118
69 89 118
70 91 121
71 91 121
71 92 124
66 87 114
69 90 119
69 90 120
68 88 117
65 85 114
68 87 115
67 87 115
67 85 114
69 89 116
70 89 118
69 89 117
67 86 114
66 85 109
70 89 119
70 89 118
68 88 115
69 85 108
68 87 113
66 85 112
68 86 111
65 82 106
66 83 106
68 84 107
68 85 107
63 78 98
67 82 103
68 84 107
62 77 97
60 74 93
62 75 93
59 72 89
60 74 94
55 64 79
55 67 81
54 64 78
55 65 79
58 66 78
52 60 72
45 49 55
45 50 59
41 46 53
40 42 44
47 52 60
42 47 54
40 44 50
43 48 55
53 60 71
49 54 62
44 48 54
49 56 63
47 52 60
52 61 74
52 61 72
53 62 76
57 68 82
59 71 86
60 71 88
58 71 89
59 71 90
58 69 87
64 79 103
63 78 100
64 78 99
64 78 99
65 79 101
65 82 106
62 79 103
69 86 110
66 83 109
64 80 106
66 83 108
66 82 106
66 85 112
67 85 112
70 88 114
69 89 119
68 87 115
66 83 108
68 88 117
70 90 119
69 88 114
67 86 113
64 83 111
68 87 114
70 89 118
69 89 118
68 87 117
65 85 115
68 88 117
70 90 121
68 87 116
67 85 112
69 89 117
61 83 122
40 63 127
22 52 150
2 38 174
0 33 165
0 34 173
0 36 179
0 34 174
0 35 174
0 33 168
0 35 174
0 33 163
0 31 164
0 34 174
0 32 162
0 33 169
0 35 176
0 33 170
0 35 174
0 32 163
0 32 162
0 35 173
0 33 165
0 35 176
0 33 165
0 33 166
0 32 161
0 35 172
0 32 160
0 32 160
0 31 155
0 32 160
0 34 169
0 34 169
0 30 148
2 25 123
5 13 62
6 7 32
7 4 18
7 5 18
7 5 18
9 7 21
26 30 49
46 59 84
66 86 114
65 84 112
65 85 110
68 88 116
65 84 112
60 78 102
64 82 109
66 85 110
62 83 108
66 86 114
63 81 103
65 84 112
65 85 112
61 80 101
61 80 107
61 80 103
65 85 111
60 77 99
59 78 100
63 82 107
59 76 96
57 76 97
56 74 94
58 77 98
56 74 92
54 72 91
57 75 95
45 61 73
48 64 78
49 65 79
44 59 69
46 62 74
44 59 72
43 56 66
36 49 54
34 46 52
35 47 54
28 37 42
27 37 39
25 34 36
24 34 33
15 24 19
16 25 20
13 23 16
15 27 17
13 23 16
14 23 17
18 28 22
15 22 20
16 23 22
21 29 29
25 34 35
26 34 36
31 40 44
29 39 44
31 42 49
37 50 56
42 54 66
43 56 67
39 51 60
51 67 84
47 62 79
53 70 89
48 62 79
50 65 82
50 67 85
56 73 94
48 63 81
61 80 105
51 67 85
51 65 84
54 70 92
57 75 98
57 75 99
54 71 93
54 69 90
54 71 94
49 66 85
52 67 88
59 77 103
57 73 95
52 67 91
57 74 96
55 71 93
56 72 95
52 67 89
55 70 93
53 68 89
55 71 95
53 67 88
48 61 83
55 72 95
53 68 90
51 67 87
50 64 85
48 61 82
53 68 91
41 51 68
46 59 79
40 50 67
39 49 65
37 41 57
27 19 31
24 7 17
23 7 16
22 7 16
25 8 18
26 8 18
27 8 19
26 8 18
25 8 18
27 9 20
26 8 18
26 8 19
24 8 17
28 9 19
26 8 18
26 8 19
29 9 20
25 8 18
24 8 17
24 7 17
23 7 16
25 8 18
25 8 17
24 8 17
21 7 15
22 7 16
24 7 16
22 7 15
19 6 14
27 26 37
33 39 53
42 53 70
40 51 68
44 56 74
41 51 68
48 62 83
48 61 83
52 67 89
43 55 75
49 63 84
54 70 94
51 66 88
55 71 96
50 64 83
58 74 98
53 67 89
53 68 90
58 74 98
55 71 93
56 71 96
59 75 101
53 67 90
29 29 40
11 4 8
11 4 7
15 5 9
13 4 8
15 5 10
14 5 9
15 7 11
17 8 12
15 7 11
16 6 11
16 6 11
17 6 11
16 6 10
17 6 11
18 6 11
16 5 10
17 6 11
16 5 10
15 5 10
15 5 10
15 5 10
15 5 10
15 5 10
16 5 10
17 6 11
15 5 9
16 5 10
14 5 9
15 5 10
14 5 9
26 21 31
48 56 74
58 72 95
64 83 112
63 82 111
63 81 108
65 84 112
65 85 113
63 82 111
68 88 117
65 83 111
68 88 116
66 85 113
63 82 110
69 88 118
67 86 116
67 86 116
65 83 112
68 88 118
69 89 119
67 87 116
70 89 121
67 85 114
67 87 117
68 86 116
69 89 119
66 85 113
69 89 119
67 87 116
66 85 115
63 83 111
66 85 114
63 82 110
63 83 112
66 85 115
69 89 121
65 84 114
16 12 38
15 11 35
29 32 53
42 54 76
59 80 99
57 77 96
61 83 106
64 85 111
62 81 105
68 90 117
63 82 105
67 88 115
64 85 110
66 87 113
66 87 116
66 87 113
69 90 115
74 91 110
73 87 96
81 94 105
77 91 101
84 97 108
80 94 107
87 97 96
88 100 106
82 93 103
80 95 108
77 91 103
77 93 113
72 90 110
72 90 114
67 87 115
66 87 113
69 89 120
68 89 118
67 88 116
67 87 115
67 87 114
67 87 114
68 88 116
65 86 114
68 88 118
69 88 116
71 91 121
69 90 121
69 88 114
68 89 120
66 86 114
67 86 114
67 86 113
67 86 112
65 84 110
67 86 112
69 90 120
67 87 112
69 88 116
71 89 116
67 84 110
70 89 118
66 85 111
68 85 112
70 88 114
69 87 114
66 82 103
66 82 104
63 79 102
63 80 102
62 80 102
63 78 98
62 75 95
62 76 96
62 76 97
54 66 81
60 73 91
62 74 92
56 66 82
56 65 78
55 66 80
57 67 83
59 68 81
52 60 71
49 56 67
56 65 78
55 66 81
50 57 65
53 60 69
48 56 67
53 60 68
55 64 74
56 65 78
56 66 80
57 67 82
57 67 82
55 65 82
60 74 92
62 73 91
58 69 86
59 72 90
64 79 99
64 79 101
61 74 94
60 75 97
66 83 107
66 81 103
61 78 103
66 82 107
62 77 101
69 87 114
67 88 119
66 84 111
68 86 112
71 90 119
68 86 113
68 86 114
68 86 113
69 88 116
67 86 115
71 90 117
67 85 112
70 90 118
66 84 110
65 83 110
69 89 118
70 89 119
68 87 115
66 85 113
68 88 117
68 86 113
66 86 115
64 82 110
67 86 114
67 86 116
67 86 115
67 87 117
56 78 124
31 57 135
7 37 148
1 34 165
0 34 169
0 30 152
0 34 169
0 33 168
0 34 171
0 35 173
0 35 176
0 33 167
0 32 164
0 34 168
0 33 165
0 33 165
0 33 168
0 32 161
0 32 163
0 32 165
0 33 167
0 32 163
0 33 169
0 32 164
0 35 173
0 30 155
0 30 155
0 34 168
0 31 159
0 32 161
0 32 160
0 31 156
0 33 163
0 32 159
0 33 161
1 23 116
2 21 102
6 12 54
7 5 21
7 4 18
7 5 19
7 4 17
30 36 56
49 61 84
66 86 115
66 86 115
67 87 115
66 85 112
66 86 114
65 84 109
65 84 112
60 79 103
67 87 116
65 84 111
64 83 109
64 83 110
57 75 96
65 84 111
59 76 99
60 79 101
61 81 105
60 78 101
57 75 98
61 79 100
56 74 95
58 76 97
54 72 90
55 74 92
51 69 86
52 69 88
46 61 74
55 72 91
49 66 81
53 70 87
45 60 73
45 60 72
45 60 71
43 57 64
37 51 56
32 44 50
34 47 52
27 37 40
26 36 38
21 30 29
18 26 27
14 19 20
19 26 27
14 19 18
13 19 17
15 21 22
10 14 13
15 21 22
17 22 24
16 22 22
21 29 30
25 33 37
25 34 38
29 38 44
30 40 45
37 49 56
38 49 59
41 54 65
40 53 64
39 52 62
41 55 68
41 56 68
49 64 83
53 70 89
50 66 83
52 69 87
49 64 85
55 72 92
52 69 88
52 68 89
57 73 93
56 73 94
57 74 95
57 74 97
57 74 98
58 75 100
57 75 98
57 75 98
53 68 88
54 70 92
55 72 95
55 70 93
54 70 93
58 75 100
59 76 101
53 68 90
55 71 92
51 66 86
59 76 100
55 70 93
53 69 92
53 67 89
53 69 93
57 73 97
48 60 80
45 58 78
48 61 83
47 61 81
40 51 69
41 51 69
44 55 72
35 42 58
30 28 41
26 15 25
24 7 17
24 8 17
23 7 16
24 7 17
21 6 15
25 8 18
26 8 18
27 9 19
23 7 17
24 7 17
24 8 17
26 8 18
25 8 18
25 8 17
26 8 19
24 7 17
27 9 19
25 8 18
26 8 18
28 9 19
24 7 17
22 7 16
22 7 15
21 6 15
23 7 16
20 8 16
23 15 24
29 32 45
39 48 64
34 42 58
37 48 64
47 59 79
45 58 79
44 56 76
47 59 79
54 70 96
50 65 89
50 65 89
50 64 87
52 66 87
50 64 85
58 74 99
54 70 94
55 71 94
57 75 101
58 76 103
51 64 85
55 71 96
51 64 86
50 64 86
38 45 62
21 18 24
13 8 10
13 7 10
15 14 14
14 13 14
18 20 19
17 20 19
17 20 19
17 22 20
19 21 20
20 18 19
18 14 16
16 10 13
15 7 11
16 6 10
17 7 12
14 5 9
15 5 10
15 5 9
13 4 9
14 5 10
16 5 10
13 4 8
15 5 9
15 5 10
15 5 10
15 5 10
14 5 9
14 5 9
14 5 10
28 27 38
53 66 90
66 85 112
65 84 112
64 82 110
66 85 113
63 82 110
63 81 107
68 89 120
66 85 114
63 82 110
67 86 115
66 84 112
65 85 116
66 85 114
66 85 115
62 81 110
65 83 111
66 85 114
63 81 108
68 88 118
67 87 115
66 85 113
65 85 115
69 88 119
68 88 119
69 88 119
62 81 109
65 83 111
67 86 115
67 86 116
69 89 118
68 88 117
65 84 112
68 89 119
66 85 114
67 86 115
16 11 36
14 10 33
27 29 54
46 58 83
63 82 107
65 85 111
63 83 106
62 82 105
59 80 101
63 83 106
63 84 106
67 87 113
66 87 111
64 85 112
70 87 106
69 85 98
82 95 103
83 96 100
90 97 95
99 102 87
100 103 90
105 103 80
107 106 85
103 104 86
106 104 79
104 104 83
99 102 89
98 102 93
94 98 92
88 96 100
83 95 105
84 96 108
77 95 121
68 87 109
70 90 121
69 89 116
70 91 122
66 85 112
67 88 117
68 88 116
69 90 119
70 90 119
69 89 118
68 89 118
68 89 121
68 87 116
70 90 118
68 85 112
68 89 117
70 90 118
68 87 115
70 90 118
70 89 117
70 90 119
70 89 116
68 86 111
70 89 115
69 87 113
65 83 109
68 87 113
68 85 112
63 81 106
69 87 112
61 76 99
69 86 112
68 85 108
67 86 111
69 88 112
63 80 104
64 79 102
70 86 111
62 78 99
67 80 102
64 78 100
64 77 94
61 76 95
60 72 88
60 71 89
57 68 83
60 73 91
63 75 93
59 72 90
57 69 85
56 66 82
57 67 84
53 63 78
60 69 83
57 70 89
60 73 93
56 68 86
62 73 89
56 68 84
55 67 82
64 77 95
63 78 101
63 77 97
64 79 102
61 76 98
64 78 99
64 79 102
62 76 97
65 83 109
63 80 105
67 83 107
67 85 114
65 82 108
67 83 107
65 84 110
70 89 119
66 84 112
66 83 108
67 85 112
68 87 112
69 86 112
68 85 111
70 89 118
67 84 111
67 87 116
69 88 117
65 84 112
67 85 112
67 85 112
69 89 119
69 89 118
68 86 115
70 88 116
68 87 116
70 90 120
69 89 118
67 86 115
70 90 119
66 84 111
66 85 114
64 84 118
45 70 136
24 51 141
3 33 151
0 31 157
0 31 156
0 32 163
0 34 164
0 33 170
0 30 156
0 34 175
0 33 164
0 31 155
0 34 174
0 34 167
0 32 164
0 32 160
0 34 173
0 33 168
0 31 159
0 32 160
0 31 157
0 34 170
0 32 163
0 31 161
0 34 171
0 35 174
0 32 162
0 35 174
0 30 154
0 32 164
0 30 152
0 32 156
0 32 161
0 32 159
0 29 142
0 30 147
2 21 101
4 16 75
5 5 22
8 5 19
7 4 17
11 10 26
28 30 51
54 66 92
63 81 110
65 80 110
61 74 104
63 80 110
67 85 114
65 83 111
63 81 106
66 84 113
63 82 108
64 84 111
64 83 108
58 76 100
64 83 106
63 83 109
61 79 103
65 85 114
59 78 103
60 79 102
56 73 93
61 80 106
56 75 97
58 76 98
58 76 99
54 72 91
58 78 99
53 70 89
51 69 86
53 71 89
48 64 77
46 61 73
54 71 86
48 65 79
45 61 74
45 60 71
41 57 68
36 49 56
38 51 58
29 40 43
31 43 48
32 43 49
20 29 30
21 29 31
25 35 36
26 35 38
16 23 23
21 28 31
18 25 26
22 30 32
26 35 37
20 29 29
23 32 34
25 35 38
23 32 34
24 33 34
33 43 51
35 46 55
32 43 50
41 54 64
41 55 67
45 60 75
41 56 69
46 61 78
45 58 73
55 72 91
51 66 83
50 66 84
45 61 78
52 67 85
56 73 97
54 71 92
53 70 93
53 69 91
52 67 87
54 71 92
52 67 89
53 69 88
54 71 92
55 72 94
53 68 89
58 77 102
57 75 101
55 71 95
58 75 99
52 67 87
55 70 91
51 65 87
54 71 95
52 67 88
56 71 95
52 66 89
50 64 85
55 71 96
52 67 90
52 67 89
52 68 92
45 58 76
43 55 73
49 63 85
47 60 80
38 49 63
42 52 69
46 58 79
38 44 61
33 31 45
25 13 24
22 7 15
25 8 17
22 7 16
25 8 17
24 7 16
24 7 17
26 8 18
23 7 17
24 8 17
24 7 17
26 8 19
23 7 16
22 7 16
27 8 19
24 7 17
24 7 17
23 7 16
25 8 17
26 8 18
22 7 16
25 8 17
22 7 16
23 7 15
18 6 13
22 14 23
28 29 41
33 41 55
39 51 68
38 49 67
42 53 71
38 47 64
44 55 74
47 60 80
46 58 78
40 52 71
51 66 89
49 63 85
53 68 91
54 69 94
52 66 88
54 70 94
50 64 86
54 70 94
55 70 94
53 68 91
50 65 88
56 73 98
54 71 96
57 73 97
42 56 70
24 33 37
17 20 20
16 25 21
17 26 22
21 39 31
19 34 27
20 44 33
19 32 26
23 48 36
20 37 29
20 36 29
19 33 27
20 30 25
20 30 26
17 23 20
17 12 15
16 11 13
15 8 11
16 5 10
13 4 9
15 5 10
14 5 9
15 5 9
14 5 9
14 5 9
14 5 9
14 5 9
15 5 10
13 4 9
22 18 26
44 52 70
58 74 99
64 83 110
65 84 113
65 85 114
66 84 112
60 78 104
62 80 107
65 84 112
63 81 108
66 84 112
66 85 113
65 84 111
66 86 115
66 86 116
68 88 117
68 88 120
66 86 115
66 84 114
66 85 113
67 86 115
65 84 113
67 85 114
65 84 114
66 85 115
64 82 110
67 86 116
67 87 117
69 88 119
66 85 113
65 83 111
68 88 117
65 84 112
66 86 117
69 88 118
67 86 114
69 89 119
14 10 35
16 13 37
32 38 60
52 68 91
64 85 108
59 80 101
65 86 111
63 82 105
64 83 108
69 89 118
64 84 108
66 84 106
68 86 106
76 91 107
87 97 99
88 96 94
103 104 85
105 105 85
108 106 82
115 106 65
115 106 66
115 107 68
122 111 64
126 112 64
126 113 65
130 115 63
121 110 65
119 111 70
109 103 71
107 105 80
101 99 78
93 96 85
86 94 94
88 95 95
73 92 114
69 89 118
70 92 124
69 88 117
68 88 115
69 91 121
70 90 118
67 88 116
68 88 116
70 89 119
68 88 116
70 90 118
70 89 119
68 89 117
66 86 114
70 90 119
70 90 119
68 87 114
66 86 114
67 86 112
69 88 115
70 89 117
69 89 119
65 83 111
69 88 116
68 86 113
69 88 116
69 89 116
68 86 113
69 85 108
64 82 105
67 85 111
64 81 104
65 80 104
66 81 106
68 84 108
62 77 98
68 84 107
65 80 103
61 77 96
67 82 105
68 83 106
59 73 92
61 75 95
65 78 100
62 75 93
65 78 96
63 80 102
60 72 90
63 78 99
68 83 105
62 77 100
60 75 97
66 81 103
63 75 93
65 81 104
64 79 102
66 81 104
64 79 100
61 75 95
59 74 97
63 77 98
67 82 105
68 84 108
66 84 111
64 82 106
67 84 111
68 86 114
64 82 107
66 82 108
68 84 109
64 81 105
68 86 113
69 86 112
64 82 109
68 87 116
68 87 115
68 86 114
68 87 115
68 87 114
70 90 121
68 87 116
69 88 116
63 82 111
68 87 116
69 89 118
65 83 107
68 86 113
65 84 112
67 86 114
68 89 119
67 86 115
68 86 113
69 89 118
70 90 119
67 88 118
64 84 111
69 89 118
66 85 112
59 80 120
41 68 139
15 47 156
0 31 154
0 33 161
0 33 161
0 34 168
0 31 161
0 33 166
0 31 154
0 33 169
0 31 159
0 31 156
0 33 167
0 32 161
0 31 155
0 33 164
0 31 159
0 30 154
0 31 160
0 31 158
0 29 149
0 29 150
0 31 161
0 32 164
0 29 147
0 31 155
0 34 167
0 29 150
0 28 142
0 31 154
0 30 153
0 31 154
0 33 162
0 28 140
0 32 157
0 29 146
1 22 109
3 17 81
7 5 23
8 4 20
11 4 23
15 8 28
33 33 60
53 55 90
60 66 101
55 58 94
56 58 95
58 62 99
56 59 93
57 66 97
59 68 100
58 70 100
59 72 101
63 81 109
65 83 110
61 80 107
61 80 105
62 81 106
60 80 103
58 76 98
64 82 108
61 80 104
57 75 97
61 80 105
60 79 102
58 77 98
60 77 99
58 76 97
57 76 98
54 72 91
58 76 96
53 70 89
53 71 89
50 68 85
53 71 90
49 64 80
46 62 75
44 60 73
47 62 76
44 59 72
37 52 60
41 55 65
40 54 64
43 57 68
35 47 55
33 45 52
40 53 63
29 39 44
33 44 51
30 41 45
28 39 45
39 53 61
32 44 50
33 45 51
36 49 56
35 48 54
38 52 61
34 47 55
48 62 79
41 55 66
42 56 70
45 59 73
47 63 78
48 63 79
45 61 75
52 69 86
50 66 85
48 64 78
46 61 79
52 69 88
52 67 88
60 78 102
49 66 85
55 72 93
53 69 91
56 74 97
56 73 95
58 75 99
57 74 96
54 71 91
57 72 96
56 73 97
58 75 99
56 73 96
55 71 93
59 77 102
55 71 95
51 65 86
57 72 96
53 67 88
55 71 94
52 67 89
50 63 84
49 64 84
54 70 91
53 68 92
56 71 94
47 61 81
46 59 78
53 68 91
45 57 76
44 56 75
44 56 75
43 55 74
44 56 75
41 52 69
40 49 66
35 40 55
28 29 40
19 9 16
21 7 15
21 7 15
20 6 15
23 7 16
23 7 16
24 7 17
22 7 15
23 7 16
24 7 17
23 7 16
21 7 15
25 8 17
23 7 16
24 7 17
24 8 17
22 7 15
20 6 14
22 7 15
19 6 13
19 6 13
20 6 14
17 6 13
20 11 19
27 28 40
38 48 64
40 51 70
42 54 75
41 52 71
47 61 82
36 45 61
46 56 76
41 52 71
47 61 83
45 57 79
51 66 89
49 63 87
46 59 81
53 66 88
48 61 83
53 69 92
52 67 92
51 66 89
54 70 94
54 70 93
48 62 83
51 64 85
54 70 94
52 71 91
47 70 82
37 59 65
26 50 44
20 42 33
21 47 36
23 52 39
25 63 46
24 58 43
25 62 46
25 63 46
25 61 45
26 61 45
24 58 43
23 47 36
22 47 36
21 47 35
20 34 28
18 24 21
17 18 18
14 7 11
15 9 12
14 5 9
15 5 9
15 5 10
14 5 9
13 4 8
13 4 9
12 4 8
14 5 9
16 10 16
36 38 53
53 67 89
63 82 109
59 75 101
61 78 104
62 80 105
65 82 110
63 80 107
64 82 110
62 81 108
66 85 115
68 88 119
59 76 103
68 87 117
64 83 110
63 82 111
65 84 113
65 84 112
66 86 116
63 82 110
62 81 110
63 82 111
69 88 120
67 86 115
66 86 116
65 83 110
71 91 121
67 86 116
68 88 118
68 89 122
65 84 111
66 85 115
66 86 115
68 89 120
65 84 114
65 83 113
67 86 115
68 88 119
15 11 35
18 16 41
38 45 69
61 79 106
62 82 103
61 81 104
67 88 113
62 81 106
64 86 111
67 86 108
65 83 108
71 87 98
83 93 95
93 99 89
109 106 80
113 106 73
122 112 71
123 112 63
129 114 60
130 115 60
127 112 56
131 116 57
131 115 57
132 115 56
132 114 55
130 113 56
129 113 56
126 112 59
126 112 61
121 109 62
117 107 68
113 107 76
104 103 80
97 100 89
86 95 95
76 93 111
71 90 117
67 89 118
69 88 118
71 92 124
69 89 117
72 93 123
70 90 119
66 85 112
68 88 117
67 87 113
68 88 116
70 91 122
71 91 121
68 87 116
70 89 118
69 88 116
65 84 112
68 87 115
68 86 114
70 90 121
69 88 115
68 86 111
68 86 114
69 87 114
68 87 114
70 87 114
67 85 111
67 86 115
68 87 113
69 88 114
68 86 112
67 86 113
64 82 108
66 85 112
66 83 108
66 84 110
68 84 109
67 83 106
67 84 109
66 83 109
64 81 103
66 81 104
66 83 109
66 81 102
65 81 104
64 80 103
65 82 107
66 84 108
67 83 108
62 79 101
66 84 110
66 81 102
66 82 104
65 83 107
65 80 102
66 83 107
68 86 113
66 85 113
64 82 109
63 81 107
69 88 118
63 80 103
67 87 116
65 83 111
64 82 107
65 83 108
68 87 115
68 87 116
66 84 110
68 87 116
65 86 115
64 83 109
67 86 113
67 85 112
68 88 117
66 86 113
69 89 118
69 88 116
70 90 117
68 86 112
70 90 120
68 87 114
67 86 114
69 89 119
64 84 113
67 85 113
68 88 118
71 90 120
71 92 124
69 87 114
68 87 117
66 86 115
71 91 121
67 86 114
70 89 119
67 86 113
69 89 118
52 75 125
33 62 143
7 37 147
0 30 152
0 26 142
0 30 151
0 30 152
0 34 166
0 31 154
0 34 169
0 32 160
0 31 157
0 30 153
0 31 154
0 29 148
0 33 164
0 29 154
0 32 164
0 32 162
0 27 140
0 34 170
0 30 155
0 29 148
0 31 160
0 32 160
0 30 153
0 29 147
0 28 144
0 30 152
0 28 141
0 26 137
0 28 144
0 28 140
0 29 148
0 31 153
0 28 142
0 32 157
2 23 115
8 15 77
11 7 44
14 3 27
19 3 33
21 4 36
34 19 59
49 37 79
50 36 82
46 30 76
45 31 75
48 37 79
46 29 75
47 34 76
51 44 87
53 52 90
55 58 93
61 71 106
58 68 98
63 80 109
63 82 109
65 85 112
62 82 108
60 80 103
61 80 106
64 85 115
59 78 102
62 81 108
64 83 109
58 77 98
58 76 99
61 80 105
57 75 96
59 78 102
54 72 90
55 71 92
55 73 92
55 72 90
57 75 96
51 67 84
56 74 94
49 65 80
53 71 88
41 56 65
46 61 75
52 69 85
44 60 73
44 60 70
54 71 89
34 47 50
39 53 64
41 54 64
38 50 61
44 59 70
45 60 73
45 61 74
40 54 64
45 60 74
40 52 65
43 58 71
43 58 69
49 65 81
45 59 72
55 70 90
45 60 74
49 65 83
51 66 84
44 59 73
47 61 75
53 71 91
47 63 81
55 71 91
49 64 83
51 67 86
54 70 93
56 73 95
55 72 92
54 71 91
56 75 99
55 71 95
61 81 107
54 71 92
56 71 93
58 76 99
59 78 103
57 74 97
58 75 100
55 72 94
50 65 84
54 70 92
57 74 99
59 77 103
60 77 102
59 75 99
55 71 92
50 65 87
52 67 90
51 66 88
49 63 84
54 69 92
51 65 88
52 66 87
50 64 87
50 64 87
45 58 79
51 65 87
48 61 83
44 54 71
43 56 77
48 61 81
40 50 68
35 43 57
37 43 59
25 21 31
21 10 19
18 5 13
17 5 12
20 6 14
20 6 15
18 6 13
21 7 15
22 7 16
19 6 13
19 6 14
22 7 15
24 7 17
21 7 15
22 7 16
21 7 15
21 7 15
20 6 14
24 7 16
18 6 13
18 6 13
21 9 17
22 15 25
23 21 31
38 45 63
35 42 57
44 55 74
44 56 76
44 55 74
46 59 80
50 64 86
39 50 66
48 61 83
54 68 92
43 55 74
51 64 86
46 60 82
43 55 75
46 59 79
51 66 88
52 67 91
49 63 86
48 62 84
51 66 88
56 71 93
48 63 83
47 65 82
43 65 73
39 65 70
35 66 64
31 66 57
30 66 54
26 66 48
25 66 48
26 71 51
28 74 53
27 73 52
28 75 53
27 75 54
27 74 53
27 72 52
26 71 52
26 67 48
26 66 49
24 58 43
23 55 41
23 48 37
20 35 28
19 28 24
17 22 19
13 7 10
12 4 8
13 4 8
12 4 8
12 4 8
12 4 8
11 4 7
17 12 18
32 35 48
47 58 80
62 80 107
59 76 103
64 82 111
61 77 103
62 79 104
63 81 107
63 81 109
65 84 113
63 81 108
63 82 108
61 78 105
62 79 106
64 80 107
66 83 112
64 82 108
67 86 116
66 85 114
69 89 120
61 79 104
62 79 107
66 86 115
65 84 113
68 88 120
67 87 117
63 81 110
65 82 109
66 85 115
64 82 110
67 86 115
70 90 121
67 87 117
64 83 112
66 85 115
63 82 108
67 86 116
70 92 123
68 89 119
12 9 30
19 18 38
40 49 72
62 82 108
61 80 102
62 83 108
63 82 106
66 86 112
70 90 116
72 88 107
76 91 101
96 99 89
98 98 84
119 111 72
122 110 64
128 112 59
132 115 57
130 113 55
132 115 56
133 116 56
133 115 56
132 116 57
131 114 55
131 114 55
131 114 56
131 113 55
130 112 55
128 111 55
132 113 55
129 112 55
133 114 55
120 108 59
111 102 65
112 104 72
101 99 79
91 96 91
78 92 105
74 90 111
70 91 120
69 89 119
66 85 111
69 89 118
72 93 124
68 88 115
69 89 118
70 90 116
67 87 117
70 90 120
69 89 117
68 88 118
69 89 118
72 90 118
69 88 116
67 87 116
70 89 118
70 90 120
66 85 110
70 91 121
68 88 117
67 86 113
68 88 119
67 85 113
69 89 115
70 88 114
67 87 114
70 87 113
68 87 115
69 87 115
67 84 108
69 88 117
68 85 110
69 87 114
68 86 109
63 81 105
67 85 113
65 81 104
67 85 110
67 83 106
64 81 104
65 81 106
67 83 108
67 86 114
63 77 99
68 86 114
68 86 113
66 84 110
65 81 107
65 83 115
67 83 112
61 76 106
65 81 111
64 79 109
63 78 110
66 83 110
64 83 111
66 84 111
61 78 105
69 88 116
66 85 112
70 88 117
67 84 109
65 82 108
67 86 112
65 83 109
68 87 114
70 90 118
68 88 117
67 84 109
71 91 121
68 87 116
67 87 115
67 86 116
72 92 121
68 87 116
68 87 115
67 86 114
67 85 112
68 88 117
71 92 124
68 88 118
70 89 119
70 89 119
69 89 120
67 87 117
67 86 114
70 90 120
68 87 115
67 87 117
67 88 119
66 86 115
71 92 123
69 89 119
67 87 117
49 71 125
29 55 135
2 29 138
0 29 145
0 28 143
0 29 153
0 31 156
0 30 150
0 30 156
0 32 163
0 29 151
0 32 163
0 31 159
0 31 155
0 27 145
0 30 154
0 30 154
0 28 142
0 30 154
0 31 159
0 28 145
0 30 155
0 30 153
0 28 146
0 27 144
0 30 151
0 32 163
0 29 146
0 26 136
0 29 150
0 29 145
0 29 147
0 30 152
0 30 150
0 29 145
1 26 133
1 27 136
7 22 119
14 12 78
22 5 52
25 3 43
24 2 41
29 5 49
37 10 60
41 14 67
39 10 62
39 10 63
39 11 63
38 10 62
41 15 67
41 14 66
39 14 64
48 36 79
46 34 76
51 51 85
52 51 89
56 59 95
63 78 108
62 80 108
63 83 109
63 80 106
63 83 110
63 82 109
60 78 102
65 86 115
64 83 110
63 82 106
62 82 107
56 75 96
59 78 104
63 83 109
59 79 104
58 76 99
63 83 111
59 77 100
57 76 98
54 72 92
56 74 94
58 77 99
55 73 96
57 76 96
53 70 90
48 65 78
56 73 94
49 67 82
52 69 88
50 68 86
46 62 75
49 65 83
53 69 88
49 65 81
50 66 84
45 61 73
45 61 74
45 61 77
51 68 84
47 62 81
53 70 89
48 64 78
46 61 75
50 67 84
51 67 84
52 70 89
53 71 90
57 75 97
47 64 81
53 70 90
52 68 87
54 72 93
51 67 86
55 71 93
56 74 95
56 73 95
54 71 95
58 75 97
56 72 96
55 72 93
60 77 100
55 71 94
55 73 95
53 69 92
56 73 96
59 75 100
54 70 92
55 71 94
58 75 99
57 71 94
55 71 95
56 73 98
53 67 89
57 74 99
58 74 99
55 70 94
55 70 95
51 65 88
54 70 93
52 64 86
51 65 88
48 61 82
48 61 82
49 63 84
50 64 85
50 64 86
47 60 81
44 55 74
49 62 84
42 52 67
40 50 67
40 48 66
41 50 66
31 35 47
28 27 38
23 18 27
21 8 16
19 6 13
20 6 14
19 6 14
22 7 16
22 7 16
18 6 13
19 6 14
20 6 14
23 7 16
20 6 14
21 6 15
21 6 15
17 5 13
19 6 14
17 5 12
15 5 11
19 8 16
22 17 27
26 30 43
37 46 63
47 59 81
40 51 71
42 54 75
40 49 67
43 54 75
44 55 74
42 53 71
46 58 78
43 55 76
49 63 85
48 63 85
51 65 89
42 53 73
50 64 87
50 63 84
47 60 80
41 52 73
50 64 88
40 51 71
47 60 80
45 62 78
46 68 80
39 66 70
36 64 64
35 67 63
31 72 57
27 71 52
29 75 54
27 74 53
27 74 52
28 75 53
28 75 54
27 74 52
28 76 54
27 74 54
26 71 51
28 75 54
27 74 53
28 76 54
28 75 54
28 73 52
27 73 52
25 61 45
24 55 41
20 38 30
18 32 26
19 24 22
14 14 14
13 7 9
12 4 8
13 4 9
13 4 8
16 11 17
35 39 54
49 60 81
59 74 98
59 75 101
59 76 103
61 76 102
63 81 110
60 76 101
61 77 104
64 81 108
62 81 108
65 85 115
65 85 114
62 80 108
57 74 100
63 82 111
66 84 113
65 83 112
64 84 113
63 81 110
64 83 111
66 86 115
66 86 115
62 81 108
63 81 107
64 83 111
65 83 112
66 85 115
66 85 116
68 88 117
65 85 112
65 84 114
64 84 111
66 85 114
65 84 111
65 84 113
65 84 114
65 86 116
63 82 112
63 82 109
15 12 33
23 24 45
49 63 85
62 80 105
60 80 101
67 87 112
62 80 103
69 89 118
71 87 105
84 91 90
97 98 86
102 101 80
115 106 65
126 111 57
132 114 56
129 112 55
131 113 55
128 113 55
134 115 55
134 116 56
132 115 56
131 114 55
130 113 55
134 116 56
133 115 55
130 113 55
132 115 56
127 111 54
131 114 55
129 111 54
130 111 54
129 111 54
123 106 52
119 103 55
113 101 61
111 105 74
95 98 87
88 96 97
74 90 109
71 90 120
69 91 119
71 91 122
68 88 120
70 90 120
69 88 117
68 90 117
72 91 121
69 88 116
71 91 121
69 90 121
72 92 121
68 87 117
70 91 121
70 89 117
68 89 116
71 91 121
68 88 117
70 87 114
67 87 117
68 87 115
67 86 115
71 91 119
70 88 116
67 86 113
66 85 111
69 88 117
66 85 115
66 85 113
65 83 108
66 84 112
66 84 110
71 90 119
69 86 112
63 81 106
69 86 112
67 85 111
65 83 110
68 87 115
65 83 112
66 85 110
68 87 115
65 82 109
66 83 108
60 76 100
63 78 112
61 75 119
61 74 123
54 62 109
52 59 123
55 65 118
55 66 120
57 68 118
57 66 125
58 70 122
57 69 117
62 76 119
64 79 116
67 85 121
67 85 114
66 84 111
69 88 116
70 89 116
69 87 115
65 84 110
67 86 112
66 84 109
68 87 116
65 84 113
66 85 114
70 90 119
70 90 119
70 89 118
68 88 119
68 87 116
66 86 115
66 84 112
66 84 110
65 83 110
67 86 113
69 87 116
65 84 112
65 83 111
68 88 118
68 88 118
66 86 116
66 85 115
67 86 116
70 90 119
65 84 114
67 87 118
66 85 113
69 89 119
62 83 119
50 73 128
17 43 138
1 28 137
0 26 140
0 28 144
0 32 158
0 26 142
0 31 152
0 28 140
0 29 145
0 31 157
0 28 143
0 30 154
0 28 146
0 30 154
0 28 146
0 29 150
0 32 160
0 27 147
0 27 141
0 31 157
0 27 141
0 29 144
0 27 141
0 26 131
0 30 150
0 26 132
0 31 158
0 28 143
0 25 128
0 28 140
0 29 147
0 25 128
1 27 138
4 21 115
9 19 111
12 20 118
17 15 102
21 8 68
27 3 51
32 2 54
31 1 51
35 1 55
36 2 57
36 2 57
37 1 58
36 1 57
37 3 59
37 1 57
36 1 57
37 1 58
37 5 60
39 10 63
38 11 63
43 20 71
41 17 65
45 34 77
54 55 91
53 60 90
61 75 102
67 87 115
64 83 111
62 82 108
62 82 108
61 79 104
60 81 106
65 84 111
63 82 106
61 80 107
60 79 107
63 83 108
61 79 104
60 80 103
60 79 103
57 76 98
53 71 90
58 77 100
57 74 96
58 77 99
58 77 100
58 75 98
58 77 100
57 75 97
53 72 91
54 72 91
58 77 98
51 69 89
54 72 92
56 74 95
56 74 96
55 72 93
56 74 95
57 75 96
54 73 91
60 80 103
54 72 93
54 72 93
56 75 96
53 69 90
55 73 92
52 70 90
55 73 94
53 71 91
60 77 102
49 66 83
53 71 92
58 75 99
55 72 94
57 75 96
60 78 102
57 73 95
61 80 105
57 75 98
57 74 95
53 70 91
63 82 109
61 79 107
59 76 102
57 73 96
62 80 104
55 71 94
56 73 96
58 75 98
60 79 107
57 73 98
57 74 99
57 74 98
56 73 98
55 70 92
55 69 93
55 69 90
56 71 94
57 73 97
58 74 98
50 64 85
52 67 90
55 69 93
48 60 81
46 59 80
48 60 82
48 62 82
43 55 75
42 52 72
39 48 65
50 62 84
37 47 64
38 47 64
37 44 60
38 48 62
40 48 64
31 37 50
32 35 49
29 31 43
22 17 25
15 6 12
18 8 14
17 5 12
16 5 11
17 5 12
17 5 12
18 6 13
15 5 11
19 6 13
18 6 13
20 6 14
18 6 12
19 6 13
13 4 9
15 7 12
18 13 20
16 13 20
27 29 40
40 49 66
40 49 66
36 45 61
37 46 62
47 59 80
42 53 71
48 62 84
46 58 79
46 57 77
44 55 74
46 57 79
39 49 67
46 58 79
46 57 79
45 58 79
48 62 85
45 56 77
48 61 82
46 58 79
46 58 78
44 56 77
38 52 65
40 62 71
42 71 75
36 67 66
32 70 59
27 70 51
27 73 52
26 70 51
28 74 52
27 72 51
27 75 53
28 74 52
27 74 53
27 74 53
27 73 53
27 75 54
27 75 54
28 74 53
27 74 53
27 75 54
27 73 52
28 75 53
27 73 52
27 74 53
26 69 50
24 59 43
22 52 38
21 43 33
16 25 21
14 14 14
11 6 8
11 4 8
19 16 24
35 40 54
45 55 74
54 69 93
60 77 102
55 69 91
59 76 102
58 74 99
61 80 108
58 74 100
61 78 105
58 73 97
55 71 94
64 82 111
62 80 106
61 78 106
62 80 108
64 83 111
65 83 111
66 85 114
65 85 115
64 83 112
65 83 111
66 86 116
66 85 114
64 83 111
67 86 116
62 79 106
64 83 111
64 83 111
67 86 115
62 79 107
65 83 111
65 84 112
69 89 118
65 86 116
64 83 112
66 86 117
67 88 118
66 85 113
67 85 113
65 84 112
21 20 42
37 45 70
59 76 103
62 80 104
65 86 112
65 85 111
64 85 109
69 82 95
83 90 93
89 90 77
107 103 72
123 110 61
130 114 59
130 114 56
130 114 55
135 116 56
136 116 55
132 115 56
131 113 55
130 113 55
125 110 54
121 107 53
130 113 55
128 111 55
132 114 55
132 114 55
131 112 55
130 112 55
126 110 53
122 107 54
126 108 52
124 107 53
125 109 54
129 111 54
124 107 53
115 103 62
111 104 71
92 92 78
87 97 103
78 91 102
70 90 120
69 90 120
68 87 114
66 85 114
70 89 117
71 91 120
69 90 119
68 88 117
71 90 120
68 89 120
67 86 116
68 88 119
69 90 120
70 90 119
70 90 121
73 94 125
71 91 121
70 89 118
69 89 118
68 86 114
69 89 116
70 91 120
68 86 114
64 82 108
72 92 121
69 88 116
66 85 111
68 87 115
70 90 120
68 88 117
69 88 115
70 90 119
69 88 117
70 89 117
69 89 119
68 86 114
69 89 120
68 86 114
66 84 113
65 82 109
71 90 120
62 75 115
60 73 114
55 65 116
55 64 121
52 59 123
46 48 125
44 44 131
42 40 134
40 36 135
42 40 129
39 36 138
43 42 132
45 46 134
51 56 128
48 50 134
56 68 121
61 73 125
62 77 119
64 81 120
67 85 117
71 91 121
68 87 116
66 84 112
66 84 110
67 86 114
68 86 116
68 88 117
68 88 118
68 87 116
67 86 115
68 89 119
67 85 112
67 86 114
69 88 116
68 88 117
69 90 120
67 86 115
64 82 110
67 87 115
65 85 112
65 85 112
70 89 118
68 88 117
64 84 112
65 84 114
68 89 119
65 85 115
70 91 120
69 88 118
67 87 115
68 87 116
62 80 110
40 64 129
13 39 133
2 30 139
0 30 149
0 25 128
0 27 143
0 27 141
0 27 144
0 26 136
0 27 145
0 30 153
0 30 155
0 28 144
0 28 144
0 26 137
0 29 153
0 28 146
0 26 142
0 25 132
0 28 146
0 27 140
0 30 153
0 28 144
0 25 136
0 25 134
0 27 141
0 26 137
0 25 128
0 27 140
0 27 139
0 28 142
0 25 128
0 26 133
5 22 121
9 21 119
13 15 96
20 12 88
25 7 74
30 5 67
34 2 60
35 1 56
36 1 57
35 1 56
36 1 58
36 1 58
36 1 57
37 1 57
36 1 57
36 1 57
36 1 57
37 1 57
36 1 57
36 1 57
35 1 56
36 4 58
37 8 60
42 19 68
46 31 74
50 46 86
54 58 92
63 75 107
66 85 115
64 83 111
63 83 109
62 82 107
62 81 107
60 79 104
64 84 111
59 77 101
66 85 111
63 83 107
63 83 110
62 83 110
59 78 100
66 85 113
60 79 103
63 83 111
57 74 96
62 81 108
62 82 105
63 81 106
62 82 106
61 81 105
61 81 106
60 79 102
57 76 97
57 76 98
57 76 100
60 79 104
54 72 90
61 81 106
61 79 104
55 73 96
58 77 99
62 81 106
55 73 93
56 74 98
60 79 103
58 76 99
59 78 102
50 67 88
63 83 111
58 76 99
58 77 100
55 73 93
58 76 99
60 79 103
55 72 93
59 77 103
57 75 98
61 80 107
59 78 105
61 80 106
59 76 100
56 72 94
60 78 105
57 74 99
58 75 99
59 76 102
60 77 101
59 78 103
60 77 104
60 78 104
55 71 95
58 75 100
52 66 85
63 81 108
58 74 98
60 78 103
56 71 96
54 70 93
59 75 100
60 78 105
50 63 85
52 66 88
52 66 89
51 64 86
51 64 86
48 59 80
52 64 83
49 61 82
47 58 78
49 60 81
45 55 72
44 54 74
44 55 73
34 40 54
35 41 56
36 43 58
42 52 69
28 33 43
25 29 38
23 25 34
24 27 35
25 25 34
16 9 15
15 7 13
18 10 17
15 4 10
15 4 10
14 4 10
15 4 10
14 4 10
16 5 11
14 4 10
16 5 11
16 8 14
18 14 21
21 18 26
25 25 34
33 37 51
33 39 53
32 38 52
39 47 62
33 40 54
36 45 61
43 53 72
46 58 78
39 48 66
36 44 59
48 61 83
44 54 73
44 55 76
52 66 89
45 57 77
47 61 82
47 57 78
45 56 77
44 56 77
48 61 84
48 61 83
38 50 65
46 63 79
44 65 77
36 66 63
33 70 61
25 64 48
27 73 51
26 70 50
27 73 52
26 72 51
26 70 50
28 74 52
28 74 53
27 73 51
28 75 53
26 71 51
26 71 50
27 74 53
27 73 52
28 74 52
27 73 52
27 73 51
28 76 54
28 75 53
26 72 52
27 75 53
27 74 53
27 72 51
25 64 46
22 52 38
21 47 35
16 26 22
17 24 23
16 16 22
35 42 56
44 53 71
49 62 84
52 66 91
53 68 91
54 68 93
59 75 100
59 76 103
57 73 97
58 74 100
57 74 100
59 75 101
60 77 103
64 82 110
62 80 107
62 80 108
63 82 110
60 78 105
62 79 105
59 77 103
60 79 106
65 84 111
65 84 111
64 84 112
62 80 108
65 85 115
65 81 108
64 84 114
67 87 116
65 85 113
65 84 113
63 82 111
67 87 117
66 85 113
71 92 124
68 87 117
69 89 119
66 85 113
67 86 114
67 88 119
67 86 116
62 81 109
32 37 60
45 56 81
67 86 116
62 82 108
62 81 105
70 88 112
72 89 110
87 92 84
104 101 75
111 104 63
124 110 58
126 109 53
130 112 54
127 110 54
128 111 54
128 111 54
125 109 53
133 114 55
127 111 54
129 113 55
127 110 53
127 111 54
131 113 55
131 114 55
128 112 55
128 111 54
128 109 53
127 111 54
130 111 55
122 107 53
127 110 53
126 110 54
125 108 54
120 103 51
121 104 52
116 101 51
113 99 57
104 95 64
87 89 80
85 91 90
73 88 108
69 86 112
66 86 115
71 90 118
68 89 121
69 90 121
67 86 113
72 92 121
72 93 124
69 89 118
68 88 116
68 87 117
69 88 115
69 89 117
69 88 118
71 90 117
71 91 121
71 92 122
69 89 118
70 90 120
69 88 116
69 89 121
68 87 115
67 87 114
70 90 119
69 88 118
68 88 115
69 88 115
69 88 118
70 89 117
69 88 115
67 87 117
69 87 114
68 89 119
68 88 116
66 85 115
65 84 112
70 90 119
68 88 119
64 79 123
60 73 121
49 55 121
51 54 128
46 47 126
42 40 136
32 23 143
33 25 146
29 17 145
34 26 142
27 14 147
29 17 143
30 19 146
33 26 137
27 14 144
37 32 137
37 32 132
42 39 138
43 44 132
48 53 124
56 67 121
60 73 124
64 79 119
70 91 123
68 86 114
68 88 119
66 86 115
65 85 113
71 90 120
69 89 120
69 89 120
67 85 112
67 86 115
67 86 114
68 89 120
64 83 111
69 91 123
69 89 120
65 84 114
70 90 121
68 89 121
67 87 117
69 89 121
67 87 116
68 88 117
66 86 116
66 86 116
66 84 112
69 88 117
67 87 117
63 82 110
69 89 121
69 88 117
59 80 121
37 58 118
12 39 135
2 33 150
0 27 141
0 27 141
0 29 145
0 27 143
0 30 152
0 26 141
0 27 142
0 26 133
0 24 135
0 28 147
0 27 138
0 29 149
0 29 145
0 29 146
0 26 139
0 28 146
0 30 155
0 25 128
0 26 137
0 25 134
0 24 127
0 26 138
0 28 142
0 27 139
0 29 148
0 26 133
0 27 137
0 25 129
1 25 132
4 20 111
8 20 113
20 12 91
21 9 79
31 4 64
34 2 58
34 1 53
35 1 56
35 1 56
35 1 56
36 1 56
36 1 57
35 1 55
35 1 54
36 1 58
36 1 56
35 1 57
36 1 57
35 1 54
35 1 56
35 1 55
35 1 56
35 1 56
35 1 55
36 3 56
38 11 62
39 13 61
48 39 81
55 58 94
61 74 106
60 79 106
66 86 114
63 82 110
65 85 114
61 81 108
64 84 112
64 84 110
65 85 111
63 82 109
68 89 117
67 87 116
60 79 103
68 88 117
64 84 108
63 82 109
65 86 113
67 88 117
56 75 98
66 86 113
64 84 110
65 84 111
63 82 108
58 77 101
61 80 106
66 86 114
57 76 100
58 77 99
59 79 103
58 78 100
63 83 110
59 78 102
63 82 108
62 82 106
62 82 111
63 82 108
55 73 93
58 77 100
62 81 107
63 83 111
63 81 108
62 81 106
59 78 104
61 80 104
61 80 107
59 77 103
62 81 106
60 79 104
62 80 107
62 81 108
62 80 107
57 74 95
59 77 102
60 78 105
63 81 109
57 75 102
65 84 112
61 80 105
56 73 97
59 75 100
58 74 99
61 79 103
55 72 97
59 78 102
57 74 99
58 75 102
61 78 104
57 75 99
56 71 93
56 73 98
54 70 93
53 68 90
55 70 94
54 69 92
48 60 80
50 63 85
49 62 84
55 71 94
46 57 78
47 59 79
52 65 88
44 54 73
41 51 68
44 53 71
42 51 68
38 46 61
32 38 52
36 42 56
32 37 49
32 37 49
30 35 46
30 34 46
30 36 47
23 25 33
15 15 20
13 10 14
12 8 13
15 11 16
9 4 7
14 10 14
11 7 11
13 7 12
12 6 10
15 9 14
18 16 22
15 14 20
19 20 28
19 19 26
25 28 39
31 38 51
28 31 42
27 31 43
37 44 60
35 40 56
39 48 65
39 48 65
43 54 72
38 47 63
41 48 66
41 50 68
46 58 79
40 50 68
48 60 83
44 55 76
45 57 78
46 57 77
45 57 76
46 59 80
46 59 80
40 51 68
39 56 68
39 58 67
37 68 67
29 64 52
27 67 52
25 68 49
27 71 50
25 68 49
25 68 49
27 71 50
27 73 52
26 71 51
27 73 53
27 72 51
27 72 51
28 75 53
27 72 50
27 73 52
28 75 53
27 73 52
27 73 52
28 75 53
27 73 53
27 72 52
26 71 51
27 73 52
28 74 52
27 73 52
27 73 52
25 65 47
23 56 41
24 52 40
21 34 32
29 43 47
41 53 69
50 63 85
52 67 90
45 56 76
47 59 79
52 66 89
52 66 88
59 75 102
57 73 98
58 74 98
59 76 103
61 78 104
56 72 97
58 75 102
58 74 99
58 75 101
58 75 100
65 83 111
58 75 100
61 78 105
61 78 107
61 79 106
63 81 108
64 82 109
59 76 102
68 87 118
68 86 115
63 82 110
64 82 109
62 80 107
67 87 117
71 91 122
65 84 114
65 85 113
64 85 113
62 80 108
65 84 113
67 88 120
65 85 114
66 84 112
60 77 103
66 85 115
34 41 65
53 68 91
60 79 104
62 80 108
65 84 112
74 89 108
89 95 91
96 96 78
109 99 64
116 103 55
130 110 53
125 108 52
119 105 51
126 109 52
125 108 52
131 114 55
128 110 53
125 108 53
124 109 52
130 113 55
132 114 55
126 109 53
132 113 54
131 114 55
132 113 54
130 112 54
127 110 53
118 103 50
125 107 52
122 105 52
131 113 55
118 101 52
123 107 53
126 107 52
121 104 52
121 103 50
118 102 51
113 98 53
97 93 66
85 88 84
87 91 86
70 87 111
68 90 122
70 91 122
70 89 119
70 91 121
70 90 120
71 91 120
70 91 120
70 89 118
70 91 122
71 91 122
70 89 118
68 88 118
70 91 122
70 91 121
69 88 115
68 89 117
66 86 113
67 86 112
66 86 115
68 87 115
70 89 117
66 86 114
67 86 116
72 92 122
71 90 120
70 90 120
66 85 113
69 89 119
67 88 120
69 89 120
68 86 114
67 85 114
67 86 113
66 86 114
68 86 119
62 81 110
61 76 123
56 65 127
46 47 132
42 41 135
32 22 139
32 23 140
27 15 145
25 10 147
23 7 149
20 1 149
21 2 150
20 1 151
20 1 151
21 2 153
21 3 147
22 5 151
24 8 149
27 14 140
29 18 143
31 19 144
40 39 132
43 45 125
45 46 129
60 72 122
59 74 115
70 90 121
67 85 113
67 87 117
67 87 115
69 89 121
67 86 116
67 87 117
66 86 116
65 84 112
71 91 121
63 81 108
69 88 118
66 86 115
66 85 115
65 83 114
66 85 115
69 89 121
65 86 116
69 89 119
67 86 115
68 88 118
68 87 116
68 87 117
67 85 113
65 84 113
67 87 117
63 81 108
63 82 110
67 87 115
66 86 118
41 64 126
12 37 130
1 27 134
0 26 134
0 26 133
0 24 123
0 26 133
0 29 148
0 27 140
0 27 141
0 29 147
0 29 151
0 26 133
0 24 126
0 27 137
0 24 131
0 27 141
0 27 145
0 24 126
0 23 127
0 28 146
0 24 127
0 24 128
0 27 134
0 27 139
0 21 113
0 25 130
0 27 140
0 23 117
0 25 132
2 21 114
7 18 103
13 14 93
20 12 90
28 6 71
30 3 60
35 1 55
36 1 57
37 1 56
36 1 55
35 1 55
37 1 57
35 1 55
35 1 55
35 1 56
34 1 53
36 1 56
36 1 57
36 1 56
35 1 56
35 1 55
36 1 57
34 1 55
34 1 54
34 1 54
35 1 56
34 1 53
35 2 55
34 6 55
39 14 62
47 37 77
53 56 91
60 71 105
66 84 114
68 88 118
63 83 112
61 80 106
64 84 112
65 84 112
62 81 107
64 84 112
63 84 112
58 78 102
66 86 111
64 84 113
65 85 114
62 81 108
63 83 110
66 85 116
66 86 114
62 82 105
64 83 109
65 85 113
66 86 115
60 81 109
64 83 109
62 82 108
59 79 102
63 82 108
63 82 108
63 84 111
68 88 116
60 79 106
60 79 102
65 86 116
64 83 111
61 81 106
60 79 105
62 81 105
64 84 110
63 83 111
59 77 103
64 85 113
66 86 113
60 79 104
64 84 110
60 78 102
58 75 99
63 83 111
63 81 108
59 76 101
61 80 108
61 79 105
59 77 101
59 77 103
62 81 107
58 74 99
61 79 105
58 75 99
65 84 113
57 75 100
63 82 109
57 74 97
59 76 100
59 77 103
57 74 99
65 85 115
57 73 98
60 76 102
59 77 104
56 71 95
54 69 92
57 73 97
58 73 98
54 68 92
51 64 85
53 67 89
51 63 84
50 62 83
47 58 77
55 69 94
49 60 82
49 60 80
44 53 72
42 53 70
34 41 56
42 52 70
39 47 62
42 50 65
34 40 52
35 41 54
37 44 57
31 36 47
30 34 45
19 20 27
16 17 22
15 15 20
12 12 16
15 15 20
8 6 9
13 12 16
7 6 10
8 7 9
14 13 18
16 17 22
18 19 26
16 16 22
19 20 28
18 19 26
21 23 31
24 28 37
31 38 50
28 32 43
31 36 47
31 37 52
38 47 65
38 46 63
42 51 68
50 62 84
43 54 74
41 51 70
46 56 76
39 48 64
44 55 75
44 56 76
51 65 89
42 51 69
49 62 84
46 58 78
39 49 66
47 62 80
37 57 65
31 60 56
31 70 57
28 67 52
24 64 46
26 71 51
25 69 50
25 69 50
27 72 51
26 70 49
27 72 51
27 72 51
26 71 50
27 72 52
26 71 50
27 72 51
28 74 52
28 75 53
27 72 51
27 72 52
27 74 53
27 73 52
28 75 53
26 70 50
27 73 52
27 73 51
27 72 51
26 70 49
26 72 51
27 72 51
25 68 49
26 62 47
28 61 50
34 58 60
40 56 68
46 57 74
50 62 82
41 52 69
51 63 85
54 66 87
47 58 79
53 66 90
56 72 97
52 66 89
51 65 86
56 71 96
54 68 91
59 77 103
57 73 97
62 79 107
54 69 92
59 75 103
59 75 101
61 78 106
62 80 108
59 76 102
60 77 102
59 76 101
61 78 104
65 85 114
64 83 111
67 86 116
65 83 111
59 77 103
63 82 111
62 80 107
62 80 108
60 79 106
64 82 111
66 85 114
64 83 111
65 84 112
64 83 110
64 82 110
65 84 113
66 85 113
43 53 76
63 82 109
61 80 107
62 79 103
74 88 104
87 90 78
87 92 82
110 101 67
115 103 55
120 104 51
128 110 53
125 107 52
125 107 52
131 113 54
128 111 53
133 114 55
125 109 53
125 109 53
132 114 55
130 113 55
132 114 55
127 110 53
131 113 54
125 107 52
124 108 52
129 111 53
125 108 52
131 111 54
127 108 53
127 109 54
127 110 53
134 114 55
125 106 52
112 96 48
121 103 50
119 101 51
116 100 50
105 90 46
109 97 56
101 93 62
87 89 82
78 87 96
71 91 118
69 90 119
70 89 118
68 88 117
68 88 116
70 90 121
68 89 118
70 91 120
68 88 120
71 92 122
69 90 119
69 89 117
67 88 120
68 88 117
65 85 115
71 91 122
68 88 119
69 89 119
68 88 116
70 91 120
69 87 115
68 88 117
70 90 120
66 85 113
70 90 118
67 84 111
70 89 119
70 90 119
69 89 117
68 88 118
69 88 118
68 88 117
70 90 120
68 87 122
65 80 125
55 63 125
45 49 123
44 43 138
36 30 140
30 20 139
24 8 149
22 5 151
21 2 151
19 0 152
19 0 152
20 0 151
19 0 149
20 0 152
19 0 151
19 0 151
19 0 154
19 0 148
19 0 149
20 0 151
19 0 147
21 3 150
25 11 141
27 15 137
38 33 139
44 46 124
53 61 125
58 70 123
65 80 116
61 78 104
65 84 114
67 86 114
69 90 122
64 83 112
62 81 109
69 88 117
69 88 118
67 87 116
68 86 114
66 83 110
66 86 116
66 86 118
69 88 117
65 83 113
69 89 120
69 88 117
65 85 113
64 82 109
66 84 111
64 83 111
65 85 113
64 83 111
68 88 116
63 82 109
64 83 111
70 90 120
55 74 111
39 62 122
12 35 120
1 27 131
0 26 128
0 25 133
0 27 138
0 26 136
0 24 122
0 27 135
0 27 135
0 27 143
0 23 123
0 24 125
0 24 126
0 26 134
0 23 129
0 26 132
0 23 121
0 25 132
0 22 119
0 24 128
0 23 121
0 25 132
0 23 122
0 25 130
0 26 135
0 25 129
0 26 136
0 18 97
0 23 125
3 21 116
11 19 111
21 10 82
25 7 70
32 3 61
35 1 54
35 1 56
35 1 55
35 1 54
35 1 53
37 1 57
35 1 54
35 1 54
34 1 54
35 1 54
33 1 53
35 1 54
36 1 56
35 1 55
34 1 54
35 1 53
35 1 56
37 1 57
35 1 55
34 1 53
34 1 53
35 1 54
35 1 54
35 1 54
36 6 56
40 19 66
47 35 76
55 53 93
57 68 97
64 82 110
69 89 118
67 87 116
58 77 102
64 84 110
64 84 111
66 87 117
65 86 117
64 84 113
66 86 116
64 85 113
65 86 115
60 79 105
65 84 112
64 85 111
66 87 115
64 84 111
67 88 117
64 84 110
63 82 109
57 76 97
61 80 105
64 84 111
62 82 109
65 85 113
63 83 109
65 85 113
65 86 113
59 78 102
65 85 112
63 82 109
63 82 108
66 85 112
60 80 106
64 84 110
64 84 110
63 83 109
64 84 111
61 80 105
61 78 105
65 85 114
57 72 96
64 85 112
64 83 110
59 77 103
60 79 105
62 80 105
67 87 116
62 80 107
64 84 111
63 80 105
58 75 99
64 82 110
63 82 110
62 81 108
63 82 110
62 80 107
65 84 113
62 81 108
59 76 100
65 83 109
54 70 92
57 72 97
58 75 100
60 76 101
57 74 99
62 80 107
57 73 98
53 66 88
58 74 99
57 71 96
54 68 91
56 71 96
52 66 89
50 64 86
53 67 90
52 65 89
49 62 83
51 64 86
41 49 66
42 51 69
43 52 69
37 43 57
39 47 62
40 48 65
37 44 59
34 39 52
37 43 57
27 30 40
31 36 47
26 29 38
21 24 31
13 14 18
20 22 29
17 18 23
17 20 24
16 17 22
9 9 12
18 20 26
18 20 26
17 18 23
14 14 18
18 20 27
22 23 31
26 29 38
29 34 45
18 19 27
27 30 41
33 38 52
29 33 45
37 45 62
35 42 59
40 49 66
36 43 59
44 54 72
43 53 71
40 48 66
41 52 71
51 63 85
37 46 64
38 48 66
44 55 75
45 56 76
48 60 82
48 61 83
45 58 76
37 56 66
33 57 56
27 58 49
27 65 49
26 71 50
24 65 46
26 68 48
26 69 49
25 67 48
26 70 50
26 70 50
27 71 50
25 69 49
26 71 50
27 72 51
27 73 52
27 72 51
26 70 50
26 70 50
26 72 51
27 74 52
27 72 51
26 71 50
26 70 50
26 69 49
27 73 52
28 74 52
26 71 50
27 73 51
25 69 49
25 70 49
26 69 50
26 68 50
28 64 51
32 61 55
34 58 58
35 50 59
35 43 55
47 59 78
46 56 76
48 61 81
50 63 85
48 60 80
50 63 85
54 68 91
55 70 95
59 74 98
54 69 93
53 67 91
56 71 95
58 75 101
58 74 99
60 75 98
58 75 101
61 80 108
63 81 110
58 74 99
62 81 108
62 79 105
60 77 104
62 79 107
63 81 107
64 83 111
64 83 111
64 83 111
65 84 114
68 89 119
66 84 113
63 81 110
64 83 112
68 88 119
62 80 106
66 87 116
66 86 116
64 83 111
68 89 118
64 83 111
56 73 97
60 77 105
62 81 107
65 81 102
72 82 92
92 95 87
103 94 61
119 106 61
125 108 51
117 101 48
123 106 51
123 105 50
128 111 53
123 107 51
124 106 50
127 109 53
128 110 53
126 108 52
130 112 54
125 109 53
131 111 54
126 108 53
124 107 52
130 111 54
125 107 52
120 104 51
130 113 55
128 110 54
121 104 50
128 110 53
123 107 52
116 100 49
118 102 50
122 105 52
121 103 52
117 99 50
120 103 51
126 108 53
114 97 48
97 87 55
88 84 67
86 92 93
77 89 100
68 87 118
69 89 117
72 93 123
67 87 114
65 86 116
68 87 117
72 94 127
70 90 120
69 90 119
72 93 124
68 89 119
65 83 111
68 88 118
71 92 123
71 92 124
68 88 117
67 86 116
67 86 114
71 90 121
68 88 118
71 91 119
71 90 119
66 86 116
71 92 123
68 88 119
70 90 120
70 90 120
68 88 117
68 87 116
69 89 120
70 90 121
69 88 119
59 70 125
48 51 128
38 35 136
36 30 140
28 16 142
23 6 147
20 1 151
19 0 151
19 0 150
19 0 151
19 0 148
20 0 153
19 0 151
19 0 148
19 0 152
19 0 149
19 0 152
19 0 146
19 0 151
20 0 153
19 0 147
20 0 151
19 0 143
19 0 144
20 1 150
26 15 133
31 22 140
40 38 132
44 46 129
56 64 126
62 77 118
68 88 117
64 84 113
65 86 115
65 85 115
68 87 116
66 85 113
65 84 113
64 82 112
67 86 117
64 83 110
65 83 111
64 82 110
63 82 109
67 87 116
63 81 109
64 83 113
63 82 112
63 81 109
65 83 109
67 86 114
66 86 117
67 87 118
62 80 107
68 88 118
61 80 110
68 88 117
58 76 109
42 62 113
15 37 121
0 23 117
0 28 141
0 21 114
0 21 112
0 26 137
0 25 129
0 23 126
0 25 130
0 28 141
0 25 127
0 24 126
0 24 129
0 26 132
0 23 127
0 24 129
0 22 112
0 25 131
0 23 122
0 24 129
0 26 135
0 23 120
0 23 121
0 20 109
0 22 116
0 25 127
0 21 115
0 22 118
4 19 106
11 17 105
16 11 82
26 6 67
33 2 56
32 1 50
32 1 53
35 1 55
33 1 54
36 1 56
34 1 53
35 1 55
35 1 54
34 1 53
35 1 53
34 1 53
36 1 55
34 1 54
35 1 54
36 1 55
36 1 55
35 1 54
36 1 55
34 1 53
35 1 54
36 1 56
34 1 52
35 1 54
34 1 53
33 1 52
32 1 51
37 4 57
40 17 64
46 33 75
49 48 82
52 65 92
67 86 116
62 81 110
63 82 107
62 80 107
66 86 116
64 83 111
63 83 110
67 87 114
65 85 114
66 87 117
68 89 118
69 88 118
66 87 118
65 87 115
63 82 108
66 87 116
63 83 110
63 82 107
62 83 109
66 86 113
67 87 115
65 86 114
62 83 111
66 85 114
65 85 113
65 84 112
63 82 107
67 87 115
63 83 111
64 84 111
63 82 109
60 79 106
66 86 113
68 88 118
66 86 116
64 83 110
63 82 106
64 83 112
65 84 111
64 82 111
66 86 114
63 81 108
63 83 110
63 82 111
59 77 102
61 80 103
61 79 105
61 79 106
62 81 107
63 82 111
66 85 114
64 84 112
62 81 108
62 81 108
62 79 106
63 83 111
57 74 98
62 79 106
64 83 111
58 74 98
59 75 99
62 80 106
61 78 105
62 79 106
62 78 104
62 79 105
61 79 105
59 76 101
62 80 107
61 78 104
56 72 95
54 69 91
55 69 90
53 66 89
52 65 88
52 66 89
50 63 86
48 61 82
49 61 82
55 68 90
47 58 77
46 57 77
47 57 77
41 48 66
39 47 62
41 48 65
37 41 56
34 38 52
33 37 49
29 33 43
30 34 47
31 36 47
27 31 41
27 30 39
25 27 38
22 24 32
27 30 40
22 24 31
23 25 34
26 29 38
17 18 25
26 30 39
22 23 32
31 36 48
33 38 51
30 36 47
37 44 59
39 47 64
40 47 64
42 52 71
41 50 67
35 42 58
47 59 79
45 55 75
44 55 74
46 57 76
43 55 74
43 53 72
46 58 80
46 58 78
45 56 76
40 49 68
47 58 78
46 58 77
41 55 66
36 63 65
28 54 50
29 67 54
25 65 45
23 63 45
25 68 49
24 65 46
26 70 50
25 66 46
26 71 51
26 69 49
25 68 48
27 72 51
27 72 51
27 73 51
26 70 50
26 70 50
27 73 51
26 71 51
25 69 49
27 72 51
27 71 50
26 71 50
26 70 49
26 69 48
27 72 51
26 72 51
26 71 51
26 70 49
27 73 51
25 68 47
26 71 50
25 70 49
26 67 48
24 60 46
28 54 48
32 48 51
36 45 56
36 43 57
39 49 64
58 74 98
53 66 86
50 62 83
48 62 84
54 70 94
56 72 98
52 66 90
55 69 91
61 78 104
54 68 90
54 70 93
60 77 103
57 73 97
56 72 96
64 83 113
63 82 111
62 80 108
58 75 100
61 79 107
60 78 106
61 80 107
59 77 103
60 78 105
61 78 105
64 84 113
67 87 116
66 87 117
61 80 108
66 85 112
61 78 103
63 82 110
66 85 114
64 83 112
67 86 115
64 83 111
65 85 114
67 88 119
58 74 100
62 79 104
62 80 104
69 80 90
82 92 98
103 95 64
113 101 57
119 104 50
125 107 50
123 106 51
121 103 49
123 106 52
130 111 53
122 106 51
128 111 52
121 104 50
124 107 52
124 106 51
130 111 54
129 110 53
124 106 51
117 101 50
127 109 53
132 113 54
121 105 52
127 108 53
124 106 51
124 106 53
124 107 52
115 98 49
128 109 53
124 106 52
121 103 50
120 102 49
115 96 49
114 97 48
118 101 51
123 105 52
104 89 45
112 95 49
91 83 57
94 95 84
80 91 102
65 83 110
67 86 117
69 90 121
66 85 113
69 89 120
68 89 118
68 88 118
71 91 122
69 90 120
71 91 123
67 87 117
67 88 117
70 90 121
68 89 115
70 90 120
69 88 118
67 86 114
69 89 119
69 90 121
65 84 113
68 88 118
67 86 116
70 90 121
67 87 117
67 87 118
70 91 122
68 88 116
68 87 115
68 88 118
65 83 111
69 87 119
62 76 119
47 50 131
38 35 130
34 27 140
25 10 140
22 6 138
20 1 146
19 0 149
19 0 146
19 0 152
19 0 147
19 0 150
19 0 146
19 0 149
19 0 149
19 0 147
19 0 149
20 0 152
20 0 150
20 0 149
19 0 148
20 0 151
19 0 145
19 0 149
18 0 139
19 0 145
19 1 141
21 6 139
29 17 139
35 30 133
50 58 121
53 64 116
63 79 115
67 87 118
66 86 117
70 91 122
70 91 121
67 87 119
67 87 115
70 90 120
69 88 117
69 89 120
64 83 113
65 85 117
64 82 109
68 88 117
68 87 117
63 82 110
66 85 115
64 84 114
60 80 109
63 83 112
64 84 116
61 80 109
67 87 116
63 81 108
64 83 112
65 85 112
61 79 108
44 64 112
12 35 119
0 24 119
0 21 114
0 23 118
0 23 118
0 23 118
0 25 126
0 25 126
0 23 127
0 25 129
0 23 126
0 22 117
0 24 124
0 22 117
0 23 128
0 23 120
0 20 114
0 21 114
0 18 100
0 21 114
0 23 117
0 22 116
0 22 118
0 24 127
0 24 127
0 21 109
0 20 108
2 20 111
7 18 107
19 11 81
25 7 71
31 3 60
33 1 52
33 1 53
33 1 52
33 1 52
35 1 53
33 1 51
35 1 54
35 1 54
35 1 54
34 1 53
35 1 54
34 1 54
36 1 55
34 1 54
34 1 54
34 1 53
34 1 53
34 1 54
33 1 52
34 1 53
34 1 53
35 1 54
36 1 56
34 1 53
34 1 54
34 1 51
33 1 52
35 1 53
35 6 55
38 14 61
43 28 71
58 65 99
56 67 98
64 84 112
62 82 108
64 84 110
67 87 117
65 86 114
66 87 118
65 85 113
65 85 114
64 84 113
65 85 114
64 83 112
65 85 115
67 88 118
67 87 116
68 88 117
68 90 120
68 89 118
66 86 115
65 85 113
66 86 115
66 87 118
65 85 116
65 85 113
65 85 113
64 83 109
62 80 103
67 87 116
66 86 113
68 89 117
59 76 100
65 85 114
63 82 107
62 81 109
64 85 115
64 83 112
68 89 119
66 86 114
66 87 116
65 84 114
65 84 114
63 81 109
62 80 107
68 87 116
68 89 119
64 82 110
68 87 117
63 81 108
63 82 110
63 82 110
65 85 114
60 77 102
67 87 117
64 84 114
60 78 105
62 81 110
62 79 105
59 76 103
59 77 102
60 76 103
60 79 106
61 77 103
59 74 97
60 76 102
64 82 109
64 81 108
59 76 102
61 79 105
62 80 107
59 74 99
54 68 92
55 70 93
61 77 104
58 74 100
56 71 94
55 69 93
54 68 92
58 73 98
51 64 86
56 69 92
51 63 84
52 65 87
58 73 98
46 57 76
44 53 71
40 46 62
38 45 64
41 48 64
42 50 67
36 44 59
40 49 63
36 43 57
39 46 62
34 41 55
35 41 55
32 37 50
30 35 47
28 31 42
27 30 41
33 38 51
35 41 55
28 32 44
32 37 50
37 43 57
33 39 52
36 41 55
42 50 66
37 44 60
35 43 59
41 50 68
42 51 70
43 52 71
45 55 75
43 53 72
49 61 83
36 43 59
43 54 73
51 64 87
43 53 72
41 51 70
45 57 78
49 62 84
48 59 81
45 60 78
42 63 73
35 61 64
28 64 52
26 67 48
24 64 45
24 63 45
25 66 47
25 66 46
25 67 48
26 69 49
24 64 46
25 68 48
27 71 50
26 71 50
25 68 49
26 68 48
25 68 48
26 70 50
27 73 51
26 69 48
25 67 47
26 70 50
27 72 51
26 70 50
27 74 52
26 72 51
26 71 50
26 70 50
25 69 49
25 69 48
27 72 51
26 70 50
24 65 46
25 69 48
24 64 45
26 66 48
28 61 50
31 60 54
31 45 50
39 48 63
45 55 73
44 54 72
46 57 76
47 59 79
51 64 85
53 66 91
54 70 94
51 64 85
56 72 97
53 68 91
51 64 86
55 70 94
57 72 98
54 69 92
58 75 100
62 79 105
59 76 102
60 77 102
60 77 104
65 84 112
63 82 112
60 78 105
60 78 105
65 82 110
64 82 110
60 78 107
66 87 117
60 79 106
63 83 112
59 76 102
66 85 114
65 85 113
66 85 112
66 84 113
63 82 110
67 87 116
66 86 114
68 88 118
57 74 101
54 70 93
67 80 95
73 79 82
92 92 79
106 95 54
117 100 51
114 98 47
116 101 49
113 98 47
126 109 52
120 103 50
127 108 51
125 107 51
127 109 52
127 109 52
121 105 51
117 102 49
124 106 51
119 103 49
122 103 50
123 107 52
118 102 50
125 107 52
119 101 50
119 102 50
127 110 53
120 103 51
125 107 51
119 101 50
121 103 51
115 98 48
122 105 51
122 103 51
109 93 46
112 94 45
108 91 47
119 100 50
109 93 48
108 91 46
105 91 50
84 85 72
75 80 82
74 89 108
69 89 118
71 90 118
69 90 120
69 88 118
69 90 120
68 87 117
67 86 115
70 92 125
69 89 119
68 88 120
67 86 114
70 90 120
68 89 119
69 89 117
66 85 114
70 90 120
71 90 121
71 91 122
69 89 118
68 88 118
70 91 122
70 89 119
68 87 114
66 85 114
69 89 119
69 88 119
70 91 123
66 84 112
67 86 116
58 71 122
51 55 128
38 34 134
29 21 128
24 8 147
19 1 144
20 0 150
19 0 148
19 0 145
20 0 146
20 0 151
19 0 150
19 0 147
19 0 147
19 0 149
19 0 149
19 0 150
19 0 149
19 0 144
19 0 149
19 0 148
19 0 146
19 0 145
18 0 140
18 0 137
19 0 144
18 0 137
18 0 143
19 0 147
19 1 140
28 18 131
34 27 131
43 44 123
54 66 116
62 79 114
67 86 116
69 89 120
66 86 118
65 85 115
66 86 114
65 84 114
67 87 117
64 84 112
65 85 114
63 83 114
68 89 119
62 81 110
61 80 109
65 84 112
66 85 114
66 86 117
62 81 110
69 88 119
59 77 105
63 82 108
59 77 105
62 81 109
65 84 113
61 80 108
58 77 112
45 67 120
24 44 113
5 27 114
0 22 121
0 24 128
0 21 114
0 23 119
0 25 129
0 22 123
0 24 124
0 21 110
0 24 127
0 21 110
0 23 123
0 23 120
0 24 124
0 20 109
0 25 131
0 25 135
0 25 129
0 21 114
0 20 113
0 25 127
0 21 110
0 24 122
0 24 124
0 21 114
0 21 113
9 15 90
13 13 90
20 8 71
29 3 58
33 2 55
32 1 51
33 1 51
32 1 52
33 1 51
33 1 51
31 1 49
32 1 51
32 1 50
34 1 51
33 1 51
33 1 53
35 1 54
35 1 53
33 1 51
35 1 54
34 1 53
34 1 54
33 1 51
36 1 55
33 1 51
34 1 54
34 1 52
33 1 52
32 1 49
35 1 54
33 1 51
33 1 51
33 1 52
34 1 52
34 9 53
45 30 73
50 46 86
61 73 106
60 77 107
66 86 114
64 83 110
62 81 108
64 82 112
63 83 112
68 89 119
68 88 118
67 86 117
63 84 112
70 90 121
66 87 117
67 86 117
65 85 114
66 87 115
66 87 117
65 85 114
65 85 112
65 85 114
66 87 118
67 88 118
68 88 118
65 85 112
64 85 113
67 86 114
66 86 118
68 89 116
67 86 115
65 85 116
63 83 111
69 90 119
68 88 117
62 80 106
65 85 114
64 83 109
68 89 120
65 84 114
67 87 115
62 80 107
64 83 112
67 87 116
66 85 113
65 84 112
67 86 115
64 84 113
64 83 110
65 84 113
62 82 112
69 89 119
64 83 110
63 81 107
66 86 115
65 84 112
60 76 101
63 81 108
67 87 116
62 80 107
63 80 109
63 81 109
61 78 104
62 80 108
65 85 114
63 80 106
61 78 104
62 80 107
57 73 98
63 80 109
56 71 96
59 75 101
57 73 98
56 71 96
58 74 100
62 80 108
60 75 102
60 75 99
60 74 99
61 77 103
55 70 94
56 70 92
55 67 90
55 70 93
45 53 72
51 62 84
52 64 86
52 64 86
45 54 75
54 65 87
49 60 80
53 65 86
45 54 72
43 51 70
43 52 70
45 54 73
47 57 77
43 53 70
46 56 75
42 49 67
45 54 72
40 48 65
33 37 51
45 55 74
43 52 70
44 53 71
44 52 71
47 57 77
48 59 80
51 63 85
48 59 79
42 51 70
46 57 78
46 58 79
47 58 78
46 57 77
46 57 77
49 62 85
51 65 88
53 65 88
52 66 89
57 73 99
42 51 69
52 66 88
52 66 89
47 64 81
40 66 70
31 61 55
25 63 47
24 65 46
24 62 44
23 62 44
26 68 48
24 66 47
25 68 48
23 62 44
24 66 47
25 67 48
25 66 47
26 71 50
27 72 51
26 72 51
27 71 50
27 71 50
26 70 50
25 68 48
25 69 49
25 67 48
27 74 52
26 72 51
25 67 47
26 70 49
25 68 48
26 73 52
24 65 46
26 72 51
27 73 51
25 69 49
23 62 44
26 73 51
25 67 47
25 67 47
26 66 49
34 65 59
37 57 62
38 53 64
41 50 66
45 57 75
53 67 88
49 62 83
52 65 87
50 63 86
50 63 85
57 74 99
60 76 102
58 75 100
54 69 93
57 74 100
56 72 97
58 75 102
56 71 95
60 76 100
63 82 110
57 74 99
60 78 104
65 84 114
60 76 103
65 84 114
61 80 108
56 72 97
58 75 102
67 87 118
68 87 115
62 81 108
64 82 110
64 83 111
66 85 116
65 85 115
65 85 114
64 83 111
67 87 118
66 86 116
65 85 114
65 83 112
54 71 96
57 71 92
68 75 83
74 76 68
108 98 63
105 94 51
124 105 50
126 107 51
123 105 50
118 101 48
123 105 50
119 103 50
127 110 53
117 101 49
123 105 50
124 107 52
120 105 51
126 108 52
126 108 52
125 107 51
128 109 52
118 102 50
119 101 50
125 106 52
125 105 51
118 100 49
123 105 51
117 100 49
121 103 50
120 102 50
108 92 47
122 102 50
122 103 50
113 96 48
104 87 45
107 93 48
109 92 48
108 91 46
110 92 47
109 91 46
108 92 48
96 87 60
84 85 77
70 79 87
68 85 109
70 90 121
67 86 116
69 89 119
66 84 113
71 91 120
71 91 121
69 89 118
68 89 119
71 92 124
69 90 119
69 89 118
70 89 118
67 87 116
67 87 118
69 89 119
68 89 120
71 93 121
67 88 119
71 91 121
66 84 114
71 92 122
72 91 120
66 86 114
68 88 118
69 89 119
67 86 114
68 88 120
59 73 120
51 57 122
42 45 124
32 23 134
24 10 136
20 2 146
18 0 138
19 0 146
19 0 146
19 0 146
18 0 142
19 0 145
19 0 144
18 0 141
18 0 144
19 0 146
19 0 147
19 0 147
18 0 144
19 0 146
19 0 147
19 0 144
19 0 150
19 0 144
19 0 148
18 0 141
18 0 141
19 0 147
18 0 140
17 0 131
18 0 142
19 2 136
26 14 135
36 31 132
45 49 119
57 68 120
64 81 115
65 84 112
68 88 118
67 88 121
65 85 115
65 83 111
66 85 115
63 81 108
66 86 116
65 86 117
69 87 116
68 88 117
64 83 112
66 85 114
64 85 112
63 82 110
61 80 109
64 82 111
63 81 109
65 84 113
62 80 108
59 77 106
59 75 102
58 75 102
58 75 103
45 65 109
25 45 107
4 28 122
0 25 126
0 22 120
0 22 116
0 22 115
0 20 106
0 24 119
0 20 112
0 21 109
0 21 116
0 21 113
0 22 115
0 22 116
0 22 115
0 18 101
0 20 113
0 21 112
0 22 117
0 20 107
0 19 101
0 22 117
0 22 111
0 21 112
0 23 123
0 24 122
5 16 92
12 13 87
21 8 70
25 3 56
34 1 53
33 1 52
33 1 51
34 1 53
31 1 49
33 1 51
33 1 53
36 1 53
33 1 51
33 1 51
33 1 51
32 1 51
34 1 54
32 1 49
34 1 53
35 1 54
32 1 50
33 1 52
32 1 50
33 1 50
35 1 55
34 1 52
34 1 51
34 1 53
32 1 49
33 1 51
34 1 52
32 1 50
35 1 53
33 1 50
32 1 48
33 1 50
37 10 57
42 32 72
53 52 88
57 66 97
63 82 112
66 86 116
66 87 116
60 78 107
67 88 117
62 81 109
63 83 112
64 83 111
64 83 111
68 87 117
63 83 110
69 91 122
66 87 117
68 89 118
65 85 116
66 87 117
66 87 116
68 88 120
67 88 118
67 87 117
67 87 118
67 88 118
62 81 109
66 86 116
71 92 122
68 88 116
66 86 112
67 87 116
65 85 113
65 85 114
69 89 118
63 82 110
67 86 115
68 88 118
66 87 118
65 85 115
63 83 111
64 83 111
65 85 114
64 83 111
69 90 119
66 86 114
66 86 115
66 85 114
63 82 108
64 82 110
67 87 117
67 88 118
62 80 107
64 83 111
65 85 112
66 85 114
63 81 107
63 80 108
68 88 118
62 80 106
61 80 107
63 82 109
66 85 112
58 76 102
65 83 113
58 74 99
62 79 106
63 81 108
64 82 111
61 78 104
62 81 109
60 77 103
60 76 102
62 79 107
61 78 104
57 74 99
65 83 111
62 78 104
52 67 90
61 78 106
59 75 101
55 68 90
60 75 100
55 71 94
55 70 95
48 61 84
55 69 92
51 63 86
50 63 85
55 67 90
56 70 94
48 59 79
46 57 78
56 70 94
53 66 88
48 59 80
50 62 84
48 59 79
45 55 74
49 61 81
45 54 74
46 56 76
48 60 81
51 63 85
43 52 71
45 55 73
45 56 75
51 63 85
51 62 84
49 61 83
50 62 85
50 63 86
50 62 85
47 59 80
51 64 87
47 60 83
50 63 86
57 71 96
52 65 88
47 59 80
57 73 100
50 63 85
52 67 91
50 62 84
47 63 82
40 62 70
36 66 64
27 64 50
23 62 44
24 65 46
24 65 45
23 61 44
24 63 44
26 67 47
23 62 44
26 69 49
26 69 48
25 67 47
25 67 47
24 64 46
24 66 47
25 67 47
27 71 50
26 68 48
25 68 48
26 69 49
25 69 48
23 63 45
25 67 47
26 69 49
25 68 48
26 70 49
26 70 49
26 70 50
24 66 47
25 69 48
25 66 47
25 68 48
24 63 44
25 67 47
22 62 44
25 67 46
23 60 43
26 58 47
34 61 60
32 49 56
45 59 75
50 63 85
45 56 76
49 62 84
49 61 82
46 59 79
53 67 90
55 70 94
57 73 99
54 70 94
58 74 100
54 68 92
57 75 101
60 77 104
62 81 109
60 77 104
60 78 106
61 79 106
61 79 104
62 80 107
63 81 109
63 81 109
63 81 109
62 82 110
61 79 106
63 82 110
63 82 110
62 81 110
66 84 114
61 79 105
62 83 110
59 77 104
63 83 111
64 83 111
62 82 109
60 77 103
65 85 113
65 84 112
47 59 81
58 68 83
67 75 82
94 88 62
106 95 57
121 105 50
126 106 50
119 102 49
108 94 45
115 99 48
119 103 49
117 102 48
123 106 51
117 101 49
122 105 51
126 107 51
121 104 50
124 107 52
121 104 50
121 105 50
123 106 51
113 97 48
120 103 50
119 102 49
116 100 49
123 105 51
118 101 49
109 92 46
122 103 50
115 98 48
109 94 48
110 94 47
117 99 49
122 103 49
119 102 51
105 89 44
105 88 45
103 86 43
107 91 47
105 90 46
99 84 45
104 91 53
81 81 73
77 81 85
72 87 109
68 87 116
70 89 119
70 90 121
64 83 111
72 92 122
66 85 113
73 93 124
66 86 115
70 90 121
68 88 120
69 89 119
66 86 117
71 91 121
70 89 119
68 88 119
69 90 119
68 87 116
67 87 117
69 89 120
68 89 119
66 85 114
67 88 117
70 90 121
72 93 124
71 92 123
68 87 119
61 75 116
51 59 121
43 43 131
28 17 135
23 7 140
19 1 142
19 0 138
19 0 145
19 0 143
19 0 145
18 0 143
19 0 146
18 0 143
18 0 146
19 0 143
18 0 144
19 0 143
19 0 145
18 0 142
18 0 140
20 0 150
19 0 149
18 0 138
18 0 136
19 0 142
19 0 144
19 0 145
19 0 139
17 0 130
18 0 135
18 0 137
17 0 131
18 0 139
18 3 124
27 17 128
31 24 124
45 50 123
54 67 116
60 77 107
69 89 119
65 85 113
64 82 111
63 82 112
65 83 111
65 85 115
66 86 116
62 80 110
67 86 116
65 83 114
65 84 113
65 84 115
61 80 110
65 84 112
62 80 109
57 74 99
63 81 109
61 79 107
58 76 105
62 80 109
59 76 104
61 77 102
58 76 105
46 63 96
33 51 102
11 33 110
2 27 125
0 23 122
0 19 104
0 18 101
0 20 108
0 19 102
0 24 125
0 22 121
0 22 112
0 20 107
0 21 114
0 21 111
0 22 114
0 20 111
0 19 105
0 23 120
0 19 103
0 19 105
0 21 115
0 21 113
0 18 99
0 18 100
0 17 94
0 22 112
8 14 86
15 9 71
21 6 65
28 2 51
31 1 47
32 1 51
32 1 49
32 1 50
32 1 50
32 1 50
33 1 51
33 1 50
33 1 52
32 1 49
31 1 49
34 1 53
36 1 54
34 1 53
34 1 52
33 1 51
33 1 50
33 1 51
34 1 52
32 1 49
33 1 51
33 1 50
34 1 53
35 1 53
34 1 52
34 1 53
35 1 53
34 1 51
34 1 51
33 1 51
34 1 52
32 1 49
34 6 53
36 19 58
49 45 83
60 67 103
59 73 104
65 85 113
61 80 108
65 85 114
69 90 121
66 85 114
62 80 108
66 85 115
62 81 108
64 82 111
66 86 117
68 88 120
65 86 116
67 87 116
67 87 117
64 85 114
61 81 110
65 85 114
64 83 111
67 86 116
67 88 119
69 89 119
67 86 115
67 86 115
65 85 115
68 87 116
63 82 111
65 85 116
63 82 111
71 92 122
68 87 116
69 89 119
62 82 109
68 87 116
64 82 109
66 86 115
61 80 108
68 89 117
68 88 117
66 86 114
65 85 113
64 81 108
62 82 111
65 84 113
66 86 115
67 87 117
67 88 118
63 81 112
66 86 114
66 84 113
67 86 115
67 86 116
62 81 111
64 83 111
59 76 103
58 75 101
64 83 111
64 83 112
62 79 107
62 78 105
65 83 111
65 83 112
65 83 112
65 83 111
61 79 107
63 82 108
62 79 105
61 78 103
60 77 102
62 79 106
64 82 111
63 82 109
63 81 109
63 81 109
60 76 103
57 72 96
57 72 99
55 69 92
59 75 101
56 70 94
61 77 103
56 70 95
55 70 95
55 69 95
59 75 102
54 67 91
60 77 103
59 76 102
55 69 92
52 63 85
60 74 100
51 64 87
49 61 83
55 69 93
57 71 96
50 61 82
54 69 94
52 65 88
48 59 80
55 69 93
50 62 84
51 62 84
56 70 95
54 68 93
48 60 81
54 67 90
49 61 83
52 65 89
52 66 90
58 74 98
52 65 89
57 71 96
59 74 99
53 67 90
52 66 89
54 68 91
55 70 95
59 73 99
56 72 98
54 69 92
42 60 73
43 69 77
30 61 53
24 59 44
24 63 45
24 65 46
24 65 46
25 67 47
23 62 44
23 60 42
24 63 45
26 68 48
26 69 48
25 66 47
25 67 47
26 70 49
26 69 49
23 63 44
24 64 45
25 67 47
25 67 47
26 69 48
26 70 48
25 67 47
25 67 47
25 68 48
23 63 44
25 67 47
24 66 46
25 68 49
26 69 49
24 66 47
24 65 46
25 66 47
26 68 47
24 65 46
24 67 47
24 65 46
25 66 46
26 63 49
29 59 52
41 64 70
46 61 77
47 60 82
52 67 90
51 65 87
47 58 77
50 64 87
53 67 90
49 62 84
58 74 97
57 74 100
55 73 98
58 75 101
54 69 91
61 79 106
55 70 95
63 81 111
60 79 107
64 83 111
64 82 111
60 77 103
61 79 108
64 83 112
63 82 110
63 81 107
67 86 116
60 78 103
62 80 107
61 80 107
63 82 109
65 84 113
61 80 109
68 87 115
61 80 107
66 86 115
61 80 108
65 83 112
62 80 106
64 84 114
53 68 88
51 61 76
71 73 68
88 82 56
109 94 47
116 99 48
124 106 50
122 103 49
114 96 46
119 102 48
120 103 50
118 102 49
122 104 50
122 104 49
123 106 51
118 101 48
114 98 48
122 104 50
126 106 51
121 104 50
119 101 49
117 101 50
120 102 51
116 100 48
123 105 50
106 91 45
118 101 50
108 92 46
116 99 49
122 103 51
112 97 47
115 98 48
114 97 48
114 97 47
113 96 48
98 83 43
112 94 47
109 92 46
109 92 47
103 85 44
91 76 42
100 84 46
92 84 56
86 92 90
78 91 107
71 91 123
69 89 119
69 88 118
69 89 119
68 87 114
67 87 118
65 84 114
69 90 121
66 85 114
71 92 124
70 90 120
68 88 119
69 88 116
68 88 118
68 87 117
67 87 116
69 89 117
68 87 118
70 89 118
70 91 122
67 87 116
70 89 120
67 86 115
69 88 115
66 87 117
65 82 120
55 65 123
42 43 125
37 33 129
24 11 127
18 1 137
18 0 139
18 0 142
18 0 137
19 0 144
18 0 140
18 0 142
19 0 142
19 0 146
19 0 145
19 0 148
19 0 148
18 0 143
19 0 143
18 0 139
18 0 140
20 0 146
18 0 141
19 0 142
18 0 141
18 0 139
19 0 143
18 0 139
18 0 137
18 0 138
18 0 137
18 0 138
18 0 139
18 0 135
16 0 128
19 5 122
27 19 123
35 31 126
50 58 112
60 76 117
63 83 116
64 83 113
66 84 113
68 88 118
68 88 119
64 82 111
60 78 106
68 89 119
64 84 114
63 82 111
62 81 110
64 83 112
64 82 111
66 85 112
60 79 109
64 83 113
60 77 105
60 79 110
57 74 102
55 73 100
55 70 95
58 76 104
59 77 103
45 61 91
34 52 98
18 39 107
3 25 112
0 22 114
0 24 126
0 21 110
0 21 110
0 19 102
0 21 113
0 22 119
0 20 108
0 17 101
0 21 110
0 22 117
0 22 117
0 19 102
0 19 102
0 19 106
0 18 96
0 21 111
0 17 97
0 16 90
0 18 101
0 22 117
0 19 101
5 17 98
9 13 85
18 7 63
27 2 50
29 1 47
31 1 49
33 1 51
31 1 49
32 1 50
32 1 49
30 1 48
32 1 50
34 1 52
34 1 52
34 1 52
32 1 49
33 1 51
33 1 50
33 1 51
33 1 50
33 1 50
33 1 52
34 1 50
30 1 47
31 1 48
32 1 49
33 1 50
33 1 51
33 1 51
34 1 52
33 1 50
31 1 48
32 1 49
32 1 50
30 1 45
31 1 47
33 1 50
33 2 51
34 11 56
43 31 71
55 60 93
61 74 107
66 84 112
58 75 101
62 82 110
60 78 105
64 84 113
63 83 112
66 86 115
66 86 115
68 88 118
68 89 120
62 81 109
67 87 117
64 84 112
65 85 113
62 81 110
64 84 114
72 93 125
68 88 119
61 80 112
66 85 116
66 85 113
69 89 119
65 84 113
66 86 112
69 90 120
69 90 122
67 88 118
66 86 114
68 88 119
69 90 122
66 86 114
64 83 111
65 85 115
68 88 119
68 89 119
64 84 113
65 83 112
65 85 114
64 83 110
65 84 113
63 82 110
67 88 117
65 84 113
64 83 112
67 86 117
65 85 113
67 86 114
65 84 114
68 86 115
69 89 118
63 83 112
63 82 109
62 80 109
62 79 106
64 82 111
66 86 114
67 85 114
64 83 110
66 84 113
60 77 104
65 84 112
63 82 110
62 78 104
58 73 100
65 84 113
65 83 111
62 79 106
65 84 112
66 86 115
65 83 111
58 74 99
59 77 104
62 78 104
58 72 99
62 79 106
61 78 106
61 79 106
59 75 102
63 81 109
60 75 99
57 74 100
59 74 100
63 80 107
56 71 97
57 72 99
59 77 103
58 73 98
60 75 100
64 81 109
57 71 96
52 65 89
55 71 97
57 71 97
55 68 93
54 68 92
56 70 95
59 74 99
61 77 103
58 73 99
58 74 100
56 69 93
52 66 90
57 72 97
56 71 96
57 71 96
55 70 95
54 68 91
61 78 106
50 64 87
61 79 108
53 67 91
58 74 100
57 74 101
58 73 97
62 79 107
57 71 96
57 73 99
54 68 92
58 74 100
52 72 88
37 66 65
28 61 50
25 63 46
23 60 42
25 66 47
24 64 46
24 62 44
24 63 44
24 64 45
23 63 45
25 68 48
25 68 47
24 64 45
24 66 46
25 66 47
24 65 46
23 61 43
24 65 46
26 70 49
23 64 45
23 64 45
24 65 46
23 64 45
25 67 47
25 67 47
23 64 45
26 70 49
25 67 47
23 64 45
25 68 48
23 59 42
25 67 47
24 66 46
23 65 46
24 66 46
25 67 47
25 66 46
21 58 40
24 61 45
30 58 53
34 61 60
41 60 71
55 72 95
60 77 104
53 68 91
59 75 100
57 72 97
57 72 97
54 70 93
60 78 106
59 76 104
57 74 99
57 73 97
58 73 98
58 75 101
62 80 107
64 83 112
58 77 104
64 83 111
60 77 103
62 79 107
69 90 121
63 83 112
62 82 110
62 81 109
65 84 113
64 83 112
55 71 93
59 76 103
62 80 107
64 83 111
61 79 105
62 81 108
65 84 113
62 81 108
57 75 101
63 83 111
65 84 112
61 81 109
41 51 67
63 70 76
81 77 58
99 89 51
105 89 43
106 91 44
114 97 46
122 105 49
118 101 48
113 97 46
115 98 48
117 100 48
117 101 48
123 104 50
119 101 48
118 102 49
116 99 48
123 106 51
115 99 47
119 103 50
114 98 48
113 97 47
114 99 48
118 100 48
125 105 50
111 95 47
126 106 51
122 103 49
115 97 47
112 96 47
116 99 48
120 102 50
111 94 46
121 101 49
106 89 44
105 88 45
112 96 48
100 84 43
101 86 45
91 76 41
94 79 42
97 82 44
81 70 44
81 87 87
74 88 103
66 85 115
65 85 114
71 91 122
70 89 119
67 87 114
69 90 121
66 88 119
71 91 121
68 87 117
70 90 119
67 87 115
69 88 116
63 83 112
68 88 119
71 92 123
67 86 116
69 90 121
70 90 120
67 88 120
69 90 119
71 91 122
67 86 116
68 88 118
68 89 120
66 85 120
58 71 121
47 50 127
34 27 131
22 8 132
18 1 127
19 0 142
19 0 144
19 0 148
19 0 143
18 0 137
18 0 139
18 0 139
19 0 147
19 0 147
18 0 137
19 0 144
18 0 138
19 0 142
19 0 146
18 0 141
19 0 141
19 0 149
17 0 134
18 0 136
18 0 136
19 0 143
18 0 137
19 0 142
18 0 136
17 0 130
18 0 137
18 0 139
18 0 133
18 0 133
17 0 132
18 0 134
21 8 122
31 23 131
43 46 123
56 68 118
64 83 117
63 82 111
63 82 112
64 83 112
65 85 117
63 81 112
61 79 106
59 77 105
64 84 115
60 77 105
62 81 109
65 85 116
66 86 116
66 86 118
58 76 105
58 76 106
62 81 111
55 72 99
55 70 97
57 74 100
59 76 103
57 74 101
54 71 97
53 69 99
45 63 102
29 44 89
8 29 107
0 20 105
0 20 105
0 18 99
0 23 123
0 19 103
0 19 106
0 21 108
0 20 104
0 19 104
0 22 115
0 17 95
0 18 99
0 21 111
0 17 92
0 20 104
0 16 86
0 15 88
0 18 100
0 18 98
0 18 96
0 19 101
1 16 92
6 14 84
15 8 67
20 6 60
31 2 53
33 1 50
30 1 48
31 1 49
31 1 47
29 1 47
30 1 46
30 1 48
33 1 50
30 1 47
35 1 53
32 1 49
32 1 50
32 1 49
30 1 48
33 1 51
32 1 48
34 1 52
33 1 50
33 1 51
32 1 49
31 1 47
31 1 47
32 1 50
33 1 51
32 1 49
33 1 52
31 1 47
31 1 48
34 1 52
32 1 49
32 1 48
34 1 52
34 1 52
33 1 50
32 6 51
40 22 64
46 40 77
60 69 103
57 74 102
64 84 112
63 82 109
63 83 112
63 83 113
64 84 112
66 85 115
68 88 117
63 83 111
65 85 114
65 85 115
63 81 110
68 89 119
62 81 110
67 88 119
68 88 118
68 87 116
69 89 121
67 87 118
64 84 113
66 87 117
65 84 112
67 86 114
66 87 116
67 87 117
67 86 115
65 85 117
67 86 114
70 90 121
68 88 118
67 87 118
66 86 117
66 87 115
69 90 121
67 86 115
65 84 111
67 88 116
67 88 117
69 88 117
64 83 112
67 87 115
67 87 118
67 87 117
65 84 111
64 82 110
65 85 113
68 89 120
65 85 112
66 85 114
67 87 117
68 88 118
60 78 107
64 85 113
62 82 111
67 85 113
67 87 117
67 85 112
63 82 112
67 87 117
63 81 111
62 79 106
62 80 107
66 85 113
65 83 110
68 87 117
65 83 113
63 82 111
63 80 108
61 78 106
63 80 107
64 84 113
63 79 107
60 77 103
62 80 109
61 77 103
63 80 108
62 78 105
61 78 105
56 70 95
60 76 102
64 81 108
59 74 100
64 82 110
62 80 108
59 74 101
64 82 111
58 76 102
62 79 108
58 73 99
59 74 101
60 76 103
60 75 102
61 77 104
55 70 94
63 82 111
60 76 104
60 76 102
62 79 106
57 71 96
58 75 101
59 75 102
57 72 97
61 78 106
59 77 105
58 74 100
58 75 101
58 74 100
56 70 95
59 76 102
53 65 89
59 75 102
62 80 107
58 74 99
57 71 95
58 73 100
55 70 94
60 77 105
60 76 103
57 73 98
50 74 89
34 61 62
27 61 48
21 54 39
21 56 41
24 64 45
24 64 45
22 58 42
26 69 48
25 66 46
25 65 46
25 67 47
24 63 44
23 62 44
26 70 49
23 64 44
25 68 48
24 66 47
25 67 47
24 64 45
24 64 45
25 66 46
24 65 46
24 66 46
25 67 47
23 64 46
25 67 47
24 65 46
24 67 47
24 66 46
22 59 42
25 67 47
24 64 45
24 65 45
24 65 46
26 69 48
23 63 44
22 61 42
23 62 43
22 58 42
27 62 49
39 68 70
44 63 75
54 71 93
53 68 92
52 66 89
62 81 109
61 77 104
60 78 106
59 76 102
56 74 101
59 75 102
60 77 104
58 74 101
57 74 100
59 76 102
66 86 115
62 80 109
64 81 109
58 77 104
59 76 101
61 79 106
62 81 108
59 77 103
65 84 112
63 81 108
60 78 104
65 85 115
66 87 117
65 84 114
61 78 105
65 84 113
61 81 109
60 78 107
60 77 101
61 80 107
63 84 111
60 80 107
65 84 112
61 80 106
49 58 69
68 70 67
82 76 57
109 93 50
110 93 43
113 96 45
118 101 48
112 95 45
123 103 49
109 95 45
117 100 48
120 103 49
115 98 47
108 93 44
110 94 45
120 103 49
116 100 48
118 102 49
111 95 46
110 95 46
118 100 49
118 101 48
122 103 49
118 101 48
119 102 50
107 91 45
111 94 46
108 91 45
115 98 48
106 91 46
112 94 47
107 89 44
103 85 44
102 85 43
106 90 45
115 97 48
100 84 42
108 91 46
104 88 45
90 75 40
90 75 40
94 79 40
87 76 46
78 78 71
77 86 96
67 85 111
68 88 119
68 89 120
69 89 119
68 87 118
66 86 117
68 87 117
69 89 119
69 90 121
66 85 113
69 89 119
69 88 118
69 90 121
68 89 120
66 87 116
70 89 118
68 88 119
69 89 122
70 91 122
68 87 117
69 90 121
68 89 120
65 83 112
67 86 117
62 77 123
49 56 123
43 45 122
26 16 125
19 3 129
18 0 135
19 0 142
18 0 138
17 0 133
19 0 141
18 0 140
18 0 136
18 0 141
19 0 139
18 0 135
18 0 136
18 0 142
18 0 140
18 0 136
19 0 141
17 0 130
18 0 137
18 0 135
18 0 140
17 0 134
18 0 139
18 0 134
18 0 139
18 0 137
17 0 133
19 0 137
19 0 140
18 0 135
17 0 132
17 0 131
18 0 136
17 0 132
16 1 118
21 9 118
40 39 126
48 56 120
57 72 115
63 82 114
66 86 117
63 82 114
64 83 114
65 84 114
67 86 116
59 77 105
64 83 114
58 76 103
62 82 112
61 79 108
61 79 106
61 80 109
63 82 111
57 74 100
58 76 108
60 78 106
55 71 97
54 72 101
56 73 102
57 74 104
56 73 101
51 66 91
44 58 85
29 43 91
16 35 100
3 19 84
0 20 103
0 22 114
0 19 101
0 22 114
0 17 93
0 18 101
0 21 110
0 20 103
0 16 90
0 18 100
0 21 109
0 19 102
0 16 91
0 20 104
0 18 98
0 17 94
0 15 80
0 20 104
0 16 87
0 19 101
4 13 80
9 12 78
20 6 64
27 3 53
28 1 46
29 1 45
31 1 48
29 1 46
29 1 44
32 1 51
30 1 46
32 1 50
34 1 51
33 1 50
32 1 48
33 1 50
32 1 48
32 1 48
31 1 48
31 1 47
31 1 46
30 1 47
32 1 48
32 1 49
31 1 48
33 1 50
32 1 49
33 1 50
31 1 47
31 1 48
32 1 47
33 1 49
30 1 46
32 1 49
31 1 47
32 1 49
34 1 52
29 1 45
29 1 45
30 1 47
33 10 52
44 33 74
51 58 91
61 75 104
63 83 114
67 86 116
68 88 120
67 86 117
67 87 117
65 85 113
59 78 105
68 89 121
64 83 112
66 85 114
65 85 114
69 88 117
66 85 113
66 86 117
65 84 114
64 83 113
67 86 116
63 82 110
65 84 110
66 85 114
63 83 113
66 85 115
63 82 112
64 84 112
65 86 117
65 85 116
68 89 121
68 87 118
68 87 116
65 85 115
69 90 121
68 89 118
65 84 113
63 83 111
65 85 115
68 89 120
63 81 110
68 89 119
68 89 119
68 89 117
68 87 117
65 83 112
66 84 114
73 95 126
69 90 122
66 85 115
64 82 108
70 89 119
64 83 112
65 83 113
67 88 121
63 82 111
63 81 108
67 85 115
66 86 114
66 87 117
64 83 110
67 85 114
64 82 110
66 86 116
68 89 119
68 88 118
67 87 116
64 83 112
63 82 112
64 83 111
64 83 111
62 80 109
61 76 103
63 82 111
60 77 102
64 81 107
63 82 109
62 79 106
62 80 107
63 81 109
64 83 111
62 80 108
66 85 114
61 77 103
63 81 107
66 85 114
61 78 106
63 81 109
60 79 107
62 78 107
59 76 102
61 78 104
57 72 97
58 74 101
58 74 100
68 87 117
64 82 110
65 84 113
60 76 103
60 77 105
59 73 99
61 79 105
58 73 98
61 78 105
57 72 97
62 79 106
59 74 101
60 78 104
57 71 97
64 82 110
62 79 106
63 81 109
56 70 96
62 80 107
61 79 107
62 80 109
61 77 104
61 79 106
63 82 111
65 84 114
58 76 103
54 72 94
45 71 78
35 65 62
25 59 46
22 58 41
23 61 43
21 57 40
23 61 44
25 67 47
23 61 43
24 63 44
23 61 43
23 63 45
23 61 43
23 62 44
23 63 44
25 66 47
23 61 44
22 59 42
24 65 45
23 61 43
25 68 47
24 64 45
23 63 44
24 64 45
23 63 45
23 63 44
24 63 44
22 59 41
24 65 46
23 62 44
23 62 43
23 62 43
24 65 45
24 65 46
23 62 43
23 61 43
21 57 40
23 63 44
21 59 41
23 61 42
23 58 43
36 68 64
45 69 80
53 72 93
54 69 93
61 78 105
57 73 98
59 75 101
62 78 106
61 79 106
59 76 102
63 81 109
65 84 112
62 80 108
63 81 109
60 77 102
61 80 107
59 76 103
64 83 111
64 83 112
60 78 104
64 84 113
61 81 108
62 81 108
64 83 111
64 82 111
61 80 108
67 87 117
61 80 107
64 83 111
60 79 104
65 85 114
61 79 106
63 83 112
65 85 115
64 85 114
59 78 105
60 79 106
61 79 107
63 82 110
49 57 67
67 68 59
88 80 53
101 87 48
116 99 47
115 98 47
111 95 45
120 102 47
111 95 45
112 95 45
118 102 49
124 106 51
114 98 47
121 103 49
109 92 44
112 96 46
113 97 46
122 104 49
111 94 45
119 102 49
113 95 45
119 100 48
113 96 45
111 94 47
113 96 46
109 93 44
106 90 44
111 95 47
107 91 45
105 89 45
108 92 46
105 89 43
104 90 44
96 83 43
100 84 43
104 87 44
91 76 41
102 86 44
104 88 45
94 79 42
86 72 38
92 77 40
100 86 48
89 83 65
80 85 82
69 83 103
69 90 123
67 85 113
68 87 114
68 87 117
70 91 122
69 89 119
71 92 122
70 89 120
67 87 116
71 91 123
67 86 116
70 91 121
69 89 118
72 91 122
70 90 121
69 90 122
67 86 115
66 85 115
67 87 118
70 90 119
70 90 120
70 90 121
65 83 118
57 69 119
49 53 122
31 22 127
24 12 131
18 0 127
17 0 129
17 0 133
18 0 137
17 0 131
19 0 143
18 0 136
17 0 133
19 0 140
19 0 142
18 0 139
19 0 141
18 0 136
18 0 138
18 0 140
18 0 141
18 0 140
18 0 137
19 0 141
18 0 139
18 0 139
17 0 134
18 0 135
18 0 138
19 0 143
18 0 136
17 0 127
18 0 137
19 0 136
17 0 130
17 0 130
18 0 134
16 0 120
17 0 127
18 4 120
30 25 120
40 43 116
53 64 117
65 82 119
64 83 111
63 82 112
62 80 110
62 81 111
64 83 112
61 81 110
62 81 112
62 80 106
57 73 102
60 79 109
60 78 107
59 77 105
57 75 104
59 77 107
56 73 101
61 78 106
56 72 99
54 70 95
56 74 102
55 71 97
54 70 96
47 60 85
48 64 91
37 52 88
25 44 99
13 32 104
2 24 114
0 17 95
0 20 107
0 19 102
0 19 101
0 18 100
0 18 96
0 18 95
0 21 109
0 15 88
0 18 97
0 20 111
0 18 98
0 19 102
0 17 93
0 18 99
0 17 90
0 16 90
0 15 85
0 19 98
6 12 78
8 11 73
18 7 62
26 2 47
28 1 45
30 1 47
30 1 48
31 1 48
30 1 46
30 1 47
30 1 47
31 1 46
27 1 42
27 1 42
30 1 45
31 1 48
33 1 50
30 1 46
31 1 47
29 1 44
32 1 49
31 1 47
30 1 45
31 1 46
32 1 48
32 1 48
31 1 48
31 1 47
31 1 48
30 1 45
31 1 48
31 1 46
31 1 47
30 1 46
30 1 45
33 1 51
31 1 47
30 1 45
31 1 47
31 1 47
34 12 53
44 33 72
50 51 84
62 77 107
65 85 116
63 82 112
63 83 112
64 84 115
65 84 115
63 83 114
67 87 117
66 85 115
66 86 116
65 84 114
65 85 115
65 84 111
67 88 118
65 85 114
69 90 121
62 82 113
65 85 114
64 83 113
65 84 113
66 85 115
68 89 119
63 83 110
66 86 116
67 86 114
66 87 117
66 87 118
67 86 113
69 90 119
66 86 117
69 89 119
66 85 113
65 84 114
67 86 116
67 87 117
66 85 115
68 88 118
68 88 119
66 85 116
68 88 120
68 88 117
66 85 112
69 89 120
64 83 112
68 88 119
66 85 113
69 88 118
69 89 120
69 89 118
65 84 114
69 89 117
67 87 117
68 88 117
65 85 115
65 83 112
65 83 112
69 90 120
64 81 107
69 89 118
67 86 116
64 82 110
65 84 112
65 83 112
64 83 112
66 85 116
66 86 116
65 83 112
66 86 116
64 82 110
66 85 115
65 84 114
64 83 113
63 80 108
62 80 107
67 87 116
65 84 114
63 80 108
63 81 109
63 80 108
66 86 116
61 79 108
62 80 106
60 78 107
65 83 113
64 82 110
61 78 105
67 85 115
63 81 108
64 82 111
64 82 111
63 79 106
61 78 106
59 75 102
63 80 108
59 75 101
61 79 106
60 77 104
64 83 111
64 83 111
65 84 113
65 83 111
66 84 113
63 80 107
66 86 115
63 80 107
62 80 109
60 76 104
61 78 106
64 82 110
61 78 105
63 80 109
63 82 111
61 77 104
66 84 111
66 87 117
62 80 107
62 79 106
62 80 108
54 73 95
43 68 76
36 67 65
23 60 43
23 62 43
22 58 41
21 56 40
20 54 39
23 62 43
24 63 44
23 60 43
23 62 44
22 60 42
24 64 44
22 58 41
23 61 43
23 63 44
24 63 44
23 63 44
24 64 45
26 68 47
24 64 45
24 64 45
23 63 45
24 64 45
23 63 44
22 59 42
22 61 43
23 63 43
24 63 44
22 59 41
24 64 45
23 63 44
24 65 45
24 65 45
22 61 43
22 60 42
25 68 47
23 62 43
21 55 39
22 61 42
23 61 44
31 64 56
39 64 70
51 74 91
60 78 105
61 78 105
63 81 109
60 77 103
60 78 104
63 81 111
58 75 101
54 70 94
64 84 113
58 76 102
63 82 111
61 79 107
64 83 110
61 78 104
63 82 111
59 76 102
59 76 103
63 83 112
63 83 113
60 77 102
63 83 110
65 86 115
64 84 112
66 86 116
64 83 111
66 86 116
62 81 109
57 73 98
64 84 113
68 89 119
56 74 100
67 86 116
60 79 105
56 74 99
64 84 113
63 82 111
52 57 63
64 68 68
94 82 49
109 91 44
108 92 43
105 89 43
115 98 47
101 86 40
107 90 43
114 99 47
122 104 49
109 93 45
106 90 43
109 93 44
113 98 47
108 92 45
113 97 46
112 96 46
114 98 47
115 98 47
113 96 46
114 97 46
104 88 43
111 95 47
119 101 49
110 93 45
114 97 46
125 105 50
107 90 44
103 86 43
110 94 46
99 85 41
101 84 43
100 85 44
96 80 42
104 88 44
99 82 43
94 79 41
88 74 40
87 71 39
96 81 42
84 70 37
81 70 41
76 75 65
72 81 89
67 84 109
67 85 111
67 87 115
67 86 118
68 88 117
67 87 117
67 87 117
67 87 120
69 90 121
70 89 120
65 84 113
67 88 119
68 88 119
69 88 118
65 84 113
71 92 123
71 92 125
70 90 120
71 91 121
65 84 112
69 89 118
68 89 120
66 84 116
61 75 118
51 59 117
41 41 124
25 13 126
17 1 125
17 0 129
16 0 123
18 0 137
18 0 139
18 0 135
17 0 128
17 0 130
18 0 133
19 0 143
17 0 133
17 0 133
17 0 131
17 0 135
18 0 138
18 0 139
18 0 141
18 0 138
18 0 140
18 0 138
18 0 134
17 0 125
16 0 124
18 0 138
17 0 135
17 0 128
18 0 136
17 0 128
18 0 140
17 0 123
17 0 127
18 0 129
18 0 132
17 0 124
16 0 119
18 3 120
25 17 115
31 29 110
49 56 119
52 65 114
64 83 112
64 83 112
61 79 109
64 83 115
66 85 117
61 81 114
64 83 113
62 80 109
57 73 102
62 81 111
64 84 114
57 75 104
54 72 102
59 76 103
58 76 105
57 75 105
52 70 100
51 67 94
52 68 96
56 71 96
49 65 93
52 67 94
49 64 91
52 68 100
33 49 88
18 34 87
5 23 91
0 17 96
0 16 85
0 19 99
0 18 100
0 18 95
0 18 97
0 16 86
0 17 90
0 18 99
0 20 108
0 18 101
0 18 97
0 16 88
0 16 91
0 15 86
0 16 87
0 15 86
0 16 85
0 15 83
5 14 86
12 10 72
21 5 57
29 1 46
31 1 48
28 1 45
28 1 45
28 1 44
31 1 47
29 1 44
30 1 47
32 1 49
29 1 45
30 1 47
30 1 45
30 1 46
31 1 47
31 1 48
32 1 48
32 1 49
31 1 48
31 1 46
31 1 47
31 1 47
30 1 45
31 1 47
32 1 48
32 1 49
32 1 48
30 1 46
29 1 45
32 1 47
31 1 46
30 1 45
32 1 48
29 1 45
30 1 46
33 1 49
32 1 48
31 1 47
34 6 52
36 20 59
48 42 81
58 71 103
58 75 103
64 84 114
66 85 115
63 82 110
69 89 119
64 84 113
65 85 114
66 86 117
65 85 113
66 86 118
65 84 114
70 91 123
66 85 116
69 90 120
69 90 123
62 81 109
63 83 113
64 85 116
68 88 118
65 83 112
67 87 117
69 90 120
65 84 111
71 91 122
67 86 116
68 87 117
66 86 117
66 85 115
69 89 119
67 86 114
67 86 114
67 88 119
67 87 117
67 87 117
62 80 107
65 85 115
65 86 116
66 86 115
66 86 116
66 87 116
66 85 115
67 87 117
70 88 118
66 86 118
67 86 116
64 83 111
64 83 111
68 88 119
66 86 117
69 88 118
68 88 118
64 84 113
65 85 114
68 88 118
64 82 110
68 88 117
65 84 114
67 86 114
66 85 115
65 84 112
67 87 118
64 83 111
66 85 114
64 82 111
67 87 117
66 84 112
64 83 110
67 88 118
68 90 122
63 82 110
68 88 118
64 80 108
68 88 117
64 82 108
62 81 110
65 84 113
64 82 111
68 86 115
65 83 113
65 84 113
67 86 115
68 89 120
65 83 111
61 79 108
67 86 114
60 76 102
64 83 112
65 84 113
60 77 105
65 84 112
64 82 111
66 86 115
66 85 115
62 79 107
62 79 106
67 86 116
65 84 113
62 79 107
64 82 111
66 84 112
61 77 104
61 79 106
62 80 109
65 84 114
65 83 111
65 83 112
62 80 109
67 86 116
64 84 113
66 85 115
66 84 112
61 77 103
64 83 113
61 79 106
65 83 112
60 77 105
60 79 104
56 75 96
42 69 75
37 67 66
26 63 47
21 56 40
21 55 39
21 56 39
22 57 41
23 59 41
24 62 43
24 64 45
24 62 44
21 57 40
23 61 43
22 58 41
24 65 45
23 63 44
23 63 44
23 62 43
23 63 44
23 63 44
23 61 43
23 62 44
23 63 44
23 63 44
24 66 46
22 61 42
24 64 45
23 62 44
21 60 42
21 59 41
23 63 44
24 65 45
23 61 43
22 62 43
23 62 43
23 61 42
22 61 42
23 64 44
22 59 41
22 62 42
22 58 42
31 62 56
41 70 72
48 67 83
62 82 108
62 80 108
56 72 97
65 84 114
60 79 106
61 79 106
60 77 103
65 84 113
61 79 105
66 85 114
61 78 105
61 81 107
68 89 120
62 82 110
62 79 107
66 85 114
65 84 113
62 79 106
60 78 104
62 80 108
63 81 109
64 84 113
64 83 111
61 79 106
60 80 107
65 86 116
63 83 110
64 83 111
64 83 112
60 79 105
62 81 107
60 79 105
62 81 109
63 84 112
60 79 104
63 84 113
50 57 66
78 76 63
85 77 48
113 95 45
109 91 43
107 90 43
111 95 45
111 95 45
104 89 43
112 95 45
105 90 42
111 95 44
112 96 45
111 94 45
102 88 42
106 91 45
110 94 45
109 93 44
105 90 43
113 96 46
112 95 45
108 92 45
116 99 47
107 91 45
110 94 46
109 92 44
108 92 44
111 94 46
117 99 48
98 82 42
92 77 38
106 89 44
110 92 45
99 83 41
96 82 42
110 93 46
99 82 44
97 81 40
103 86 44
91 76 40
76 63 35
88 75 41
85 71 37
80 76 64
75 81 87
69 85 107
70 89 120
70 89 120
69 87 116
69 89 121
66 85 113
67 87 118
67 87 118
70 90 117
71 91 121
67 87 117
68 88 117
68 88 118
68 86 116
68 87 117
67 86 115
71 90 120
69 90 122
67 87 116
69 90 120
67 87 116
68 88 118
67 86 118
63 77 124
40 41 114
34 29 121
21 5 135
16 0 125
17 0 127
17 0 133
17 0 131
17 0 133
17 0 132
17 0 128
17 0 129
17 0 133
18 0 136
17 0 132
17 0 127
19 0 140
19 0 139
17 0 129
18 0 138
17 0 134
17 0 131
18 0 136
17 0 129
18 0 135
18 0 133
19 0 140
16 0 122
18 0 137
19 0 141
17 0 131
17 0 128
16 0 124
15 0 117
17 0 129
15 0 114
17 0 127
16 0 118
15 0 116
16 0 123
21 9 117
29 24 109
43 47 116
50 61 106
63 82 112
66 85 116
60 78 106
58 74 104
63 81 110
63 82 113
58 77 105
62 80 109
63 83 114
63 82 112
63 82 112
58 76 103
58 77 107
60 79 110
57 73 102
55 73 99
52 68 95
50 65 90
48 63 88
50 64 87
52 67 92
50 65 90
48 62 89
49 64 90
35 47 74
37 53 93
13 30 96
3 20 92
0 17 92
0 19 103
0 17 92
0 17 90
0 18 93
0 18 98
0 15 85
0 16 87
0 16 90
0 17 94
0 17 91
0 17 90
0 15 84
0 15 86
0 18 95
0 16 87
0 16 86
1 16 87
4 12 74
13 9 71
21 4 51
27 2 48
29 1 44
30 1 46
28 1 44
29 1 45
30 1 47
32 1 49
27 1 41
28 1 44
28 1 44
29 1 45
28 1 42
32 1 48
28 1 43
29 1 43
30 1 45
28 1 43
30 1 45
29 1 45
32 1 47
29 1 44
32 1 48
31 1 45
30 1 45
29 1 44
28 1 43
31 1 48
29 1 44
32 1 48
32 1 47
31 1 47
31 1 47
32 1 49
31 1 48
31 1 48
31 1 46
28 1 42
31 2 48
35 16 57
41 35 68
54 63 95
62 80 111
66 86 116
62 81 110
65 84 113
65 85 115
65 84 114
64 82 111
63 82 111
65 85 115
66 86 117
66 86 116
66 86 116
66 87 118
69 89 119
64 83 111
64 84 115
68 89 120
66 86 117
67 88 118
65 85 115
66 87 118
68 89 120
66 86 116
65 85 115
69 88 118
66 85 114
68 89 120
66 86 113
69 90 122
65 85 114
64 83 113
69 90 120
65 84 113
66 87 117
68 87 117
68 87 119
66 85 113
67 87 118
66 86 116
64 84 113
66 85 114
70 90 121
68 87 117
66 86 117
66 85 112
69 89 120
67 87 118
66 85 115
66 86 118
68 88 119
67 87 117
64 84 113
66 86 113
69 89 118
63 82 110
67 88 119
65 83 112
69 89 119
71 92 121
68 87 117
70 91 121
66 86 115
67 86 114
63 83 111
65 84 115
66 85 115
68 89 119
66 85 114
64 82 111
68 89 120
66 87 118
66 85 115
65 83 111
64 84 114
64 82 111
66 85 114
65 83 111
66 86 116
65 84 112
66 86 115
67 86 116
62 82 111
67 87 116
67 87 117
67 85 115
65 82 110
68 89 121
67 87 117
65 84 113
66 85 115
67 86 116
69 88 118
68 87 117
64 81 109
66 84 113
67 87 115
66 85 115
65 83 112
67 87 115
65 85 114
66 86 116
67 89 119
64 81 109
68 90 122
66 85 114
63 81 110
63 82 110
66 85 116
66 84 113
68 88 118
62 79 107
66 85 116
62 80 107
64 83 112
68 88 119
61 78 106
62 81 106
57 78 101
40 64 72
29 60 53
22 57 42
21 55 39
21 56 39
21 57 40
22 59 41
22 57 41
21 56 39
20 56 39
22 58 41
23 63 44
21 56 39
23 60 42
22 60 42
24 64 44
22 59 42
24 65 45
23 62 43
25 66 46
22 62 43
20 56 39
23 63 44
23 62 43
24 65 45
25 68 47
22 60 42
22 60 42
22 61 42
23 63 44
21 58 40
21 58 41
21 59 41
23 62 43
23 62 43
21 58 40
22 59 41
20 56 39
22 59 41
21 58 40
20 53 37
26 56 47
38 69 68
53 78 94
57 77 100
64 84 113
63 81 108
61 78 105
63 81 109
62 80 108
59 78 106
62 80 107
64 82 111
65 85 113
65 85 114
65 84 113
67 87 117
61 79 106
60 77 104
62 81 109
68 88 117
66 86 116
65 84 114
61 79 107
65 84 113
64 83 112
69 90 121
62 81 110
60 78 105
65 86 115
57 76 101
61 81 108
63 81 108
60 78 105
58 77 102
65 85 114
62 82 110
62 83 111
64 84 113
61 80 107
60 68 77
75 76 65
92 84 54
104 89 42
111 93 44
101 86 40
110 93 44
106 90 43
108 92 44
98 85 41
116 98 46
110 95 45
114 96 46
104 90 43
108 92 44
102 87 42
117 98 46
119 100 48
102 87 42
109 94 45
104 88 42
103 89 43
105 89 43
98 85 41
110 93 45
103 88 43
114 97 47
107 89 43
105 89 44
104 88 44
97 81 41
107 90 44
95 80 41
101 85 43
97 82 41
94 79 41
102 87 45
97 81 41
99 83 42
86 71 37
87 72 39
85 72 38
78 66 39
77 75 61
73 77 78
69 83 101
70 90 118
66 85 114
70 90 122
73 94 125
68 88 119
70 90 121
68 89 120
67 86 116
70 90 123
67 88 116
69 89 120
68 87 117
67 86 116
67 87 118
69 89 122
70 90 120
69 89 119
67 86 118
71 91 121
68 88 118
67 87 116
63 79 112
56 66 119
40 41 113
28 19 122
21 6 125
17 0 126
17 0 130
17 0 130
17 0 129
16 0 126
17 0 133
18 0 138
18 0 134
18 0 134
18 0 132
19 0 142
17 0 126
17 0 134
17 0 131
18 0 136
17 0 133
17 0 132
18 0 135
16 0 127
17 0 131
16 0 125
18 0 138
17 0 128
17 0 128
17 0 133
18 0 135
18 0 137
17 0 129
17 0 126
17 0 129
16 0 123
16 0 121
17 0 123
15 0 117
17 0 126
16 0 122
15 1 107
25 17 116
34 33 112
54 66 115
62 79 117
63 83 116
60 79 110
63 81 111
61 80 109
60 78 106
59 77 107
62 81 111
58 76 106
58 75 103
61 80 109
61 80 111
55 72 103
54 70 96
58 75 103
56 73 102
55 71 97
54 70 99
55 71 98
50 65 90
51 67 94
50 65 93
49 65 92
45 59 85
43 57 82
43 58 90
26 39 79
16 31 87
5 24 98
0 18 93
0 16 93
0 16 86
0 17 92
0 13 77
0 15 85
0 16 89
0 17 89
0 14 83
0 17 87
0 15 83
0 16 93
0 14 76
0 17 91
0 13 74
0 12 71
2 14 77
5 11 71
14 8 60
23 3 51
28 1 45
27 1 42
25 1 41
30 1 46
27 1 42
27 1 43
32 1 47
30 1 46
29 1 45
29 1 46
32 1 47
29 1 45
30 1 45
30 1 46
29 1 44
31 1 47
29 1 45
30 1 45
29 1 45
31 1 47
30 1 45
29 1 45
29 1 44
30 1 46
30 1 44
31 1 46
30 1 45
31 1 47
28 1 43
28 1 42
29 1 45
30 1 45
29 1 44
29 1 44
29 1 43
27 1 42
29 1 44
27 1 41
35 15 56
44 38 74
54 63 96
58 71 101
64 84 112
65 84 115
65 85 114
65 85 116
66 86 118
68 88 118
65 84 114
69 89 120
67 87 119
65 85 118
64 82 109
60 78 108
68 88 119
65 84 114
65 84 115
65 84 114
71 91 122
65 83 112
66 86 117
66 85 113
69 89 119
68 88 119
66 85 114
64 83 111
64 83 114
64 83 112
65 85 116
63 83 114
68 88 117
69 88 119
66 87 117
64 84 113
67 87 119
69 89 119
67 88 119
67 87 117
65 84 112
68 88 118
68 87 117
67 86 115
69 89 121
65 85 113
63 82 112
69 90 121
65 83 112
66 86 115
67 88 118
68 89 118
67 88 118
64 82 111
66 85 116
67 86 115
66 86 114
66 86 116
69 88 118
72 93 125
68 87 117
68 88 117
67 86 115
69 89 119
67 87 115
69 88 116
67 85 114
66 85 114
67 87 118
69 90 122
66 85 113
68 87 117
68 88 119
70 89 118
66 85 115
68 87 116
66 85 114
65 84 114
67 87 117
66 84 112
64 82 110
69 89 119
66 85 114
65 85 115
67 86 115
67 86 117
64 83 111
65 84 113
67 87 116
66 86 115
67 87 118
69 89 119
64 82 110
68 89 117
71 91 121
66 85 115
69 89 119
64 81 109
66 85 114
63 83 111
63 81 108
67 87 117
66 85 114
66 85 113
66 85 115
65 83 111
69 89 119
65 84 113
66 85 114
67 87 118
64 84 113
67 86 117
69 89 119
67 88 118
70 90 120
65 84 112
67 85 114
61 79 109
60 78 106
64 84 114
58 79 101
39 64 68
30 58 55
22 56 41
21 55 38
21 56 40
21 57 41
21 55 39
23 61 43
22 59 41
21 56 40
23 62 43
25 66 46
22 58 41
22 60 42
24 62 43
22 60 41
21 58 41
23 62 43
24 64 44
23 61 43
21 58 41
23 62 43
22 59 41
24 64 45
21 57 40
21 56 39
24 65 45
21 59 41
21 57 40
22 59 41
22 61 43
21 58 40
21 57 40
20 55 39
21 59 41
20 56 39
22 59 41
22 60 42
20 55 38
20 53 37
22 57 40
27 56 48
43 68 74
54 78 95
64 85 113
67 87 117
69 88 118
65 83 112
65 85 114
57 74 101
64 82 110
63 83 112
64 84 113
65 84 113
64 83 111
61 79 106
63 80 109
63 83 113
66 86 115
63 83 111
63 82 110
64 84 113
67 87 117
64 83 112
62 81 108
66 87 117
68 88 118
68 87 117
60 80 107
65 84 112
64 84 113
63 83 110
58 77 103
60 80 107
65 83 111
60 80 108
66 86 115
62 83 110
63 82 110
62 82 110
68 78 88
83 79 63
94 82 46
109 93 46
110 94 45
112 95 45
104 88 42
104 88 42
112 94 44
111 94 44
114 97 47
98 85 41
112 95 45
108 91 43
111 95 46
103 87 41
116 99 47
106 89 43
104 88 42
106 89 43
105 89 43
104 89 43
115 97 46
111 93 45
109 91 43
98 83 41
106 90 44
100 85 41
102 86 42
92 78 40
103 88 44
97 81 41
90 75 39
101 83 42
86 72 38
90 77 39
88 75 38
86 72 37
85 71 38
92 78 41
90 75 39
74 62 33
81 69 40
71 69 62
76 83 89
67 83 103
70 90 122
70 89 119
69 89 120
67 87 117
67 88 116
64 84 114
63 82 110
70 90 121
66 85 115
68 88 119
68 88 118
66 86 117
69 90 122
71 92 124
67 88 118
68 89 120
65 84 115
67 85 113
71 91 121
68 86 114
69 90 118
60 74 121
53 63 121
36 32 120
22 9 119
17 1 119
16 0 124
17 0 127
17 0 130
18 0 133
18 0 136
17 0 130
18 0 136
17 0 130
17 0 127
17 0 131
17 0 131
17 0 126
17 0 130
18 0 135
16 0 122
18 0 137
16 0 126
17 0 126
16 0 119
17 0 128
17 0 129
17 0 127
17 0 124
17 0 126
17 0 126
16 0 121
17 0 130
17 0 124
15 0 113
16 0 120
16 0 124
16 0 118
16 0 122
14 0 107
16 0 117
16 0 125
16 2 117
21 11 111
33 32 114
44 51 108
57 75 114
57 75 102
62 81 112
64 84 116
62 81 112
63 83 116
64 83 111
53 71 101
60 77 105
59 78 108
60 77 108
51 67 93
60 79 109
55 73 105
53 70 99
56 73 101
55 72 101
49 63 86
55 72 101
50 65 92
45 60 89
56 73 102
48 62 87
47 63 92
46 60 85
50 66 95
36 50 84
27 44 95
10 23 75
6 23 91
0 17 91
0 16 86
0 14 83
0 14 83
0 17 94
0 14 76
0 15 82
0 15 85
0 15 82
0 14 77
0 15 84
0 15 88
0 13 75
0 16 85
0 16 84
3 12 73
8 10 68
17 6 59
23 3 47
31 1 47
28 1 45
27 1 42
31 1 47
28 1 43
28 1 43
26 1 42
29 1 44
31 1 46
31 1 47
29 1 44
31 1 47
30 1 45
27 1 42
27 1 42
28 1 45
30 1 46
26 1 39
28 1 43
31 1 47
30 1 45
30 1 45
31 1 46
29 1 43
30 1 44
30 1 45
28 1 42
28 1 43
29 1 44
31 1 46
28 1 42
30 1 45
30 1 46
28 1 43
30 1 46
30 1 45
28 1 42
29 1 44
33 11 53
41 36 71
51 52 87
59 73 103
65 86 118
63 82 113
63 83 114
64 84 115
64 85 117
65 85 114
64 82 110
63 82 110
64 84 115
64 83 116
65 85 115
68 88 117
65 86 115
65 85 115
65 84 114
63 82 110
65 84 111
66 86 117
67 87 118
66 86 116
68 89 118
67 86 115
70 90 120
66 86 118
63 82 112
65 85 114
68 88 120
69 90 121
66 85 116
70 89 120
66 87 116
65 84 112
66 86 115
67 86 117
67 86 116
69 91 122
67 87 117
68 88 118
67 87 117
67 87 118
70 89 118
67 87 116
68 88 119
68 88 118
66 86 115
67 86 116
66 86 116
66 86 114
71 92 124
67 86 115
67 88 119
65 84 112
64 83 111
65 84 114
60 77 102
65 84 114
68 88 118
65 84 113
68 89 120
67 85 115
68 87 117
71 91 121
66 87 116
64 83 111
69 89 120
69 89 119
69 89 118
64 84 115
68 89 119
66 86 115
70 91 122
68 88 117
69 89 119
65 84 114
69 90 122
68 88 119
68 88 117
64 83 111
64 80 107
62 79 107
66 85 113
65 83 113
65 85 114
64 83 111
64 83 111
70 90 121
68 88 117
64 81 111
66 86 115
65 83 112
65 85 116
66 87 118
66 85 115
63 83 111
64 82 111
67 87 117
68 87 117
66 84 114
66 84 114
69 87 117
67 87 117
68 87 117
66 85 116
69 89 120
61 79 107
67 87 117
66 84 113
66 84 113
66 85 115
67 86 115
65 83 112
65 84 114
67 86 115
61 78 105
65 85 114
63 81 110
52 71 90
45 72 80
28 58 51
20 52 37
21 57 39
20 55 39
20 53 37
20 53 38
21 56 39
23 60 42
22 58 41
20 54 38
22 61 43
22 60 42
21 55 39
21 57 40
21 56 39
23 61 43
22 59 41
22 60 42
22 60 43
20 55 39
21 57 40
24 62 43
21 58 40
21 58 40
22 58 40
22 59 42
22 59 42
22 61 43
24 66 46
23 63 44
23 62 43
22 60 41
20 54 38
22 61 42
20 53 38
22 59 41
21 58 40
18 50 34
19 51 35
21 58 40
24 57 45
37 64 65
50 73 88
63 84 109
64 83 111
62 80 107
65 84 113
60 78 105
67 86 115
64 83 110
63 82 110
64 84 113
68 89 120
66 86 115
67 87 118
68 88 118
63 83 111
67 86 115
67 86 116
67 87 118
64 84 112
61 79 105
64 83 113
66 86 114
65 85 113
63 81 108
64 84 111
68 89 120
67 88 117
64 84 113
64 84 112
64 84 113
60 81 108
63 82 111
57 75 100
63 83 112
62 82 109
61 80 108
63 83 110
62 68 72
75 76 70
92 82 52
102 87 41
94 81 39
102 86 41
106 89 42
105 89 42
104 89 42
106 90 44
103 89 43
107 90 44
98 84 40
109 93 45
103 88 43
107 92 43
103 87 42
105 90 43
112 96 45
106 90 42
107 92 45
98 84 41
100 84 41
111 93 45
107 90 43
113 96 46
93 79 38
110 92 45
104 87 42
98 82 41
95 82 40
98 83 41
89 75 38
95 80 41
90 75 38
97 81 40
92 78 39
83 69 35
87 73 36
86 70 37
78 65 35
80 68 37
72 62 41
72 68 54
70 75 78
69 84 107
67 86 115
72 92 124
70 90 121
71 91 120
68 89 120
71 91 121
69 89 120
68 88 119
69 89 119
68 88 116
69 89 120
66 85 114
67 87 118
68 89 120
68 88 118
67 87 117
68 88 119
67 86 117
65 85 115
70 90 119
68 89 120
58 70 122
45 52 109
35 33 109
20 7 120
17 0 124
17 0 130
17 0 123
17 0 125
17 0 129
15 0 121
16 0 124
17 0 131
17 0 128
17 0 129
17 0 132
17 0 130
17 0 127
18 0 135
16 0 122
17 0 133
16 0 123
17 0 128
16 0 122
17 0 132
16 0 125
17 0 127
17 0 127
17 0 127
17 0 124
17 0 124
17 0 127
17 0 127
16 0 124
18 0 129
15 0 113
16 0 118
16 0 115
16 0 118
16 0 124
17 0 123
15 0 110
15 0 111
20 7 119
36 34 114
45 54 109
55 69 111
59 77 108
60 79 107
61 80 113
60 79 114
58 76 106
61 80 110
58 78 112
57 76 108
59 77 109
59 75 103
59 77 106
58 77 109
56 74 106
56 75 107
56 74 104
52 69 100
55 72 102
53 70 99
55 72 103
48 63 91
52 68 97
37 51 82
49 65 95
44 59 87
38 51 79
49 65 95
36 51 83
26 40 84
13 30 89
6 20 76
0 14 75
0 12 72
0 14 76
0 12 73
0 15 90
0 11 67
0 14 79
0 15 84
0 13 75
0 14 82
0 14 79
0 13 73
0 12 72
0 14 79
2 12 71
8 10 66
15 6 56
21 1 39
27 1 43
26 1 40
26 1 42
26 1 41
28 1 42
30 1 44
30 1 46
27 1 42
28 1 44
27 1 41
27 1 43
27 1 42
29 1 44
30 1 44
29 1 44
28 1 43
27 1 41
28 1 44
28 1 42
27 1 42
29 1 43
30 1 45
26 1 38
28 1 42
30 1 45
26 1 40
28 1 43
27 1 41
29 1 44
29 1 44
31 1 46
28 1 43
28 1 43
27 1 43
29 1 44
29 1 43
26 1 39
29 2 44
31 11 49
43 32 70
51 55 90
60 77 108
65 86 117
64 82 113
61 78 106
63 83 113
63 81 110
62 80 109
65 84 114
67 86 116
62 80 110
65 86 115
68 88 119
65 86 117
67 86 116
70 91 121
66 87 117
66 86 116
67 87 119
66 87 120
67 87 117
68 89 119
64 83 113
63 82 112
66 86 117
66 86 115
65 84 114
70 91 123
66 85 116
65 84 114
64 83 114
67 88 119
68 88 120
67 86 116
67 87 116
67 85 114
61 79 107
66 87 119
68 88 119
68 88 120
69 89 118
67 87 118
69 90 121
67 87 117
69 89 121
68 88 119
66 85 115
69 90 122
68 87 115
65 85 113
71 90 121
67 86 116
69 89 119
69 89 121
69 89 119
68 89 121
66 85 114
68 87 117
67 87 116
70 89 119
69 90 121
68 88 120
67 87 116
67 87 115
68 89 119
69 89 118
69 89 118
69 90 120
63 81 111
68 88 117
67 87 118
68 87 117
66 86 114
67 88 119
70 91 123
70 90 120
67 86 117
66 86 116
66 86 116
68 88 119
69 88 118
67 86 115
65 84 113
67 88 117
67 86 115
68 87 118
66 86 115
66 86 114
66 85 115
63 81 109
63 81 109
66 87 117
69 89 120
69 88 118
68 89 120
71 91 123
67 86 115
63 82 109
67 86 115
70 91 123
70 90 121
65 84 112
68 88 117
66 85 114
71 92 123
64 83 111
67 87 118
65 83 112
65 83 112
66 85 115
68 89 121
67 86 116
69 89 119
67 86 116
66 85 113
68 88 118
67 86 114
65 86 114
52 71 90
44 70 77
25 53 46
20 50 38
21 55 39
21 56 40
18 50 35
21 54 38
21 56 39
21 55 39
21 57 40
20 54 38
21 55 38
21 55 38
20 54 37
23 62 43
22 58 41
22 60 42
23 61 43
20 55 39
20 56 39
22 61 42
21 57 41
21 57 40
21 56 39
22 59 41
23 64 44
21 56 40
21 58 41
21 59 41
23 60 42
21 59 41
21 58 40
21 58 41
22 59 41
22 60 42
20 55 39
20 56 39
20 54 38
18 50 35
18 51 35
20 54 36
28 63 52
42 70 76
51 73 89
60 79 103
64 84 113
63 83 112
67 88 118
65 84 113
64 83 111
65 83 111
64 84 114
67 86 116
66 85 115
64 84 112
64 83 112
60 79 105
65 84 113
62 81 107
64 83 110
63 82 109
59 78 105
66 87 117
64 83 112
63 81 110
63 80 109
67 87 116
67 87 118
66 86 115
61 79 105
63 82 110
62 82 110
61 81 108
59 77 102
61 80 108
60 80 107
64 83 111
59 78 105
64 84 113
58 77 104
60 72 89
78 79 71
93 84 54
101 88 42
92 78 36
91 77 37
96 82 39
100 84 39
97 80 38
99 85 40
101 85 40
95 82 39
100 86 41
109 93 44
97 83 40
100 85 41
106 90 43
96 81 39
112 94 45
107 91 43
105 90 43
99 86 42
101 85 41
101 86 42
103 88 44
101 86 42
107 88 44
104 88 43
95 81 41
93 78 39
93 79 40
88 75 38
96 81 39
94 79 41
89 74 38
85 72 37
87 73 40
84 69 37
73 64 42
86 76 48
70 62 43
70 62 40
74 66 43
76 76 69
66 74 83
64 79 103
64 82 108
67 86 116
66 86 114
69 90 122
68 88 118
68 89 118
68 89 121
67 87 118
70 91 120
71 92 123
70 90 121
69 89 119
69 89 119
68 87 117
67 87 117
69 90 121
69 90 122
66 85 114
62 80 110
69 89 119
67 85 117
59 73 116
39 41 114
26 21 99
19 7 115
15 0 117
16 0 116
16 0 119
16 0 119
16 0 121
17 0 128
17 0 128
17 0 129
16 0 122
17 0 128
17 0 126
16 0 124
16 0 125
17 0 130
16 0 123
16 0 125
17 0 126
16 0 126
17 0 129
17 0 126
17 0 127
17 0 126
18 0 135
17 0 130
16 0 120
16 0 117
15 0 115
17 0 127
16 0 122
16 0 120
15 0 117
17 0 123
16 0 121
14 0 109
15 0 108
16 0 121
15 0 111
13 0 98
17 6 102
26 22 102
41 47 110
53 67 107
60 78 111
64 84 116
62 81 112
65 87 119
61 81 112
60 80 110
60 79 110
55 73 104
58 75 106
54 72 102
56 73 102
57 75 106
52 69 99
57 75 105
51 68 97
54 70 99
55 74 105
49 65 94
46 61 93
47 63 93
48 65 95
51 67 92
46 60 85
51 66 93
38 52 80
39 51 78
43 57 86
38 53 86
24 36 74
14 28 75
10 25 87
2 17 81
2 14 69
0 12 69
0 13 72
0 14 80
0 14 77
0 10 68
0 10 63
0 13 75
0 10 61
0 12 72
0 12 70
0 12 68
1 14 78
7 8 55
16 5 50
23 2 45
27 1 42
27 1 42
25 1 40
25 1 39
27 1 41
27 1 42
25 0 39
26 1 39
27 1 41
24 0 38
28 1 42
27 1 41
29 1 43
28 1 42
30 1 43
28 1 43
29 1 43
26 1 40
28 1 43
25 0 38
27 1 41
25 0 38
29 1 44
29 1 44
30 1 45
27 1 42
26 1 39
28 1 41
28 1 42
28 1 42
28 1 43
27 1 42
27 1 40
30 1 45
28 1 41
27 1 39
27 1 39
26 1 39
29 5 45
41 35 69
51 51 87
60 76 106
62 81 110
60 78 108
64 84 117
63 84 118
65 86 118
64 83 113
66 86 117
65 83 109
65 84 115
67 86 117
60 80 114
66 86 116
66 86 117
66 86 117
64 83 115
64 84 116
66 85 115
68 88 119
68 88 120
67 87 116
66 86 119
63 81 109
69 90 122
70 89 120
66 86 117
69 91 124
67 88 118
66 87 116
70 90 121
70 91 122
71 92 123
68 87 116
68 88 121
67 87 117
67 88 119
69 90 122
68 87 116
65 84 114
71 93 124
68 88 119
63 81 111
64 82 110
67 87 118
66 85 114
67 87 118
67 86 116
68 88 119
69 90 121
70 91 122
67 86 115
69 89 120
65 83 113
66 86 114
69 89 119
67 86 115
66 85 116
67 89 121
65 85 113
67 87 117
70 91 123
67 87 117
68 89 119
67 87 117
67 87 118
70 91 122
66 85 116
64 83 113
69 90 122
67 87 117
70 90 122
67 88 119
68 88 118
70 90 121
67 86 115
67 87 116
66 86 117
69 89 121
69 90 121
71 92 122
69 89 119
65 85 115
66 86 115
67 87 117
68 89 119
67 87 117
66 85 114
70 89 119
67 86 116
66 85 114
67 85 116
68 87 118
66 84 112
68 88 119
72 93 124
70 89 120
63 82 112
69 90 120
66 85 113
66 87 116
67 88 118
65 84 113
66 86 117
67 88 118
67 86 116
70 91 122
67 87 116
66 86 114
65 85 114
66 85 114
63 82 111
67 87 117
69 89 120
65 84 115
65 85 114
64 83 110
66 86 114
61 82 105
42 66 77
31 58 54
25 59 46
18 48 35
19 51 36
21 55 38
20 53 38
21 55 38
20 54 38
21 56 40
22 58 40
20 54 38
18 49 35
20 54 38
22 59 41
22 59 41
20 54 38
21 56 40
21 56 39
20 55 38
20 53 37
21 57 40
21 58 40
21 58 40
21 58 40
22 60 42
21 59 40
21 56 39
20 54 38
22 58 40
22 59 41
21 57 40
21 58 40
21 58 40
20 53 37
21 59 41
23 60 42
20 54 38
18 50 35
19 52 37
19 52 36
26 54 47
42 66 73
52 74 89
60 79 104
67 86 115
68 90 122
69 89 120
67 86 116
63 82 111
64 82 110
65 85 114
60 80 107
62 82 110
68 89 119
68 88 118
64 83 110
63 82 110
66 86 116
66 86 116
67 87 117
61 78 104
65 85 114
64 82 110
65 85 115
63 83 110
63 81 107
67 87 116
67 87 117
63 84 113
62 81 109
64 85 114
64 85 114
62 83 111
65 84 112
64 85 115
62 82 110
63 83 111
62 86 112
63 86 114
71 81 94
79 82 75
91 83 57
85 72 35
90 77 36
100 85 40
94 80 38
94 81 38
101 86 42
98 84 41
91 78 38
107 92 44
97 84 41
100 86 41
106 92 43
96 82 39
105 89 42
100 86 42
98 84 40
109 92 43
98 84 40
101 85 41
100 83 41
105 89 43
95 80 39
97 82 39
96 81 39
104 87 42
100 83 41
92 78 38
101 86 46
101 87 45
95 84 47
108 96 60
94 82 54
95 85 58
94 82 58
91 83 57
90 85 68
79 76 62
76 69 52
84 80 63
75 72 62
77 83 86
70 80 93
70 88 114
65 83 112
68 87 117
68 87 116
67 84 110
67 85 116
69 89 118
66 86 116
70 89 120
66 85 114
68 87 117
69 89 120
68 88 118
67 87 114
66 85 113
66 86 117
71 91 120
67 88 120
69 88 116
67 84 110
66 86 116
64 82 115
54 65 119
44 48 117
26 18 116
14 1 101
15 0 109
16 0 121
16 0 123
15 0 113
16 0 122
16 0 123
17 0 130
17 0 128
17 0 130
16 0 121
17 0 126
16 0 120
17 0 128
17 0 124
16 0 117
17 0 124
17 0 127
16 0 123
17 0 126
16 0 122
16 0 121
15 0 112
17 0 125
16 0 125
16 0 121
15 0 116
16 0 124
15 0 116
16 0 121
15 0 111
14 0 108
16 0 117
15 0 109
16 0 117
15 0 113
14 0 105
15 0 108
14 0 108
17 5 106
25 20 98
39 44 102
53 66 109
58 76 108
63 82 113
64 82 112
60 79 112
63 82 112
61 80 111
58 77 109
58 76 107
59 78 110
51 69 101
56 74 106
53 71 103
54 71 101
56 73 104
52 70 102
54 73 105
48 65 98
44 60 90
44 60 90
47 62 91
53 70 101
45 59 86
45 61 90
47 62 90
40 54 81
35 47 72
38 51 78
37 49 74
32 44 71
26 36 64
18 30 71
8 17 55
5 17 69
5 16 67
0 11 63
0 11 67
0 10 59
0 12 68
0 11 67
0 11 66
0 13 71
0 11 66
0 7 45
0 9 54
3 10 62
8 9 61
12 3 41
21 2 39
27 1 44
28 1 43
26 1 41
29 1 44
26 1 41
26 0 40
24 0 36
26 1 40
24 0 37
29 1 44
29 1 44
26 1 41
28 1 43
27 1 41
26 1 39
27 1 40
28 1 42
27 1 41
28 1 42
27 1 40
28 1 42
30 1 44
28 1 42
29 1 44
26 1 40
27 1 42
28 1 42
27 1 41
26 1 39
28 1 42
27 1 40
28 1 42
25 1 38
27 1 40
26 1 39
27 1 41
29 1 44
28 1 43
32 11 50
43 36 72
54 64 93
57 70 99
64 83 111
66 87 119
59 77 105
66 87 118
62 80 112
69 90 122
65 85 115
67 88 120
61 80 110
63 83 113
67 87 117
65 84 113
64 84 113
59 78 106
68 89 121
63 83 114
69 90 121
65 85 116
66 86 117
68 88 119
68 89 120
67 87 118
69 89 120
67 87 120
65 83 112
71 91 123
66 85 115
65 84 114
64 82 112
67 86 116
64 82 112
66 84 113
66 85 114
67 86 116
68 88 119
66 86 115
64 85 116
68 89 121
69 90 122
66 86 115
71 91 121
67 86 116
67 87 117
68 89 119
70 90 120
68 88 117
67 86 117
66 86 117
64 83 114
67 87 117
67 87 119
67 87 117
68 87 116
66 85 115
64 82 109
68 88 119
68 88 119
68 87 118
66 85 114
69 89 119
66 85 113
69 89 119
66 84 113
70 90 121
69 90 121
67 87 118
67 86 115
66 87 117
66 87 116
68 89 119
65 85 113
67 86 116
68 87 117
65 84 113
66 85 114
65 84 112
70 89 120
69 90 122
66 86 115
70 91 124
70 90 121
66 84 113
67 88 119
68 87 116
69 90 121
68 87 116
70 90 121
68 86 115
68 87 116
68 88 119
67 85 114
69 89 120
67 87 117
68 88 119
67 86 115
68 88 117
69 90 121
67 87 117
68 88 119
67 87 118
67 87 117
65 86 116
67 87 117
70 91 123
67 89 120
65 84 112
66 85 114
66 85 115
67 87 117
70 91 122
69 88 117
66 85 114
67 87 117
69 88 118
63 82 108
66 86 116
59 80 105
47 72 81
29 54 52
25 56 45
20 52 37
19 52 37
21 54 38
21 56 39
21 55 39
21 55 38
21 57 40
20 53 37
20 53 38
20 52 37
19 51 36
21 55 38
21 56 39
23 60 41
21 55 39
19 52 36
21 56 39
23 61 42
20 54 37
22 59 41
20 56 39
21 57 40
21 56 39
22 58 40
20 55 38
18 49 34
19 53 36
20 55 39
19 53 37
18 51 35
23 61 42
19 53 37
20 55 38
20 55 37
20 55 39
19 54 37
19 50 35
18 48 33
28 59 49
40 67 71
53 74 93
63 84 109
64 84 112
64 83 111
64 84 112
68 89 120
66 86 116
69 88 118
67 88 117
64 84 112
63 80 107
68 90 120
63 83 111
64 84 112
65 86 116
63 82 111
66 85 114
67 87 117
68 88 117
67 89 119
63 82 110
65 85 114
64 83 111
62 82 110
65 85 114
62 81 107
64 85 113
61 80 105
62 82 110
66 85 114
63 83 112
61 81 108
60 81 109
65 89 118
65 92 117
64 92 118
67 104 131
72 86 105
69 73 72
77 74 56
88 76 37
98 84 39
90 77 37
103 86 41
96 82 39
97 84 41
102 86 41
99 83 39
102 87 42
100 85 40
102 85 40
95 81 39
107 90 42
103 88 42
102 85 40
108 92 44
96 82 39
98 83 41
105 88 42
98 84 41
106 89 43
94 79 38
99 83 41
99 84 41
97 80 40
90 76 39
96 82 44
88 81 56
88 78 51
90 85 64
89 82 62
91 90 80
92 85 74
80 81 79
84 83 73
90 90 81
80 84 88
86 86 78
81 82 79
74 80 87
79 89 100
74 88 109
77 96 127
71 91 121
70 89 117
72 92 123
68 87 115
67 86 116
66 85 112
66 86 115
67 87 119
68 87 117
67 87 117
66 85 115
68 85 112
67 87 117
68 87 115
67 87 119
70 89 120
69 89 118
67 87 117
69 89 120
67 86 116
66 84 120
47 54 104
37 37 108
20 11 104
16 2 112
17 0 125
16 0 119
17 0 124
16 0 121
15 0 117
16 0 123
17 0 125
17 0 125
15 0 115
16 0 123
16 0 123
16 0 119
16 0 123
16 0 119
16 0 122
16 0 119
17 0 126
16 0 115
16 0 117
14 0 112
16 0 124
17 0 125
16 0 121
16 0 118
15 0 116
15 0 111
16 0 122
16 0 115
16 0 124
14 0 111
14 0 107
15 0 112
17 0 124
16 0 115
15 0 107
15 0 115
14 0 103
15 0 111
16 2 110
23 16 103
39 42 108
50 62 108
56 72 102
62 82 116
55 73 106
60 79 110
59 79 111
62 81 111
51 68 101
54 71 101
54 71 101
54 72 104
53 71 99
60 78 110
55 71 99
53 71 101
45 61 95
52 69 102
53 71 105
47 63 95
47 63 92
43 59 92
49 66 95
43 58 89
37 51 81
43 57 87
44 56 79
34 45 68
39 53 82
33 46 74
31 43 70
31 40 64
23 34 65
14 25 61
9 20 60
10 21 64
6 16 59
3 13 58
5 14 55
1 10 53
0 11 65
0 10 53
2 12 59
3 13 61
0 10 54
2 12 55
8 14 54
10 9 48
20 6 46
21 3 36
24 0 39
23 0 37
24 0 40
23 0 37
26 1 40
26 1 41
23 0 36
26 1 39
26 1 40
27 1 41
26 1 40
27 3 40
28 3 42
26 4 38
26 3 39
30 4 43
26 2 38
27 2 40
26 3 39
27 2 40
27 1 41
25 0 37
27 1 41
28 1 42
25 1 39
26 1 39
29 1 42
26 1 39
25 0 38
29 1 43
25 0 37
27 1 42
28 1 42
26 1 39
27 1 40
28 1 42
28 1 42
27 1 40
33 16 53
41 31 66
54 63 95
60 77 108
66 86 118
61 80 111
61 79 109
62 81 112
64 83 112
65 84 115
64 83 114
64 82 114
67 88 118
68 88 119
66 86 119
67 87 118
65 85 116
65 83 114
68 89 121
65 85 119
68 88 118
63 83 114
66 85 116
63 83 113
66 86 117
70 90 121
68 87 117
65 86 116
64 85 116
67 87 118
67 87 118
63 83 112
67 87 118
70 91 122
64 83 112
68 88 120
64 83 111
70 91 124
67 87 118
65 85 117
69 89 120
66 86 116
65 85 113
66 86 116
65 84 115
70 92 122
69 89 121
68 87 118
67 88 119
65 85 116
69 90 121
68 88 118
68 88 121
67 87 117
65 84 112
70 90 120
65 82 111
68 88 118
68 87 117
69 89 118
67 87 116
67 87 118
70 91 123
67 87 116
65 86 116
71 90 120
67 86 116
65 83 113
69 89 120
69 89 119
68 87 116
67 88 118
67 88 118
68 89 120
65 84 113
68 88 119
70 89 119
68 89 120
67 87 117
66 85 115
69 88 117
67 87 116
68 88 119
67 86 115
61 80 108
68 88 119
70 90 120
63 81 109
66 85 115
69 90 120
68 88 118
70 90 121
66 85 115
68 88 116
67 87 117
66 85 113
66 86 115
68 88 118
67 87 118
66 85 115
67 86 115
68 88 118
68 88 117
67 87 117
65 84 113
67 88 117
70 91 122
68 88 117
66 87 116
65 85 113
67 88 118
68 89 120
70 90 122
66 86 116
68 88 118
63 83 112
66 86 116
67 87 117
66 84 113
64 83 110
57 77 100
48 72 85
36 63 65
23 53 44
19 51 35
19 50 35
19 49 35
20 51 36
18 47 34
19 50 36
20 54 38
19 51 35
18 50 35
20 52 36
20 54 38
20 55 38
21 55 38
20 55 38
20 54 38
19 50 35
21 54 37
19 51 36
21 58 41
21 57 40
19 53 37
18 50 35
18 48 34
18 49 34
21 58 40
20 54 38
20 55 38
19 52 36
19 51 36
18 49 34
19 53 37
18 51 35
19 54 37
19 51 35
19 53 36
20 53 37
17 46 32
18 49 35
26 54 47
47 74 85
51 73 90
65 85 112
66 86 116
70 90 121
67 87 116
64 83 112
64 84 113
67 87 117
66 86 114
66 86 115
66 86 116
64 83 112
69 89 119
68 88 118
67 88 117
64 84 114
67 88 118
64 84 112
66 87 116
67 88 118
66 86 115
63 84 112
64 83 112
67 87 116
65 86 116
67 87 117
63 83 110
64 84 111
58 77 104
61 80 107
63 83 111
60 83 109
63 92 117
62 93 117
66 108 134
66 111 138
70 118 146
66 81 102
73 81 90
84 76 52
92 79 42
99 84 40
88 74 35
100 84 40
96 80 39
99 83 39
89 76 36
93 79 38
88 76 37
95 82 39
103 88 42
100 84 40
99 84 40
96 81 39
99 84 40
103 88 42
86 72 34
80 69 33
92 80 38
89 74 37
98 83 40
94 80 39
99 83 40
100 87 45
92 79 46
97 85 51
89 81 60
94 89 66
93 91 77
97 102 100
85 90 91
85 87 87
89 96 99
88 94 93
88 91 92
89 100 115
82 92 101
81 93 108
76 84 98
74 80 89
80 96 121
74 90 116
86 109 141
77 99 129
74 94 123
70 89 120
70 90 120
69 88 118
69 87 114
68 86 115
67 88 120
64 84 113
66 85 116
67 87 116
68 88 118
67 86 118
71 91 121
67 87 118
66 84 112
68 88 117
67 86 115
69 90 121
64 83 111
66 83 115
51 60 111
35 35 109
23 14 111
17 3 112
15 0 114
16 0 118
16 0 120
14 0 109
17 0 124
15 0 111
15 0 116
15 0 111
15 0 117
17 0 124
17 0 126
17 0 126
16 0 118
16 0 119
17 0 127
15 0 114
16 0 123
17 0 123
15 0 114
16 0 120
17 0 122
16 0 116
16 0 117
16 0 116
16 0 120
16 0 120
16 0 119
14 0 109
14 0 110
13 0 100
14 0 111
13 0 100
15 0 110
14 0 103
14 0 107
14 0 107
14 0 102
14 0 105
15 4 101
29 25 108
33 34 98
52 66 112
58 76 107
61 79 109
62 80 110
63 83 114
57 75 104
58 76 105
58 76 108
58 76 109
56 75 107
55 72 102
60 78 110
51 68 100
50 67 97
52 69 101
49 65 95
45 60 90
48 65 95
45 61 93
44 57 84
45 61 92
43 58 90
47 62 90
36 50 81
40 54 81
39 53 83
40 54 83
32 45 76
28 38 65
34 44 68
29 40 66
24 34 60
18 26 51
25 36 67
18 26 53
14 21 47
12 20 50
8 18 56
6 16 56
5 13 48
5 11 42
9 16 45
3 13 50
4 10 38
8 16 50
10 15 39
13 12 43
17 6 36
21 1 35
23 0 36
24 0 38
24 0 37
22 0 35
24 0 37
24 0 38
26 1 39
25 4 38
25 7 36
28 5 41
27 11 36
27 13 35
28 15 36
32 11 44
28 13 37
30 11 39
30 16 38
28 11 37
28 12 37
28 8 38
26 5 37
27 4 39
27 3 39
26 1 39
27 1 41
23 0 34
26 1 39
26 1 39
25 0 38
25 0 38
27 1 41
25 0 37
26 1 40
26 1 40
26 1 39
25 0 38
27 1 41
25 2 37
33 15 52
44 36 73
50 57 88
60 78 108
60 79 110
61 79 109
63 82 111
63 83 113
65 84 113
64 85 115
64 84 115
69 89 119
65 85 117
63 82 110
62 81 112
64 82 113
68 87 118
66 86 118
64 84 115
67 87 117
66 86 116
65 84 114
67 87 117
66 86 115
66 85 115
65 84 114
67 87 116
67 88 118
69 88 118
67 88 118
65 84 113
66 86 115
66 87 119
67 87 117
66 86 116
69 88 119
67 88 118
69 89 119
71 91 121
66 87 117
67 88 118
67 87 119
68 89 118
68 88 119
66 86 116
67 87 117
68 90 122
68 87 118
67 87 117
70 89 118
67 87 116
72 93 124
70 91 123
69 89 120
67 87 118
68 88 120
69 88 117
67 87 118
66 85 112
68 88 117
68 88 119
70 91 122
69 90 122
68 88 118
68 88 119
70 89 119
68 88 118
68 88 118
67 86 116
66 85 115
69 89 119
68 87 117
70 89 120
68 87 117
67 87 117
69 90 120
66 86 116
68 88 119
68 88 119
66 86 116
67 87 117
68 89 119
67 87 118
71 92 123
67 86 116
69 90 122
70 90 121
68 89 118
71 91 122
69 90 120
71 91 122
68 89 119
68 88 117
67 88 117
67 87 117
69 90 121
66 86 115
65 85 115
68 88 118
68 90 121
65 84 112
67 86 117
64 83 111
64 84 114
68 88 119
68 89 119
65 83 111
68 88 118
68 87 117
67 86 115
69 88 118
70 91 121
66 85 114
66 85 114
66 85 113
61 81 106
63 83 111
69 89 118
65 84 114
66 88 117
61 81 106
52 76 90
42 68 74
28 56 50
19 50 36
20 51 35
18 48 34
19 52 37
18 49 35
18 48 34
20 52 37
17 47 33
21 55 39
19 53 37
19 50 36
19 50 35
18 50 34
18 50 35
19 53 37
19 51 36
19 52 36
20 53 37
21 56 40
18 50 35
21 55 38
20 55 38
20 54 37
18 48 33
19 51 35
21 59 41
18 50 35
18 50 34
17 48 33
19 53 37
19 53 37
18 48 34
18 50 35
20 54 37
19 53 36
17 47 32
19 50 35
20 50 36
33 60 60
42 67 75
52 72 91
66 86 117
67 87 117
68 88 118
67 88 118
67 86 113
67 86 115
63 82 111
68 89 120
66 85 114
62 82 108
67 87 117
68 88 118
68 89 120
66 87 117
65 85 114
66 87 117
67 87 116
63 83 110
67 87 116
64 84 113
65 87 117
67 87 117
66 86 115
62 83 111
62 81 108
65 85 116
64 86 115
67 89 116
62 82 109
65 97 123
65 99 125
68 110 135
67 109 135
73 125 155
68 122 148
74 136 166
68 83 106
76 82 86
87 84 68
86 78 48
85 72 33
92 78 37
90 77 36
95 81 39
97 82 38
90 77 37
93 79 38
90 77 37
97 83 39
93 79 37
95 81 38
98 83 40
96 82 40
90 78 39
89 76 36
97 82 40
94 81 39
86 74 36
102 85 40
84 71 36
82 70 36
100 86 46
97 87 57
97 91 66
91 85 67
89 89 80
92 98 98
98 104 103
86 93 98
85 97 112
89 103 121
77 87 108
75 87 103
82 96 122
86 102 123
86 103 126
80 97 123
75 92 119
77 92 115
81 99 128
86 106 137
75 93 123
82 102 135
79 99 130
80 102 134
75 94 123
74 94 121
70 90 120
65 82 109
64 82 111
67 86 116
67 87 118
66 85 113
64 83 114
65 83 112
67 86 115
63 80 109
67 84 111
68 86 115
65 85 115
68 89 120
68 86 114
60 76 114
50 58 111
38 38 113
28 21 115
17 2 109
14 0 106
15 0 112
15 0 109
16 0 118
16 0 115
16 0 117
15 0 110
15 0 115
18 0 131
16 0 120
15 0 111
17 0 129
16 0 122
16 0 121
14 0 112
15 0 112
16 0 120
14 0 111
16 0 123
15 0 113
15 0 110
15 0 114
15 0 113
16 0 120
14 0 106
16 0 115
14 0 109
16 0 121
14 0 107
15 0 109
14 0 109
14 0 103
14 0 107
14 0 107
13 0 102
14 0 101
13 0 100
14 0 103
15 2 102
25 21 93
37 40 101
55 69 110
62 81 114
63 82 111
59 78 110
64 83 115
62 81 114
59 78 111
59 78 110
56 75 105
58 76 108
57 75 106
58 76 107
53 72 105
56 74 105
55 73 105
56 71 101
50 66 99
47 65 100
49 66 97
42 56 89
44 60 91
40 54 84
45 60 90
38 52 81
35 47 77
32 45 73
37 50 79
31 43 68
36 48 75
33 45 72
24 32 54
25 33 57
25 34 54
19 26 47
19 27 50
19 26 49
16 22 42
11 17 39
10 15 38
11 16 35
3 7 26
8 13 34
6 11 32
15 20 37
11 15 33
14 18 36
15 17 38
20 10 38
19 1 31
22 0 36
23 0 35
23 0 36
27 4 39
26 3 39
28 9 39
27 10 38
26 11 36
28 12 39
30 15 40
29 19 36
29 20 36
29 21 34
29 24 34
32 26 37
31 25 35
32 20 40
31 20 36
28 21 33
29 20 36
29 17 37
28 15 36
29 9 39
26 7 37
24 3 33
24 2 36
26 1 38
26 1 39
26 1 39
26 1 39
27 1 42
25 0 37
26 1 39
25 0 36
26 1 39
27 1 41
27 1 40
24 0 36
29 14 48
47 46 79
55 64 94
63 80 112
64 84 113
60 78 109
66 85 116
62 81 111
64 83 114
61 80 109
65 85 116
67 87 117
61 79 109
62 80 110
64 81 110
66 87 118
68 88 119
69 90 121
68 89 121
67 87 118
64 83 112
60 79 108
66 86 116
65 84 114
69 89 117
67 86 117
64 85 117
68 88 119
67 87 117
65 84 114
67 87 119
71 91 122
72 92 124
65 83 113
66 86 113
68 88 118
67 86 115
71 93 125
67 87 117
66 86 116
68 88 118
69 90 122
68 87 115
67 86 115
65 84 114
65 85 116
69 90 120
70 91 121
67 87 117
65 84 116
63 80 110
69 90 122
67 87 118
67 86 116
69 90 121
67 87 117
66 85 114
67 86 117
68 88 119
69 89 117
65 85 113
67 87 116
66 85 113
66 86 116
70 90 121
68 88 117
71 90 121
69 89 120
71 91 121
67 87 116
66 85 114
69 90 120
65 83 113
70 90 120
66 86 115
68 89 120
69 88 119
66 85 114
68 88 117
67 87 116
67 87 118
68 89 120
68 87 116
67 87 117
67 87 117
67 88 118
69 90 120
70 92 123
70 92 123
68 89 117
68 88 117
69 90 120
65 83 112
69 89 119
65 86 115
69 89 120
65 85 112
68 88 118
67 87 117
67 88 119
69 89 120
66 85 114
66 86 115
68 88 116
66 85 113
62 80 107
69 90 120
66 84 113
68 89 119
69 89 119
69 89 120
64 82 109
66 86 115
64 82 110
68 89 118
72 93 124
67 88 119
66 86 116
64 84 114
64 84 112
64 83 111
58 80 104
41 66 74
32 59 57
23 56 42
17 45 32
19 50 35
18 47 33
18 48 34
21 55 39
19 51 36
19 52 37
19 52 36
18 48 33
17 46 32
19 52 36
18 48 34
19 52 36
22 57 40
19 52 36
19 50 35
20 54 38
20 53 37
18 50 35
20 53 37
20 52 37
18 50 34
19 53 36
18 50 35
17 49 34
19 54 37
19 52 36
18 49 34
21 58 40
18 50 35
17 49 34
20 54 37
16 45 31
17 46 32
18 49 34
16 44 30
23 51 42
34 61 62
49 76 86
59 78 102
68 88 118
64 84 114
64 84 113
65 85 114
67 86 116
70 90 121
65 86 115
67 88 118
66 86 116
62 81 109
63 82 109
69 90 120
66 86 116
69 89 120
64 83 112
65 85 113
65 84 113
68 89 119
66 86 115
65 84 114
65 85 114
65 85 113
67 87 115
63 82 111
66 87 116
62 84 111
58 78 102
57 78 100
58 86 108
63 97 119
65 110 135
66 116 141
72 127 156
75 145 176
76 146 177
79 153 188
67 82 103
65 78 94
80 82 77
87 81 56
89 76 38
88 74 35
89 77 37
92 78 36
93 79 38
95 81 38
91 77 36
102 86 41
95 80 38
91 78 37
90 75 35
97 82 39
90 78 38
101 85 40
90 77 37
97 81 39
93 79 38
99 84 40
87 75 36
82 71 37
98 87 52
92 83 57
83 81 72
87 84 70
97 101 99
89 94 93
85 97 112
81 91 104
85 98 115
84 103 130
84 102 130
79 96 126
82 101 132
84 104 135
84 105 139
83 105 138
75 96 132
76 96 130
74 92 122
78 99 133
78 98 130
77 97 127
79 101 134
75 95 125
74 94 123
89 109 141
82 102 132
73 92 123
66 85 113
70 89 120
67 87 116
67 86 116
69 88 115
68 87 118
67 86 116
66 87 119
61 78 108
67 87 117
69 89 118
68 88 119
67 86 116
67 86 115
61 78 114
50 61 110
38 39 109
21 12 99
16 4 106
15 0 107
14 0 103
14 0 106
15 0 109
15 0 110
14 0 112
17 0 124
15 0 119
14 0 109
15 0 113
16 0 121
16 0 121
16 0 118
14 0 110
17 0 125
15 0 118
15 0 114
16 0 122
15 0 115
15 0 115
15 0 111
15 0 112
15 0 113
14 0 107
15 0 112
15 0 110
15 0 114
15 0 111
14 0 104
15 0 109
13 0 97
15 0 112
14 0 106
14 0 104
14 0 105
13 0 99
11 0 91
12 0 92
13 3 91
26 22 105
36 39 102
53 67 107
63 82 113
58 77 107
62 81 113
62 81 114
64 83 115
58 76 108
59 76 106
60 78 108
58 76 108
52 71 104
55 73 105
53 70 103
57 75 106
52 68 100
48 63 95
49 66 98
40 54 86
48 63 93
47 63 94
46 61 91
49 65 96
48 63 94
46 60 90
32 45 76
35 48 75
30 42 72
38 51 81
26 36 63
29 40 65
27 37 61
28 37 59
22 31 55
19 26 50
19 26 45
18 24 46
17 24 45
13 18 34
17 23 42
19 25 43
13 18 39
10 15 34
11 15 30
14 19 34
15 20 39
13 17 35
21 20 43
23 16 44
23 7 39
22 0 35
24 2 37
25 2 38
25 7 36
23 12 33
27 17 34
29 20 35
29 21 34
31 28 34
32 31 34
29 27 32
33 34 34
34 39 33
30 29 32
33 34 34
33 35 34
30 28 33
32 34 34
31 29 33
31 25 35
33 29 36
27 18 34
29 17 36
28 14 37
27 13 35
25 4 36
26 5 38
26 3 38
24 0 36
25 1 38
24 0 37
24 0 37
23 0 35
26 1 39
23 0 35
25 0 36
24 0 35
29 10 46
37 30 63
49 52 87
56 68 100
60 77 105
59 76 107
63 80 109
62 82 111
59 78 106
64 82 114
65 83 113
64 83 114
68 87 117
65 86 118
61 79 109
63 83 116
64 84 116
67 88 121
68 90 123
65 84 116
65 85 115
66 86 116
64 82 112
67 88 119
67 87 118
67 86 116
66 86 116
65 86 117
66 85 117
66 87 117
67 87 117
65 84 114
66 85 115
65 84 114
65 85 117
64 82 111
69 88 118
69 90 122
67 86 117
68 89 122
66 86 117
66 84 113
69 88 118
66 86 116
68 88 118
69 90 119
68 89 119
71 91 122
70 90 121
67 88 119
71 91 123
69 89 120
69 89 120
68 88 118
66 86 115
69 89 119
68 88 119
67 87 117
68 89 119
71 92 123
68 88 119
68 88 118
70 90 121
64 84 114
68 88 117
65 85 116
65 84 114
67 86 115
66 86 117
68 88 118
67 86 115
69 89 119
68 89 119
66 86 116
71 91 122
68 89 121
64 83 111
69 89 120
67 88 118
67 87 116
70 90 121
66 85 114
68 89 120
67 89 119
68 89 118
69 90 120
70 90 120
67 88 117
69 89 117
68 88 118
68 88 119
67 86 116
69 89 119
66 86 116
69 89 120
68 88 119
67 87 117
68 88 117
70 91 121
66 85 113
69 90 120
70 90 121
65 85 113
70 92 122
69 90 120
66 86 115
68 88 118
67 88 116
68 89 120
66 86 114
66 85 114
66 86 115
66 86 115
67 85 114
67 87 116
67 87 118
68 88 118
65 84 112
71 91 121
65 85 114
68 89 118
67 88 117
58 79 101
46 68 81
30 56 56
20 46 37
18 48 34
18 50 35
16 43 30
19 51 36
19 50 35
18 48 34
20 53 36
18 50 34
19 52 37
18 48 34
20 52 37
21 56 39
20 54 37
20 52 37
17 46 32
19 53 37
20 54 37
19 52 36
18 51 35
17 46 32
19 51 35
18 50 34
17 47 33
18 49 34
19 53 36
19 52 36
20 54 38
17 48 33
18 49 34
16 45 31
17 47 33
19 50 35
17 48 34
18 50 34
15 42 29
18 47 34
29 57 54
41 65 73
50 75 90
62 82 108
68 88 118
65 85 113
65 86 115
61 81 109
66 86 118
67 87 117
65 83 112
67 88 117
68 88 119
69 90 121
66 86 116
70 90 120
66 87 115
67 86 115
69 90 121
66 87 116
63 82 109
66 87 117
65 85 113
63 84 112
67 87 116
66 86 115
67 88 118
63 84 112
65 87 114
64 86 112
63 89 112
61 93 114
67 107 128
65 108 128
66 118 143
76 142 170
75 149 179
73 147 178
80 165 203
78 163 199
66 84 113
69 82 100
68 78 87
80 78 65
83 73 45
81 69 34
97 82 38
90 76 35
89 75 35
98 82 38
90 77 36
96 80 38
91 77 37
79 67 32
93 81 38
90 77 36
90 77 37
87 73 35
92 78 37
92 77 37
98 83 39
96 81 40
100 87 48
83 75 51
92 87 67
82 79 66
85 88 81
94 99 99
87 97 112
88 102 118
88 102 123
83 99 125
81 100 128
83 103 134
74 94 123
66 85 113
74 93 125
69 88 118
77 98 132
76 94 123
80 101 133
78 99 132
71 91 124
79 101 133
73 93 125
79 100 132
80 102 135
73 93 124
75 95 125
83 102 133
72 89 117
76 96 127
77 96 124
68 85 111
72 93 124
66 83 108
67 85 111
66 85 111
64 83 113
67 87 116
71 91 120
64 83 112
69 88 117
65 85 114
65 83 110
66 84 111
64 83 117
52 62 111
38 40 103
27 21 104
18 5 116
14 0 104
15 0 113
14 0 107
14 0 107
15 0 113
13 0 103
14 0 109
14 0 109
16 0 121
15 0 117
14 0 109
14 0 110
15 0 115
15 0 116
15 0 112
14 0 106
15 0 113
16 0 116
15 0 112
15 0 110
16 0 118
16 0 115
16 0 117
15 0 113
17 0 126
15 0 111
14 0 109
15 0 107
14 0 110
14 0 109
15 0 114
14 0 104
14 0 108
14 0 105
15 0 110
13 0 97
12 0 91
11 0 87
18 8 94
29 27 104
41 46 102
51 63 108
53 71 103
61 79 112
59 77 107
63 84 117
57 74 106
57 76 110
54 72 107
56 74 107
61 80 111
51 68 98
51 68 100
54 72 106
54 71 103
57 75 109
54 71 102
60 79 109
49 65 96
49 66 98
46 61 92
46 60 92
45 60 90
37 51 85
39 52 82
41 54 86
42 56 86
31 42 72
38 51 79
36 49 79
31 42 69
26 32 54
31 41 63
28 37 60
18 26 51
24 31 54
21 30 50
19 26 45
18 24 42
18 25 45
20 26 45
21 28 49
19 25 42
14 20 39
22 29 49
20 27 47
13 20 42
21 27 49
16 16 42
23 10 41
21 7 36
22 5 32
25 9 34
27 15 34
27 22 33
30 24 36
32 34 33
33 32 36
33 35 34
32 39 32
34 43 33
35 46 32
35 42 33
34 43 32
35 45 33
35 42 34
34 44 31
34 42 32
35 46 32
32 40 32
33 38 32
32 32 32
29 27 32
30 25 34
30 26 33
30 16 36
26 13 35
25 7 35
23 1 35
25 1 38
24 0 36
25 0 37
23 0 35
24 0 37
28 1 40
26 1 38
22 1 34
31 11 48
38 34 64
47 50 81
55 67 98
64 83 114
62 80 108
60 78 107
64 84 114
64 83 114
64 84 115
60 77 108
64 82 112
62 82 113
68 89 119
67 87 118
65 85 116
58 76 106
65 85 113
63 82 112
65 85 115
64 84 114
69 90 122
65 85 115
66 86 116
64 84 116
65 84 117
68 87 119
65 84 114
68 87 117
71 91 122
69 90 120
65 85 117
64 83 112
68 89 120
66 85 115
66 85 116
67 87 119
68 89 121
70 91 123
68 89 122
66 86 117
69 90 122
69 90 122
66 84 112
67 87 118
70 90 122
70 90 121
65 84 114
69 88 119
69 89 120
66 85 112
68 88 118
69 90 121
69 90 120
69 89 120
69 89 120
63 82 110
67 86 117
68 87 117
69 90 122
68 87 115
69 89 119
68 87 117
67 87 118
66 85 114
69 90 122
67 88 119
67 87 116
71 92 123
68 89 121
71 91 122
67 87 117
66 86 115
68 88 120
71 92 123
69 89 119
71 92 123
68 87 117
71 92 124
65 85 114
70 91 124
69 89 119
65 85 113
68 88 117
68 90 121
68 88 118
67 87 115
65 84 112
67 87 117
68 88 118
71 92 122
67 88 118
65 84 113
66 87 117
67 86 113
68 89 119
68 88 117
66 86 116
67 88 118
64 83 111
69 90 121
68 87 117
70 89 119
65 85 114
67 87 117
65 84 112
66 86 114
65 84 113
66 86 115
69 88 118
66 86 114
68 88 116
69 90 120
66 86 115
66 86 115
67 88 115
66 85 114
67 85 113
65 85 113
68 88 118
65 85 115
64 84 112
61 80 104
47 69 82
37 60 65
25 51 46
17 43 32
17 46 33
16 42 29
16 44 30
17 44 31
19 51 35
17 46 32
18 48 33
18 48 33
18 48 33
17 46 33
16 44 31
18 49 34
19 51 36
17 46 32
18 48 33
19 53 37
19 50 35
19 54 38
19 52 36
19 52 36
18 47 33
17 46 32
18 50 34
19 51 35
18 50 35
17 46 32
17 48 33
17 47 32
19 52 36
16 46 32
17 47 32
15 41 29
15 40 27
15 41 29
18 47 33
30 55 53
41 64 73
53 74 95
63 82 108
66 85 114
63 82 111
62 82 108
65 84 113
69 90 120
64 83 110
62 82 110
69 90 121
59 77 103
64 84 112
66 87 116
64 85 114
67 88 117
65 85 113
65 86 117
67 87 117
62 82 109
66 85 115
69 90 120
67 88 117
64 85 114
63 84 113
62 80 107
66 88 117
65 88 116
64 91 116
59 90 108
63 102 122
64 109 132
65 118 141
69 131 156
76 151 183
81 164 201
81 167 206
80 169 211
82 172 215
65 83 113
65 82 108
65 76 91
77 78 67
78 69 43
83 71 34
81 68 32
79 67 32
90 76 36
90 76 36
92 78 36
97 82 39
95 79 37
87 74 34
79 68 32
89 76 35
86 73 34
93 78 37
91 76 36
94 80 38
82 69 33
82 69 35
99 89 62
93 87 68
88 89 83
95 98 93
85 92 100
81 90 104
88 104 128
82 98 125
81 101 133
75 95 133
77 98 131
77 99 131
72 92 125
76 98 131
71 91 123
67 86 115
66 85 114
69 88 118
70 89 122
75 96 130
75 95 130
68 85 115
72 92 122
71 92 124
70 91 123
74 95 127
83 103 136
78 98 130
75 96 124
75 94 124
69 88 115
79 98 126
66 86 113
70 88 116
69 87 114
65 83 112
65 83 112
67 85 113
64 82 111
69 90 122
64 83 112
62 79 107
68 87 116
67 86 115
64 81 117
51 62 106
38 39 110
29 24 106
17 4 106
13 0 95
12 0 86
14 0 102
14 0 108
15 0 107
15 0 112
16 0 116
15 0 111
14 0 109
13 0 102
16 0 121
15 0 110
14 0 109
16 0 119
15 0 110
15 0 111
15 0 113
15 0 110
16 0 116
15 0 112
15 0 110
15 0 112
14 0 107
15 0 108
14 0 106
14 0 105
13 0 103
14 0 109
16 0 116
14 0 104
14 0 109
13 0 97
15 0 109
14 0 106
14 0 105
11 0 84
14 0 103
13 0 94
19 11 94
28 26 95
46 57 104
54 69 111
63 81 113
61 79 110
61 81 114
60 79 113
56 74 104
58 77 111
57 75 105
58 74 107
63 83 115
54 71 102
57 75 104
52 68 103
54 70 103
52 70 105
49 65 97
51 69 101
52 69 102
49 66 98
45 62 97
53 70 103
42 57 88
42 58 90
47 62 89
46 61 91
45 60 92
39 51 78
39 52 79
50 65 97
34 46 74
27 38 66
31 43 71
26 37 64
30 40 66
22 30 53
27 35 58
21 28 51
20 27 46
18 24 44
27 34 57
23 30 49
19 25 46
24 32 53
21 29 51
23 30 52
22 31 54
24 29 53
26 28 56
21 17 44
27 19 41
26 15 34
27 20 34
29 26 32
32 30 35
29 33 30
32 35 33
33 41 32
32 42 31
35 48 31
36 52 31
36 49 31
36 52 31
37 53 31
36 51 31
37 52 31
37 53 32
37 52 32
36 52 31
36 49 32
35 47 31
33 45 31
33 44 31
35 40 34
30 32 32
32 26 35
32 23 38
27 19 32
26 11 34
27 7 36
20 1 31
24 0 36
26 1 39
24 0 36
25 0 36
24 0 36
25 5 38
30 16 49
39 37 67
49 55 87
60 76 107
61 80 110
62 80 110
64 85 118
66 86 117
61 80 111
67 87 118
65 84 113
66 85 117
67 86 117
64 84 114
61 78 107
65 85 118
66 84 114
68 87 117
61 80 112
66 86 118
57 74 106
66 85 116
65 85 117
70 91 123
67 86 117
64 84 114
69 89 120
67 87 118
63 82 110
63 81 110
67 87 119
67 88 120
67 88 119
64 83 112
68 89 121
66 86 115
67 87 117
67 87 120
68 88 120
69 89 122
68 88 119
72 92 123
68 88 120
69 89 120
66 86 114
67 87 117
67 87 118
70 90 121
68 88 118
67 89 120
72 92 125
66 85 113
67 86 115
69 88 119
65 83 111
67 88 119
66 86 115
71 92 124
68 89 120
65 85 116
70 90 121
66 87 118
69 88 119
69 88 118
67 87 116
66 85 113
66 87 118
66 87 118
69 88 116
70 90 120
68 89 120
70 90 121
68 89 118
69 89 118
67 87 116
68 88 118
69 89 119
66 86 115
66 86 115
69 90 121
67 88 118
67 87 117
66 86 115
67 86 115
68 88 116
66 85 115
67 88 117
70 91 121
68 89 119
70 90 120
68 87 117
69 91 122
65 85 113
65 83 111
66 86 114
67 88 117
70 90 120
67 89 120
66 87 118
68 88 118
67 87 115
66 85 112
69 89 119
64 84 112
66 86 117
67 87 116
62 81 110
67 87 114
71 93 124
67 87 116
66 85 113
66 86 113
64 83 111
59 79 107
66 86 114
68 88 119
65 84 112
64 82 110
66 87 116
68 89 120
65 84 112
64 84 113
66 86 114
56 78 98
43 66 77
33 59 60
20 45 38
16 43 30
16 44 31
16 44 31
19 49 35
16 44 31
17 47 33
17 44 31
16 44 31
17 46 33
18 47 33
18 48 34
17 48 33
17 46 32
19 51 35
17 46 32
16 44 30
17 47 33
17 47 32
18 49 33
17 46 32
18 50 34
18 48 34
17 47 33
18 49 34
16 45 31
17 47 33
15 42 29
17 45 31
16 46 32
15 42 29
17 49 34
15 44 30
15 42 29
15 42 29
23 51 43
30 53 54
44 69 78
54 75 94
66 87 115
65 85 116
67 87 116
67 88 118
66 85 114
65 85 112
65 85 113
62 80 107
67 88 119
67 87 117
69 90 119
68 89 119
69 90 122
64 83 111
68 88 118
68 89 120
66 87 117
65 85 115
66 86 116
66 86 114
65 85 115
68 90 121
64 85 114
57 80 104
54 75 97
59 83 105
52 79 98
58 97 113
58 107 123
68 131 154
68 130 153
76 154 187
82 169 206
81 167 207
81 172 215
80 171 216
79 170 216
66 83 109
64 83 113
66 77 90
75 80 80
78 76 59
76 67 38
89 75 37
83 71 33
87 74 35
92 78 37
85 72 34
81 69 32
72 63 30
95 80 38
95 81 38
88 74 35
92 78 37
82 69 33
97 82 39
89 75 37
88 76 41
83 78 58
91 85 64
78 80 78
78 85 91
81 92 104
79 94 117
79 96 121
76 96 124
73 93 126
75 97 131
71 91 124
70 90 122
72 93 126
70 90 122
71 91 123
70 91 124
65 82 111
69 89 121
68 88 120
73 93 126
69 89 120
72 92 125
72 92 125
75 97 131
70 89 119
69 88 121
74 94 126
75 95 128
74 96 127
71 91 124
71 89 119
72 91 120
69 87 115
69 87 116
67 82 112
63 80 109
71 89 118
66 85 118
65 83 113
65 84 114
67 85 112
64 81 107
66 85 114
67 84 111
62 79 104
63 81 113
49 58 106
45 49 117
30 25 102
14 2 98
13 0 96
15 0 112
15 0 109
14 0 105
15 0 108
13 0 102
15 0 114
15 0 112
16 0 118
15 0 108
15 0 113
15 0 111
15 0 110
13 0 99
13 0 100
15 0 108
15 0 113
14 0 105
15 0 114
14 0 107
16 0 114
14 0 103
14 0 101
15 0 111
15 0 109
14 0 106
14 0 104
14 0 107
12 0 94
13 0 100
14 0 105
14 0 101
12 0 91
13 0 98
13 0 97
12 0 88
12 0 87
13 1 90
18 11 87
31 33 92
46 55 104
58 74 110
60 77 106
62 80 114
55 73 108
58 76 106
59 78 110
61 80 113
55 73 105
62 81 115
58 76 108
59 78 111
56 74 109
57 75 107
51 67 98
51 68 102
53 70 106
49 65 98
50 67 101
53 70 104
49 65 96
47 62 91
49 66 98
52 69 102
43 58 89
45 61 92
46 62 92
38 50 81
39 52 82
46 59 89
38 51 79
37 51 83
40 53 81
34 45 70
28 37 65
35 46 73
30 39 65
32 43 69
25 35 62
26 35 61
24 33 57
28 37 63
28 38 65
28 37 61
24 32 55
30 40 65
36 47 74
28 37 59
30 39 62
32 32 48
25 26 37
31 34 37
29 25 33
31 35 31
32 40 31
35 49 31
33 45 32
36 49 31
36 52 31
37 54 31
36 53 31
37 54 31
37 54 31
36 53 31
37 53 31
37 54 31
36 53 31
37 54 31
38 55 31
37 54 31
36 53 31
36 51 31
34 48 29
35 47 31
33 44 30
33 39 32
31 34 32
30 26 34
27 15 33
26 13 33
25 5 34
24 2 34
24 0 36
22 0 35
25 0 37
22 0 33
22 4 35
38 31 65
40 42 71
54 66 96
63 81 112
62 80 108
61 80 112
67 86 117
66 85 116
62 80 109
62 78 107
61 80 110
65 85 115
63 82 113
64 82 113
66 85 115
64 83 114
66 85 114
62 80 108
65 84 115
65 83 113
66 85 118
67 87 119
66 85 115
64 82 113
65 85 116
64 83 114
65 85 115
67 85 117
65 84 114
69 89 121
66 85 116
65 84 114
69 88 119
66 86 118
63 82 112
63 82 110
65 85 115
69 89 120
65 86 117
70 90 120
65 85 114
70 90 121
67 86 117
67 87 118
69 89 120
66 85 114
66 87 117
67 86 115
68 88 119
68 88 119
68 88 119
67 87 117
69 90 121
68 89 119
66 86 115
68 88 118
69 89 119
68 88 119
72 93 126
66 85 116
68 88 119
67 87 116
66 85 113
66 87 118
70 90 122
68 88 119
67 86 117
73 93 124
69 90 121
69 90 120
67 87 116
70 91 123
65 84 113
67 87 119
70 90 121
67 88 118
68 89 118
70 91 123
71 91 122
67 87 116
69 89 119
69 89 121
66 87 118
69 90 119
67 88 118
65 85 113
68 90 122
68 87 117
66 87 116
70 91 122
70 91 122
65 85 114
67 87 116
68 88 117
68 87 117
69 89 119
67 88 117
70 90 121
67 87 116
69 89 119
64 84 112
66 86 114
63 83 111
65 86 115
63 83 111
71 91 121
68 90 121
66 86 115
63 83 111
67 87 114
62 82 107
68 89 118
66 85 113
66 86 114
62 81 107
62 83 110
65 86 114
63 84 111
64 83 109
65 85 112
65 84 111
62 82 109
66 87 116
63 83 109
51 72 90
39 62 70
29 54 52
19 45 35
17 45 32
17 44 31
15 40 28
17 46 32
15 41 29
15 41 29
18 47 33
18 49 34
17 45 31
18 49 35
18 49 34
17 48 33
16 44 31
18 48 33
18 49 34
16 45 32
17 46 32
19 52 36
18 49 34
15 43 30
18 49 34
18 50 35
18 49 34
17 46 32
18 49 34
17 47 32
16 45 31
19 53 36
17 46 32
15 43 30
16 46 32
16 44 31
17 43 32
27 51 49
37 60 67
50 72 89
62 83 110
67 87 116
66 87 116
66 87 116
62 82 108
67 88 118
65 85 114
63 84 111
70 90 121
66 86 116
62 82 111
62 82 109
64 83 111
69 89 119
66 87 115
65 84 113
69 89 118
67 87 117
67 88 120
65 85 114
65 86 115
66 87 116
67 88 117
66 84 112
62 83 109
58 84 106
56 85 103
54 92 110
58 105 122
66 126 146
71 140 165
76 153 184
79 162 199
81 169 210
81 171 215
79 168 213
79 170 218
78 169 218
68 86 113
66 86 115
63 77 97
69 80 93
70 70 64
78 73 52
83 71 38
84 70 34
81 69 33
87 74 35
81 68 32
86 74 34
78 67 32
92 78 37
89 76 36
89 75 36
86 74 34
86 73 35
93 79 37
76 66 36
85 77 57
78 75 62
78 80 76
83 94 106
85 99 117
88 106 133
69 86 119
79 100 133
70 87 119
72 91 122
69 88 121
69 88 118
68 88 122
69 89 122
71 92 123
69 87 119
70 90 122
69 88 120
70 90 125
69 86 117
67 86 116
71 90 122
69 90 121
68 87 116
65 84 114
68 88 119
69 88 117
74 95 128
72 92 125
72 94 126
69 89 119
79 101 135
73 93 122
70 89 116
72 90 121
70 86 120
67 84 118
66 83 117
63 81 114
67 85 117
62 80 107
60 77 106
69 89 121
61 78 108
68 87 116
64 84 116
63 80 111
57 71 113
47 53 104
30 25 103
19 9 101
13 0 99
15 0 110
12 0 95
15 0 108
14 0 104
13 0 102
14 0 108
15 0 112
15 0 109
15 0 113
15 0 113
13 0 100
15 0 114
14 0 107
14 0 103
15 0 110
14 0 107
14 0 105
12 0 99
15 0 110
13 0 101
14 0 107
15 0 109
14 0 102
14 0 104
13 0 98
12 0 94
14 0 103
13 0 98
13 0 99
13 0 99
12 0 94
13 0 95
11 0 86
12 0 89
13 0 97
11 0 89
12 2 86
22 18 84
38 42 103
51 64 109
57 75 111
62 80 111
55 72 102
60 79 114
55 72 104
55 73 107
53 68 98
56 74 108
56 73 106
49 65 99
53 71 103
55 73 106
58 76 109
58 75 108
54 72 105
52 69 101
57 74 106
48 64 94
56 72 104
47 63 96
50 66 95
50 66 98
47 62 94
48 64 97
44 59 93
43 56 84
38 53 89
52 68 98
39 52 83
39 53 85
37 50 79
42 55 83
37 49 77
43 57 88
35 47 76
37 49 76
29 40 70
32 43 67
43 56 85
41 53 81
34 45 74
29 39 68
34 45 71
32 42 70
36 48 79
38 50 77
38 51 71
33 45 61
37 47 53
31 39 40
31 36 33
32 41 30
33 43 30
34 44 32
37 53 32
35 51 30
37 54 31
35 52 30
36 52 30
36 52 30
36 53 31
37 54 31
36 53 31
37 53 31
37 54 31
37 54 31
37 54 31
38 55 31
37 54 31
37 54 31
37 54 31
36 53 30
36 52 31
36 48 31
36 47 32
32 38 31
31 32 32
29 32 29
26 20 30
25 15 31
23 9 30
20 3 29
20 1 30
22 0 33
25 4 38
28 14 46
38 32 66
54 63 95
54 68 96
60 78 108
58 74 102
63 81 112
64 83 114
64 83 113
58 77 108
61 79 108
64 84 115
59 76 106
60 77 109
63 82 111
64 84 114
60 78 108
62 81 113
64 82 111
65 85 116
66 87 119
66 84 115
69 89 120
63 80 108
64 83 112
66 84 115
66 84 115
63 82 113
68 88 119
66 83 113
68 88 118
67 87 121
68 87 118
67 86 115
67 86 117
66 86 118
68 90 121
67 87 118
65 85 116
71 90 121
66 85 117
68 88 120
71 92 123
67 86 116
66 86 117
69 89 120
67 88 117
67 86 116
69 90 120
67 87 118
68 86 116
68 90 123
68 87 116
66 85 114
67 86 116
67 88 117
68 88 117
68 88 118
67 88 117
69 89 119
67 87 117
66 86 116
69 90 121
70 90 122
69 89 117
68 89 119
69 90 121
69 90 121
66 87 116
68 88 119
71 92 122
68 88 118
66 85 114
66 86 116
68 88 119
70 90 120
69 89 120
71 91 122
68 89 121
68 88 115
65 84 113
69 89 120
69 89 118
68 89 121
68 89 118
69 90 120
68 88 119
67 86 114
67 88 118
67 87 117
69 89 121
71 91 120
66 86 114
66 86 114
66 85 112
64 84 113
65 85 116
67 86 115
63 83 110
69 90 122
68 88 118
67 88 117
64 85 113
68 88 118
66 86 115
63 83 111
67 89 118
65 85 114
64 83 110
64 84 111
63 82 108
62 81 109
64 84 111
67 87 116
63 83 110
62 82 109
64 84 111
66 87 116
63 82 108
61 80 107
62 81 107
63 83 111
62 82 109
59 78 103
62 81 109
60 81 106
46 68 82
32 53 58
23 48 41
16 43 31
15 39 28
16 44 31
16 44 31
16 42 30
15 41 28
19 50 35
16 43 30
15 42 30
18 47 33
16 42 29
16 44 30
15 41 28
17 48 33
15 42 29
18 48 34
15 42 29
15 42 29
15 42 30
17 47 33
17 46 32
17 46 32
15 42 29
17 49 33
17 47 33
14 38 27
14 39 27
15 44 31
15 41 28
16 44 31
15 44 30
17 45 32
25 50 45
34 57 61
49 71 86
60 80 106
67 88 116
66 86 116
65 84 112
63 83 110
67 87 115
62 83 109
65 85 115
65 85 114
66 87 116
63 83 112
64 85 114
67 88 117
65 85 113
65 86 116
66 87 117
67 86 114
68 88 119
67 88 118
63 82 111
64 84 112
67 87 116
70 91 122
63 84 113
57 77 103
53 79 96
49 79 94
57 92 107
61 103 122
69 131 155
74 147 174
73 145 172
82 168 205
81 169 210
80 169 212
80 171 218
79 170 218
77 168 218
76 167 218
65 83 110
60 76 101
67 86 114
66 80 99
67 75 81
70 72 64
72 65 38
81 69 35
82 69 32
77 65 31
86 73 33
85 71 33
88 73 34
78 66 31
79 68 32
79 67 31
83 70 34
84 72 36
80 70 41
81 74 50
72 68 52
84 86 78
83 90 97
78 90 107
79 96 124
81 102 133
72 91 123
68 88 121
76 97 131
69 87 119
67 85 117
68 88 119
71 90 123
71 92 123
66 84 115
63 81 112
74 95 130
70 90 120
69 91 123
69 89 120
74 94 127
67 85 114
69 88 121
70 91 123
70 89 122
68 86 116
72 93 123
71 91 123
75 97 129
67 86 115
72 93 125
73 93 124
73 93 123
67 87 116
65 82 115
67 85 113
63 80 112
62 78 112
61 77 108
61 78 108
62 77 107
66 85 114
62 80 109
64 83 112
60 78 107
66 85 114
66 86 118
56 69 105
47 54 104
31 31 96
20 13 88
14 1 99
13 0 95
13 0 98
14 0 107
13 0 99
14 0 104
15 0 108
14 0 104
15 0 114
13 0 95
14 0 105
14 0 107
14 0 106
13 0 100
15 0 113
14 0 104
13 0 96
14 0 103
13 0 100
14 0 104
13 0 103
14 0 104
14 0 109
14 0 105
14 0 103
13 0 100
15 0 112
15 0 110
14 0 102
12 0 91
11 0 88
14 0 102
11 0 83
12 0 89
13 0 94
12 0 93
11 0 83
12 4 83
26 24 93
39 46 96
51 65 102
61 79 112
54 70 100
59 77 109
60 78 110
58 75 110
61 79 112
60 77 107
56 73 105
57 75 108
54 71 103
56 74 107
54 72 105
61 80 112
56 72 104
58 76 110
59 77 110
48 65 98
55 73 105
55 73 105
57 74 105
54 71 107
57 74 106
52 67 98
48 63 95
54 70 101
43 58 95
40 54 86
47 62 94
35 48 79
47 61 91
45 59 89
40 53 83
42 57 89
37 50 80
46 61 89
42 55 85
38 50 77
41 55 86
40 54 82
40 54 81
45 57 85
42 56 86
35 47 75
41 54 82
41 55 83
38 51 73
44 59 73
36 49 57
41 54 62
35 47 44
34 44 32
35 48 31
35 50 29
37 54 31
37 53 31
37 53 31
36 53 31
37 54 31
36 52 30
37 54 31
34 49 29
37 54 31
36 53 31
37 53 31
36 53 31
36 52 30
36 53 31
37 54 31
37 53 31
36 53 31
36 53 30
37 54 31
36 52 30
35 52 30
36 52 31
36 52 31
34 44 30
33 37 32
32 32 32
27 21 31
27 15 33
22 8 29
23 3 32
26 1 38
22 6 35
32 20 50
40 41 69
51 61 91
59 76 105
59 76 106
63 82 111
63 82 114
60 77 105
60 78 108
60 77 105
68 88 118
61 78 107
64 82 113
62 80 111
65 84 115
64 83 114
61 78 108
63 82 111
63 81 111
68 88 120
62 81 108
63 81 111
68 89 121
66 86 116
67 86 116
64 83 113
69 91 122
65 84 114
66 86 117
66 86 117
65 85 115
65 85 115
64 83 114
66 85 115
68 88 119
67 86 117
68 89 120
69 89 120
66 87 119
68 88 119
69 89 121
67 87 118
69 90 121
69 89 120
63 81 109
69 90 120
68 88 118
67 86 116
68 87 117
70 90 122
68 88 118
68 88 117
67 87 119
67 86 116
68 88 118
69 88 118
69 89 119
68 89 120
68 88 118
67 88 119
68 88 120
69 89 120
67 87 117
70 91 121
68 88 120
65 84 113
67 88 119
69 90 119
71 91 122
69 90 122
67 88 117
70 91 122
69 90 120
67 87 115
69 89 118
67 89 118
68 88 119
68 87 117
71 92 122
65 84 115
66 86 115
69 91 123
68 90 119
69 90 120
71 91 121
68 89 120
66 87 118
69 90 119
68 88 116
65 85 114
68 89 118
70 91 121
70 91 122
66 86 115
63 81 107
66 86 115
66 87 116
67 87 115
65 85 112
67 87 116
68 89 118
66 86 115
66 87 116
66 86 114
63 82 109
68 89 118
67 87 117
65 85 113
66 86 114
67 88 116
64 84 110
63 83 110
63 82 109
66 86 114
64 84 112
67 87 117
65 85 113
57 75 99
59 78 103
64 84 112
59 78 104
61 80 106
61 81 106
55 72 94
52 69 90
56 74 98
49 69 85
47 68 84
27 50 48
21 43 37
15 39 28
15 41 29
14 39 27
16 42 30
14 39 27
18 47 33
17 47 33
16 42 29
15 40 28
18 49 34
15 42 30
16 43 30
17 46 33
17 46 32
18 50 35
18 50 35
16 43 30
17 45 31
15 41 29
16 43 30
16 45 31
18 49 34
15 42 29
14 40 28
14 39 27
15 41 29
16 44 31
14 41 28
14 37 26
14 38 27
20 43 37
25 47 45
39 61 69
54 73 94
60 82 107
63 83 111
65 84 111
66 86 115
62 81 108
65 85 115
64 84 114
65 86 115
64 83 111
67 87 117
64 84 112
67 87 117
66 87 117
69 89 119
64 85 114
66 86 115
64 84 111
65 84 110
66 86 117
69 91 122
65 86 116
68 88 118
65 84 113
63 84 110
55 78 99
57 88 107
52 88 103
56 100 113
65 126 145
69 138 160
77 156 185
82 168 204
82 169 208
82 172 215
81 173 218
79 171 218
78 169 218
76 168 218
74 166 218
66 84 112
63 80 106
66 83 109
65 82 105
64 77 93
70 76 78
75 75 65
69 63 39
81 69 34
79 67 30
83 70 32
82 67 31
77 66 30
87 73 34
76 64 31
79 69 34
78 67 31
82 71 38
84 73 45
76 74 61
83 87 85
81 93 107
67 76 92
78 98 125
77 97 129
72 91 122
72 91 122
62 79 113
71 92 123
69 89 122
69 89 123
68 88 121
66 86 120
67 86 117
72 93 126
64 80 110
67 87 119
64 82 110
64 81 114
69 89 120
67 87 120
70 90 121
68 88 119
67 84 112
70 91 121
73 94 127
67 86 116
68 88 119
71 91 121
69 89 121
63 81 112
68 89 121
68 87 118
75 95 124
69 86 118
68 87 122
69 86 117
66 81 115
63 78 119
62 78 113
62 79 110
64 80 108
60 76 101
65 83 110
63 79 106
64 81 110
63 80 111
63 80 112
52 62 107
41 47 100
25 19 100
12 2 87
14 0 101
14 0 102
13 0 97
14 0 107
13 0 97
14 0 106
13 0 101
13 0 101
15 0 108
13 0 98
14 0 106
14 0 105
13 0 99
14 0 105
13 0 103
15 0 108
15 0 108
14 0 105
14 0 103
13 0 96
13 0 96
14 0 107
13 0 98
14 0 103
13 0 93
13 0 98
12 0 90
12 0 88
12 0 89
13 0 96
13 0 97
12 0 93
12 0 92
11 0 86
12 0 89
12 0 90
19 11 92
27 26 93
48 58 102
49 61 102
61 80 112
60 79 112
63 83 114
59 78 107
61 79 111
60 78 110
59 78 110
62 80 114
58 76 110
60 78 114
58 77 108
59 78 112
52 69 101
56 74 107
56 73 105
49 64 96
56 73 105
50 67 100
56 73 105
53 70 103
54 71 104
49 65 96
52 70 103
57 73 105
53 69 102
43 57 88
49 65 96
54 71 104
51 67 98
46 62 94
44 59 90
49 66 97
48 61 90
54 70 102
45 60 91
44 60 94
48 64 95
45 60 89
47 61 89
47 63 94
39 52 81
43 58 90
45 60 91
43 58 85
45 59 79
38 51 63
36 50 59
38 52 58
36 50 41
36 49 38
36 51 33
35 52 30
34 50 29
33 48 28
36 52 30
36 53 31
36 54 31
36 53 30
36 53 31
35 52 31
36 52 30
36 53 31
36 52 30
36 53 31
38 54 31
36 53 30
37 53 31
37 53 31
37 53 31
35 51 30
35 52 30
35 52 30
37 53 30
36 53 31
35 51 29
36 52 30
35 49 30
34 46 30
29 35 28
30 30 31
26 22 29
22 9 30
22 7 29
22 4 33
30 18 51
38 35 64
56 67 98
58 74 106
61 79 108
61 78 108
63 83 112
63 81 110
61 79 110
62 78 108
57 73 103
64 81 109
61 79 107
63 81 111
65 85 116
65 83 112
63 83 116
62 79 109
63 82 111
63 82 112
66 85 116
65 84 117
63 82 113
66 86 116
63 82 113
68 88 119
66 87 119
69 88 118
66 86 119
67 87 116
66 86 116
66 85 116
63 81 111
69 89 121
67 86 117
67 87 117
69 89 121
68 88 120
67 86 116
67 87 117
69 89 119
70 91 121
69 90 119
68 89 120
71 92 123
69 89 120
68 88 119
70 91 122
66 84 112
70 90 121
67 87 119
67 87 117
70 91 123
65 85 115
69 89 119
68 89 120
69 89 120
69 90 121
65 84 113
65 85 112
70 90 122
66 85 113
71 91 122
66 85 115
69 89 119
71 92 123
68 88 117
69 90 122
69 90 121
68 89 120
66 86 116
69 89 121
71 90 120
68 88 118
67 88 118
66 87 117
64 83 113
68 88 118
70 89 118
67 88 116
66 85 115
67 87 118
71 92 124
67 86 114
68 87 118
71 91 122
65 85 113
67 87 116
66 87 117
67 87 116
65 86 115
69 90 122
69 90 121
63 83 111
67 88 119
67 87 116
66 87 116
66 86 116
63 83 111
70 89 118
69 90 120
66 86 115
69 90 120
67 88 115
65 85 113
65 84 113
61 81 107
63 84 113
64 84 113
69 90 121
61 82 108
63 83 111
65 84 111
61 80 107
61 80 106
64 83 111
62 82 108
61 81 108
59 79 102
61 80 106
59 77 103
57 76 100
60 79 104
62 80 108
60 80 105
61 80 106
62 82 107
51 72 90
49 69 85
35 54 62
27 47 49
17 39 31
13 36 25
15 41 28
13 37 26
14 38 26
15 40 28
16 43 30
14 38 26
15 40 28
16 43 30
15 42 29
14 39 27
17 45 32
17 46 32
15 41 29
15 43 30
16 45 31
14 38 26
16 44 30
19 52 36
15 41 29
15 42 29
15 42 29
15 42 29
17 46 32
16 45 31
15 40 27
15 40 28
13 35 24
18 41 33
27 47 47
42 65 74
49 69 86
62 82 108
62 82 109
64 84 111
60 79 105
67 87 117
63 82 110
63 82 110
65 85 114
64 85 113
63 84 113
65 86 115
65 86 115
66 85 115
62 83 109
69 91 122
68 90 122
64 83 112
65 85 114
63 83 111
63 82 109
66 86 115
65 87 115
66 87 117
63 84 110
55 78 99
51 79 95
51 86 100
56 104 118
63 123 140
70 142 162
76 152 177
86 174 211
85 174 212
84 174 215
82 173 218
80 172 218
78 169 218
77 168 218
76 167 218
74 165 218
67 86 114
63 81 109
63 80 105
63 79 102
60 75 97
66 74 82
66 72 76
74 71 55
69 62 39
76 64 30
74 62 29
82 67 31
74 61 28
85 72 33
68 56 27
80 67 31
68 60 31
82 74 46
75 71 57
72 74 74
74 83 90
78 91 112
81 100 129
73 92 124
68 87 118
65 82 112
66 86 117
65 83 112
68 86 117
70 90 124
65 82 116
70 89 119
70 89 120
68 87 118
71 91 122
67 84 115
67 86 116
67 87 120
68 86 115
66 83 113
69 90 122
67 86 119
72 93 124
68 88 119
71 92 127
73 93 124
70 90 122
71 92 124
69 89 121
70 90 122
68 87 119
69 88 119
66 83 114
67 87 118
65 83 113
67 83 116
58 70 115
63 79 113
63 79 113
63 79 116
61 77 106
65 84 114
62 81 110
63 79 106
61 77 104
65 82 111
63 80 109
62 78 111
56 69 105
38 43 96
26 22 97
15 3 97
14 0 98
13 0 100
13 0 96
13 0 97
14 0 104
14 0 105
13 0 100
13 0 100
14 0 104
14 0 106
14 0 105
15 0 113
13 0 98
13 0 100
13 0 98
14 0 105
13 0 103
13 0 97
12 0 91
12 0 94
13 0 96
12 0 92
13 0 103
14 0 102
13 0 101
12 0 89
15 0 108
13 0 95
11 0 82
12 0 89
14 0 99
11 0 85
13 0 96
12 0 92
11 0 82
12 4 74
21 17 86
42 46 108
53 67 112
59 77 108
59 77 106
63 83 115
57 73 107
57 76 110
61 80 112
63 83 116
60 77 112
59 76 109
57 74 107
56 74 104
61 78 110
61 79 112
58 77 110
59 78 110
57 74 105
64 84 117
54 72 108
58 75 106
56 73 107
50 65 96
56 72 106
53 69 100
50 66 97
52 69 101
54 71 105
52 68 101
53 71 104
51 67 100
55 70 102
49 63 90
51 67 101
48 63 93
53 69 102
50 65 94
48 63 95
48 62 93
44 60 92
51 66 96
52 68 100
48 63 93
54 69 100
49 63 92
40 53 81
42 55 79
44 58 79
43 58 66
34 47 41
40 55 53
38 55 40
34 49 31
36 52 30
35 51 30
35 51 30
35 52 30
36 53 31
36 52 30
36 52 30
37 54 31
35 52 30
35 51 29
36 52 30
36 53 31
37 54 31
35 51 30
36 52 30
36 53 30
36 53 30
36 52 30
36 53 31
36 52 30
36 53 31
37 54 31
36 52 30
36 52 30
36 52 30
36 52 30
36 52 30
33 48 29
33 41 30
28 33 27
30 29 32
25 21 27
25 17 32
29 16 43
35 33 57
41 44 71
46 54 82
57 70 97
58 74 105
60 78 107
59 76 104
59 75 104
55 71 98
56 72 99
61 79 111
64 82 113
59 76 104
65 83 114
62 78 107
61 79 112
62 80 109
62 79 111
65 83 112
63 81 111
61 78 106
63 82 112
64 82 112
67 87 118
64 83 114
62 80 111
61 79 108
68 88 119
67 88 118
67 85 114
66 85 115
66 86 118
62 80 111
69 89 120
68 87 118
68 87 117
64 84 113
67 87 120
68 88 119
68 89 121
66 85 117
67 88 119
66 86 117
67 87 119
69 89 120
69 89 121
69 90 122
66 84 113
70 90 121
67 87 117
65 84 115
67 86 115
71 92 123
66 86 114
68 88 119
67 87 118
70 91 123
67 88 118
72 93 124
65 86 116
70 89 119
69 89 120
69 90 120
69 90 121
68 87 116
68 88 118
65 84 114
66 84 112
67 86 115
66 86 116
65 85 115
67 87 116
68 89 119
69 89 120
66 86 115
66 86 117
66 86 115
67 87 117
66 87 118
68 89 119
67 87 117
65 85 112
65 86 114
68 87 116
67 87 118
65 86 115
66 86 115
65 86 115
71 92 122
68 87 116
66 87 118
69 90 121
67 87 116
64 84 113
61 80 105
64 85 112
62 82 108
65 85 112
66 87 116
67 88 117
68 88 118
67 88 117
63 82 109
66 86 116
64 84 111
64 83 111
63 83 111
63 82 109
65 86 113
63 83 110
59 78 102
62 81 108
62 81 108
57 77 101
63 82 110
63 82 109
60 80 106
60 79 104
63 82 107
60 79 103
61 81 108
64 84 110
63 83 109
52 69 92
61 81 108
58 76 97
56 74 97
51 68 87
54 72 93
42 59 74
34 55 60
27 49 48
16 38 31
14 38 27
12 34 24
14 39 27
13 36 25
14 38 27
14 39 27
14 39 27
13 37 25
14 38 26
17 44 31
15 41 29
13 37 25
16 43 30
13 39 27
15 42 29
13 35 24
15 41 28
15 40 28
16 43 30
16 43 30
13 38 26
14 39 27
14 40 28
14 38 26
13 37 25
14 40 27
16 39 31
25 48 45
35 54 60
45 67 80
56 76 100
60 78 103
63 83 111
66 87 116
63 83 111
64 84 110
59 79 105
61 81 106
62 82 108
65 84 112
61 81 106
64 84 112
65 86 115
61 82 108
65 85 114
65 85 116
64 84 114
68 88 118
63 83 111
65 84 112
68 90 121
67 87 116
66 87 117
64 85 113
57 77 100
46 69 83
46 78 90
51 95 108
65 126 144
64 130 146
74 149 170
81 163 190
87 177 214
85 175 215
83 175 218
82 174 218
80 172 218
78 170 218
77 168 218
76 167 218
74 166 218
65 83 110
62 79 104
65 81 106
66 83 109
61 78 102
63 78 98
62 69 76
68 70 69
78 75 57
66 62 46
77 64 32
70 59 27
78 64 30
73 62 29
73 62 29
76 65 32
76 66 36
75 70 57
77 78 70
78 85 89
75 89 108
72 88 117
68 87 116
71 89 121
72 93 125
68 87 118
72 92 124
61 78 110
64 83 115
70 89 118
68 85 115
67 85 116
64 82 113
67 87 121
68 87 118
72 91 120
63 82 113
69 89 121
69 88 118
72 91 121
72 94 127
73 93 121
69 88 118
64 82 110
66 84 113
68 88 121
66 86 119
72 92 123
66 85 114
65 84 115
71 92 126
66 85 114
71 92 123
67 85 115
70 87 115
68 86 120
61 78 113
64 79 116
62 78 115
61 78 114
58 73 112
56 71 101
63 78 104
62 80 110
60 78 105
66 85 113
63 81 113
63 80 109
60 74 106
41 45 97
33 33 96
21 14 94
12 1 90
12 0 88
13 0 101
12 0 95
12 0 92
13 0 101
13 0 97
14 0 102
13 0 96
13 0 97
15 0 109
13 0 94
12 0 96
13 0 97
12 0 91
12 0 94
13 0 99
12 0 89
12 0 94
11 0 89
13 0 98
14 0 107
12 0 90
13 0 97
14 0 104
12 0 93
10 0 85
10 0 80
11 0 84
12 0 92
13 0 96
12 0 93
11 0 87
11 0 86
11 1 80
16 9 79
27 27 85
39 46 97
51 65 102
54 71 104
60 79 109
58 73 104
56 72 102
58 76 109
56 73 105
58 75 109
62 80 110
61 80 114
60 79 114
64 85 118
58 76 109
52 69 103
53 70 101
54 72 105
57 74 103
62 81 113
56 72 106
59 78 111
56 72 104
55 71 104
54 71 103
52 68 101
56 73 105
53 69 101
52 67 97
56 74 107
55 71 101
55 72 104
53 69 102
45 60 91
47 62 95
58 75 110
50 67 99
44 58 92
49 66 99
54 71 99
49 64 94
50 64 93
50 66 96
47 62 91
50 64 93
48 63 94
50 65 92
47 62 80
48 63 76
41 57 57
35 51 42
35 50 34
37 53 36
33 48 28
37 53 30
37 53 30
35 51 29
35 51 29
38 54 31
36 52 30
34 50 29
34 50 29
37 53 30
36 53 30
35 51 30
37 53 31
35 52 30
35 51 30
37 54 31
36 52 30
37 53 31
37 53 30
36 53 31
35 51 29
36 52 30
33 49 28
35 51 29
36 52 29
35 51 29
35 51 29
35 51 29
36 52 30
32 46 27
32 41 29
30 39 28
27 27 29
28 24 35
35 35 51
41 42 67
46 54 81
53 66 94
59 77 108
55 71 99
60 78 107
54 72 102
60 77 108
60 76 107
56 71 101
61 78 108
63 81 113
59 77 109
64 83 114
64 82 112
64 83 113
63 82 115
65 83 113
66 85 115
62 81 113
60 77 106
65 86 118
65 85 116
62 80 111
68 86 117
63 81 109
66 84 114
63 80 108
68 87 119
64 83 113
67 87 118
68 88 119
71 91 122
69 89 119
68 89 120
63 82 111
67 87 119
69 90 119
66 86 117
69 88 119
68 89 118
68 88 119
63 82 111
66 84 113
69 89 118
68 88 118
68 89 119
69 89 117
70 91 122
70 90 121
67 86 115
69 88 118
69 88 116
69 89 119
70 89 119
69 89 118
68 89 119
72 93 124
69 88 117
69 89 119
70 91 121
69 90 121
68 88 117
65 84 112
68 88 120
70 89 120
68 89 119
69 88 119
67 88 119
66 86 117
65 85 113
69 90 121
70 90 119
71 92 124
65 85 115
69 90 120
69 90 121
65 84 112
67 86 115
68 89 118
67 86 115
68 89 119
68 89 119
67 88 118
66 87 115
68 88 117
63 81 109
69 90 120
67 88 119
67 87 114
68 89 118
69 90 121
64 83 110
68 89 118
67 87 116
70 92 123
67 87 116
68 88 117
67 88 116
67 87 117
61 81 106
62 82 109
68 89 118
64 83 111
67 88 117
68 89 119
61 82 109
63 82 110
63 83 110
65 85 114
65 85 113
61 79 104
63 82 109
67 88 117
64 83 110
60 80 106
63 82 110
59 77 101
61 80 107
60 79 106
60 80 105
60 78 103
58 77 102
58 77 101
58 77 101
59 77 101
56 74 98
48 65 85
57 75 99
46 63 80
38 57 66
38 58 66
24 43 43
16 37 29
14 37 26
12 34 24
12 34 24
11 31 22
14 38 26
12 34 24
15 44 31
13 35 24
15 42 29
16 44 29
13 35 25
14 40 27
15 42 29
14 39 28
13 38 26
14 38 27
13 37 26
13 36 25
12 36 25
13 38 26
14 38 26
13 36 25
12 34 23
13 36 25
19 41 34
22 43 40
37 58 65
48 68 84
54 74 95
56 76 100
60 79 105
56 75 101
63 82 109
58 77 100
59 78 103
58 76 100
63 82 109
63 84 111
61 81 108
62 81 108
62 81 107
64 83 112
66 86 114
66 86 114
62 82 109
65 87 117
59 79 103
63 83 112
63 84 111
67 86 115
66 87 117
64 84 112
62 82 106
53 77 99
46 74 88
51 88 101
50 100 111
62 129 140
79 159 181
83 166 194
89 179 215
87 177 216
86 177 218
84 175 218
82 173 218
81 172 218
78 169 218
77 169 218
76 167 218
75 166 218
63 79 102
65 83 109
68 86 113
66 83 108
65 82 106
65 81 104
62 74 90
61 68 77
64 67 67
59 58 48
69 62 39
67 57 29
66 55 25
64 53 25
63 53 25
66 56 30
68 60 39
66 65 58
73 80 86
70 84 101
69 79 98
64 82 112
70 90 127
63 81 110
68 86 121
62 81 112
62 80 108
68 85 116
69 90 123
66 84 114
69 89 121
70 89 121
65 83 115
70 89 122
71 91 125
64 80 109
76 96 126
69 89 124
69 87 121
70 89 118
66 84 113
69 89 120
69 88 119
67 88 121
64 83 113
66 87 118
68 89 120
63 81 112
64 83 112
69 89 121
65 82 110
68 87 113
66 84 116
71 90 120
68 86 115
69 87 118
70 90 120
64 80 117
62 79 118
62 77 113
58 73 108
61 78 108
58 72 98
60 75 103
61 78 106
64 82 111
65 84 114
60 76 105
61 76 105
51 62 99
40 44 99
28 26 91
21 14 93
12 0 89
14 0 103
12 0 92
13 0 99
12 0 92
12 0 89
13 0 99
13 0 98
13 0 99
12 0 89
13 0 95
14 0 104
11 0 86
13 0 98
12 0 94
13 0 99
12 0 89
12 0 93
13 0 95
12 0 89
13 0 102
13 0 96
13 0 94
12 0 92
12 0 88
11 0 88
12 0 93
10 0 79
10 0 81
11 0 82
11 0 87
11 0 84
11 1 84
17 9 90
25 25 84
36 41 93
49 61 104
60 77 110
62 81 113
58 77 110
57 76 110
59 77 110
59 76 107
53 69 100
59 75 106
54 72 106
60 77 110
57 74 108
60 78 108
60 77 109
50 66 100
58 75 106
57 73 104
56 74 108
60 78 110
56 74 106
57 75 108
60 78 109
56 74 106
62 80 114
56 74 108
56 72 105
50 66 99
53 69 103
55 73 107
51 68 101
53 70 103
57 75 108
53 69 100
56 73 106
54 69 100
57 73 103
55 74 107
54 72 106
50 63 94
54 70 101
55 72 102
52 67 96
51 66 96
53 70 101
48 65 93
46 61 82
44 57 75
38 51 51
42 58 53
37 52 40
36 51 30
33 48 28
36 52 30
36 52 29
36 52 30
35 51 29
35 52 30
35 51 30
35 50 29
36 52 30
34 51 30
35 51 29
34 50 29
34 50 29
34 49 29
35 51 29
36 52 30
35 51 30
36 51 29
36 52 30
35 51 30
34 50 29
35 51 30
35 52 30
36 52 30
35 52 30
36 52 30
36 53 30
33 49 28
34 49 28
35 50 29
34 49 28
34 48 29
31 41 28
33 42 33
31 36 37
39 45 56
47 59 78
45 55 77
50 61 87
58 73 101
62 80 111
57 71 98
57 72 98
56 71 99
57 73 102
58 75 105
57 73 100
64 82 113
58 74 103
59 75 105
60 76 106
63 82 114
67 87 117
64 82 113
61 79 107
63 81 112
60 78 108
64 81 109
66 85 116
63 81 110
64 82 112
63 79 109
65 84 115
67 86 116
67 87 118
64 83 114
67 88 119
68 87 118
63 81 108
68 88 119
67 87 119
67 87 117
68 87 116
65 84 114
65 84 113
65 86 118
66 86 116
61 79 109
65 84 113
70 91 121
67 88 116
67 86 115
70 91 122
69 91 119
71 91 122
78 98 129
70 91 121
66 85 115
69 88 117
68 87 114
70 90 121
70 89 119
69 88 118
68 87 116
67 84 110
68 87 116
67 86 115
65 85 113
68 88 118
69 89 119
69 89 119
71 92 123
69 91 122
67 87 117
68 89 119
67 87 115
66 84 113
68 87 117
72 93 124
70 89 120
71 93 125
66 87 117
67 88 119
69 89 119
67 88 117
68 89 120
68 87 117
65 85 113
68 88 117
69 90 120
65 87 115
67 86 117
68 89 120
67 88 118
66 86 116
65 84 112
69 90 121
66 87 117
67 88 118
69 90 122
64 85 115
64 84 112
69 90 120
65 86 116
66 87 116
64 85 113
68 88 118
67 88 116
65 85 113
64 85 113
65 85 113
62 82 108
63 83 110
64 82 106
60 80 106
61 80 106
57 75 98
65 85 114
65 85 113
66 87 117
58 77 103
63 83 110
58 77 101
56 75 98
56 74 95
54 72 94
61 79 105
48 66 84
60 79 106
56 73 97
52 68 90
49 65 85
61 79 103
51 69 90
56 75 97
46 62 78
51 68 86
34 50 59
33 52 59
25 43 44
17 37 31
15 37 28
13 36 25
12 34 24
14 38 26
13 37 25
15 41 29
14 38 26
14 39 27
12 34 24
13 36 25
14 40 27
13 38 26
13 37 25
15 40 28
11 34 24
15 41 28
13 38 26
13 35 24
13 38 26
14 37 25
13 37 25
15 40 29
16 36 29
22 42 40
33 53 60
41 61 73
43 60 74
57 75 98
55 74 98
61 80 107
59 77 102
60 80 105
62 81 108
62 82 108
59 80 107
63 83 110
61 81 107
65 85 112
59 79 105
64 85 113
67 87 115
65 86 114
60 79 104
61 81 107
63 84 111
68 88 119
63 84 113
62 82 109
62 82 108
67 87 117
63 81 108
54 77 98
49 75 89
47 78 93
58 107 121
61 124 134
63 130 142
81 162 187
90 180 212
89 179 213
88 179 218
86 177 218
84 175 218
81 173 218
81 172 218
79 171 218
78 169 218
76 167 218
75 167 218
63 79 101
62 76 97
65 81 103
65 80 103
63 77 97
61 74 93
64 79 99
60 73 90
58 66 74
64 64 59
64 66 62
59 54 37
53 49 33
64 54 27
70 59 29
69 59 34
71 67 50
72 76 78
72 80 90
74 87 101
66 82 112
75 96 127
70 90 123
70 88 120
68 88 120
68 89 121
66 85 112
66 85 116
67 89 120
67 87 118
67 85 117
65 84 115
68 87 120
65 84 115
65 82 115
70 89 119
74 94 128
74 93 124
70 89 121
66 84 114
66 84 114
67 86 114
66 85 116
69 92 126
66 85 117
70 91 126
72 94 128
70 90 121
66 83 113
69 88 118
69 90 122
68 87 117
70 90 118
72 92 124
71 91 121
66 85 117
66 82 109
62 77 114
60 74 113
60 75 109
61 78 113
59 73 106
58 73 105
58 73 104
62 79 102
63 80 108
57 72 101
64 82 110
60 77 103
55 67 100
45 53 99
39 42 104
21 15 91
12 1 86
13 0 92
12 0 89
10 0 79
14 0 100
12 0 91
13 0 97
12 0 91
14 0 100
12 0 91
14 0 102
12 0 95
11 0 88
13 0 94
12 0 93
12 0 95
12 0 92
11 0 90
13 0 96
13 0 96
14 0 101
13 0 94
11 0 87
12 0 96
11 0 87
12 0 90
11 0 87
10 0 79
10 0 78
11 0 88
10 0 77
11 0 82
13 5 73
20 17 78
29 29 92
43 51 92
53 66 105
59 75 108
60 78 110
63 82 115
57 74 108
59 76 107
56 73 107
57 73 105
57 74 107
59 76 109
53 70 103
56 74 107
63 82 115
53 70 105
57 75 110
56 73 105
60 78 110
52 68 101
52 68 104
57 74 107
60 78 110
55 72 105
56 74 108
58 75 108
57 74 106
58 75 108
55 71 102
55 71 102
60 79 114
53 70 103
56 72 104
55 72 104
50 66 96
53 68 102
58 75 107
61 80 112
51 66 97
52 67 97
53 68 98
51 67 94
53 70 101
56 73 105
52 67 97
49 65 96
47 62 86
48 63 75
41 56 60
39 54 55
39 55 41
35 50 31
34 48 28
35 50 29
36 51 29
35 51 29
35 51 29
35 50 29
36 53 31
35 51 29
36 51 29
36 52 30
34 50 29
35 51 29
36 51 30
35 51 29
37 53 30
37 52 30
37 53 31
35 51 29
37 53 30
35 50 29
34 50 29
34 50 29
34 50 29
35 50 29
35 50 29
36 51 30
34 49 28
37 53 31
34 50 29
36 51 29
36 51 29
35 51 29
36 52 30
34 49 29
31 41 29
34 44 39
39 49 54
45 55 70
57 72 92
57 72 97
58 74 102
52 65 92
57 72 100
60 77 105
62 80 108
58 74 103
57 74 105
59 76 106
61 78 106
62 80 113
60 77 106
60 76 106
56 71 98
59 77 105
65 84 115
65 83 112
64 83 114
59 75 103
69 89 120
66 84 114
67 87 119
67 87 118
61 80 111
62 80 112
68 87 117
63 83 114
64 83 114
62 79 107
66 85 114
65 84 115
67 86 117
70 91 124
64 82 111
65 84 114
69 89 121
66 85 115
62 80 112
70 90 120
64 83 111
71 92 123
74 94 125
70 92 122
72 94 119
76 96 126
79 101 134
77 98 127
77 98 129
74 94 123
76 96 127
72 91 121
75 95 126
69 89 118
71 91 121
69 88 115
72 91 120
67 85 112
69 88 116
72 92 122
67 88 118
74 95 127
67 86 116
64 83 112
65 84 112
69 89 118
64 84 113
70 90 120
67 87 117
68 90 121
66 86 114
65 84 114
66 85 114
68 88 118
65 84 113
66 86 117
68 90 121
65 86 115
69 89 121
67 88 117
69 89 118
71 92 123
65 84 111
65 84 114
68 87 117
66 87 116
67 86 116
69 90 121
66 85 115
68 88 116
68 90 120
63 83 110
66 86 115
65 85 114
63 83 111
68 90 119
66 85 114
67 87 116
65 85 114
69 90 120
62 81 108
63 83 110
66 86 115
66 86 115
66 87 116
62 82 110
62 83 110
58 77 100
63 83 110
62 81 107
64 83 110
59 79 105
60 79 105
59 79 105
60 78 104
59 78 102
56 76 100
50 68 87
60 79 104
57 76 97
52 70 89
57 75 98
51 68 88
51 68 89
50 69 89
54 72 93
51 68 87
54 72 93
51 68 87
51 68 88
46 62 78
36 52 61
27 41 45
27 43 46
23 43 41
13 33 24
13 33 24
12 33 23
12 34 23
14 38 26
13 35 24
13 36 25
13 36 24
12 33 22
12 34 24
12 34 23
11 31 21
12 35 24
12 35 24
12 35 24
11 31 21
13 35 24
11 31 22
13 36 26
17 37 31
21 43 38
23 43 43
29 47 53
36 53 62
49 68 87
54 73 94
53 71 93
58 76 100
56 75 100
56 76 101
57 76 99
60 80 106
58 77 102
61 81 109
64 84 112
61 80 106
59 78 103
61 81 106
62 81 106
65 85 113
63 83 110
66 85 112
63 82 111
67 88 116
66 87 115
63 83 110
62 83 109
63 84 111
65 86 114
54 75 97
55 76 97
49 77 88
55 95 109
55 115 123
62 128 142
77 157 175
87 174 201
92 183 216
91 182 218
89 180 218
86 178 218
85 176 218
83 175 218
81 173 218
80 171 218
79 170 218
78 169 218
76 168 218
62 78 102
63 78 100
63 78 100
59 73 93
65 82 106
59 72 91
59 73 90
59 73 93
59 71 86
64 72 81
52 54 51
61 61 58
58 56 44
55 52 37
62 56 39
67 62 45
63 61 55
72 81 90
64 74 90
71 86 110
69 87 117
67 85 118
69 88 122
71 92 124
64 82 114
62 80 112
68 89 119
59 77 106
63 84 114
61 77 109
58 74 104
64 81 112
63 81 111
73 93 123
68 86 115
65 83 112
71 90 121
69 86 114
68 86 117
68 86 114
63 80 109
72 92 122
66 85 116
59 79 110
67 86 117
66 85 114
70 91 121
63 82 110
64 81 107
66 84 113
69 88 117
69 89 118
67 88 119
68 88 118
67 88 118
66 86 116
69 88 118
73 91 125
59 74 114
60 75 106
58 73 114
57 69 110
59 74 111
61 78 110
61 78 109
58 73 102
65 82 109
56 72 101
62 79 107
62 80 112
57 71 111
40 45 95
25 24 83
20 15 86
14 4 80
12 0 88
11 0 82
12 0 90
12 0 92
11 0 86
12 0 92
11 0 86
13 0 93
12 0 94
14 0 103
12 0 89
11 0 85
11 0 84
13 0 93
12 0 94
13 0 97
12 0 94
13 0 97
11 0 84
12 0 93
10 0 80
11 0 83
13 0 95
10 0 80
10 0 79
11 0 85
11 0 85
10 0 78
10 0 76
10 2 70
15 10 74
30 32 86
41 49 92
42 52 93
51 68 100
58 76 108
60 78 109
59 76 109
60 77 109
58 75 108
63 81 114
59 76 108
59 76 106
59 76 108
59 77 108
53 70 104
56 72 102
57 74 104
56 74 107
57 73 105
57 73 104
56 72 103
57 73 105
51 66 100
55 71 101
63 81 109
60 77 107
60 79 109
57 74 107
57 76 110
56 73 105
59 75 107
56 73 104
57 73 107
52 68 100
53 68 101
61 79 112
54 69 100
58 75 105
53 68 99
57 75 107
57 74 106
48 63 91
52 67 99
51 66 98
54 68 96
53 69 99
52 69 96
47 62 80
46 61 69
39 54 52
37 52 45
38 53 39
35 50 30
33 48 28
35 50 29
34 49 29
34 50 28
35 51 29
35 50 29
33 48 28
34 50 29
34 50 29
33 48 28
34 50 29
34 49 28
36 52 30
35 51 29
34 50 29
36 52 30
34 50 29
36 52 30
33 48 28
34 50 29
36 51 29
34 49 28
35 51 29
36 52 30
34 49 28
35 50 29
37 52 30
32 47 27
34 49 28
35 51 29
33 47 27
35 51 29
35 50 29
32 45 26
32 46 30
37 51 40
40 53 53
45 58 67
50 65 82
50 63 85
57 73 102
51 64 92
52 67 95
59 76 104
63 80 110
57 72 101
60 77 106
57 73 101
59 76 105
60 76 106
56 71 98
60 76 105
59 74 102
63 80 109
63 80 109
64 81 110
62 79 108
58 75 104
67 87 117
62 78 107
63 82 112
69 89 121
66 86 116
64 82 113
67 86 117
66 85 114
65 87 119
63 82 110
68 86 117
66 86 118
69 89 120
65 84 114
68 87 117
69 89 121
64 84 114
65 85 115
63 81 109
74 96 125
72 93 125
71 91 120
76 98 129
71 92 120
71 89 115
75 96 126
72 92 121
77 97 126
74 95 124
72 92 120
72 91 120
76 95 124
74 95 126
71 92 122
65 83 109
74 94 126
66 85 112
76 98 129
73 94 124
70 90 120
72 92 121
73 92 121
69 88 117
68 88 117
70 91 123
67 86 116
67 87 115
67 89 119
67 88 117
69 90 121
68 88 118
68 87 118
70 92 123
65 84 113
67 87 118
68 89 120
68 88 119
68 89 118
66 86 114
67 87 118
64 84 113
69 89 119
70 91 121
69 90 120
69 90 120
65 85 114
66 87 116
69 90 120
66 85 115
68 89 119
63 84 112
69 90 120
66 86 115
66 87 114
67 89 120
64 83 111
64 84 112
64 84 111
70 90 121
66 86 114
68 89 119
66 87 114
57 76 101
63 83 110
65 84 114
61 80 105
60 80 105
60 79 105
63 83 111
61 81 108
56 75 99
62 82 109
57 76 99
58 76 101
56 74 98
55 72 94
56 74 97
56 76 99
51 69 89
60 78 103
56 74 96
52 69 90
53 71 91
48 65 84
46 62 79
48 65 82
53 70 92
46 60 78
46 62 79
40 54 67
43 58 71
42 57 71
37 54 64
25 41 46
27 44 47
19 35 32
19 36 33
14 33 26
14 34 27
10 27 19
9 28 19
12 33 23
12 34 23
12 34 23
10 28 19
12 32 22
12 35 24
11 30 20
10 29 20
11 32 22
10 30 21
13 35 25
12 31 22
23 43 42
23 42 42
25 46 45
34 52 58
43 60 73
46 64 81
49 66 86
45 62 79
52 69 90
52 69 89
62 81 107
57 76 99
52 70 91
59 77 102
56 75 99
59 78 103
62 81 108
58 76 101
65 86 114
64 85 112
61 80 106
60 80 106
60 80 108
59 78 102
62 81 108
61 80 107
62 81 107
61 79 105
66 87 116
63 83 111
66 87 117
58 80 104
45 72 84
48 83 95
45 90 95
53 109 116
68 140 155
84 169 191
90 179 207
92 183 218
91 182 218
88 179 218
87 178 218
86 177 218
83 175 218
82 174 218
81 172 218
80 171 218
78 170 218
78 169 218
62 78 100
66 83 107
61 76 97
58 69 86
60 74 94
59 71 90
55 67 83
52 61 73
60 73 93
64 78 97
57 67 77
52 57 63
56 59 59
51 53 54
67 64 52
56 61 69
68 72 73
70 78 91
63 74 90
70 88 118
74 95 127
63 80 112
63 83 116
64 83 113
61 77 108
63 81 112
64 82 114
62 80 112
62 78 104
63 84 118
67 86 118
64 82 113
65 85 115
66 84 118
71 90 121
70 90 125
75 95 128
73 92 124
66 85 116
70 88 119
71 91 124
64 82 114
71 89 123
68 88 120
66 84 113
60 76 101
68 87 120
72 94 125
67 87 117
69 88 117
66 86 117
68 88 118
70 90 120
73 91 119
70 90 122
72 93 126
70 89 120
67 86 117
66 83 117
58 74 111
61 76 119
61 75 118
62 78 111
65 85 116
58 75 107
58 75 104
58 73 100
57 72 99
68 86 114
59 75 101
52 63 97
46 55 95
39 42 97
25 23 83
15 7 82
12 0 89
11 0 86
11 0 86
11 0 82
12 0 93
11 0 83
13 0 98
12 0 95
12 0 87
12 0 89
11 0 82
11 0 85
12 0 91
12 0 92
12 0 88
11 0 86
11 0 82
11 0 84
11 0 83
10 0 78
11 0 82
12 0 94
12 0 87
11 0 86
10 0 78
11 0 82
10 0 80
9 0 73
10 2 73
15 8 79
22 21 78
36 40 90
47 58 96
47 58 90
58 75 107
58 74 106
55 71 104
58 75 108
56 72 107
56 73 106
57 74 107
60 78 110
53 69 105
54 70 104
57 73 104
55 72 104
57 73 106
58 74 104
56 73 104
54 71 101
58 76 109
64 83 119
55 70 101
52 68 102
63 82 112
64 82 112
58 77 109
57 74 106
58 75 105
57 73 106
56 72 103
57 75 108
58 75 106
54 71 105
60 77 108
57 74 105
51 66 93
56 75 109
52 67 98
55 71 101
57 74 105
57 73 103
56 72 102
49 63 93
49 63 90
56 71 101
56 71 101
47 61 86
41 55 68
46 61 68
42 57 57
34 48 34
34 48 29
33 47 27
34 50 29
31 45 26
34 48 28
35 50 29
35 50 29
36 51 29
34 49 29
34 49 28
32 47 27
34 50 29
33 48 28
34 50 29
34 49 28
35 51 29
35 51 29
34 49 28
37 53 30
36 52 29
34 50 29
35 51 29
33 49 28
36 52 30
34 49 28
36 50 29
34 49 28
35 50 29
35 50 29
34 50 29
35 51 29
34 49 28
34 49 28
34 49 28
34 49 28
34 49 28
35 50 29
36 50 36
40 54 49
41 54 55
39 50 57
51 65 84
52 65 90
53 66 93
54 67 94
60 75 104
56 71 98
58 73 101
53 66 93
63 80 111
55 70 97
56 72 101
62 78 108
59 74 102
58 73 100
66 85 116
60 76 105
64 83 113
62 79 109
61 78 106
61 79 109
56 72 101
61 78 107
64 82 112
58 75 103
65 84 115
64 82 112
65 83 113
63 82 111
66 86 117
65 85 115
65 83 113
64 83 114
66 86 116
64 81 109
66 85 115
67 87 118
66 86 116
71 91 121
71 89 119
77 98 130
72 91 120
74 93 123
73 91 120
80 101 132
76 97 126
72 91 118
74 96 126
74 93 121
72 91 121
79 101 131
77 98 128
76 96 127
74 93 120
74 95 126
76 96 125
73 92 120
72 92 122
74 94 124
73 92 122
72 92 123
75 95 124
62 79 108
75 96 125
71 90 120
70 90 121
75 96 128
72 91 122
70 90 121
67 87 117
66 85 115
65 86 115
67 88 118
66 87 116
71 93 125
69 89 119
67 88 118
68 89 120
68 89 119
70 91 121
69 89 119
69 90 120
68 88 117
70 90 122
68 89 119
68 88 117
68 88 118
68 89 121
67 87 117
67 86 115
67 88 117
68 88 116
65 86 114
66 87 114
68 88 118
67 88 118
64 86 115
62 81 106
69 90 120
65 86 116
63 83 109
67 87 116
61 81 108
63 83 109
62 82 108
65 86 115
63 83 109
60 80 105
61 80 107
56 75 100
60 79 104
61 81 108
58 76 99
59 79 104
60 79 103
57 76 100
61 80 106
61 79 106
56 75 97
52 70 92
52 71 94
58 77 99
51 68 88
48 64 82
51 68 88
51 68 86
37 51 64
43 59 73
43 56 72
42 57 71
38 51 64
36 49 61
41 55 68
38 54 64
27 41 45
22 35 39
19 35 31
22 39 39
17 34 30
13 29 23
14 33 25
13 29 23
11 31 21
13 30 23
11 30 22
12 31 22
12 30 22
11 28 20
8 25 17
12 29 22
16 34 28
18 34 32
23 39 39
22 39 38
24 40 42
35 50 59
40 55 67
48 64 81
47 63 82
51 67 86
49 66 85
51 69 90
52 70 90
53 70 92
50 69 89
54 71 93
57 75 99
61 80 105
60 80 106
61 81 109
63 83 110
55 73 96
61 81 107
56 75 99
63 82 109
60 80 106
61 80 106
60 78 104
63 82 111
60 79 106
60 79 105
60 79 105
62 82 109
65 86 112
54 76 98
46 71 87
35 64 69
40 81 87
54 114 123
58 122 134
79 159 179
89 173 205
91 180 214
92 183 218
90 181 218
88 179 218
87 178 218
85 176 218
84 175 218
82 174 218
81 173 218
80 171 218
79 170 218
